;FLAVOR:UltiGCode
;TIME:5337
;MATERIAL:7769
;MATERIAL2:0
;NOZZLE_DIAMETER:0.400000
;NOZZLE_DIAMETER2:0.400000
;MTYPE:PLA

;Layer count: 102
;LAYER:0
M107
G0 F12000 X79.743 Y44.599 Z0.300
;TYPE:SKIRT
G1 F1200 X143.257 Y44.598 E7.62168
G1 X190.973 Y178.556 E24.68598
G1 X32.027 Y178.557 E43.75950
G1 X79.743 Y44.599 E60.82381
G10
G1 Z0.400
G0 F12000 X82.705 Y48.799
;TYPE:WALL-INNER
G1 Z0.300
G11
G1 F1200 X140.295 Y48.798 E67.73461
G1 X185.018 Y174.356 E83.72884
G1 X37.982 Y174.357 E101.37316
G1 X82.705 Y48.799 E117.36739
G0 F12000 X83.660 Y50.593
G1 F1200 X93.069 Y70.003 E119.95582
G1 X108.701 Y51.757 E122.83901
G1 X108.166 Y50.593 E122.99274
G1 X83.660 Y50.593 E125.93346
G0 F12000 X83.592 Y52.457
G1 F1200 X82.263 Y52.530 E126.09318
G1 X65.453 Y99.724 E132.10499
G1 X66.892 Y100.558 E132.30457
G1 X92.448 Y70.728 E137.01820
G1 X83.592 Y52.457 E139.45470
G0 F12000 X93.545 Y70.984
G1 F1200 X110.873 Y106.732 E144.22186
G1 X112.127 Y106.732 E144.37234
G1 X129.455 Y70.984 E149.13949
G1 X111.500 Y50.057 E152.44836
G1 X93.545 Y70.984 E155.75724
G0 F12000 X92.924 Y71.709
G1 F1200 X64.493 Y104.894 E161.00107
G1 X68.518 Y106.327 E161.51376
G1 X65.989 Y113.427 E162.41820
G1 X82.346 Y135.054 E165.67212
G1 X110.939 Y108.872 E170.32443
G1 X92.924 Y71.709 E175.28035
G0 F12000 X111.500 Y50.779
G0 X114.299 Y51.757
G1 F1200 X129.931 Y70.003 E178.16353
G1 X139.340 Y50.593 E180.75197
G1 X114.834 Y50.593 E183.69269
G1 X114.299 Y51.757 E183.84642
G0 F12000 X130.551 Y70.728
G1 F1200 X156.108 Y100.558 E188.56012
G1 X157.547 Y99.724 E188.75971
G1 X140.737 Y52.530 E194.77152
G1 X139.408 Y52.457 E194.93124
G1 X130.551 Y70.728 E197.36779
G0 F12000 X130.076 Y71.709
G1 F1200 X112.061 Y108.872 E202.32370
G1 X140.654 Y135.055 E206.97609
G1 X157.011 Y113.427 E210.23011
G1 X154.482 Y106.328 E211.13443
G1 X156.684 Y105.544 E211.41492
G1 X158.505 Y104.892 E211.64703
G1 X130.076 Y71.709 E216.89052
G0 F12000 X111.500 Y109.696
G1 F1200 X82.944 Y135.844 E221.53680
G1 X107.884 Y168.818 E226.49803
G1 X115.117 Y168.818 E227.36599
G1 X140.056 Y135.844 E232.32714
G1 X111.500 Y109.696 E236.97342
G0 F12000 X82.204 Y136.523
G1 F1200 X46.301 Y169.400 E242.81524
G1 X46.301 Y171.650 E243.08524
G1 X107.500 Y171.650 E250.42912
G1 X107.500 Y169.969 E250.63084
G1 X82.204 Y136.523 E255.66301
G0 F12000 X81.606 Y135.733
G1 F1200 X62.662 Y110.686 E259.43152
G1 X61.482 Y110.867 E259.57478
G1 X40.841 Y168.817 E266.95673
G1 X45.478 Y168.815 E267.51317
G1 X81.606 Y135.733 E273.39152
G0 F12000 X66.466 Y113.353
G0 X65.762 Y110.413
G1 F1200 X66.311 Y110.057 E273.47004
G1 X66.750 Y109.572 E273.54854
G1 X67.048 Y108.988 E273.62722
G1 X67.185 Y108.350 E273.70552
G1 X67.153 Y107.694 E273.78434
G1 X66.951 Y107.071 E273.86293
G1 X66.597 Y106.522 E273.94132
G1 X66.110 Y106.082 E274.02008
G1 X65.527 Y105.784 E274.09865
G1 X64.887 Y105.647 E274.17719
G1 X64.233 Y105.680 E274.25577
G1 X63.610 Y105.881 E274.33432
G1 X63.059 Y106.237 E274.41304
G1 X62.621 Y106.722 E274.49146
G1 X62.322 Y107.305 E274.57009
G1 X62.185 Y107.946 E274.64874
G1 X62.218 Y108.600 E274.72732
G1 X62.419 Y109.223 E274.80588
G1 X62.775 Y109.772 E274.88440
G1 X63.260 Y110.212 E274.96298
G1 X63.844 Y110.510 E275.04165
G1 X64.484 Y110.647 E275.12019
G1 X65.138 Y110.614 E275.19877
G1 X65.762 Y110.413 E275.27744
G0 F12000 X66.466 Y113.353
G0 X82.409 Y134.366
G0 X108.093 Y168.397
G0 X115.500 Y169.969
G1 F1200 X115.500 Y171.650 E275.47916
G1 X176.699 Y171.650 E282.82304
G1 X176.699 Y169.400 E283.09304
G1 X140.796 Y136.523 E288.93486
G1 X115.500 Y169.969 E293.96703
G0 F12000 X141.394 Y135.733
G1 F1200 X177.522 Y168.815 E299.84538
G1 X180.382 Y168.815 E300.18858
G1 X182.160 Y168.820 E300.40194
G1 X161.518 Y110.867 E307.78428
G1 X160.338 Y110.686 E307.92753
G1 X141.394 Y135.733 E311.69604
G0 F12000 X156.534 Y113.353
G0 X157.238 Y110.413
G1 F1200 X157.862 Y110.614 E311.77471
G1 X158.516 Y110.647 E311.85329
G1 X159.156 Y110.510 E311.93183
G1 X159.740 Y110.212 E312.01051
G1 X160.225 Y109.772 E312.08909
G1 X160.581 Y109.223 E312.16761
G1 X160.782 Y108.600 E312.24616
G1 X160.815 Y107.946 E312.32474
G1 X160.678 Y107.305 E312.40340
G1 X160.379 Y106.722 E312.48202
G1 X159.941 Y106.237 E312.56045
G1 X159.390 Y105.881 E312.63917
G1 X158.767 Y105.680 E312.71772
G1 X158.113 Y105.647 E312.79630
G1 X157.473 Y105.784 E312.87484
G1 X156.890 Y106.082 E312.95341
G1 X156.403 Y106.522 E313.03217
G1 X156.049 Y107.071 E313.11056
G1 X155.847 Y107.694 E313.18915
G1 X155.815 Y108.350 E313.26796
G1 X155.952 Y108.988 E313.34627
G1 X156.250 Y109.572 E313.42494
G1 X156.689 Y110.057 E313.50344
G1 X157.238 Y110.413 E313.58196
G0 F12000 X157.411 Y110.049
G1 F1200 X157.935 Y110.217 E313.64800
G1 X158.483 Y110.245 E313.71384
G1 X159.021 Y110.130 E313.77986
G1 X159.511 Y109.880 E313.84587
G1 X159.918 Y109.511 E313.91180
G1 X160.217 Y109.050 E313.97773
G1 X160.385 Y108.527 E314.04365
G1 X160.413 Y107.979 E314.10950
G1 X160.298 Y107.441 E314.17552
G1 X160.047 Y106.951 E314.24158
G1 X159.679 Y106.544 E314.30743
G1 X159.217 Y106.245 E314.37346
G1 X158.694 Y106.077 E314.43938
G1 X158.146 Y106.049 E314.50523
G1 X157.608 Y106.164 E314.57125
G1 X157.119 Y106.414 E314.63715
G1 X156.711 Y106.783 E314.70316
G1 X156.413 Y107.244 E314.76903
G1 X156.244 Y107.767 E314.83499
G1 X156.217 Y108.317 E314.90107
G1 X156.332 Y108.853 E314.96685
G1 X156.582 Y109.343 E315.03286
G1 X156.951 Y109.750 E315.09879
G1 X157.411 Y110.049 E315.16463
G0 F12000 X160.513 Y111.118
G1 F1200 X141.933 Y135.684 E318.86075
G1 X177.678 Y168.415 E324.67676
G1 X180.383 Y168.415 E325.00136
G1 X181.592 Y168.418 E325.14644
G1 X161.221 Y111.226 E332.43183
G1 X160.513 Y111.118 E332.51778
G0 F12000 X156.562 Y113.358
G1 F1200 X153.970 Y106.085 E333.44431
G1 X157.825 Y104.713 E333.93533
G1 X130.170 Y72.433 E339.03610
G1 X112.551 Y108.779 E343.88307
G1 X140.600 Y134.463 E348.44688
G1 X156.562 Y113.358 E351.62225
G0 F12000 X156.219 Y108.317
G0 X156.337 Y105.231
G0 X157.676 Y104.673
G0 X156.195 Y100.045
G1 F1200 X157.059 Y99.545 E351.74204
G1 X140.449 Y52.915 E357.68203
G1 X139.652 Y52.871 E357.77782
G1 X131.026 Y70.667 E360.15099
G1 X156.195 Y100.045 E364.79321
G0 F12000 X130.191 Y72.597
G0 X112.600 Y108.769
G0 X139.517 Y135.893
G1 F1200 X111.500 Y110.238 E369.35184
G1 X83.483 Y135.893 E373.91047
G1 X108.083 Y168.418 E378.80411
G1 X114.918 Y168.418 E379.62431
G1 X139.517 Y135.893 E384.51788
G0 F12000 X140.850 Y137.114
G1 F1200 X115.900 Y170.104 E389.48136
G1 X115.900 Y171.250 E389.61888
G1 X176.299 Y171.250 E396.86676
G1 X176.299 Y169.576 E397.06764
G1 X140.850 Y137.114 E402.83565
G0 F12000 X110.449 Y108.779
G1 F1200 X92.830 Y72.433 E407.68261
G1 X65.176 Y104.712 E412.78321
G1 X69.030 Y106.085 E413.27416
G1 X66.438 Y113.358 E414.20069
G1 X82.400 Y134.463 E417.37606
G1 X110.449 Y108.779 E421.93987
G0 F12000 X111.124 Y106.332
G1 F1200 X111.876 Y106.332 E422.03011
G1 X128.980 Y71.046 E426.73566
G1 X111.500 Y50.672 E429.95705
G1 X94.020 Y71.046 E433.17844
G1 X111.124 Y106.332 E437.88398
G0 F12000 X91.974 Y70.667
G1 F1200 X83.348 Y52.871 E440.25715
G1 X82.551 Y52.915 E440.35293
G1 X65.941 Y99.545 E446.29293
G1 X66.805 Y100.045 E446.41272
G1 X91.974 Y70.667 E451.05495
G0 F12000 X93.163 Y69.279
G1 F1200 X108.231 Y51.691 E453.83414
G1 X107.909 Y50.993 E453.92638
G1 X84.298 Y50.993 E456.75970
G1 X93.163 Y69.279 E459.19829
G0 F12000 X111.500 Y50.779
G0 X114.769 Y51.691
G1 F1200 X129.837 Y69.279 E461.97748
G1 X138.702 Y50.993 E464.41607
G1 X115.091 Y50.993 E467.24939
G1 X114.769 Y51.691 E467.34163
G0 F12000 X115.111 Y51.025
G0 X140.577 Y48.398
G1 F1200 X185.586 Y174.756 E483.43781
G1 X37.414 Y174.757 E501.21845
G1 X82.423 Y48.399 E517.31463
G1 X140.577 Y48.398 E524.29311
G0 F12000 X129.816 Y69.115
G0 X111.500 Y50.779
G0 X94.059 Y71.052
G0 X65.324 Y104.673
G0 X66.289 Y106.783
G1 F1200 X65.881 Y106.414 E524.35913
G1 X65.392 Y106.164 E524.42503
G1 X64.854 Y106.049 E524.49105
G1 X64.306 Y106.077 E524.55690
G1 X63.783 Y106.245 E524.62281
G1 X63.321 Y106.544 E524.68885
G1 X62.953 Y106.951 E524.75470
G1 X62.702 Y107.441 E524.82076
G1 X62.587 Y107.979 E524.88678
G1 X62.615 Y108.527 E524.95263
G1 X62.783 Y109.050 E525.01854
G1 X63.082 Y109.511 E525.08448
G1 X63.489 Y109.880 E525.15041
G1 X63.979 Y110.130 E525.21642
G1 X64.517 Y110.245 E525.28244
G1 X65.065 Y110.217 E525.34828
G1 X65.589 Y110.049 E525.41431
G1 X66.049 Y109.750 E525.48015
G1 X66.418 Y109.343 E525.54607
G1 X66.668 Y108.853 E525.61209
G1 X66.783 Y108.317 E525.67787
G1 X66.756 Y107.767 E525.74395
G1 X66.587 Y107.244 E525.80990
G1 X66.289 Y106.783 E525.87578
G0 F12000 X66.781 Y108.317
G0 X66.047 Y109.748
G0 X64.517 Y110.243
G0 X62.487 Y111.118
G1 F1200 X61.779 Y111.226 E525.96172
G1 X41.408 Y168.416 E533.24689
G1 X45.322 Y168.415 E533.71657
G1 X81.067 Y135.684 E539.53258
G1 X62.487 Y111.118 E543.22870
G0 F12000 X82.150 Y137.114
G1 F1200 X46.701 Y169.576 E548.99671
G1 X46.701 Y171.250 E549.19759
G1 X107.100 Y171.250 E556.44547
G1 X107.100 Y170.104 E556.58299
G1 X82.150 Y137.114 E561.54647
G0 F12000 X82.096 Y137.706
;TYPE:WALL-OUTER
G1 F1200 X47.101 Y169.752 E567.24059
G1 X47.101 Y170.850 E567.37235
G1 X106.700 Y170.850 E574.52423
G1 X106.700 Y170.238 E574.59767
G1 X82.096 Y137.706 E579.49227
G0 F12000 X82.335 Y137.526
G0 X80.730 Y135.855
G0 X80.528 Y135.635
G1 F1200 X62.312 Y111.549 E583.11611
G1 X62.076 Y111.585 E583.14476
G1 X41.975 Y168.016 E590.33325
G1 X45.167 Y168.015 E590.71629
G1 X80.528 Y135.635 E596.46987
G0 F12000 X80.730 Y135.855
G0 X82.655 Y134.093
G0 X82.454 Y133.871
G1 F1200 X109.959 Y108.685 E600.94518
G1 X92.737 Y73.157 E605.68303
G1 X65.858 Y104.531 E610.64066
G1 X69.541 Y105.842 E611.10978
G1 X66.887 Y113.289 E612.05848
G1 X82.454 Y133.871 E615.15520
G0 F12000 X82.655 Y134.093
G0 X83.820 Y135.721
G0 X84.022 Y135.942
G1 F1200 X108.282 Y168.018 E619.98125
G1 X114.719 Y168.018 E620.75369
G1 X138.978 Y135.942 E625.57967
G1 X111.500 Y110.781 E630.05057
G1 X84.022 Y135.942 E634.52146
G0 F12000 X83.820 Y135.721
G0 X82.409 Y134.366
G0 X66.466 Y113.353
G0 X66.008 Y109.645
G0 X65.788 Y109.443
G1 F1200 X66.086 Y109.114 E634.57473
G1 X66.288 Y108.718 E634.62807
G1 X66.381 Y108.284 E634.68133
G1 X66.359 Y107.840 E634.73468
G1 X66.222 Y107.417 E634.78804
G1 X65.982 Y107.044 E634.84126
G1 X65.652 Y106.746 E634.89462
G1 X65.257 Y106.544 E634.94786
G1 X64.822 Y106.451 E635.00124
G1 X64.379 Y106.474 E635.05447
G1 X63.956 Y106.610 E635.10779
G1 X63.582 Y106.851 E635.16118
G1 X63.285 Y107.180 E635.21436
G1 X63.082 Y107.576 E635.26776
G1 X62.989 Y108.011 E635.32114
G1 X63.012 Y108.454 E635.37438
G1 X63.148 Y108.877 E635.42769
G1 X63.389 Y109.250 E635.48098
G1 X63.718 Y109.548 E635.53425
G1 X64.114 Y109.750 E635.58760
G1 X64.549 Y109.843 E635.64098
G1 X64.992 Y109.820 E635.69421
G1 X65.416 Y109.684 E635.74764
G1 X65.788 Y109.443 E635.80083
G0 F12000 X66.008 Y109.645
G0 X66.666 Y108.852
G0 X66.584 Y107.246
G0 X65.324 Y104.673
G0 X66.944 Y99.728
G0 X66.718 Y99.532
G1 F1200 X91.500 Y70.606 E640.37165
G1 X83.104 Y53.285 E642.68149
G1 X82.838 Y53.300 E642.71346
G1 X66.430 Y99.366 E648.58157
G1 X66.718 Y99.532 E648.62146
G0 F12000 X66.944 Y99.728
G0 X93.482 Y68.751
G0 X93.256 Y68.555
G1 F1200 X107.760 Y51.626 E651.29656
G1 X107.653 Y51.393 E651.32733
G1 X84.937 Y51.393 E654.05325
G1 X93.256 Y68.555 E656.34188
G0 F12000 X93.482 Y68.751
G0 X111.500 Y50.779
G0 X114.968 Y51.502
G0 X115.240 Y51.626
G1 F1200 X129.744 Y68.555 E659.01699
G1 X138.063 Y51.393 E661.30562
G1 X115.347 Y51.393 E664.03154
G1 X115.240 Y51.626 E664.06231
G0 F12000 X114.968 Y51.502
G0 X115.111 Y51.025
G0 X138.551 Y51.087
G0 X139.911 Y52.986
G0 X139.896 Y53.285
G1 F1200 X131.500 Y70.606 E666.37215
G1 X156.282 Y99.532 E670.94297
G1 X156.570 Y99.366 E670.98286
G1 X140.162 Y53.300 E676.85097
G1 X139.896 Y53.285 E676.88294
G0 F12000 X139.911 Y52.986
G0 X139.673 Y52.906
G0 X128.733 Y70.913
G0 X128.506 Y71.107
G1 F1200 X111.500 Y51.286 E680.01693
G1 X94.494 Y71.107 E683.15092
G1 X111.375 Y105.932 E687.79501
G1 X111.625 Y105.932 E687.82501
G1 X128.506 Y71.107 E692.46910
G0 F12000 X128.733 Y70.913
G0 X130.489 Y72.961
G0 X130.263 Y73.157
G1 F1200 X113.041 Y108.685 E697.20695
G1 X140.546 Y133.871 E701.68226
G1 X156.113 Y113.289 E704.77898
G1 X153.459 Y105.842 E705.72768
G1 X157.142 Y104.531 E706.19680
G1 X130.263 Y73.157 E711.15443
G0 F12000 X130.489 Y72.961
G0 X157.676 Y104.673
G0 X160.296 Y107.442
G0 X160.214 Y109.048
G0 X160.733 Y111.254
G0 X160.688 Y111.549
G1 F1200 X142.472 Y135.635 E714.77826
G1 X177.833 Y168.015 E720.53184
G1 X181.025 Y168.016 E720.91488
G1 X160.924 Y111.585 E728.10338
G1 X160.688 Y111.549 E728.13203
G0 F12000 X160.733 Y111.254
G0 X159.417 Y109.815
G0 X159.282 Y109.548
G1 F1200 X159.611 Y109.250 E728.18529
G1 X159.852 Y108.877 E728.23858
G1 X159.988 Y108.454 E728.29190
G1 X160.011 Y108.011 E728.34514
G1 X159.918 Y107.576 E728.39852
G1 X159.715 Y107.180 E728.45192
G1 X159.418 Y106.851 E728.50510
G1 X159.044 Y106.610 E728.55849
G1 X158.621 Y106.474 E728.61181
G1 X158.178 Y106.451 E728.66504
G1 X157.743 Y106.544 E728.71842
G1 X157.348 Y106.746 E728.77166
G1 X157.018 Y107.044 E728.82502
G1 X156.778 Y107.417 E728.87824
G1 X156.641 Y107.840 E728.93160
G1 X156.619 Y108.284 E728.98494
G1 X156.712 Y108.718 E729.03821
G1 X156.914 Y109.114 E729.09155
G1 X157.212 Y109.443 E729.14482
G1 X157.584 Y109.684 E729.19801
G1 X158.008 Y109.820 E729.25144
G1 X158.451 Y109.843 E729.30467
G1 X158.886 Y109.750 E729.35805
G1 X159.282 Y109.548 E729.41140
G0 F12000 X159.417 Y109.815
G0 X142.003 Y135.677
G0 X141.106 Y137.485
G0 X140.904 Y137.706
G1 F1200 X116.300 Y170.238 E734.30600
G1 X116.300 Y170.850 E734.37944
G1 X175.899 Y170.850 E741.53132
G1 X175.899 Y169.752 E741.66308
G1 X140.904 Y137.706 E747.35720
G10
G1 Z0.400
G0 F12000 X186.153 Y175.156
G1 Z0.300
G11
G1 F1200 X36.847 Y175.157 E765.27392
G1 X82.141 Y47.999 E781.47201
G1 X140.859 Y47.998 E788.51817
G1 X186.153 Y175.156 E804.71626
G10
G1 Z0.400
G0 F12000 X184.680 Y174.215
;TYPE:SKIN
G1 Z0.300
G11
G1 F1200 X179.422 Y168.957 E805.60857
G0 F12000 X178.856 Y168.956
G1 F1200 X184.115 Y174.215 E806.50105
G0 F12000 X183.549 Y174.215
G1 F1200 X178.290 Y168.956 E807.39353
G0 F12000 X177.724 Y168.956
G1 F1200 X182.983 Y174.215 E808.28602
G0 F12000 X182.417 Y174.215
G1 F1200 X173.794 Y165.592 E809.74939
G0 F12000 X171.753 Y164.682
G1 F1200 X160.376 Y153.305 E811.68013
G0 F12000 X165.040 Y158.535
G1 F1200 X153.667 Y147.162 E813.61019
G0 F12000 X151.616 Y146.242
G1 F1200 X140.236 Y134.862 E815.54144
G0 F12000 X140.900 Y134.960
G1 F1200 X141.536 Y135.313 E815.62873
G1 X141.265 Y134.477 E815.71600
G1 X142.023 Y134.669 E815.80326
G1 X141.752 Y133.832 E815.89062
G1 X142.510 Y134.025 E815.97768
G1 X142.239 Y133.188 E816.06504
G1 X142.997 Y133.381 E816.15233
G1 X142.727 Y132.544 E816.23940
G1 X143.485 Y132.737 E816.32646
G1 X143.214 Y131.900 E816.41382
G1 X143.972 Y132.092 E816.50108
G1 X143.701 Y131.256 E816.58835
G1 X144.459 Y131.448 E816.67562
G1 X144.188 Y130.612 E816.76288
G1 X144.946 Y130.804 E816.85015
G1 X144.675 Y129.967 E816.93751
G1 X145.433 Y130.160 E817.02457
G1 X145.162 Y129.323 E817.11167
G1 X145.921 Y129.516 E817.19883
G1 X145.650 Y128.679 E817.28619
G1 X146.408 Y128.871 E817.37322
G1 X146.137 Y128.035 E817.46049
G1 X146.895 Y128.227 E817.54752
G1 X146.624 Y127.391 E817.63479
G1 X147.382 Y127.583 E817.72182
G1 X147.111 Y126.746 E817.80918
G1 X147.869 Y126.939 E817.89624
G1 X147.598 Y126.102 E817.98333
G1 X148.356 Y126.295 E818.07039
G1 X148.086 Y125.458 E818.15746
G1 X148.844 Y125.650 E818.24449
G1 X148.573 Y124.814 E818.33176
G1 X149.331 Y125.006 E818.41879
G1 X149.060 Y124.170 E818.50605
G1 X149.817 Y124.362 E818.59321
G1 X149.547 Y123.526 E818.68018
G1 X150.305 Y123.718 E818.76721
G1 X150.034 Y122.881 E818.85431
G1 X150.792 Y123.073 E818.94157
G1 X150.522 Y122.237 E819.02855
G1 X151.279 Y122.429 E819.11570
G1 X151.009 Y121.593 E819.20268
G1 X151.766 Y121.785 E819.28983
G1 X151.496 Y120.949 E819.37681
G1 X152.253 Y121.141 E819.46396
G1 X151.983 Y120.305 E819.55094
G1 X152.741 Y120.497 E819.63797
G1 X152.470 Y119.661 E819.72523
G1 X153.107 Y120.014 E819.81263
G0 F12000 X140.167 Y135.925
G1 F1200 X140.561 Y136.601 E819.89995
G1 X139.801 Y136.407 E819.98725
