;FLAVOR:UltiGCode
;TIME:246
;MATERIAL:219
;MATERIAL2:0
;NOZZLE_DIAMETER:0.400000
;NOZZLE_DIAMETER2:0.400000
;MTYPE:PLA

;Layer count: 38
;LAYER:0
M107
G0 F12000 X100.226 Y100.708 Z0.300
G0 X100.685 Y102.229
;TYPE:SKIRT
G1 F1200 X100.226 Y100.708 E0.19065
G1 X111.541 Y100.708 E1.54845
G1 X112.391 Y102.229 E1.75754
G1 X113.391 Y102.229 E1.87754
G1 X114.800 Y104.752 E2.22431
G1 X114.883 Y104.901 E2.24478
G1 X117.971 Y110.386 E3.00012
G1 X117.950 Y110.386 E3.00264
G1 X119.313 Y112.825 E3.33792
G1 X121.927 Y117.497 E3.98035
G1 X121.925 Y117.497 E3.98059
G1 X122.639 Y118.773 E4.15605
G1 X124.610 Y122.292 E4.64006
G1 X105.736 Y122.292 E6.90494
G1 X104.300 Y117.539 E7.50076
G1 X104.299 Y117.539 E7.50088
G1 X104.008 Y116.572 E7.62206
G1 X103.272 Y114.135 E7.92754
G1 X103.275 Y114.135 E7.92790
G1 X102.801 Y112.565 E8.12470
G1 X101.838 Y109.382 E8.52376
G1 X101.840 Y109.382 E8.52400
G1 X101.110 Y106.968 E8.82664
G1 X101.115 Y106.968 E8.82724
G1 X99.682 Y102.229 E9.42135
G1 X100.685 Y102.229 E9.54171
G0 F12000 X101.224 Y102.629
G1 F1200 X100.765 Y101.108 E9.73236
G1 X111.307 Y101.108 E10.99740
G1 X112.156 Y102.629 E11.20643
G1 X113.156 Y102.629 E11.32643
G1 X114.534 Y105.097 E11.66562
G1 X117.287 Y109.986 E12.33892
G1 X117.267 Y109.986 E12.34132
G1 X118.631 Y112.425 E12.67666
G1 X118.630 Y112.425 E12.67678
G1 X121.245 Y117.097 E13.31927
G1 X121.243 Y117.097 E13.31951
G1 X122.696 Y119.693 E13.67650
G1 X123.928 Y121.892 E13.97898
G1 X106.033 Y121.892 E16.12638
G1 X104.489 Y116.780 E16.76719
G1 X103.811 Y114.535 E17.04860
G1 X103.813 Y114.535 E17.04884
G1 X103.149 Y112.335 E17.32461
G1 X102.377 Y109.782 E17.64467
G1 X102.379 Y109.782 E17.64491
G1 X101.649 Y107.368 E17.94754
G1 X101.654 Y107.368 E17.94814
G1 X101.505 Y106.875 E18.00994
G1 X100.221 Y102.629 E18.54225
G1 X101.224 Y102.629 E18.66261
G10
G1 Z0.400
G0 F12000 X105.342 Y104.508
;TYPE:WALL-OUTER
G1 Z0.300
G11
G1 F1200 X105.925 Y104.508 E18.73257
G1 X109.023 Y114.790 E20.02120
G1 X112.851 Y114.790 E20.48056
G1 X112.851 Y117.935 E20.85796
G1 X116.273 Y117.935 E21.26860
G1 X108.770 Y104.508 E23.11434
G1 X109.311 Y104.508 E23.17926
G1 X110.161 Y106.029 E23.38835
G1 X111.160 Y106.029 E23.50823
G1 X111.471 Y106.586 E23.58478
G1 X110.472 Y106.586 E23.70466
G1 X111.571 Y108.552 E23.97494
G1 X112.570 Y108.552 E24.09482
G1 X112.834 Y109.025 E24.15982
G1 X111.835 Y109.025 E24.27970
G1 X112.834 Y110.811 E24.52527
G1 X113.833 Y110.811 E24.64515
G1 X114.097 Y111.284 E24.71015
G1 X113.097 Y111.284 E24.83015
G1 X114.182 Y113.224 E25.09689
G1 X115.181 Y113.224 E25.21677
G1 X115.445 Y113.697 E25.28177
G1 X114.446 Y113.697 E25.40165
G1 X115.633 Y115.820 E25.69353
G1 X116.632 Y115.820 E25.81341
G1 X116.896 Y116.293 E25.87841
G1 X115.897 Y116.293 E25.99829
G1 X116.815 Y117.935 E26.22403
G1 X117.815 Y117.935 E26.34403
G1 X118.127 Y118.492 E26.42064
G1 X108.557 Y118.492 E27.56904
G1 X108.389 Y117.935 E27.63886
G1 X109.200 Y117.935 E27.73618
G1 X109.200 Y118.408 E27.79294
G1 X112.199 Y118.408 E28.15282
G1 X112.199 Y115.408 E28.51282
G1 X109.200 Y115.408 E28.87270
G1 X109.200 Y117.307 E29.10058
G1 X108.895 Y116.293 E29.22764
G1 X107.894 Y116.293 E29.34776
G1 X107.726 Y115.735 E29.41769
G1 X108.726 Y115.735 E29.53769
G1 X108.125 Y113.739 E29.78783
G1 X107.125 Y113.739 E29.90783
G1 X106.958 Y113.182 E29.97761
G1 X107.957 Y113.182 E30.09749
G1 X107.398 Y111.326 E30.33010
G1 X106.397 Y111.326 E30.45022
G1 X106.229 Y110.768 E30.52014
G1 X107.229 Y110.768 E30.64014
G1 X106.717 Y109.067 E30.85331
G1 X105.716 Y109.067 E30.97343
G1 X105.549 Y108.510 E31.04321
G1 X106.549 Y108.510 E31.16321
G1 X105.969 Y106.586 E31.40435
G1 X104.969 Y106.586 E31.52435
G1 X104.802 Y106.029 E31.59413
G1 X105.801 Y106.029 E31.71401
G1 X105.342 Y104.508 E31.90466
G0 F12000 X105.543 Y104.694
;TYPE:SKIN
G1 F1200 X105.875 Y105.309 E31.97574
G1 X106.045 Y106.045 E32.04622
G1 X106.364 Y106.930 E32.14189
G1 X106.608 Y107.739 E32.21186
G1 X106.803 Y108.500 E32.28209
G1 X107.095 Y109.358 E32.36855
G1 X107.339 Y110.167 E32.43852
G1 X107.668 Y110.779 E32.52189
G0 F12000 X107.230 Y110.907
G1 F1200 X107.912 Y111.589 E32.63763
G0 F12000 X107.743 Y111.986
G1 F1200 X108.071 Y112.597 E32.70733
G1 X108.311 Y113.402 E32.77688
G1 X107.802 Y113.459 E32.82375
G1 X107.381 Y113.321 E32.87691
G0 F12000 X108.231 Y113.605
G1 F1200 X108.559 Y114.215 E32.94672
G1 X108.938 Y114.878 E33.01660
G1 X109.193 Y115.415 E33.07385
G1 X108.761 Y115.549 E33.13152
G1 X108.787 Y116.141 E33.17489
G1 X108.237 Y115.874 E33.24826
G10
G1 Z0.400
G0 F12000 X109.555 Y114.929
G1 Z0.300
G11
G1 F1200 X110.006 Y115.097 E33.30529
G1 X110.572 Y115.097 E33.36234
G1 X111.138 Y115.097 E33.41957
G1 X111.703 Y115.097 E33.47652
G1 X112.246 Y115.358 E33.53363
G1 X112.524 Y115.918 E33.59665
G1 X112.524 Y116.484 E33.65982
G1 X112.524 Y117.050 E33.72298
G1 X112.711 Y117.519 E33.78357
G0 F12000 X112.338 Y117.712
G1 F1200 X112.977 Y118.351 E33.89201
G0 F12000 X113.266 Y118.074
G1 F1200 X113.687 Y118.212 E33.93893
G1 X114.252 Y118.212 E33.98571
G1 X114.818 Y118.212 E34.03258
G1 X115.384 Y118.212 E34.07944
G1 X115.949 Y118.212 E34.12623
G1 X116.371 Y118.351 E34.17954
G0 F12000 X116.937 Y118.351
G1 F1200 X116.324 Y117.738 E34.28357
G0 F12000 X116.107 Y116.956
G1 F1200 X115.738 Y116.303 E34.36840
G1 X115.533 Y115.816 E34.40106
G1 X114.890 Y115.173 E34.51018
G0 F12000 X114.672 Y114.389
G1 F1200 X114.289 Y113.724 E34.59467
G1 X114.083 Y113.235 E34.62730
G1 X113.458 Y112.609 E34.73345
G0 F12000 X113.236 Y111.822
G1 F1200 X112.835 Y111.138 E34.81742
G1 X113.310 Y111.047 E34.85021
G1 X113.690 Y111.144 E34.89727
G0 F12000 X112.523 Y110.543
G1 F1200 X112.025 Y110.045 E34.98179
G0 F12000 X111.803 Y109.257
G1 F1200 X111.556 Y108.727 E35.06564
G1 X112.182 Y108.788 E35.09809
G1 X112.561 Y108.884 E35.14501
G10
G1 Z0.400
G0 F12000 X111.088 Y107.977
G1 Z0.300
G11
G1 F1200 X110.592 Y107.481 E35.22918
G0 F12000 X110.370 Y106.693
G1 F1200 X110.143 Y106.183 E35.31308
G1 X110.832 Y106.307 E35.35992
G1 X111.203 Y106.394 E35.40565
G10
G1 Z0.400
G0 F12000 X109.655 Y105.412
G1 Z0.300
G11
G1 F1200 X109.159 Y104.916 E35.48982
G10
G1 Z0.400
G0 F12000 X105.596 Y106.445
G1 Z0.300
G11
G1 F1200 X105.320 Y106.168 E35.53674
G0 F12000 X106.103 Y108.649
G1 F1200 X106.380 Y108.926 E35.58375
G10
G1 Z0.400
G0 F12000 X106.664 Y110.907
G1 Z0.300
G11
G1 F1200 X106.942 Y111.184 E35.63085
G0 F12000 X112.384 Y114.929
G1 F1200 X112.711 Y115.256 E35.68634
G10
G1 Z0.400
G0 F12000 X114.778 Y113.364
G1 Z0.300
G11
G1 F1200 X114.971 Y113.557 E35.71909
G0 F12000 X116.242 Y115.959
G1 F1200 X116.435 Y116.152 E35.75185
G10
G1 Z0.400
G0 F12000 X117.225 Y118.074
G1 Z0.300
G11
G1 F1200 X117.502 Y118.351 E35.79885
G0 F12000 X117.502 Y118.192
G0 X112.411 Y118.192
G0 X112.411 Y118.351
G1 F1200 X112.338 Y118.278 E35.81124
;LAYER:1
M106 S5
G0 F12000 X112.198 Y118.407 Z0.400
;TYPE:WALL-OUTER
G1 F1620 X112.198 Y115.409 E35.93086
G1 X109.201 Y115.409 E36.05044
G1 X109.201 Y117.313 E36.12641
G1 X108.894 Y116.294 E36.16888
G1 X107.894 Y116.294 E36.20878
G1 X107.725 Y115.734 E36.23212
G1 X108.725 Y115.734 E36.27202
G1 X108.124 Y113.740 E36.35511
G1 X107.124 Y113.740 E36.39501
G1 X106.956 Y113.181 E36.41830
G1 X107.956 Y113.181 E36.45820
G1 X107.397 Y111.327 E36.53546
G1 X106.397 Y111.327 E36.57536
G1 X106.228 Y110.767 E36.59870
G1 X107.228 Y110.767 E36.63860
G1 X106.716 Y109.068 E36.70941
G1 X105.716 Y109.068 E36.74931
G1 X105.548 Y108.509 E36.77259
G1 X106.548 Y108.509 E36.81249
G1 X105.968 Y106.587 E36.89260
G1 X104.968 Y106.587 E36.93250
G1 X104.800 Y106.028 E36.95579
G1 X105.800 Y106.028 E36.99569
G1 X105.341 Y104.507 E37.05908
G1 X105.925 Y104.507 E37.08238
G1 X109.024 Y114.789 E37.51086
G1 X112.852 Y114.789 E37.66360
G1 X112.852 Y117.934 E37.78908
G1 X116.271 Y117.934 E37.92550
G1 X108.767 Y104.507 E38.53923
G1 X109.311 Y104.507 E38.56093
G1 X110.161 Y106.028 E38.63046
G1 X111.161 Y106.028 E38.67036
G1 X111.474 Y106.587 E38.69592
G1 X110.474 Y106.587 E38.73582
G1 X111.571 Y108.551 E38.82558
G1 X112.571 Y108.551 E38.86548
G1 X112.837 Y109.026 E38.88720
G1 X111.837 Y109.026 E38.92710
G1 X112.834 Y110.810 E39.00864
G1 X113.834 Y110.810 E39.04854
G1 X114.099 Y111.285 E39.07025
G1 X113.099 Y111.285 E39.11015
G1 X114.182 Y113.223 E39.19873
G1 X115.182 Y113.223 E39.23863
G1 X115.448 Y113.698 E39.26035
G1 X114.448 Y113.698 E39.30025
G1 X115.633 Y115.819 E39.39719
G1 X116.633 Y115.819 E39.43709
G1 X116.899 Y116.294 E39.45881
G1 X115.899 Y116.294 E39.49871
G1 X116.815 Y117.934 E39.57366
G1 X117.815 Y117.934 E39.61356
G1 X118.128 Y118.493 E39.63912
G1 X108.557 Y118.493 E40.02101
G1 X108.389 Y117.934 E40.04430
G1 X109.201 Y117.934 E40.07670
G1 X109.201 Y118.407 E40.09557
G1 X112.198 Y118.407 E40.21515
G0 F12000 X112.338 Y118.167
;TYPE:SKIN
G1 F1620 X112.854 Y117.933 E40.23623
G1 X112.999 Y118.352 E40.25192
G1 X113.702 Y118.212 E40.26762
G1 X114.266 Y118.212 E40.28330
G1 X114.831 Y118.212 E40.29901
G1 X115.395 Y118.212 E40.31468
G1 X115.959 Y118.212 E40.33036
G1 X116.422 Y118.032 E40.34606
G1 X116.776 Y117.960 E40.35408
G1 X116.948 Y118.352 E40.36983
G1 X117.652 Y118.212 E40.38555
G1 X117.854 Y118.293 E40.39424
G10
G1 Z0.500
G0 F12000 X116.404 Y117.486
G1 Z0.400
G11
G1 F1620 X116.160 Y117.448 E40.40231
G1 X116.029 Y117.014 E40.41034
G1 X115.827 Y116.652 E40.41838
G1 X115.920 Y116.276 E40.42643
G1 X115.957 Y115.958 E40.43738
G1 X115.350 Y116.000 E40.44992
G1 X115.220 Y115.566 E40.45794
G1 X115.017 Y115.204 E40.46599
G1 X114.815 Y114.842 E40.47403
G1 X114.613 Y114.480 E40.48207
G1 X114.410 Y114.118 E40.49012
G1 X114.208 Y113.757 E40.49819
G1 X114.148 Y113.252 E40.51431
G1 X113.732 Y113.105 E40.52234
G1 X113.601 Y112.671 E40.53037
G1 X113.398 Y112.309 E40.53838
G1 X113.196 Y111.947 E40.54642
G1 X112.994 Y111.585 E40.55446
G1 X113.059 Y111.239 E40.56249
G1 X113.532 Y111.047 E40.57346
G1 X113.808 Y111.053 E40.58448
G0 F12000 X112.784 Y110.950
G1 F1620 X112.518 Y110.933 E40.59370
G1 X112.387 Y110.499 E40.60172
G1 X112.185 Y110.137 E40.60977
G1 X111.983 Y109.775 E40.61781
G1 X111.781 Y109.413 E40.62585
G1 X111.888 Y109.023 E40.63390
G1 X111.939 Y108.690 E40.64491
G1 X111.304 Y108.761 E40.65910
G1 X111.173 Y108.328 E40.66715
G1 X110.971 Y107.966 E40.67524
G1 X110.769 Y107.604 E40.68332
G1 X110.566 Y107.242 E40.69137
G1 X110.364 Y106.880 E40.69941
G1 X110.425 Y106.537 E40.70750
G1 X110.937 Y106.307 E40.72321
G1 X111.178 Y106.348 E40.73297
G0 F12000 X110.230 Y106.167
G1 F1620 X109.888 Y106.227 E40.74651
G1 X109.757 Y105.794 E40.75451
G1 X109.555 Y105.432 E40.76252
G1 X109.352 Y105.070 E40.77057
G1 X109.322 Y104.818 E40.78069
G10
G1 Z0.500
G0 F12000 X106.148 Y105.735
G1 Z0.400
G11
G1 F1620 X105.821 Y106.062 E40.79323
G1 X105.295 Y106.306 E40.80894
G1 X105.027 Y106.292 E40.81965
G0 F12000 X106.002 Y106.446
G1 F1620 X106.343 Y106.386 E40.83523
G1 X106.363 Y106.930 E40.84769
G1 X106.494 Y107.364 E40.86016
G1 X106.625 Y107.797 E40.87265
G1 X106.756 Y108.231 E40.88511
G1 X106.666 Y108.603 E40.89759
G1 X106.200 Y108.786 E40.91331
G1 X105.810 Y108.895 E40.92947
G0 F12000 X106.841 Y108.992
G1 F1620 X107.128 Y108.987 E40.94195
G1 X107.147 Y109.532 E40.95444
G1 X107.278 Y109.965 E40.96693
G1 X107.409 Y110.399 E40.97939
G1 X107.274 Y110.816 E40.99189
G1 X106.763 Y111.046 E41.00763
G1 X106.464 Y111.062 E41.01958
G0 F12000 X107.469 Y111.186
G1 F1620 X107.781 Y111.155 E41.03350
G1 X107.801 Y111.700 E41.04599
G1 X107.932 Y112.133 E41.05848
G1 X108.062 Y112.567 E41.07093
G1 X108.193 Y113.001 E41.08340
G1 X107.735 Y113.459 E41.11106
G1 X107.314 Y113.598 E41.12875
G0 F12000 X108.278 Y113.762
G1 F1620 X108.565 Y113.757 E41.14123
G1 X108.585 Y114.301 E41.15370
G1 X108.716 Y114.735 E41.16617
G1 X108.670 Y115.063 E41.17938
G0 F12000 X108.801 Y115.497
G1 F1620 X109.370 Y114.928 E41.21149
G0 F12000 X109.594 Y115.268
G1 F1620 X110.046 Y115.098 E41.23066
G1 X110.610 Y115.098 E41.24978
G1 X111.175 Y115.098 E41.26888
G1 X111.739 Y115.098 E41.28800
G1 X112.264 Y115.137 E41.30716
G1 X112.712 Y115.254 E41.32823
G1 X112.525 Y116.005 E41.34928
G1 X112.525 Y116.569 E41.37032
G1 X112.525 Y117.133 E41.39135
G1 X112.338 Y117.603 E41.41154
G10
G1 Z0.500
G0 F12000 X109.061 Y115.801
G1 Z0.400
G11
G1 F1620 X108.566 Y116.013 E41.43135
G1 X108.144 Y116.153 E41.44909
G0 F12000 X114.690 Y113.557
G1 F1620 X114.885 Y113.362 E41.46010
G0 F12000 X106.017 Y105.302
G1 F1620 X105.729 Y105.308 E41.47263
G1 X105.887 Y104.868 E41.49128
;LAYER:2
M106 S10
G0 F12000 X105.735 Y104.912 Z0.500
G0 X106.254 Y106.501
G0 X105.968 Y106.587
;TYPE:WALL-OUTER
G1 F1800 X104.968 Y106.587 E41.53118
G1 X104.800 Y106.028 E41.55447
G1 X105.800 Y106.028 E41.59437
G1 X105.341 Y104.507 E41.65776
G1 X105.925 Y104.507 E41.68106
G1 X109.024 Y114.789 E42.10954
G1 X112.852 Y114.789 E42.26228
G1 X112.852 Y117.934 E42.38777
G1 X116.271 Y117.934 E42.52418
G1 X108.767 Y104.507 E43.13791
G1 X109.311 Y104.507 E43.15962
G1 X110.161 Y106.028 E43.22914
G1 X111.161 Y106.028 E43.26904
G1 X111.474 Y106.587 E43.29460
G1 X110.474 Y106.587 E43.33450
G1 X111.571 Y108.551 E43.42426
G1 X112.571 Y108.551 E43.46416
G1 X112.837 Y109.026 E43.48588
G1 X111.837 Y109.026 E43.52578
G1 X112.834 Y110.810 E43.60733
G1 X113.834 Y110.810 E43.64723
G1 X114.099 Y111.285 E43.66893
G1 X113.099 Y111.285 E43.70883
G1 X114.182 Y113.223 E43.79741
G1 X115.182 Y113.223 E43.83731
G1 X115.448 Y113.698 E43.85903
G1 X114.448 Y113.698 E43.89893
G1 X115.633 Y115.819 E43.99587
G1 X116.633 Y115.819 E44.03577
G1 X116.899 Y116.294 E44.05749
G1 X115.899 Y116.294 E44.09739
G1 X116.815 Y117.934 E44.17234
G1 X117.815 Y117.934 E44.21224
G1 X118.128 Y118.493 E44.23781
G1 X108.557 Y118.493 E44.61969
G1 X108.389 Y117.934 E44.64298
G1 X109.201 Y117.934 E44.67538
G1 X109.201 Y118.407 E44.69425
G1 X112.198 Y118.407 E44.81383
G1 X112.198 Y115.409 E44.93345
G1 X109.201 Y115.409 E45.05303
G1 X109.201 Y117.313 E45.12900
G1 X108.894 Y116.294 E45.17146
G1 X107.894 Y116.294 E45.21136
G1 X107.725 Y115.734 E45.23470
G1 X108.725 Y115.734 E45.27460
G1 X108.124 Y113.740 E45.35770
G1 X107.124 Y113.740 E45.39760
G1 X106.956 Y113.181 E45.42089
G1 X107.956 Y113.181 E45.46079
G1 X107.397 Y111.327 E45.53805
G1 X106.397 Y111.327 E45.57795
G1 X106.228 Y110.767 E45.60129
G1 X107.228 Y110.767 E45.64119
G1 X106.716 Y109.068 E45.71199
G1 X105.716 Y109.068 E45.75189
G1 X105.548 Y108.509 E45.77518
G1 X106.548 Y108.509 E45.81508
G1 X105.968 Y106.587 E45.89519
G0 F12000 X105.599 Y106.446
;TYPE:SKIN
G1 F1800 X105.320 Y106.167 E45.91093
G0 F12000 X105.884 Y106.167
G1 F1800 X106.449 Y106.732 E45.94281
G0 F12000 X106.277 Y107.124
G1 F1800 X106.606 Y107.735 E45.96620
G1 X106.804 Y108.497 E45.98958
G1 X107.093 Y109.351 E46.01816
G1 X107.336 Y110.158 E46.04151
G1 X107.666 Y110.770 E46.06925
G0 F12000 X107.237 Y110.906
G1 F1800 X107.910 Y111.578 E46.10719
G0 F12000 X107.738 Y111.971
G1 F1800 X108.067 Y112.582 E46.13058
G1 X108.396 Y113.193 E46.15827
G0 F12000 X107.959 Y113.320
G1 F1800 X108.639 Y114.001 E46.19667
G0 F12000 X108.468 Y114.393
G1 F1800 X108.942 Y114.868 E46.22009
G1 X109.201 Y115.409 E46.23922
G1 X108.765 Y115.537 E46.25894
G1 X108.798 Y116.134 E46.27257
G1 X108.255 Y115.873 E46.29661
G10
G1 Z0.600
G0 F12000 X109.566 Y114.928
G1 Z0.500
G11
G1 F1800 X110.019 Y115.098 E46.31582
G1 X110.583 Y115.098 E46.33494
G1 X111.147 Y115.098 E46.35406
G1 X111.711 Y115.098 E46.37318
G1 X112.251 Y115.355 E46.39232
G1 X112.525 Y115.911 E46.41339
G1 X112.525 Y116.475 E46.43443
G1 X112.525 Y117.039 E46.45547
G1 X112.525 Y117.604 E46.47649
G1 X112.712 Y118.073 E46.49759
G1 X113.133 Y118.212 E46.51328
G1 X113.697 Y118.212 E46.52896
G1 X114.261 Y118.212 E46.54464
G1 X114.826 Y118.212 E46.56035
G1 X115.390 Y118.212 E46.57603
G1 X115.954 Y118.212 E46.59171
G1 X116.377 Y118.352 E46.60949
G0 F12000 X116.941 Y118.352
G1 F1800 X116.315 Y117.726 E46.64481
G0 F12000 X116.109 Y116.956
G1 F1800 X115.734 Y116.299 E46.67356
G1 X115.535 Y115.818 E46.68444
G1 X114.782 Y114.782 E46.71312
G1 X114.286 Y113.722 E46.74180
G1 X114.085 Y113.239 E46.75273
G1 X113.454 Y112.608 E46.78834
G0 F12000 X113.247 Y111.837
G1 F1800 X112.831 Y111.139 E46.81702
G1 X113.303 Y111.047 E46.82798
G1 X113.683 Y111.145 E46.84364
G0 F12000 X112.533 Y110.559
