;FLAVOR:UltiGCode
;TIME:456
;MATERIAL:549
;MATERIAL2:0
;NOZZLE_DIAMETER:0.400000
;NOZZLE_DIAMETER2:0.400000
;MTYPE:PLA

;Layer count: 38
;LAYER:0
M107
G0 F12000 X105.793 Y95.107 Z0.300
;TYPE:SKIRT
G1 F1200 X117.207 Y95.107 E1.36968
G1 X118.954 Y98.234 E1.79951
G1 X130.458 Y118.816 E4.62897
G1 X130.861 Y119.535 E4.72788
G1 X132.740 Y122.896 E5.18995
G1 X135.521 Y127.894 E5.87630
G1 X117.640 Y127.894 E8.02202
G1 X112.297 Y110.161 E10.24447
G1 X112.131 Y109.614 E10.31307
G1 X111.526 Y107.605 E10.56484
G1 X111.474 Y107.605 E10.57108
G1 X106.118 Y125.381 E12.79893
G1 X105.353 Y127.894 E13.11415
G1 X87.468 Y127.894 E15.26035
G1 X91.451 Y120.766 E16.24019
G1 X91.926 Y119.917 E16.35693
G1 X103.200 Y99.746 E19.12987
G1 X104.046 Y98.233 E19.33789
G1 X104.047 Y98.233 E19.33801
G1 X105.793 Y95.107 E19.76768
G10
G1 Z0.400
G0 F12000 X107.789 Y98.507
;TYPE:WALL-OUTER
G1 Z0.300
G11
G1 F1200 X115.211 Y98.507 E20.65832
G1 X129.736 Y124.494 E24.23081
G1 X120.166 Y124.494 E25.37921
G1 X114.053 Y104.205 E27.92200
G1 X108.947 Y104.205 E28.53472
G1 X102.833 Y124.494 E31.07754
G1 X93.264 Y124.494 E32.22582
G1 X107.789 Y98.507 E35.79832
G0 F12000 X107.995 Y99.107
G1 F1200 X94.116 Y123.936 E39.21169
G1 X102.420 Y123.936 E40.20817
G1 X108.546 Y103.605 E42.75624
G1 X114.454 Y103.605 E43.46520
G1 X120.580 Y123.936 E46.01326
G1 X128.884 Y123.936 E47.00974
G1 X115.005 Y99.107 E50.42312
G1 X107.995 Y99.107 E51.26432
G0 F12000 X107.849 Y99.081
;TYPE:SKIN
G1 F1200 X107.843 Y98.793 E51.28825
G1 X108.423 Y98.807 E51.34256
G1 X108.989 Y98.807 E51.39672
G1 X109.554 Y98.807 E51.45096
G1 X110.120 Y98.807 E51.50530
G1 X110.686 Y98.807 E51.55947
G1 X111.251 Y98.807 E51.61371
G1 X111.817 Y98.807 E51.66804
G1 X112.383 Y98.807 E51.72221
G1 X112.949 Y98.807 E51.77638
G1 X113.514 Y98.807 E51.83062
G1 X114.080 Y98.807 E51.88495
G1 X114.523 Y98.967 E51.94147
G0 F12000 X114.769 Y98.647
G1 F1200 X115.580 Y99.458 E52.07910
G10
G1 Z0.400
G0 F12000 X107.646 Y99.443
G1 Z0.300
G11
G1 F1200 X107.402 Y99.482 E52.10305
G1 X107.270 Y99.916 E52.12700
G1 X107.068 Y100.279 E52.15093
G1 X106.865 Y100.642 E52.17488
G1 X106.662 Y101.005 E52.19884
G1 X106.459 Y101.368 E52.22280
G1 X106.256 Y101.731 E52.24675
G1 X106.054 Y102.094 E52.27068
G1 X105.851 Y102.456 E52.29446
G1 X105.648 Y102.819 E52.31842
G1 X105.445 Y103.182 E52.34237
G1 X105.242 Y103.545 E52.36633
G1 X105.040 Y103.908 E52.39026
G1 X104.837 Y104.271 E52.41421
G1 X104.634 Y104.634 E52.43805
G1 X104.431 Y104.996 E52.46183
G1 X104.228 Y105.360 E52.48596
G1 X104.025 Y105.722 E52.50986
G1 X103.823 Y106.085 E52.53379
G1 X103.620 Y106.448 E52.55775
G1 X103.417 Y106.811 E52.58158
G1 X103.214 Y107.174 E52.60541
G1 X103.011 Y107.537 E52.62937
G1 X102.809 Y107.900 E52.65330
G1 X102.606 Y108.263 E52.67713
G1 X102.403 Y108.625 E52.70091
G1 X102.200 Y108.988 E52.72487
G1 X101.997 Y109.351 E52.74870
G1 X101.794 Y109.713 E52.77248
G1 X101.592 Y110.077 E52.79658
G1 X101.389 Y110.440 E52.82041
G1 X101.186 Y110.802 E52.84419
G1 X100.983 Y111.165 E52.86815
G1 X100.780 Y111.528 E52.89211
G1 X100.577 Y111.891 E52.91594
G1 X100.375 Y112.255 E52.93992
G1 X100.172 Y112.618 E52.96362
G1 X100.141 Y112.869 E52.99397
G10
G1 Z0.400
G0 F12000 X105.482 Y114.250
G1 Z0.300
G11
G1 F1200 X105.529 Y114.580 E53.03187
G1 X105.398 Y115.015 E53.06935
G1 X105.267 Y115.449 E53.10689
G1 X105.136 Y115.884 E53.14437
G1 X105.005 Y116.319 E53.18185
G1 X104.874 Y116.753 E53.21938
G1 X104.743 Y117.188 E53.25686
G1 X104.612 Y117.623 E53.29421
G1 X104.482 Y118.058 E53.33166
G1 X104.350 Y118.492 E53.36909
G1 X104.219 Y118.927 E53.40657
G1 X104.088 Y119.362 E53.44405
G1 X103.958 Y119.797 E53.48150
G1 X103.827 Y120.231 E53.51890
G1 X103.695 Y120.666 E53.55641
G1 X103.564 Y121.101 E53.59389
G1 X103.434 Y121.536 E53.63134
G1 X103.303 Y121.970 E53.66888
G1 X103.171 Y122.405 E53.70638
G1 X103.040 Y122.839 E53.74392
G1 X102.910 Y123.274 E53.78137
G1 X102.779 Y123.709 E53.81885
G1 X102.699 Y124.195 E53.85638
G1 X102.152 Y124.214 E53.90351
G1 X101.586 Y124.214 E53.95054
G1 X101.021 Y124.214 E53.99750
G1 X100.455 Y124.214 E54.04453
G1 X100.033 Y124.075 E54.09785
G10
G1 Z0.400
G0 F12000 X118.873 Y119.721
G1 Z0.300
G11
G1 F1200 X119.202 Y120.333 E54.16809
G1 X119.446 Y121.143 E54.23839
G1 X119.690 Y121.953 E54.30869
G1 X119.934 Y122.762 E54.37916
G1 X120.264 Y123.375 E54.46271
G0 F12000 X120.092 Y123.769
G1 F1200 X120.676 Y124.353 E54.56181
G0 F12000 X120.964 Y124.076
G1 F1200 X121.385 Y124.214 E54.60873
G1 X121.951 Y124.214 E54.65560
G1 X122.517 Y124.214 E54.70246
G1 X123.082 Y124.214 E54.74924
G1 X123.648 Y124.214 E54.79611
G1 X124.214 Y124.214 E54.84297
G1 X124.780 Y124.214 E54.89001
G1 X125.346 Y124.214 E54.93704
G1 X125.911 Y124.214 E54.98399
G1 X126.477 Y124.214 E55.03103
G1 X127.043 Y124.214 E55.07806
G1 X127.608 Y124.214 E55.12501
G1 X128.174 Y124.214 E55.17205
G1 X128.740 Y124.214 E55.21908
G1 X129.180 Y124.089 E55.26615
G1 X128.705 Y123.331 E55.37349
G0 F12000 X128.483 Y122.543
G1 F1200 X127.988 Y122.048 E55.45750
G0 F12000 X127.766 Y121.261
G1 F1200 X127.271 Y120.766 E55.54150
G0 F12000 X127.049 Y119.978
G1 F1200 X126.554 Y119.483 E55.62551
G0 F12000 X126.332 Y118.695
G1 F1200 X125.837 Y118.200 E55.70951
G0 F12000 X125.616 Y117.413
G1 F1200 X125.120 Y116.917 E55.79369
G0 F12000 X124.899 Y116.130
G1 F1200 X124.403 Y115.635 E55.87777
G0 F12000 X124.182 Y114.848
G1 F1200 X123.686 Y114.352 E55.96195
G0 F12000 X123.465 Y113.566
G1 F1200 X122.969 Y113.069 E56.04621
G0 F12000 X122.748 Y112.283
G1 F1200 X122.252 Y111.787 E56.13038
G0 F12000 X122.031 Y111.000
G1 F1200 X121.535 Y110.504 E56.21456
G0 F12000 X121.314 Y109.718
G1 F1200 X120.818 Y109.221 E56.29881
G0 F12000 X120.598 Y108.436
G1 F1200 X120.101 Y107.939 E56.38316
G0 F12000 X119.881 Y107.153
G1 F1200 X119.384 Y106.656 E56.46750
G0 F12000 X119.164 Y105.870
G1 F1200 X118.667 Y105.373 E56.55185
G0 F12000 X118.448 Y104.588
G1 F1200 X117.950 Y104.091 E56.63627
G0 F12000 X117.731 Y103.306
G1 F1200 X117.233 Y102.808 E56.72079
G0 F12000 X117.014 Y102.023
G1 F1200 X116.516 Y101.525 E56.80530
G0 F12000 X116.297 Y100.740
G1 F1200 X115.799 Y100.242 E56.88981
G10
G1 Z0.400
G0 F12000 X114.210 Y103.745
G1 Z0.300
G11
G1 F1200 X114.325 Y104.142 E56.92391
G1 X114.568 Y104.952 E56.99419
G1 X114.812 Y105.761 E57.06441
G1 X115.056 Y106.571 E57.13471
G1 X115.300 Y107.380 E57.20493
G1 X115.543 Y108.189 E57.27512
G1 X115.787 Y108.999 E57.34542
G1 X116.031 Y109.808 E57.41564
G1 X116.275 Y110.618 E57.48594
G1 X116.519 Y111.427 E57.55616
G1 X116.762 Y112.237 E57.62618
G1 X117.008 Y113.048 E57.69686
G1 X117.252 Y113.858 E57.76741
G1 X117.496 Y114.667 E57.83814
G1 X117.738 Y115.476 E57.90805
G1 X117.982 Y116.285 E57.97802
G1 X118.226 Y117.095 E58.04806
G1 X118.470 Y117.905 E58.11811
G1 X118.714 Y118.714 E58.18807
G1 X119.043 Y119.326 E58.27145
G10
G1 Z0.400
G0 F12000 X105.836 Y114.039
G1 Z0.300
G11
G1 F1200 X105.790 Y113.709 E58.30934
G1 X105.921 Y113.275 E58.34715
G1 X106.052 Y112.840 E58.38490
G1 X106.184 Y112.407 E58.42224
G1 X106.315 Y111.972 E58.45959
G1 X106.446 Y111.537 E58.49693
G1 X106.577 Y111.102 E58.53427
G1 X106.708 Y110.667 E58.57162
G1 X106.838 Y110.232 E58.60907
G1 X106.969 Y109.798 E58.64661
G1 X107.100 Y109.363 E58.68409
G1 X107.231 Y108.928 E58.72157
G1 X107.362 Y108.493 E58.75905
G1 X107.493 Y108.059 E58.79645
G1 X107.624 Y107.624 E58.83393
G1 X107.755 Y107.189 E58.87141
G1 X107.886 Y106.754 E58.90889
G1 X108.016 Y106.319 E58.94634
G1 X108.147 Y105.884 E58.98382
G1 X108.279 Y105.450 E59.02138
G1 X108.409 Y105.015 E59.05898
G1 X108.540 Y104.581 E59.09651
G1 X108.683 Y104.158 E59.13429
G1 X108.872 Y103.781 E59.17629
G1 X109.561 Y103.904 E59.23046
G1 X110.127 Y103.904 E59.28446
G1 X110.693 Y103.904 E59.33846
G1 X111.258 Y103.904 E59.39253
G1 X111.824 Y103.904 E59.44652
G1 X112.390 Y103.904 E59.50052
G1 X112.956 Y103.904 E59.55451
G1 X113.521 Y103.904 E59.60859
G1 X113.964 Y104.064 E59.66511
G10
G1 Z0.400
G0 F12000 X99.938 Y113.232
G1 Z0.300
G11
G1 F1200 X99.696 Y113.272 E59.68887
G1 X99.563 Y113.706 E59.71257
G1 X99.361 Y114.069 E59.73637
G1 X99.158 Y114.432 E59.76020
G1 X98.955 Y114.795 E59.78391
G1 X98.752 Y115.157 E59.80744
G1 X98.550 Y115.520 E59.83112
G1 X98.347 Y115.883 E59.85495
G1 X98.144 Y116.246 E59.87878
G1 X97.941 Y116.608 E59.90244
G1 X97.738 Y116.972 E59.92620
G1 X97.536 Y117.335 E59.95000
G1 X97.333 Y117.697 E59.97366
G1 X97.130 Y118.060 E59.99749
G1 X96.927 Y118.423 E60.02132
G1 X96.724 Y118.786 E60.04515
G1 X96.522 Y119.149 E60.06908
G1 X96.319 Y119.512 E60.09291
G1 X96.116 Y119.875 E60.11674
G1 X95.913 Y120.237 E60.14040
G1 X95.710 Y120.600 E60.16423
G1 X95.507 Y120.963 E60.18806
G1 X95.304 Y121.326 E60.21202
G1 X95.102 Y121.689 E60.23595
G1 X94.899 Y122.052 E60.25978
G1 X94.696 Y122.415 E60.28361
G1 X94.493 Y122.777 E60.30727
G1 X94.290 Y123.140 E60.33110
G1 X94.087 Y123.503 E60.35493
G1 X93.884 Y123.866 E60.37889
G1 X94.232 Y124.214 E60.44267
G1 X94.798 Y124.214 E60.48970
G1 X95.364 Y124.214 E60.53674
G1 X95.929 Y124.214 E60.58386
G1 X96.495 Y124.214 E60.63089
G1 X97.061 Y124.214 E60.67793
G1 X97.626 Y124.214 E60.72505
G1 X98.192 Y124.214 E60.77208
G1 X98.758 Y124.214 E60.81912
G1 X99.324 Y124.214 E60.86615
G1 X99.745 Y124.353 E60.91936
;LAYER:1
M106 S5
G0 F12000 X99.745 Y124.195 Z0.400
G0 X102.686 Y124.295
G0 X102.704 Y124.022
G0 X102.419 Y123.935
;TYPE:WALL-OUTER
G1 F1620 X108.546 Y103.604 E61.76660
G1 X114.454 Y103.604 E62.00233
G1 X120.581 Y123.935 E62.84957
G1 X128.882 Y123.935 E63.18078
G1 X115.005 Y99.108 E64.31562
G1 X107.995 Y99.108 E64.59532
G1 X94.118 Y123.935 E65.73016
G1 X102.419 Y123.935 E66.06137
G0 F12000 X102.834 Y124.495
G1 F1620 X93.261 Y124.495 E66.44333
G1 X107.788 Y98.506 E67.63129
G1 X115.212 Y98.506 E67.92751
G1 X129.739 Y124.495 E69.11547
G1 X120.166 Y124.495 E69.49744
G1 X114.052 Y104.206 E70.34292
G1 X108.948 Y104.206 E70.54657
G1 X102.834 Y124.495 E71.39206
G0 F12000 X102.481 Y124.073
;TYPE:SKIN
G1 F1620 X102.058 Y124.213 E71.40788
G1 X101.494 Y124.213 E71.42367
G1 X100.930 Y124.213 E71.43946
G1 X100.366 Y124.213 E71.45526
G1 X99.801 Y124.213 E71.47108
G1 X99.237 Y124.213 E71.48687
G1 X98.673 Y124.213 E71.50266
G1 X98.109 Y124.213 E71.51845
G1 X97.544 Y124.213 E71.53427
G1 X96.980 Y124.213 E71.55006
G1 X96.416 Y124.213 E71.56586
G1 X95.851 Y124.213 E71.58168
G1 X95.287 Y124.213 E71.59747
G1 X94.723 Y124.213 E71.61326
G1 X94.159 Y124.213 E71.62905
G1 X93.824 Y123.983 E71.64490
G1 X94.420 Y123.106 E71.68721
G0 F12000 X94.628 Y122.334
G1 F1620 X95.135 Y121.827 E71.71582
G0 F12000 X95.344 Y121.054
G1 F1620 X95.850 Y120.548 E71.74437
G0 F12000 X96.059 Y119.775
G1 F1620 X96.565 Y119.269 E71.77292
G0 F12000 X96.773 Y118.496
G1 F1620 X97.280 Y117.989 E71.80153
G0 F12000 X97.488 Y117.217
G1 F1620 X97.995 Y116.710 E71.83014
G0 F12000 X98.204 Y115.937
G1 F1620 X98.709 Y115.431 E71.85866
G0 F12000 X98.919 Y114.658
G1 F1620 X99.424 Y114.152 E71.88719
G0 F12000 X99.634 Y113.378
G1 F1620 X100.139 Y112.873 E71.91568
G0 F12000 X100.349 Y112.099
G1 F1620 X100.856 Y111.592 E71.94429
G0 F12000 X101.064 Y110.819
G1 F1620 X101.571 Y110.312 E71.97290
G0 F12000 X101.779 Y109.540
G1 F1620 X102.286 Y109.033 E72.00151
G0 F12000 X102.494 Y108.261
G1 F1620 X103.001 Y107.754 E72.03012
G0 F12000 X103.210 Y106.981
G1 F1620 X103.716 Y106.475 E72.05867
G0 F12000 X103.924 Y105.702
G1 F1620 X104.431 Y105.196 E72.08725
G0 F12000 X104.639 Y104.423
G1 F1620 X105.146 Y103.917 E72.11583
G0 F12000 X105.355 Y103.143
G1 F1620 X105.860 Y102.637 E72.14435
G0 F12000 X106.070 Y101.864
G1 F1620 X106.575 Y101.359 E72.17285
G0 F12000 X106.785 Y100.585
G1 F1620 X107.290 Y100.080 E72.20134
G10
G1 Z0.500
G0 F12000 X108.704 Y103.743
G1 Z0.400
G11
G1 F1620 X108.786 Y103.944 E72.20577
G1 X109.390 Y103.904 E72.22393
G1 X109.954 Y103.904 E72.24209
G1 X110.518 Y103.904 E72.26025
G1 X111.082 Y103.904 E72.27841
G1 X111.647 Y103.904 E72.29661
G1 X112.211 Y103.904 E72.31477
G1 X112.775 Y103.904 E72.33293
G1 X113.339 Y103.904 E72.35109
G1 X113.904 Y103.904 E72.36928
G1 X114.413 Y103.959 E72.38751
G1 X114.433 Y104.504 E72.40000
G1 X114.563 Y104.938 E72.41246
G1 X114.694 Y105.371 E72.42494
G1 X114.824 Y105.805 E72.43740
G1 X114.955 Y106.238 E72.44993
G1 X115.086 Y106.672 E72.46249
G1 X115.216 Y107.106 E72.47499
G1 X115.347 Y107.539 E72.48753
G1 X115.478 Y107.973 E72.50008
G1 X115.608 Y108.406 E72.51261
G1 X115.739 Y108.840 E72.52512
G1 X115.870 Y109.274 E72.53768
G1 X116.000 Y109.707 E72.55024
G1 X116.131 Y110.141 E72.56280
G1 X116.262 Y110.575 E72.57536
G1 X116.392 Y111.009 E72.58795
G1 X116.523 Y111.442 E72.60053
G1 X116.653 Y111.876 E72.61312
G1 X116.785 Y112.308 E72.62559
G1 X116.915 Y112.742 E72.63805
G1 X117.046 Y113.176 E72.65052
G1 X117.177 Y113.609 E72.66300
G1 X117.308 Y114.043 E72.67547
G1 X117.438 Y114.477 E72.68793
G1 X117.569 Y114.910 E72.70042
G1 X117.699 Y115.345 E72.71299
G1 X117.830 Y115.778 E72.72557
G1 X117.960 Y116.211 E72.73814
G1 X118.091 Y116.646 E72.75072
G1 X118.222 Y117.078 E72.76322
G1 X118.352 Y117.513 E72.77580
G1 X118.483 Y117.946 E72.78838
G1 X118.614 Y118.379 E72.80095
G1 X118.744 Y118.813 E72.81350
G1 X118.875 Y119.246 E72.82599
G1 X119.007 Y119.679 E72.83844
G1 X119.137 Y120.113 E72.85094
G1 X119.267 Y120.547 E72.86354
G1 X119.398 Y120.981 E72.87609
G1 X119.529 Y121.414 E72.88862
G1 X119.659 Y121.848 E72.90122
G1 X119.791 Y122.281 E72.91371
G1 X119.921 Y122.715 E72.92617
G1 X119.876 Y123.042 E72.93934
G10
G1 Z0.500
G0 F12000 X103.931 Y120.366
G1 Z0.400
G11
G1 F1620 X103.602 Y120.978 E72.96276
G1 X103.357 Y121.786 E72.98615
G1 X103.114 Y122.594 E73.00943
G1 X102.871 Y123.401 E73.03269
G1 X102.542 Y124.013 E73.06042
G0 F12000 X102.693 Y124.059
G0 X103.910 Y120.021
G0 X103.759 Y119.974
G1 F1620 X104.087 Y119.364 E73.08369
G1 X104.332 Y118.554 E73.10713
G1 X104.575 Y117.747 E73.13064
G1 X104.818 Y116.940 E73.15407
G1 X105.062 Y116.132 E73.17745
G1 X105.305 Y115.324 E73.20091
G1 X105.547 Y114.518 E73.22422
G1 X105.791 Y113.710 E73.24752
G1 X106.034 Y112.903 E73.27078
G1 X106.277 Y112.095 E73.29406
G1 X106.522 Y111.285 E73.31750
G1 X106.766 Y110.478 E73.34094
G1 X107.009 Y109.671 E73.36437
G1 X107.252 Y108.863 E73.38774
G1 X107.495 Y108.056 E73.41109
G1 X107.738 Y107.249 E73.43443
G1 X107.981 Y106.441 E73.45781
G1 X108.224 Y105.634 E73.48115
G1 X108.468 Y104.826 E73.50445
G1 X108.796 Y104.216 E73.53208
G10
G1 Z0.500
G0 F12000 X115.926 Y100.472
G1 Z0.400
G11
G1 F1620 X115.896 Y100.219 E73.54016
G1 X115.694 Y99.857 E73.54820
G1 X115.491 Y99.495 E73.55621
G1 X115.289 Y99.133 E73.56421
G1 X115.095 Y98.763 E73.57219
G1 X114.488 Y98.806 E73.59039
G1 X113.924 Y98.806 E73.60855
G1 X113.359 Y98.806 E73.62674
G1 X112.795 Y98.806 E73.64490
G1 X112.231 Y98.806 E73.66306
G1 X111.666 Y98.806 E73.68125
G1 X111.102 Y98.806 E73.69941
G1 X110.538 Y98.806 E73.71758
G1 X109.974 Y98.806 E73.73574
G1 X109.409 Y98.806 E73.75393
G1 X108.845 Y98.806 E73.77209
G1 X108.402 Y98.968 E73.79091
G0 F12000 X108.160 Y98.645
G1 F1620 X107.500 Y99.306 E73.82818
G10
G1 Z0.500
G0 F12000 X116.129 Y100.833
G1 Z0.400
G11
G1 F1620 X116.372 Y100.872 E73.83615
G1 X116.503 Y101.305 E73.84412
G1 X116.706 Y101.666 E73.85207
G1 X116.908 Y102.028 E73.86011
G1 X117.110 Y102.390 E73.86815
G1 X117.312 Y102.752 E73.87620
G1 X117.515 Y103.114 E73.88425
G1 X117.717 Y103.476 E73.89229
G1 X117.920 Y103.838 E73.90034
G1 X118.122 Y104.200 E73.90838
G1 X118.324 Y104.562 E73.91642
G1 X118.526 Y104.924 E73.92447
G1 X118.729 Y105.286 E73.93248
G1 X118.931 Y105.648 E73.94052
G1 X119.134 Y106.010 E73.94857
G1 X119.336 Y106.372 E73.95665
G1 X119.538 Y106.734 E73.96474
G1 X119.740 Y107.095 E73.97280
G1 X119.943 Y107.457 E73.98082
G1 X120.145 Y107.819 E73.98886
G1 X120.348 Y108.181 E73.99691
G1 X120.550 Y108.543 E74.00495
G1 X120.752 Y108.905 E74.01299
G1 X120.955 Y109.267 E74.02104
G1 X121.157 Y109.629 E74.02909
G1 X121.359 Y109.991 E74.03713
G1 X121.562 Y110.353 E74.04518
G1 X121.764 Y110.715 E74.05326
G1 X121.966 Y111.077 E74.06131
G1 X122.169 Y111.439 E74.06936
G1 X122.371 Y111.801 E74.07744
G1 X122.572 Y112.164 E74.08553
G1 X122.775 Y112.526 E74.09350
G1 X122.977 Y112.888 E74.10146
G1 X123.179 Y113.250 E74.10942
G1 X123.382 Y113.611 E74.11733
