;FLAVOR:UltiGCode
;TIME:569
;MATERIAL:735
;MATERIAL2:0
;NOZZLE_DIAMETER:0.400000
;NOZZLE_DIAMETER2:0.400000
;MTYPE:PLA

;Layer count: 38
;LAYER:0
M107
G0 F12000 X105.794 Y95.107 Z0.300
;TYPE:SKIRT
G1 F1200 X117.207 Y95.107 E1.36956
G1 X126.145 Y111.099 E3.56799
G1 X128.898 Y115.988 E4.24129
G1 X128.878 Y115.988 E4.24369
G1 X130.242 Y118.427 E4.57903
G1 X132.856 Y123.098 E5.22135
G1 X132.854 Y123.098 E5.22159
G1 X134.307 Y125.694 E5.57859
G1 X134.301 Y125.694 E5.57931
G1 X135.530 Y127.894 E5.88171
G1 X117.641 Y127.894 E8.02839
G1 X116.977 Y125.694 E8.30415
G1 X116.976 Y125.694 E8.30427
G1 X116.497 Y124.103 E8.50366
G1 X115.421 Y120.536 E8.95075
G1 X115.422 Y120.536 E8.95087
G1 X114.990 Y119.102 E9.13059
G1 X113.986 Y115.783 E9.54669
G1 X113.989 Y115.783 E9.54705
G1 X113.430 Y113.936 E9.77862
G1 X112.571 Y111.112 E10.13283
G1 X112.580 Y111.112 E10.13391
G1 X111.830 Y108.631 E10.44494
G1 X111.835 Y108.631 E10.44554
G1 X111.526 Y107.605 E10.57412
G1 X111.474 Y107.605 E10.58036
G1 X111.165 Y108.631 E10.70894
G1 X111.168 Y108.631 E10.70930
G1 X110.419 Y111.112 E11.02029
G1 X110.420 Y111.112 E11.02041
G1 X109.009 Y115.783 E11.60595
G1 X109.011 Y115.783 E11.60619
G1 X108.274 Y118.226 E11.91240
G1 X107.521 Y120.727 E12.22582
G1 X107.520 Y120.727 E12.22594
G1 X106.805 Y123.098 E12.52312
G1 X106.024 Y125.694 E12.84843
G1 X106.022 Y125.694 E12.84867
G1 X105.357 Y127.894 E13.12447
G1 X87.473 Y127.894 E15.27055
G1 X88.700 Y125.694 E15.57283
G1 X88.696 Y125.694 E15.57331
G1 X90.504 Y122.460 E16.01792
G1 X92.758 Y118.427 E16.57234
G1 X94.122 Y115.988 E16.90768
G1 X94.116 Y115.988 E16.90840
G1 X96.691 Y111.391 E17.54069
G1 X105.794 Y95.107 E19.77936
G10
G1 Z0.400
G0 F12000 X107.789 Y98.507
;TYPE:WALL-OUTER
G1 Z0.300
G11
G1 F1200 X115.211 Y98.507 E20.67000
G1 X121.696 Y110.109 E22.26497
G1 X120.697 Y110.109 E22.38485
G1 X121.771 Y112.031 E22.64906
G1 X122.770 Y112.031 E22.76894
G1 X123.082 Y112.588 E22.84555
G1 X122.083 Y112.588 E22.96543
G1 X123.182 Y114.554 E23.23571
G1 X124.181 Y114.554 E23.35559
G1 X124.445 Y115.027 E23.42059
G1 X123.446 Y115.027 E23.54047
G1 X124.444 Y116.812 E23.78588
G1 X125.443 Y116.812 E23.90576
G1 X125.707 Y117.285 E23.97076
G1 X124.708 Y117.285 E24.09064
G1 X125.793 Y119.225 E24.35738
G1 X126.792 Y119.225 E24.47726
G1 X127.056 Y119.698 E24.54226
G1 X126.057 Y119.698 E24.66214
G1 X127.244 Y121.821 E24.95402
G1 X128.243 Y121.821 E25.07390
G1 X128.507 Y122.294 E25.13890
G1 X127.508 Y122.294 E25.25878
G1 X128.426 Y123.936 E25.48452
G1 X129.425 Y123.936 E25.60440
G1 X129.737 Y124.494 E25.68112
G1 X120.166 Y124.494 E26.82964
G1 X119.998 Y123.936 E26.89957
G1 X120.810 Y123.936 E26.99701
G1 X120.810 Y124.410 E27.05389
G1 X123.810 Y124.410 E27.41389
G1 X123.810 Y121.410 E27.77389
G1 X120.810 Y121.410 E28.13389
G1 X120.810 Y123.311 E28.36201
G1 X120.504 Y122.294 E28.48945
G1 X119.504 Y122.294 E28.60945
G1 X119.337 Y121.737 E28.67923
G1 X120.336 Y121.737 E28.79911
G1 X119.735 Y119.741 E29.04925
G1 X118.734 Y119.741 E29.16937
G1 X118.566 Y119.183 E29.23930
G1 X119.566 Y119.183 E29.35930
G1 X119.007 Y117.327 E29.59190
G1 X118.007 Y117.327 E29.71190
G1 X117.840 Y116.770 E29.78168
G1 X118.839 Y116.770 E29.90156
G1 X118.327 Y115.069 E30.11473
G1 X117.326 Y115.069 E30.23485
G1 X117.158 Y114.512 E30.30466
G1 X118.158 Y114.512 E30.42466
G1 X117.579 Y112.588 E30.66577
G1 X116.578 Y112.588 E30.78589
G1 X116.410 Y112.031 E30.85571
G1 X117.410 Y112.031 E30.97571
G1 X116.832 Y110.109 E31.21655
G1 X115.832 Y110.109 E31.33655
G1 X114.053 Y104.205 E32.07649
G1 X108.947 Y104.205 E32.68921
G1 X107.169 Y110.109 E33.42912
G1 X106.168 Y110.109 E33.54924
G1 X105.590 Y112.031 E33.79009
G1 X106.590 Y112.031 E33.91009
G1 X106.422 Y112.588 E33.97990
G1 X105.421 Y112.588 E34.10002
G1 X104.842 Y114.512 E34.34113
G1 X105.842 Y114.512 E34.46113
G1 X105.674 Y115.069 E34.53094
G1 X104.673 Y115.069 E34.65106
G1 X104.161 Y116.770 E34.86423
G1 X105.160 Y116.770 E34.98411
G1 X104.993 Y117.327 E35.05389
G1 X103.993 Y117.327 E35.17389
G1 X103.434 Y119.183 E35.40649
G1 X104.434 Y119.183 E35.52649
G1 X104.266 Y119.741 E35.59642
G1 X103.265 Y119.741 E35.71654
G1 X102.664 Y121.737 E35.96668
G1 X103.663 Y121.737 E36.08656
G1 X103.496 Y122.294 E36.15634
G1 X102.496 Y122.294 E36.27634
G1 X102.137 Y123.487 E36.42584
G1 X102.137 Y121.391 E36.67736
G1 X99.139 Y121.391 E37.03712
G1 X99.139 Y124.302 E37.38644
G1 X102.137 Y124.302 E37.74620
G1 X102.137 Y123.936 E37.79012
G1 X103.002 Y123.936 E37.89392
G1 X102.834 Y124.494 E37.96385
G1 X93.263 Y124.494 E39.11237
G1 X93.574 Y123.936 E39.18903
G1 X94.574 Y123.936 E39.30903
G1 X95.492 Y122.294 E39.53477
G1 X94.493 Y122.294 E39.65465
G1 X94.757 Y121.821 E39.71966
G1 X95.756 Y121.821 E39.83954
G1 X96.943 Y119.698 E40.13141
G1 X95.944 Y119.698 E40.25129
G1 X96.208 Y119.225 E40.31630
G1 X97.207 Y119.225 E40.43618
G1 X98.292 Y117.285 E40.70291
G1 X97.293 Y117.285 E40.82279
G1 X97.557 Y116.812 E40.88779
G1 X98.556 Y116.812 E41.00767
G1 X99.554 Y115.027 E41.25308
G1 X98.555 Y115.027 E41.37296
G1 X98.819 Y114.554 E41.43796
G1 X99.818 Y114.554 E41.55784
G1 X100.917 Y112.588 E41.82812
G1 X99.917 Y112.588 E41.94812
G1 X100.229 Y112.031 E42.02473
G1 X101.229 Y112.031 E42.14473
G1 X102.303 Y110.109 E42.40894
G1 X101.304 Y110.109 E42.52882
G1 X107.789 Y98.507 E44.12379
G0 F12000 X107.995 Y99.107
G1 F1200 X102.156 Y109.552 E45.55974
G1 X103.155 Y109.552 E45.67962
G1 X95.116 Y123.936 E47.65698
G1 X98.539 Y123.936 E48.06774
G1 X98.539 Y120.791 E48.44514
G1 X102.367 Y120.791 E48.90450
G1 X105.755 Y109.552 E50.31313
G1 X106.755 Y109.552 E50.43313
G1 X108.546 Y103.605 E51.17843
G1 X114.453 Y103.605 E51.88727
G1 X116.245 Y109.552 E52.63261
G1 X117.246 Y109.552 E52.75273
G1 X120.633 Y120.791 E54.16132
G1 X124.461 Y120.791 E54.62068
G1 X124.461 Y123.936 E54.99808
G1 X127.884 Y123.936 E55.40884
G1 X119.845 Y109.552 E57.38620
G1 X120.844 Y109.552 E57.50608
G1 X115.005 Y99.107 E58.94203
G1 X107.995 Y99.107 E59.78323
G0 F12000 X107.849 Y99.081
;TYPE:SKIN
G1 F1200 X107.843 Y98.793 E59.80717
G1 X108.423 Y98.807 E59.86148
G1 X108.989 Y98.807 E59.91564
G1 X109.554 Y98.807 E59.96988
G1 X110.120 Y98.807 E60.02422
G1 X110.686 Y98.807 E60.07838
G1 X111.251 Y98.807 E60.13262
G1 X111.817 Y98.807 E60.18696
G1 X112.383 Y98.807 E60.24113
G1 X112.949 Y98.807 E60.29529
G1 X113.514 Y98.807 E60.34953
G1 X114.080 Y98.807 E60.40387
G1 X114.523 Y98.967 E60.46039
G0 F12000 X114.769 Y98.647
G1 F1200 X115.580 Y99.458 E60.59802
G10
G1 Z0.400
G0 F12000 X107.646 Y99.443
G1 Z0.300
G11
G1 F1200 X107.402 Y99.482 E60.62196
G1 X107.271 Y99.917 E60.64595
G1 X107.068 Y100.279 E60.66973
G1 X106.865 Y100.642 E60.69369
G1 X106.662 Y101.005 E60.71764
G1 X106.459 Y101.368 E60.74160
G1 X106.257 Y101.731 E60.76553
G1 X106.054 Y102.094 E60.78936
G1 X105.851 Y102.456 E60.81314
G1 X105.648 Y102.819 E60.83710
G1 X105.445 Y103.182 E60.86105
G1 X105.243 Y103.545 E60.88498
G1 X105.040 Y103.908 E60.90894
G1 X104.837 Y104.271 E60.93289
G1 X104.634 Y104.634 E60.95673
G1 X104.431 Y104.996 E60.98051
G1 X104.228 Y105.360 E61.00451
G1 X104.025 Y105.723 E61.02822
G1 X103.823 Y106.085 E61.05210
G1 X103.620 Y106.448 E61.07605
G1 X103.417 Y106.811 E61.09989
G1 X103.214 Y107.174 E61.12372
G1 X103.011 Y107.537 E61.14742
G1 X102.808 Y107.900 E61.17113
G1 X102.605 Y108.262 E61.19466
G1 X102.403 Y108.625 E61.21847
G1 X102.200 Y108.989 E61.24247
G1 X101.997 Y109.351 E61.26601
G1 X102.010 Y109.647 E61.28974
G1 X102.398 Y110.034 E61.33659
G1 X102.434 Y110.354 E61.36026
G1 X102.231 Y110.717 E61.38397
G1 X102.028 Y111.080 E61.40767
G1 X101.826 Y111.442 E61.43143
G1 X101.623 Y111.806 E61.45543
G1 X101.490 Y112.239 E61.47922
G1 X100.994 Y112.308 E61.52158
G1 X100.428 Y112.308 E61.56845
G1 X100.201 Y112.364 E61.59650
G0 F12000 X101.046 Y112.642
G1 F1200 X101.014 Y112.894 E61.62020
G1 X100.812 Y113.257 E61.64401
G1 X100.609 Y113.620 E61.66784
G1 X100.406 Y113.982 E61.69162
G1 X100.203 Y114.345 E61.71558
G1 X100.172 Y114.597 E61.74604
G10
G1 Z0.400
G0 F12000 X104.059 Y115.656
G1 Z0.300
G11
G1 F1200 X104.105 Y115.985 E61.78381
G1 X103.974 Y116.420 E61.82143
G1 X104.101 Y116.828 E61.85912
G1 X104.602 Y117.047 E61.90603
G1 X104.920 Y117.082 E61.94442
G0 F12000 X103.892 Y117.185
G1 F1200 X103.600 Y117.177 E61.98254
G1 X103.581 Y117.724 E62.02031
G1 X103.450 Y118.158 E62.05785
G1 X103.320 Y118.593 E62.09544
G1 X103.189 Y119.028 E62.13319
G1 X103.621 Y119.461 E62.21228
G1 X104.043 Y119.600 E62.26559
G0 F12000 X103.103 Y119.790
G1 F1200 X102.881 Y119.568 E62.30327
G0 F12000 X103.033 Y119.614
G0 X104.263 Y115.398
G0 X104.412 Y115.443
G1 F1200 X104.366 Y115.114 E62.34084
G1 X104.498 Y114.681 E62.37832
G1 X104.630 Y114.246 E62.41623
G1 X104.760 Y113.811 E62.45410
G1 X104.891 Y113.376 E62.49198
G1 X105.022 Y112.941 E62.52987
G1 X105.175 Y112.529 E62.56758
G1 X105.284 Y112.072 E62.61311
G1 X105.415 Y111.638 E62.65105
G1 X105.546 Y111.203 E62.68880
G1 X105.677 Y110.768 E62.72656
G1 X105.808 Y110.333 E62.76431
G1 X105.888 Y109.848 E62.80206
G1 X106.435 Y109.829 E62.84886
G1 X107.001 Y109.830 E62.89555
G1 X107.101 Y109.364 E62.93316
G1 X107.232 Y108.929 E62.97063
G1 X107.363 Y108.494 E63.00811
G1 X107.494 Y108.059 E63.04559
G1 X107.625 Y107.625 E63.08313
G1 X107.755 Y107.190 E63.12059
G1 X107.886 Y106.755 E63.15807
G1 X108.017 Y106.320 E63.19555
G1 X108.148 Y105.885 E63.23302
G1 X108.279 Y105.450 E63.27050
G1 X108.410 Y105.015 E63.30798
G1 X108.540 Y104.581 E63.34550
G1 X108.684 Y104.158 E63.38317
G1 X108.872 Y103.781 E63.42487
G1 X109.561 Y103.904 E63.47904
G1 X110.127 Y103.904 E63.53304
G1 X110.693 Y103.904 E63.58704
G1 X111.258 Y103.904 E63.64111
G1 X111.824 Y103.904 E63.69510
G1 X112.390 Y103.904 E63.74910
G1 X112.956 Y103.904 E63.80310
G1 X113.521 Y103.904 E63.85717
G1 X114.101 Y104.201 E63.91132
G1 X114.567 Y104.950 E63.98145
G1 X114.811 Y105.760 E64.05149
G1 X115.055 Y106.570 E64.12154
G1 X115.298 Y107.379 E64.19148
G1 X115.542 Y108.188 E64.26144
G1 X115.786 Y108.997 E64.33166
G1 X116.155 Y109.650 E64.40164
G1 X116.618 Y109.830 E64.44844
G1 X117.220 Y110.432 E64.54038
G1 X117.463 Y111.240 E64.61075
G1 X117.669 Y112.012 E64.68122
G1 X117.952 Y112.860 E64.76490
G1 X118.195 Y113.670 E64.83517
G1 X118.427 Y114.467 E64.90540
G1 X118.683 Y115.289 E64.98004
G1 X118.927 Y116.099 E65.05034
G1 X119.257 Y116.712 E65.13388
G0 F12000 X118.890 Y116.910
G1 F1200 X119.501 Y117.521 E65.23757
G0 F12000 X119.330 Y117.916
G1 F1200 X119.659 Y118.528 E65.30782
G1 X119.989 Y119.141 E65.39136
G0 F12000 X119.605 Y119.322
G1 F1200 X120.233 Y119.950 E65.49794
G10
G1 Z0.400
G0 F12000 X124.289 Y117.218
G1 Z0.300
G11
G1 F1200 X124.784 Y117.430 E65.58259
G1 X124.871 Y116.951 E65.61516
G1 X125.347 Y117.144 E65.67679
G0 F12000 X125.006 Y118.501
G1 F1200 X125.688 Y119.183 E65.76157
G1 X125.892 Y119.670 E65.79420
G1 X126.223 Y120.283 E65.87780
G0 F12000 X126.439 Y121.065
G1 F1200 X127.137 Y121.763 E65.96250
G1 X127.342 Y122.250 E65.99515
G1 X127.656 Y122.847 E66.07610
G0 F12000 X127.872 Y123.629
G1 F1200 X128.595 Y124.353 E66.19888
G0 F12000 X128.884 Y124.076
G1 F1200 X129.161 Y124.353 E66.24589
G0 F12000 X128.030 Y124.353
G1 F1200 X127.608 Y124.214 E66.29294
G1 X127.042 Y124.214 E66.33980
G1 X126.477 Y124.214 E66.38659
G1 X125.911 Y124.214 E66.43362
G1 X125.345 Y124.214 E66.48048
G1 X124.780 Y124.214 E66.52727
G1 X124.339 Y124.056 E66.57435
G1 X124.134 Y123.569 E66.63712
G1 X124.134 Y123.003 E66.70011
G1 X124.134 Y122.437 E66.76294
G1 X124.134 Y121.872 E66.82566
G1 X123.882 Y121.336 E66.88856
G1 X123.362 Y121.099 E66.94599
G1 X122.796 Y121.099 E67.00338
G1 X122.231 Y121.099 E67.06067
G1 X121.665 Y121.099 E67.11806
G1 X121.099 Y121.099 E67.17546
G1 X120.562 Y120.845 E67.23284
G1 X120.063 Y120.346 E67.31752
G0 F12000 X120.307 Y121.155
G1 F1200 X120.565 Y121.697 E67.37893
G1 X120.421 Y122.118 E67.41404
G1 X119.897 Y121.876 E67.48330
G10
G1 Z0.400
G0 F12000 X103.202 Y122.153
G1 Z0.300
G11
G1 F1200 X102.781 Y122.014 E67.53025
G1 X102.277 Y121.793 E67.59629
G0 F12000 X102.579 Y121.529
G1 F1200 X101.979 Y120.930 E67.69803
G0 F12000 X101.734 Y121.250
G1 F1200 X101.290 Y121.090 E67.75240
G1 X100.725 Y121.090 E67.80664
G1 X100.159 Y121.090 E67.86080
G1 X99.593 Y121.090 E67.91514
G1 X99.075 Y121.136 E67.96927
G1 X98.678 Y121.306 E68.02369
G1 X98.838 Y122.031 E68.07804
G1 X98.838 Y122.597 E68.13237
G1 X98.838 Y123.163 E68.18671
G1 X98.838 Y123.728 E68.24095
G1 X98.806 Y124.262 E68.29535
G1 X98.192 Y124.214 E68.34247
G1 X97.626 Y124.214 E68.38950
G1 X97.061 Y124.214 E68.43662
G1 X96.495 Y124.214 E68.48366
G1 X95.929 Y124.214 E68.53069
G1 X95.364 Y124.214 E68.57781
G1 X94.921 Y124.054 E68.62487
G1 X94.930 Y123.780 E68.64905
G1 X95.133 Y123.418 E68.67308
G1 X95.336 Y123.055 E68.69728
G1 X95.539 Y122.692 E68.72149
G1 X95.425 Y122.295 E68.74565
G1 X95.372 Y121.960 E68.77811
G1 X96.015 Y122.037 E68.82202
G1 X96.147 Y121.603 E68.84597
G1 X96.350 Y121.240 E68.86993
G1 X96.553 Y120.877 E68.89388
G1 X96.756 Y120.515 E68.91766
G1 X96.958 Y120.151 E68.94164
G1 X97.161 Y119.789 E68.96555
G1 X97.207 Y119.268 E69.01874
G1 X97.637 Y119.134 E69.04266
G1 X97.769 Y118.700 E69.06674
G1 X97.972 Y118.337 E69.09070
G1 X98.175 Y117.974 E69.11466
G1 X98.378 Y117.611 E69.13861
G1 X98.301 Y117.251 E69.16258
G1 X97.814 Y117.047 E69.19521
G1 X97.565 Y117.081 E69.22537
G0 F12000 X98.566 Y116.951
G1 F1200 X98.854 Y116.956 E69.25699
G1 X98.987 Y116.523 E69.28091
G1 X99.189 Y116.160 E69.30484
G1 X99.392 Y115.797 E69.32867
G1 X99.595 Y115.434 E69.35250
G1 X99.798 Y115.071 E69.37646
G1 X99.516 Y114.789 E69.42192
G1 X99.137 Y114.693 E69.46884
G10
G1 Z0.400
G0 F12000 X96.454 Y119.364
G1 Z0.300
G11
G1 F1200 X96.647 Y119.557 E69.50159
G0 F12000 X94.376 Y124.075
G1 F1200 X94.371 Y124.353 E69.54872
G1 X93.811 Y124.075 E69.62374
G0 F12000 X93.811 Y124.236
G0 X93.886 Y124.206
G0 X98.798 Y124.153
G0 X98.798 Y121.050
G0 X102.103 Y121.119
G0 X102.640 Y120.919
G0 X102.488 Y120.873
G1 F1200 X102.775 Y120.876 E69.66129
G1 X102.795 Y120.331 E69.69859
G1 X102.750 Y120.003 E69.73832
G10
G1 Z0.400
G0 F12000 X105.028 Y114.928
G1 Z0.300
G11
G1 F1200 X105.034 Y114.651 E69.78520
G1 X105.576 Y114.910 E69.85728
G10
G1 Z0.400
G0 F12000 X105.941 Y112.446
G1 Z0.300
G11
G1 F1200 X105.947 Y112.170 E69.90407
G1 X106.363 Y112.302 E69.95645
G10
G1 Z0.400
G0 F12000 X102.809 Y109.880
G1 Z0.300
G11
G1 F1200 X102.620 Y109.691 E69.98852
G0 F12000 X101.765 Y109.967
G1 F1200 X101.623 Y109.825 E70.01262
G10
G1 Z0.400
G0 F12000 X114.210 Y103.745
G1 Z0.300
G11
G1 F1200 X114.409 Y103.943 E70.04631
G0 F12000 X117.234 Y102.809
G1 F1200 X117.731 Y103.306 E70.13065
G0 F12000 X117.951 Y104.091
G1 F1200 X118.448 Y104.588 E70.21499
G0 F12000 X118.668 Y105.375
G1 F1200 X119.165 Y105.871 E70.29925
G0 F12000 X119.385 Y106.657
G1 F1200 X119.882 Y107.154 E70.38360
G10
G1 Z0.400
G0 F12000 X116.979 Y112.171
G1 Z0.300
G11
G1 F1200 X117.255 Y112.447 E70.43044
G0 F12000 X117.763 Y114.652
G1 F1200 X117.757 Y114.928 E70.47731
G1 X117.407 Y114.861 E70.52007
G10
G1 Z0.400
G0 F12000 X118.324 Y116.910
G1 Z0.300
G11
G1 F1200 X118.600 Y117.186 E70.56691
G0 F12000 X119.040 Y119.322
G1 F1200 X119.317 Y119.600 E70.61401
G10
G1 Z0.400
G0 F12000 X117.014 Y102.024
G1 Z0.300
G11
G1 F1200 X116.517 Y101.526 E70.69843
G0 F12000 X116.297 Y100.741
G1 F1200 X115.800 Y100.243 E70.78286
G0 F12000 X115.941 Y100.166
G0 X120.243 Y107.863
G0 X120.102 Y107.940
G1 F1200 X120.599 Y108.436 E70.86712
G0 F12000 X120.819 Y109.223
G1 F1200 X121.158 Y109.844 E70.95139
G1 X120.604 Y109.856 E70.99843
G1 X120.157 Y109.692 E71.05557
G0 F12000 X120.706 Y110.807
G1 F1200 X121.203 Y111.304 E71.13991
G0 F12000 X121.423 Y112.089
G1 F1200 X121.995 Y112.378 E71.22412
G1 X122.491 Y112.309 E71.27099
G1 X122.752 Y112.287 E71.30242
G0 F12000 X122.139 Y113.371
G1 F1200 X122.637 Y113.869 E71.38694
G0 F12000 X122.856 Y114.653
G1 F1200 X123.504 Y115.019 E71.47156
G1 X123.744 Y114.694 E71.50404
G1 X124.187 Y114.853 E71.56052
G0 F12000 X123.573 Y115.936
G1 F1200 X124.072 Y116.435 E71.64520
G10
G1 Z0.400
G0 F12000 X126.436 Y119.365
G1 Z0.300
G11
G1 F1200 X126.629 Y119.558 E71.67795
G0 F12000 X127.900 Y121.961
G1 F1200 X128.093 Y122.154 E71.71071
G10
G1 Z0.400
G0 F12000 X124.320 Y121.209
G1 Z0.300
