;FLAVOR:UltiGCode
;TIME:154
;MATERIAL:127
;MATERIAL2:0
;NOZZLE_DIAMETER:0.400000
;NOZZLE_DIAMETER2:0.400000
;MTYPE:PLA

;Layer count: 25
;LAYER:0
M107
G0 F12000 X110.762 Y100.885 Z0.300
;TYPE:SKIRT
G1 F1200 X122.669 Y100.885 E1.42884
G1 X120.529 Y107.992 E2.31950
G1 X116.272 Y122.116 E4.08969
G1 X98.894 Y122.116 E6.17505
G1 X110.762 Y100.885 E9.09381
G0 F12000 X110.996 Y101.285
G1 F1200 X122.130 Y101.285 E10.42989
G1 X120.146 Y107.876 E11.25586
G1 X115.975 Y121.716 E12.99044
G1 X99.576 Y121.716 E14.95832
G1 X110.996 Y101.285 E17.76705
G0 F12000 X111.231 Y101.685
G1 F1200 X121.592 Y101.685 E19.01037
G1 X115.678 Y121.316 E21.47067
G1 X100.258 Y121.316 E23.32107
G1 X111.231 Y101.685 E26.01982
G10
G1 Z0.400
G0 F12000 X111.423 Y108.595
;TYPE:FILL
G1 Z0.300
G11
G1 F1200 X111.563 Y108.735 E26.04358
G0 F12000 X109.396 Y112.224
G1 F1200 X109.536 Y112.364 E26.06734
G0 F12000 X109.399 Y112.287
G0 X107.441 Y115.792
G0 X107.577 Y115.867
G1 F1200 X107.297 Y116.175 E26.15050
G1 X107.368 Y115.853 E26.19007
G10
G1 Z0.400
G0 F12000 X106.595 Y117.916
;TYPE:WALL-OUTER
G1 Z0.300
G11
G1 F1200 X106.055 Y117.916 E26.25487
G1 X113.226 Y105.085 E28.01874
G1 X113.766 Y105.085 E28.08354
G1 X106.595 Y117.916 E29.84741
G0 F12000 X106.595 Y117.626
;TYPE:SKIN
G1 F1200 X106.626 Y117.374 E29.87110
G1 X106.829 Y117.012 E29.89463
G1 X107.032 Y116.649 E29.91821
G1 X107.235 Y116.286 E29.94167
G1 X107.438 Y115.923 E29.96513
G1 X107.640 Y115.560 E29.98868
G1 X107.843 Y115.197 E30.01226
G1 X108.046 Y114.834 E30.03584
G1 X108.249 Y114.471 E30.05943
G1 X108.451 Y114.108 E30.08298
G1 X108.654 Y113.745 E30.10656
G1 X108.857 Y113.383 E30.13009
G1 X109.060 Y113.020 E30.15368
G1 X109.263 Y112.657 E30.17713
G1 X109.465 Y112.294 E30.20069
G1 X109.668 Y111.931 E30.22427
G1 X109.871 Y111.568 E30.24785
G1 X110.074 Y111.205 E30.27143
G1 X110.276 Y110.842 E30.29499
G1 X110.479 Y110.479 E30.31857
G1 X110.682 Y110.117 E30.34210
G1 X110.885 Y109.754 E30.36568
G1 X111.087 Y109.390 E30.38954
G1 X111.290 Y109.028 E30.41307
G1 X111.493 Y108.665 E30.43665
G1 X111.696 Y108.302 E30.46023
G1 X111.899 Y107.939 E30.48382
G1 X112.101 Y107.576 E30.50737
G1 X112.304 Y107.213 E30.53095
G1 X112.507 Y106.850 E30.55453
G1 X112.710 Y106.488 E30.57807
G1 X112.912 Y106.124 E30.60192
G1 X113.115 Y105.761 E30.62550
G1 X113.287 Y105.367 E30.64910
G1 X113.490 Y105.288 E30.67524
G10
G1 Z0.400
G0 F12000 X116.435 Y105.085
;TYPE:WALL-OUTER
G1 Z0.300
G11
G1 F1200 X117.017 Y105.085 E30.74508
G1 X113.238 Y117.627 E32.31696
G1 X113.238 Y115.416 E32.58228
G1 X110.239 Y115.416 E32.94216
G1 X110.239 Y117.916 E33.24216
G1 X109.639 Y117.916 E33.31416
G1 X109.639 Y114.816 E33.68616
G1 X113.503 Y114.816 E34.14984
G1 X116.435 Y105.085 E35.36941
G0 F12000 X116.471 Y105.440
;TYPE:SKIN
G1 F1200 X116.517 Y105.770 E35.40740
G1 X116.387 Y106.204 E35.44532
G1 X116.256 Y106.639 E35.48320
G1 X116.125 Y107.074 E35.52096
G1 X115.994 Y107.509 E35.55871
G1 X115.863 Y107.944 E35.59660
G1 X115.733 Y108.379 E35.63446
G1 X115.601 Y108.813 E35.67229
G1 X115.470 Y109.248 E35.71018
G1 X115.339 Y109.682 E35.74813
G1 X115.209 Y110.117 E35.78599
G1 X115.078 Y110.552 E35.82388
G1 X114.947 Y110.987 E35.86177
G1 X114.816 Y111.422 E35.89952
G1 X114.685 Y111.857 E35.93727
G1 X114.554 Y112.291 E35.97508
G1 X114.423 Y112.726 E36.01283
G1 X114.292 Y113.161 E36.05059
G1 X114.161 Y113.596 E36.08847
G1 X114.030 Y114.030 E36.12615
G1 X113.899 Y114.465 E36.16376
G1 X113.743 Y114.874 E36.20158
G1 X113.749 Y115.446 E36.24792
G1 X113.336 Y115.316 E36.30000
G1 X112.852 Y115.115 E36.35425
G1 X112.287 Y115.115 E36.40832
G1 X111.721 Y115.115 E36.46248
G1 X111.155 Y115.115 E36.51665
G1 X110.590 Y115.115 E36.57072
G1 X109.963 Y115.054 E36.62496
G1 X109.939 Y115.595 E36.67922
G1 X109.939 Y116.161 E36.73356
G1 X109.939 Y116.727 E36.78772
G1 X109.939 Y117.292 E36.84196
G1 X110.099 Y117.736 E36.89860
G0 F12000 X109.939 Y117.706
G0 X109.898 Y115.075
G0 X113.579 Y115.075
G0 X113.538 Y115.923
G0 X113.377 Y115.923
G1 F1200 X113.552 Y116.098 E36.92830
;LAYER:1
M106 S5
G10
G1 Z0.400
G0 F12000 X109.537 Y112.366 Z0.400
;TYPE:FILL
G1 Z0.400
G11
G1 F1140 X109.393 Y112.222 E36.93642
G0 F12000 X107.583 Y115.862
G1 F1140 X107.293 Y116.181 E36.96492
G1 X107.365 Y115.850 E36.97843
G10
G1 Z0.500
G0 F12000 X111.566 Y108.738
G1 Z0.400
G11
G1 F1140 X111.422 Y108.593 E36.98659
G0 F12000 X113.225 Y105.084
;TYPE:WALL-OUTER
G1 F1140 X113.769 Y105.084 E37.00829
G1 X106.596 Y117.917 E37.59489
G1 X106.052 Y117.917 E37.61659
G1 X113.225 Y105.084 E38.20319
G0 F12000 X113.431 Y105.223
;TYPE:SKIN
G1 F1140 X113.146 Y105.508 E38.21927
G0 F12000 X112.939 Y106.280
G1 F1140 X112.432 Y106.787 E38.24788
G0 F12000 X112.224 Y107.559
G1 F1140 X111.717 Y108.067 E38.27652
G0 F12000 X111.509 Y108.839
G1 F1140 X111.001 Y109.346 E38.30515
G0 F12000 X110.794 Y110.118
G1 F1140 X110.286 Y110.626 E38.33382
G0 F12000 X110.078 Y111.398
G1 F1140 X109.571 Y111.905 E38.36243
G0 F12000 X109.363 Y112.677
G1 F1140 X108.856 Y113.184 E38.39103
G0 F12000 X108.648 Y113.957
G1 F1140 X108.141 Y114.464 E38.41964
G0 F12000 X107.932 Y115.237
G1 F1140 X107.426 Y115.743 E38.44820
G0 F12000 X107.217 Y116.516
G1 F1140 X106.711 Y117.022 E38.47675
G10
G1 Z0.500
G0 F12000 X110.240 Y115.417
;TYPE:WALL-OUTER
G1 Z0.400
G11
G1 F1140 X110.240 Y117.917 E38.57650
G1 X109.638 Y117.917 E38.60052
G1 X109.638 Y114.815 E38.72429
G1 X113.502 Y114.815 E38.87846
G1 X116.435 Y105.084 E39.28398
G1 X117.019 Y105.084 E39.30728
G1 X113.237 Y117.634 E39.83027
G1 X113.237 Y115.417 E39.91873
G1 X110.240 Y115.417 E40.03831
G0 F12000 X110.100 Y115.326
;TYPE:SKIN
G1 F1140 X109.939 Y115.769 E40.05646
G1 X109.939 Y116.333 E40.07456
G1 X109.939 Y116.898 E40.09270
G1 X109.939 Y117.462 E40.11080
G1 X109.907 Y117.776 E40.12339
G0 F12000 X109.907 Y117.617
G0 X109.899 Y115.076
G0 X110.150 Y115.117
G0 X110.150 Y115.276
G1 F1140 X110.593 Y115.115 E40.14154
G1 X111.157 Y115.115 E40.15965
G1 X111.722 Y115.115 E40.17778
G1 X112.286 Y115.115 E40.19589
G1 X112.850 Y115.115 E40.21399
G1 X113.335 Y115.194 E40.23212
G1 X113.827 Y114.701 E40.26242
G1 X114.071 Y113.894 E40.28586
G1 X114.314 Y113.086 E40.30932
G1 X114.558 Y112.279 E40.33275
G1 X114.801 Y111.471 E40.35613
G1 X115.044 Y110.664 E40.37955
G1 X115.287 Y109.856 E40.40301
G1 X115.530 Y109.049 E40.42636
G1 X115.774 Y108.241 E40.44974
G1 X116.017 Y107.434 E40.47308
G1 X116.260 Y106.626 E40.49645
G1 X116.503 Y105.818 E40.51983
G1 X116.817 Y105.223 E40.54667
G10
G1 Z0.500
G0 F12000 X113.671 Y115.705
G1 Z0.400
G11
G1 F1140 X113.377 Y115.999 E40.56326
G0 F12000 X109.908 Y114.954
G1 F1140 X109.778 Y115.084 E40.57059
;LAYER:2
M106 S10
G0 F12000 X108.299 Y114.257 Z0.500
G0 X107.445 Y115.785
G0 X107.583 Y115.862
;TYPE:FILL
G1 F1080 X107.293 Y116.181 E40.59909
G1 X107.365 Y115.850 E40.61261
G10
G1 Z0.600
G0 F12000 X109.537 Y112.366
G1 Z0.500
G11
G1 F1080 X109.393 Y112.222 E40.62073
G0 F12000 X111.566 Y108.738
G1 F1080 X111.422 Y108.593 E40.62889
G0 F12000 X113.225 Y105.084
;TYPE:WALL-OUTER
G1 F1080 X113.769 Y105.084 E40.65059
G1 X106.596 Y117.917 E41.23719
G1 X106.052 Y117.917 E41.25889
G1 X113.225 Y105.084 E41.84549
G0 F12000 X113.405 Y105.224
;TYPE:SKIN
G1 F1080 X113.312 Y105.413 E41.84999
G1 X113.109 Y105.774 E41.85807
G1 X112.907 Y106.136 E41.86624
G1 X112.704 Y106.498 E41.87437
G1 X112.502 Y106.860 E41.88254
G1 X112.300 Y107.222 E41.89070
G1 X112.098 Y107.584 E41.89887
G1 X111.895 Y107.946 E41.90701
G1 X111.693 Y108.308 E41.91517
G1 X111.491 Y108.670 E41.92330
G1 X111.289 Y109.032 E41.93142
G1 X111.086 Y109.394 E41.93956
G1 X110.884 Y109.756 E41.94772
G1 X110.681 Y110.118 E41.95586
G1 X110.479 Y110.480 E41.96398
G1 X110.277 Y110.842 E41.97207
G1 X110.075 Y111.204 E41.98015
G1 X109.872 Y111.566 E41.98824
G1 X109.670 Y111.928 E41.99637
G1 X109.468 Y112.290 E42.00445
G1 X109.265 Y112.651 E42.01253
G1 X109.063 Y113.013 E42.02070
G1 X108.860 Y113.375 E42.02883
G1 X108.658 Y113.738 E42.03701
G1 X108.456 Y114.100 E42.04510
G1 X108.254 Y114.462 E42.05318
G1 X108.052 Y114.824 E42.06126
G1 X107.849 Y115.186 E42.06936
G1 X107.647 Y115.548 E42.07748
G1 X107.444 Y115.909 E42.08552
G1 X107.242 Y116.271 E42.09360
G1 X107.040 Y116.633 E42.10169
G1 X106.837 Y116.995 E42.10978
G1 X106.635 Y117.357 E42.11790
G1 X106.606 Y117.610 E42.12806
G10
G1 Z0.600
G0 F12000 X109.638 Y117.917
;TYPE:WALL-OUTER
G1 Z0.500
G11
G1 F1080 X109.638 Y114.815 E42.25183
G1 X113.502 Y114.815 E42.40601
G1 X116.435 Y105.084 E42.81153
G1 X117.019 Y105.084 E42.83483
G1 X113.237 Y117.634 E43.35782
G1 X113.237 Y115.417 E43.44628
G1 X110.240 Y115.417 E43.56586
G1 X110.240 Y117.917 E43.66561
G1 X109.638 Y117.917 E43.68963
G0 F12000 X110.100 Y117.718
;TYPE:SKIN
G1 F1080 X109.938 Y117.274 E43.70782
G1 X109.938 Y116.710 E43.72598
G1 X109.938 Y116.146 E43.74414
G1 X109.938 Y115.582 E43.76230
G1 X109.967 Y115.046 E43.78050
G1 X110.600 Y115.115 E43.79865
G1 X111.164 Y115.115 E43.81675
G1 X111.728 Y115.115 E43.83486
G1 X112.292 Y115.115 E43.85296
G1 X112.857 Y115.115 E43.87110
G1 X113.338 Y115.314 E43.88927
G1 X113.530 Y115.788 E43.90665
G1 X113.554 Y116.094 E43.91890
G0 F12000 X113.815 Y115.227
G1 F1080 X113.631 Y114.761 E43.93428
G1 X114.011 Y114.576 E43.94696
G1 X114.029 Y114.030 E43.95963
G1 X114.160 Y113.597 E43.97221
G1 X114.291 Y113.163 E43.98481
G1 X114.422 Y112.730 E43.99739
G1 X114.552 Y112.295 E44.01006
G1 X114.683 Y111.862 E44.02263
G1 X114.813 Y111.429 E44.03525
G1 X114.944 Y110.995 E44.04785
G1 X115.074 Y110.561 E44.06053
G1 X115.205 Y110.127 E44.07318
G1 X115.336 Y109.694 E44.08576
G1 X115.467 Y109.261 E44.09834
G1 X115.597 Y108.826 E44.11096
G1 X115.728 Y108.393 E44.12353
G1 X115.858 Y107.960 E44.13615
G1 X115.989 Y107.526 E44.14875
G1 X116.120 Y107.093 E44.16133
G1 X116.250 Y106.658 E44.17395
G1 X116.381 Y106.225 E44.18652
G1 X116.512 Y105.792 E44.19910
G1 X116.466 Y105.463 E44.21235
;LAYER:3
M106 S15
G10
G1 Z0.600
G0 F12000 X111.566 Y108.738 Z0.600
;TYPE:FILL
G1 Z0.600
G11
G1 F1080 X111.422 Y108.593 E44.22051
G0 F12000 X111.562 Y108.671
G0 X109.534 Y112.301
G0 X109.393 Y112.222
G1 F1080 X109.537 Y112.366 E44.22863
G0 F12000 X109.399 Y112.289
G0 X107.445 Y115.785
G0 X107.583 Y115.862
G1 F1080 X107.293 Y116.181 E44.25713
G1 X107.365 Y115.850 E44.27065
G10
G1 Z0.700
G0 F12000 X106.596 Y117.917
;TYPE:WALL-OUTER
G1 Z0.600
G11
G1 F1080 X106.052 Y117.917 E44.29235
G1 X113.225 Y105.084 E44.87895
G1 X113.769 Y105.084 E44.90065
G1 X106.596 Y117.917 E45.48725
G0 F12000 X106.711 Y117.022
;TYPE:SKIN
G1 F1080 X107.217 Y116.516 E45.51580
G0 F12000 X107.426 Y115.743
G1 F1080 X107.932 Y115.237 E45.54435
G0 F12000 X108.141 Y114.464
G1 F1080 X108.648 Y113.957 E45.57296
G0 F12000 X108.856 Y113.184
G1 F1080 X109.363 Y112.677 E45.60157
G0 F12000 X109.571 Y111.905
G1 F1080 X110.078 Y111.398 E45.63018
G0 F12000 X110.286 Y110.626
G1 F1080 X110.794 Y110.118 E45.65884
G0 F12000 X111.001 Y109.346
G1 F1080 X111.509 Y108.839 E45.68748
G0 F12000 X111.717 Y108.067
G1 F1080 X112.224 Y107.559 E45.71612
G0 F12000 X112.432 Y106.787
G1 F1080 X112.939 Y106.280 E45.74472
G0 F12000 X113.146 Y105.508
G1 F1080 X113.431 Y105.223 E45.76081
G10
G1 Z0.700
G0 F12000 X116.435 Y105.084
;TYPE:WALL-OUTER
G1 Z0.600
G11
G1 F1080 X117.019 Y105.084 E45.78411
G1 X113.237 Y117.634 E46.30710
G1 X113.237 Y115.417 E46.39555
G1 X110.240 Y115.417 E46.51513
G1 X110.240 Y117.917 E46.61488
G1 X109.638 Y117.917 E46.63890
G1 X109.638 Y114.815 E46.76267
G1 X113.502 Y114.815 E46.91685
G1 X116.435 Y105.084 E47.32237
G0 F12000 X116.817 Y105.223
;TYPE:SKIN
G1 F1080 X116.503 Y105.818 E47.34484
G1 X116.260 Y106.626 E47.36821
G1 X116.017 Y107.434 E47.39158
G1 X115.774 Y108.241 E47.41493
G1 X115.530 Y109.049 E47.43831
G1 X115.287 Y109.856 E47.46165
G1 X115.044 Y110.664 E47.48511
G1 X114.801 Y111.471 E47.50854
G1 X114.558 Y112.279 E47.53191
G1 X114.314 Y113.086 E47.55535
G1 X114.071 Y113.894 E47.57880
G1 X113.827 Y114.701 E47.60224
G1 X113.524 Y115.570 E47.63252
G1 X113.377 Y115.999 E47.65061
G0 F12000 X112.972 Y115.276
G1 F1080 X113.011 Y114.954 E47.66878
G1 X112.286 Y115.115 E47.68690
G1 X111.722 Y115.115 E47.70500
G1 X111.157 Y115.115 E47.72314
G1 X110.593 Y115.115 E47.74124
G1 X110.125 Y115.301 E47.75937
G1 X109.939 Y115.769 E47.77750
G1 X109.939 Y116.333 E47.79561
G1 X109.939 Y116.898 E47.81374
G1 X109.939 Y117.462 E47.83185
G1 X109.907 Y117.776 E47.84444
G0 F12000 X109.907 Y117.617
G0 X109.938 Y115.084
G0 X109.778 Y115.084
G1 F1080 X109.908 Y114.954 E47.85178
;LAYER:4
M106 S20
G0 F12000 X108.386 Y114.103 Z0.700
G0 X107.445 Y115.785
G0 X107.583 Y115.862
;TYPE:FILL
G1 F1140 X107.293 Y116.181 E47.88027
G1 X107.365 Y115.850 E47.89379
G10
G1 Z0.800
G0 F12000 X109.537 Y112.366
G1 Z0.700
G11
G1 F1140 X109.393 Y112.222 E47.90192
G0 F12000 X111.566 Y108.738
G1 F1140 X111.422 Y108.593 E47.91007
G0 F12000 X113.225 Y105.084
;TYPE:WALL-OUTER
G1 F1140 X113.769 Y105.084 E47.93178
G1 X106.596 Y117.917 E48.51837
G1 X106.052 Y117.917 E48.54008
G1 X113.225 Y105.084 E49.12667
G0 F12000 X113.405 Y105.224
;TYPE:SKIN
G1 F1140 X113.312 Y105.413 E49.13118
G1 X113.109 Y105.774 E49.13925
G1 X112.907 Y106.136 E49.14742
G1 X112.704 Y106.498 E49.15556
G1 X112.502 Y106.860 E49.16372
G1 X112.300 Y107.222 E49.17189
G1 X112.098 Y107.584 E49.18006
G1 X111.895 Y107.946 E49.18819
G1 X111.693 Y108.308 E49.19636
G1 X111.491 Y108.670 E49.20448
G1 X111.289 Y109.032 E49.21261
G1 X111.086 Y109.394 E49.22074
G1 X110.884 Y109.756 E49.22891
G1 X110.681 Y110.118 E49.23704
G1 X110.479 Y110.480 E49.24517
G1 X110.277 Y110.842 E49.25325
G1 X110.075 Y111.204 E49.26134
G1 X109.872 Y111.566 E49.26943
G1 X109.670 Y111.928 E49.27755
G1 X109.468 Y112.290 E49.28564
G1 X109.265 Y112.651 E49.29371
G1 X109.063 Y113.013 E49.30188
G1 X108.860 Y113.375 E49.31001
G1 X108.658 Y113.738 E49.31820
G1 X108.456 Y114.100 E49.32628
G1 X108.254 Y114.462 E49.33437
G1 X108.052 Y114.824 E49.34245
G1 X107.849 Y115.186 E49.35054
G1 X107.647 Y115.548 E49.35867
G1 X107.444 Y115.909 E49.36670
G1 X107.242 Y116.271 E49.37479
G1 X107.040 Y116.633 E49.38287
G1 X106.837 Y116.995 E49.39096
G1 X106.635 Y117.357 E49.39909
G1 X106.606 Y117.610 E49.40925
G10
G1 Z0.800
G0 F12000 X109.638 Y117.917
;TYPE:WALL-OUTER
G1 Z0.700
G11
G1 F1140 X109.638 Y114.815 E49.53302
G1 X113.502 Y114.815 E49.68719
G1 X116.435 Y105.084 E50.09271
G1 X117.019 Y105.084 E50.11601
G1 X113.237 Y117.634 E50.63900
G1 X113.237 Y115.417 E50.72746
G1 X110.240 Y115.417 E50.84704
G1 X110.240 Y117.917 E50.94679
G1 X109.638 Y117.917 E50.97081
G0 F12000 X110.100 Y117.718
;TYPE:SKIN
G1 F1140 X109.938 Y117.274 E50.98901
G1 X109.938 Y116.710 E51.00717
G1 X109.938 Y116.146 E51.02533
G1 X109.938 Y115.582 E51.04349
G1 X109.967 Y115.046 E51.06169
G1 X110.600 Y115.115 E51.07983
G1 X111.164 Y115.115 E51.09794
G1 X111.728 Y115.115 E51.11604
G1 X112.292 Y115.115 E51.13415
G1 X112.857 Y115.115 E51.15228
G1 X113.338 Y115.314 E51.17045
G1 X113.530 Y115.788 E51.18784
G1 X113.554 Y116.094 E51.20008
G0 F12000 X113.815 Y115.227
G1 F1140 X113.631 Y114.761 E51.21547
G1 X114.011 Y114.576 E51.22814
G1 X114.029 Y114.030 E51.24082
G1 X114.160 Y113.597 E51.25340
G1 X114.291 Y113.163 E51.26600
G1 X114.422 Y112.730 E51.27857
G1 X114.552 Y112.295 E51.29124
G1 X114.683 Y111.862 E51.30382
G1 X114.813 Y111.429 E51.31643
G1 X114.944 Y110.995 E51.32903
G1 X115.074 Y110.561 E51.34172
G1 X115.205 Y110.127 E51.35437
G1 X115.336 Y109.694 E51.36694
G1 X115.467 Y109.261 E51.37952
G1 X115.597 Y108.826 E51.39214
G1 X115.728 Y108.393 E51.40472
G1 X115.858 Y107.960 E51.41733
G1 X115.989 Y107.526 E51.42993
G1 X116.120 Y107.093 E51.44251
G1 X116.250 Y106.658 E51.45513
G1 X116.381 Y106.225 E51.46771
G1 X116.512 Y105.792 E51.48028
G1 X116.466 Y105.463 E51.49354
;LAYER:5
M106 S25
G10
G1 Z0.800
G0 F12000 X111.566 Y108.738 Z0.800
;TYPE:FILL
G1 Z0.800
G11
G1 F1140 X111.422 Y108.593 E51.50169
G0 F12000 X111.562 Y108.671
G0 X109.534 Y112.301
G0 X109.393 Y112.222
G1 F1140 X109.537 Y112.366 E51.50982
G0 F12000 X109.399 Y112.289
G0 X107.445 Y115.785
G0 X107.583 Y115.862
G1 F1140 X107.293 Y116.181 E51.53831
G1 X107.365 Y115.850 E51.55183
G10
G1 Z0.900
G0 F12000 X106.596 Y117.917
;TYPE:WALL-OUTER
G1 Z0.800
G11
G1 F1140 X106.052 Y117.917 E51.57354
G1 X113.225 Y105.084 E52.16013
