;FLAVOR:UltiGCode
;TIME:154
;MATERIAL:127
;MATERIAL2:0
;NOZZLE_DIAMETER:0.400000
;NOZZLE_DIAMETER2:0.400000
;MTYPE:PLA

;Layer count: 25
;LAYER:0
M107
G0 F12000 X100.330 Y100.885 Z0.300
;TYPE:SKIRT
G1 F1200 X112.239 Y100.885 E1.42908
G1 X119.168 Y113.285 E3.13363
G1 X124.107 Y122.116 E4.34783
G1 X106.728 Y122.116 E6.43331
G1 X100.330 Y100.885 E9.09420
G0 F12000 X100.868 Y101.285
G1 F1200 X112.004 Y101.285 E10.43052
G1 X118.819 Y113.480 E12.10693
G1 X123.425 Y121.716 E13.23930
G1 X107.025 Y121.716 E15.20730
G1 X100.868 Y101.285 E17.76793
G0 F12000 X101.407 Y101.685
G1 F1200 X111.770 Y101.685 E19.01149
G1 X122.741 Y121.316 E21.71013
G1 X107.322 Y121.316 E23.56041
G1 X101.407 Y101.685 E26.02074
G10
G1 Z0.400
G0 F12000 X106.340 Y105.791
;TYPE:FILL
G1 Z0.300
G11
G1 F1200 X106.563 Y105.568 E26.05858
G0 F12000 X106.411 Y105.612
G0 X107.721 Y109.959
G0 X107.873 Y109.915
G1 F1200 X107.723 Y110.381 E26.09633
G1 X108.213 Y111.041 E26.19497
G0 F12000 X108.060 Y111.085
G0 X109.031 Y114.306
G0 X109.182 Y114.262
G1 F1200 X108.960 Y114.485 E26.23273
G10
G1 Z0.400
G0 F12000 X112.126 Y114.955
G1 Z0.300
G11
G1 F1200 X112.623 Y115.451 E26.28687
G1 X113.120 Y115.965 E26.34113
G1 X112.801 Y116.301 E26.39673
G0 F12000 X112.661 Y115.416
;TYPE:WALL-OUTER
G1 F1200 X109.665 Y115.416 E26.75625
G1 X109.665 Y117.308 E26.98329
G1 X105.982 Y105.085 E28.51519
G1 X106.565 Y105.085 E28.58515
G1 X109.497 Y114.816 E29.80472
G1 X113.261 Y114.816 E30.25640
G1 X113.261 Y117.916 E30.62840
G1 X112.661 Y117.916 E30.70040
G1 X112.661 Y115.416 E31.00040
G0 F12000 X112.800 Y115.346
;TYPE:SKIN
G1 F1200 X112.960 Y115.788 E31.05455
G1 X112.960 Y116.354 E31.10889
G1 X112.960 Y116.920 E31.16306
G1 X112.960 Y117.485 E31.21730
G1 X112.966 Y117.774 E31.25198
G0 F12000 X112.966 Y117.616
G0 X113.002 Y115.075
G0 X112.729 Y115.116
G0 X112.729 Y115.275
G1 F1200 X112.286 Y115.115 E31.30610
G1 X111.720 Y115.115 E31.36044
G1 X111.155 Y115.115 E31.41468
G1 X110.589 Y115.115 E31.46885
G1 X110.023 Y115.115 E31.52318
G1 X109.445 Y114.819 E31.57734
G1 X108.980 Y114.071 E31.64789
G1 X108.736 Y113.261 E31.71844
G1 X108.492 Y112.452 E31.78891
G1 X108.248 Y111.642 E31.85947
G1 X108.004 Y110.832 E31.93002
G1 X107.760 Y110.023 E32.00074
G1 X107.516 Y109.214 E32.07147
G1 X107.273 Y108.404 E32.14225
G1 X107.029 Y107.594 E32.21306
G1 X106.785 Y106.785 E32.28379
G1 X106.541 Y105.975 E32.35459
G1 X106.210 Y105.361 E32.43830
G0 F12000 X106.364 Y105.315
G0 X109.292 Y115.033
G0 X109.138 Y115.078
G1 F1200 X109.453 Y115.675 E32.50370
G1 X109.501 Y116.006 E32.54384
G10
G1 Z0.400
G0 F12000 X112.975 Y114.955
G1 Z0.300
G11
G1 F1200 X113.120 Y115.100 E32.56845
G0 F12000 X114.685 Y114.227
G0 X114.776 Y114.389
G0 X114.638 Y114.464
;TYPE:FILL
G1 F1200 X114.776 Y114.326 E32.59187
G0 F12000 X112.610 Y110.835
G1 F1200 X112.748 Y110.697 E32.61529
G0 F12000 X112.610 Y110.772
G0 X111.626 Y109.010
G0 X111.763 Y108.935
G1 F1200 X111.272 Y108.444 E32.69861
G0 F12000 X110.581 Y107.207
G1 F1200 X110.720 Y107.068 E32.72220
G0 F12000 X110.582 Y107.143
G0 X109.575 Y105.341
G0 X109.774 Y105.085
;TYPE:WALL-OUTER
G1 F1200 X116.945 Y117.916 E34.48607
G1 X116.405 Y117.916 E34.55087
G1 X109.234 Y105.085 E36.31474
G1 X109.774 Y105.085 E36.37954
G0 F12000 X109.480 Y105.237
;TYPE:SKIN
G1 F1200 X109.971 Y105.728 E36.46286
G0 F12000 X110.196 Y106.519
G1 F1200 X110.688 Y107.011 E36.54636
G0 F12000 X110.913 Y107.802
G1 F1200 X111.405 Y108.294 E36.62985
G0 F12000 X111.630 Y109.085
G1 F1200 X112.122 Y109.576 E36.71326
G0 F12000 X112.347 Y110.368
G1 F1200 X112.839 Y110.859 E36.79667
G0 F12000 X113.064 Y111.650
G1 F1200 X113.556 Y112.142 E36.88017
G0 F12000 X113.781 Y112.932
G1 F1200 X114.273 Y113.424 E36.96366
G0 F12000 X114.498 Y114.215
G1 F1200 X114.990 Y114.707 E37.04716
G0 F12000 X115.215 Y115.498
G1 F1200 X115.707 Y115.990 E37.13065
G0 F12000 X115.932 Y116.780
G1 F1200 X116.424 Y117.272 E37.21415
;LAYER:1
M106 S5
G10
G1 Z0.400
G0 F12000 X112.660 Y115.417 Z0.400
;TYPE:WALL-OUTER
G1 Z0.400
G11
G1 F1080 X109.666 Y115.417 E37.33361
G1 X109.666 Y117.312 E37.40922
G1 X105.981 Y105.084 E37.91879
G1 X106.565 Y105.084 E37.94209
G1 X109.498 Y114.815 E38.34761
G1 X113.262 Y114.815 E38.49780
G1 X113.262 Y117.917 E38.62157
G1 X112.660 Y117.917 E38.64559
G1 X112.660 Y115.417 E38.74534
G0 F12000 X112.799 Y115.448
;TYPE:SKIN
G1 F1080 X112.925 Y115.039 E38.76352
G1 X112.287 Y115.114 E38.78170
G1 X111.722 Y115.114 E38.79990
G1 X111.158 Y115.114 E38.81806
G1 X110.594 Y115.114 E38.83622
G1 X110.029 Y115.114 E38.85441
G1 X109.555 Y115.306 E38.87262
G1 X109.407 Y115.737 E38.88592
G1 X109.419 Y116.007 E38.89671
G0 F12000 X109.158 Y115.140
G1 F1080 X109.204 Y114.811 E38.90930
G1 X109.073 Y114.378 E38.92187
G1 X108.943 Y113.944 E38.93447
G1 X108.812 Y113.510 E38.94703
G1 X108.681 Y113.077 E38.95956
G1 X108.551 Y112.643 E38.97215
G1 X108.420 Y112.210 E38.98473
G1 X108.289 Y111.776 E38.99733
G1 X108.158 Y111.342 E39.00984
G1 X108.028 Y110.909 E39.02237
G1 X107.897 Y110.475 E39.03492
G1 X107.766 Y110.042 E39.04750
G1 X107.636 Y109.608 E39.06010
G1 X107.505 Y109.174 E39.07265
G1 X107.374 Y108.741 E39.08518
G1 X107.243 Y108.307 E39.09770
G1 X107.113 Y107.874 E39.11022
G1 X106.982 Y107.440 E39.12278
G1 X106.852 Y107.006 E39.13537
G1 X106.721 Y106.573 E39.14790
G1 X106.590 Y106.139 E39.16046
G1 X106.459 Y105.706 E39.17299
G1 X106.505 Y105.378 E39.18621
G10
G1 Z0.500
G0 F12000 X113.121 Y115.691
G1 Z0.400
G11
G1 F1080 X112.960 Y116.133 E39.20432
G1 X112.960 Y116.698 E39.22245
G1 X112.960 Y117.262 E39.24056
G1 X112.799 Y117.705 E39.25936
G10
G1 Z0.500
G0 F12000 X114.636 Y114.466
;TYPE:FILL
G1 Z0.400
G11
G1 F1080 X114.778 Y114.323 E39.26741
G0 F12000 X112.607 Y110.838
G1 F1080 X112.751 Y110.694 E39.27553
G0 F12000 X112.611 Y110.771
G0 X111.632 Y109.020
G0 X111.773 Y108.944
G1 F1080 X111.262 Y108.434 E39.30434
G0 F12000 X110.578 Y107.210
G1 F1080 X110.722 Y107.066 E39.31246
G0 F12000 X110.582 Y107.142
G0 X109.575 Y105.340
G0 X109.775 Y105.084
;TYPE:WALL-OUTER
G1 F1080 X116.948 Y117.917 E39.89906
G1 X116.404 Y117.917 E39.92076
G1 X109.231 Y105.084 E40.50736
G1 X109.775 Y105.084 E40.52906
G0 F12000 X109.819 Y105.450
;TYPE:SKIN
G1 F1080 X109.848 Y105.703 E40.53716
G1 X110.050 Y106.065 E40.54520
G1 X110.253 Y106.427 E40.55326
G1 X110.455 Y106.789 E40.56134
G1 X110.658 Y107.150 E40.56937
G1 X110.860 Y107.512 E40.57742
G1 X111.062 Y107.874 E40.58546
G1 X111.264 Y108.236 E40.59350
G1 X111.467 Y108.598 E40.60155
G1 X111.669 Y108.961 E40.60965
G1 X111.871 Y109.322 E40.61772
G1 X112.074 Y109.684 E40.62577
G1 X112.276 Y110.046 E40.63381
G1 X112.479 Y110.408 E40.64187
G1 X112.681 Y110.770 E40.64995
G1 X112.883 Y111.132 E40.65799
G1 X113.085 Y111.494 E40.66599
G1 X113.287 Y111.856 E40.67399
G1 X113.490 Y112.217 E40.68194
G1 X113.693 Y112.579 E40.69000
G1 X113.895 Y112.942 E40.69810
G1 X114.097 Y113.304 E40.70618
G1 X114.299 Y113.665 E40.71425
G1 X114.502 Y114.027 E40.72230
G1 X114.704 Y114.389 E40.73034
G1 X114.907 Y114.751 E40.73839
G1 X115.109 Y115.113 E40.74643
G1 X115.311 Y115.475 E40.75444
G1 X115.513 Y115.837 E40.76244
G1 X115.716 Y116.199 E40.77040
G1 X115.918 Y116.561 E40.77845
G1 X116.120 Y116.923 E40.78649
G1 X116.323 Y117.285 E40.79454
G1 X116.353 Y117.537 E40.80467
;LAYER:2
M106 S10
G10
G1 Z0.500
G0 F12000 X113.262 Y117.917 Z0.500
;TYPE:WALL-OUTER
G1 Z0.500
G11
G1 F1080 X112.660 Y117.917 E40.82869
G1 X112.660 Y115.417 E40.92844
G1 X109.666 Y115.417 E41.04790
G1 X109.666 Y117.312 E41.12351
G1 X105.981 Y105.084 E41.63308
G1 X106.565 Y105.084 E41.65638
G1 X109.498 Y114.815 E42.06190
G1 X113.262 Y114.815 E42.21208
G1 X113.262 Y117.917 E42.33585
G0 F12000 X112.979 Y117.776
;TYPE:SKIN
G1 F1080 X112.960 Y117.475 E42.34599
G1 X112.960 Y116.911 E42.36415
G1 X112.960 Y116.347 E42.38231
G1 X112.960 Y115.782 E42.40050
G1 X112.767 Y115.307 E42.41870
G1 X112.292 Y115.115 E42.43684
G1 X111.728 Y115.115 E42.45494
G1 X111.164 Y115.115 E42.47305
G1 X110.600 Y115.115 E42.49115
G1 X110.035 Y115.115 E42.50929
G1 X109.450 Y114.811 E42.52735
G1 X108.976 Y114.055 E42.55091
G1 X108.733 Y113.247 E42.57437
G1 X108.489 Y112.440 E42.59789
G1 X108.246 Y111.632 E42.62143
G1 X108.002 Y110.824 E42.64489
G1 X107.758 Y110.016 E42.66844
G1 X107.515 Y109.208 E42.69198
G1 X107.272 Y108.401 E42.71550
G1 X107.028 Y107.593 E42.73896
G1 X106.785 Y106.785 E42.76242
G1 X106.541 Y105.978 E42.78594
G1 X106.211 Y105.365 E42.81372
G0 F12000 X106.364 Y105.319
G0 X109.285 Y115.013
G0 X109.132 Y115.058
G1 F1080 X109.450 Y115.658 E42.83585
G1 X109.521 Y116.011 E42.85022
G10
G1 Z0.600
G0 F12000 X112.978 Y114.954
G1 Z0.500
G11
G1 F1080 X113.122 Y115.097 E42.85832
G0 F12000 X114.684 Y114.226
G0 X114.776 Y114.390
G0 X114.636 Y114.466
;TYPE:FILL
G1 F1080 X114.778 Y114.323 E42.86636
G0 F12000 X112.607 Y110.838
G1 F1080 X112.751 Y110.694 E42.87448
G0 F12000 X112.611 Y110.771
G0 X111.632 Y109.020
G0 X111.773 Y108.944
G1 F1080 X111.262 Y108.434 E42.90329
G0 F12000 X110.578 Y107.210
G1 F1080 X110.722 Y107.066 E42.91142
G0 F12000 X110.582 Y107.142
G0 X109.575 Y105.340
G0 X109.775 Y105.084
;TYPE:WALL-OUTER
G1 F1080 X116.948 Y117.917 E43.49801
G1 X116.404 Y117.917 E43.51972
G1 X109.231 Y105.084 E44.10631
G1 X109.775 Y105.084 E44.12802
G0 F12000 X109.483 Y105.252
;TYPE:SKIN
G1 F1080 X110.096 Y106.147 E44.15676
G1 X110.811 Y107.426 E44.18548
G1 X111.527 Y108.706 E44.21423
G1 X112.242 Y109.986 E44.24297
G1 X112.958 Y111.266 E44.27171
G1 X113.571 Y112.161 E44.31500
G0 F12000 X113.777 Y112.932
G1 F1080 X114.286 Y113.440 E44.34369
G0 F12000 X114.493 Y114.211
G1 F1080 X115.001 Y114.720 E44.37238
G0 F12000 X115.208 Y115.491
G1 F1080 X115.717 Y116.000 E44.40110
G0 F12000 X115.924 Y116.771
G1 F1080 X116.432 Y117.279 E44.42977
;LAYER:3
M106 S15
G10
G1 Z0.600
G0 F12000 X112.660 Y115.417 Z0.600
;TYPE:WALL-OUTER
G1 Z0.600
G11
G1 F1080 X109.666 Y115.417 E44.54923
G1 X109.666 Y117.312 E44.62484
G1 X105.981 Y105.084 E45.13441
G1 X106.565 Y105.084 E45.15771
G1 X109.498 Y114.815 E45.56323
G1 X113.262 Y114.815 E45.71342
G1 X113.262 Y117.917 E45.83719
G1 X112.660 Y117.917 E45.86121
G1 X112.660 Y115.417 E45.96096
G0 F12000 X112.799 Y115.448
;TYPE:SKIN
G1 F1080 X112.925 Y115.039 E45.97914
G1 X112.287 Y115.114 E45.99732
G1 X111.722 Y115.114 E46.01552
G1 X111.158 Y115.114 E46.03368
G1 X110.594 Y115.114 E46.05184
G1 X110.029 Y115.114 E46.07003
G1 X109.555 Y115.306 E46.08824
G1 X109.407 Y115.737 E46.10154
G1 X109.419 Y116.007 E46.11233
G0 F12000 X109.158 Y115.140
G1 F1080 X109.204 Y114.811 E46.12492
G1 X109.073 Y114.378 E46.13749
G1 X108.943 Y113.944 E46.15009
G1 X108.812 Y113.510 E46.16265
G1 X108.681 Y113.077 E46.17518
G1 X108.551 Y112.643 E46.18777
G1 X108.420 Y112.210 E46.20035
G1 X108.289 Y111.776 E46.21295
G1 X108.158 Y111.342 E46.22546
G1 X108.028 Y110.909 E46.23799
G1 X107.897 Y110.475 E46.25054
G1 X107.766 Y110.042 E46.26312
G1 X107.636 Y109.608 E46.27572
G1 X107.505 Y109.174 E46.28827
G1 X107.374 Y108.741 E46.30080
G1 X107.243 Y108.307 E46.31332
G1 X107.113 Y107.874 E46.32584
G1 X106.982 Y107.440 E46.33840
G1 X106.852 Y107.006 E46.35099
G1 X106.721 Y106.573 E46.36352
G1 X106.590 Y106.139 E46.37608
G1 X106.459 Y105.706 E46.38861
G1 X106.505 Y105.378 E46.40183
G0 F12000 X106.355 Y105.422
G0 X109.231 Y115.175
G0 X112.921 Y115.156
G0 X112.962 Y115.691
G0 X113.121 Y115.691
G1 F1080 X112.960 Y116.133 E46.41994
G1 X112.960 Y116.698 E46.43807
G1 X112.960 Y117.262 E46.45618
G1 X112.799 Y117.705 E46.47498
G10
G1 Z0.700
G0 F12000 X114.636 Y114.466
;TYPE:FILL
G1 Z0.600
G11
G1 F1080 X114.778 Y114.323 E46.48303
G0 F12000 X112.607 Y110.838
G1 F1080 X112.751 Y110.694 E46.49115
G0 F12000 X112.611 Y110.771
G0 X111.632 Y109.020
G0 X111.773 Y108.944
G1 F1080 X111.262 Y108.434 E46.51996
G0 F12000 X110.578 Y107.210
G1 F1080 X110.722 Y107.066 E46.52808
G0 F12000 X110.582 Y107.142
G0 X109.575 Y105.340
G0 X109.775 Y105.084
;TYPE:WALL-OUTER
G1 F1080 X116.948 Y117.917 E47.11468
G1 X116.404 Y117.917 E47.13638
G1 X109.231 Y105.084 E47.72298
G1 X109.775 Y105.084 E47.74468
G0 F12000 X109.819 Y105.450
;TYPE:SKIN
G1 F1080 X109.848 Y105.703 E47.75278
G1 X110.050 Y106.065 E47.76082
G1 X110.253 Y106.427 E47.76888
G1 X110.455 Y106.789 E47.77696
G1 X110.658 Y107.150 E47.78499
G1 X110.860 Y107.512 E47.79304
G1 X111.062 Y107.874 E47.80108
G1 X111.264 Y108.236 E47.80912
G1 X111.467 Y108.598 E47.81717
G1 X111.669 Y108.961 E47.82527
G1 X111.871 Y109.322 E47.83334
G1 X112.074 Y109.684 E47.84139
G1 X112.276 Y110.046 E47.84943
G1 X112.479 Y110.408 E47.85748
G1 X112.681 Y110.770 E47.86557
G1 X112.883 Y111.132 E47.87361
G1 X113.085 Y111.494 E47.88161
G1 X113.287 Y111.856 E47.88961
G1 X113.490 Y112.217 E47.89756
G1 X113.693 Y112.579 E47.90562
G1 X113.895 Y112.942 E47.91372
G1 X114.097 Y113.304 E47.92180
G1 X114.299 Y113.665 E47.92987
G1 X114.502 Y114.027 E47.93792
G1 X114.704 Y114.389 E47.94596
G1 X114.907 Y114.751 E47.95401
G1 X115.109 Y115.113 E47.96205
G1 X115.311 Y115.475 E47.97006
G1 X115.513 Y115.837 E47.97806
G1 X115.716 Y116.199 E47.98602
G1 X115.918 Y116.561 E47.99407
G1 X116.120 Y116.923 E48.00211
G1 X116.323 Y117.285 E48.01016
G1 X116.353 Y117.537 E48.02029
;LAYER:4
M106 S20
G10
G1 Z0.700
G0 F12000 X113.262 Y117.917 Z0.700
;TYPE:WALL-OUTER
G1 Z0.700
G11
G1 F1080 X112.660 Y117.917 E48.04431
G1 X112.660 Y115.417 E48.14406
G1 X109.666 Y115.417 E48.26352
G1 X109.666 Y117.312 E48.33913
G1 X105.981 Y105.084 E48.84870
G1 X106.565 Y105.084 E48.87200
G1 X109.498 Y114.815 E49.27752
G1 X113.262 Y114.815 E49.42770
G1 X113.262 Y117.917 E49.55147
G0 F12000 X112.979 Y117.776
;TYPE:SKIN
G1 F1080 X112.960 Y117.475 E49.56161
G1 X112.960 Y116.911 E49.57977
G1 X112.960 Y116.347 E49.59793
G1 X112.960 Y115.782 E49.61612
G1 X112.767 Y115.307 E49.63432
G1 X112.292 Y115.115 E49.65246
G1 X111.728 Y115.115 E49.67056
G1 X111.164 Y115.115 E49.68867
G1 X110.600 Y115.115 E49.70677
G1 X110.035 Y115.115 E49.72491
G1 X109.450 Y114.811 E49.74297
G1 X108.976 Y114.055 E49.76653
G1 X108.733 Y113.247 E49.78999
G1 X108.489 Y112.440 E49.81351
G1 X108.246 Y111.632 E49.83705
G1 X108.002 Y110.824 E49.86051
G1 X107.758 Y110.016 E49.88406
G1 X107.515 Y109.208 E49.90760
G1 X107.272 Y108.401 E49.93112
G1 X107.028 Y107.593 E49.95458
G1 X106.785 Y106.785 E49.97804
G1 X106.541 Y105.978 E50.00156
G1 X106.211 Y105.365 E50.02934
G0 F12000 X106.364 Y105.319
G0 X109.285 Y115.013
G0 X109.132 Y115.058
G1 F1080 X109.450 Y115.658 E50.05147
G1 X109.521 Y116.011 E50.06584
G10
G1 Z0.800
G0 F12000 X112.978 Y114.954
G1 Z0.700
G11
G1 F1080 X113.122 Y115.097 E50.07394
G0 F12000 X114.684 Y114.226
G0 X114.776 Y114.390
G0 X114.636 Y114.466
;TYPE:FILL
G1 F1080 X114.778 Y114.323 E50.08198
G0 F12000 X112.607 Y110.838
G1 F1080 X112.751 Y110.694 E50.09010
G0 F12000 X112.611 Y110.771
G0 X111.632 Y109.020
G0 X111.773 Y108.944
G1 F1080 X111.262 Y108.434 E50.11891
G0 F12000 X110.578 Y107.210
G1 F1080 X110.722 Y107.066 E50.12704
G0 F12000 X110.582 Y107.142
G0 X109.575 Y105.340
G0 X109.775 Y105.084
;TYPE:WALL-OUTER
G1 F1080 X116.948 Y117.917 E50.71363
G1 X116.404 Y117.917 E50.73534
G1 X109.231 Y105.084 E51.32193
G1 X109.775 Y105.084 E51.34364
G0 F12000 X109.483 Y105.252
;TYPE:SKIN
G1 F1080 X110.096 Y106.147 E51.37238
G1 X110.811 Y107.426 E51.40110
G1 X111.527 Y108.706 E51.42985
G1 X112.242 Y109.986 E51.45859
G1 X112.958 Y111.266 E51.48733
G1 X113.571 Y112.161 E51.53062
G0 F12000 X113.777 Y112.932
G1 F1080 X114.286 Y113.440 E51.55931
G0 F12000 X114.493 Y114.211
G1 F1080 X115.001 Y114.720 E51.58800
G0 F12000 X115.208 Y115.491
G1 F1080 X115.717 Y116.000 E51.61672
G0 F12000 X115.924 Y116.771
G1 F1080 X116.432 Y117.279 E51.64539
;LAYER:5
M106 S25
G10
G1 Z0.800
G0 F12000 X112.660 Y115.417 Z0.800
;TYPE:WALL-OUTER
G1 Z0.800
G11
G1 F1140 X109.666 Y115.417 E51.76485
G1 X109.666 Y117.312 E51.84046
G1 X105.981 Y105.084 E52.35003
G1 X106.565 Y105.084 E52.37333
G1 X109.498 Y114.815 E52.77885
G1 X113.262 Y114.815 E52.92904
G1 X113.262 Y117.917 E53.05281
G1 X112.660 Y117.917 E53.07683
G1 X112.660 Y115.417 E53.17658
G0 F12000 X112.799 Y115.448
;TYPE:SKIN
G1 F1140 X112.925 Y115.039 E53.19476
G1 X112.287 Y115.114 E53.21294
G1 X111.722 Y115.114 E53.23114
G1 X111.158 Y115.114 E53.24930
G1 X110.594 Y115.114 E53.26746
G1 X110.029 Y115.114 E53.28565
