;FLAVOR:UltiGCode
;TIME:276
;MATERIAL:342
;MATERIAL2:0
;NOZZLE_DIAMETER:0.400000
;NOZZLE_DIAMETER2:0.400000
;MTYPE:PLA

;Layer count: 38
;LAYER:0
M107
G0 F12000 X105.559 Y101.899 Z0.300
;TYPE:SKIRT
G1 F1200 X117.441 Y101.899 E1.42584
G1 X128.173 Y121.101 E4.06555
G1 X113.006 Y121.101 E5.88559
G1 X112.015 Y117.805 E6.29860
G1 X111.500 Y116.097 E6.51267
G1 X109.992 Y121.101 E7.13983
G1 X94.827 Y121.101 E8.95963
G1 X105.559 Y101.899 E11.59933
G0 F12000 X105.793 Y102.299
G1 F1200 X117.207 Y102.299 E12.96901
G1 X127.492 Y120.701 E15.49875
G1 X113.303 Y120.701 E17.20143
G1 X112.398 Y117.690 E17.57872
G1 X111.526 Y114.797 E17.94131
G1 X111.474 Y114.797 E17.94755
G1 X109.695 Y120.701 E18.68749
G1 X95.508 Y120.701 E20.38993
G1 X105.793 Y102.299 E22.91967
G10
G1 Z0.400
G0 F12000 X107.995 Y106.299
;TYPE:WALL-OUTER
G1 Z0.300
G11
G1 F1200 X102.156 Y116.744 E24.35562
G1 X103.155 Y116.744 E24.47550
G1 X102.844 Y117.301 E24.55206
G1 X101.304 Y117.301 E24.73686
G1 X107.789 Y105.699 E26.33183
G1 X115.211 Y105.699 E27.22247
G1 X121.696 Y117.301 E28.81744
G1 X120.156 Y117.301 E29.00224
G1 X119.845 Y116.744 E29.07879
G1 X120.844 Y116.744 E29.19867
G1 X115.005 Y106.299 E30.63462
G1 X107.995 Y106.299 E31.47582
G0 F12000 X108.138 Y106.158
;TYPE:SKIN
G1 F1200 X107.750 Y106.053 E31.52430
G1 X107.618 Y106.486 E31.54820
G1 X107.416 Y106.850 E31.57218
G1 X107.213 Y107.212 E31.59596
G1 X107.010 Y107.575 E31.61992
G1 X106.807 Y107.938 E31.64387
G1 X106.604 Y108.301 E31.66770
G1 X106.401 Y108.663 E31.69148
G1 X106.198 Y109.027 E31.71549
G1 X105.995 Y109.390 E31.73920
G1 X105.793 Y109.752 E31.76308
G1 X105.590 Y110.115 E31.78703
G1 X105.387 Y110.478 E31.81099
G1 X105.184 Y110.841 E31.83482
G1 X104.981 Y111.204 E31.85853
G1 X104.778 Y111.567 E31.88223
G1 X104.575 Y111.930 E31.90594
G1 X104.373 Y112.292 E31.92982
G1 X104.170 Y112.655 E31.95377
G1 X103.967 Y113.018 E31.97760
G1 X103.764 Y113.381 E32.00119
G1 X103.561 Y113.744 E32.02489
G1 X103.359 Y114.107 E32.04870
G1 X103.156 Y114.469 E32.07235
G1 X102.953 Y114.832 E32.09619
G1 X102.750 Y115.196 E32.11994
G1 X102.547 Y115.558 E32.14347
G1 X102.345 Y115.921 E32.16728
G1 X102.142 Y116.284 E32.19111
G1 X101.939 Y116.647 E32.21494
G1 X102.313 Y117.021 E32.28301
G1 X102.734 Y117.159 E32.33618
G10
G1 Z0.400
G0 F12000 X108.704 Y106.158
G1 Z0.300
G11
G1 F1200 X108.667 Y105.839 E32.39022
G1 X109.392 Y105.998 E32.44433
G1 X109.958 Y105.998 E32.49833
G1 X110.524 Y105.998 E32.55233
G1 X111.089 Y105.998 E32.60640
G1 X111.655 Y105.998 E32.66039
G1 X112.221 Y105.998 E32.71439
G1 X112.787 Y105.998 E32.76839
G1 X113.352 Y105.998 E32.82246
G1 X113.918 Y105.998 E32.87645
G1 X114.484 Y105.998 E32.93045
G1 X115.107 Y106.339 E32.98457
G1 X115.787 Y107.019 E33.09997
G0 F12000 X116.005 Y107.803
G1 F1200 X116.504 Y108.301 E33.18457
G0 F12000 X116.723 Y109.086
G1 F1200 X117.221 Y109.584 E33.26908
G0 F12000 X117.440 Y110.369
G1 F1200 X117.937 Y110.866 E33.35342
G0 F12000 X118.157 Y111.652
G1 F1200 X118.654 Y112.149 E33.43777
G0 F12000 X118.875 Y112.935
G1 F1200 X119.371 Y113.431 E33.52194
G0 F12000 X119.592 Y114.218
G1 F1200 X120.088 Y114.714 E33.60611
G0 F12000 X120.309 Y115.501
G1 F1200 X120.805 Y115.997 E33.69029
G0 F12000 X121.026 Y116.784
G1 F1200 X121.120 Y117.160 E33.75412
G1 X120.415 Y117.022 E33.80089
G1 X120.194 Y117.083 E33.82840
G10
G1 Z0.400
G0 F12000 X116.245 Y116.744
;TYPE:WALL-OUTER
G1 Z0.300
G11
G1 F1200 X117.245 Y116.744 E33.94840
G1 X117.413 Y117.301 E34.01821
G1 X115.832 Y117.301 E34.20793
G1 X114.053 Y111.397 E34.94788
G1 X108.947 Y111.397 E35.56060
G1 X107.169 Y117.301 E36.30051
G1 X105.586 Y117.301 E36.49047
G1 X105.754 Y116.744 E36.56028
G1 X106.755 Y116.744 E36.68040
G1 X108.546 Y110.797 E37.42570
G1 X114.453 Y110.797 E38.13454
G1 X116.245 Y116.744 E38.87988
G0 F12000 X116.601 Y116.884
;TYPE:SKIN
G1 F1200 X116.593 Y117.159 E38.92643
G1 X115.856 Y116.422 E39.01773
G1 X115.613 Y115.613 E39.08742
G1 X115.369 Y114.803 E39.15721
G1 X115.125 Y113.994 E39.22718
G1 X114.881 Y113.184 E39.29722
G1 X114.638 Y112.375 E39.36691
G1 X114.394 Y111.565 E39.43695
G1 X113.924 Y111.096 E39.51026
G1 X113.359 Y111.096 E39.56433
G1 X112.793 Y111.096 E39.61849
G1 X112.227 Y111.096 E39.67266
G1 X111.662 Y111.096 E39.72673
G1 X111.096 Y111.096 E39.78090
G1 X110.530 Y111.096 E39.83506
G1 X109.964 Y111.096 E39.88906
G1 X109.399 Y111.096 E39.94313
G1 X108.772 Y111.035 E39.99737
G1 X108.634 Y111.463 E40.03487
G1 X108.504 Y111.898 E40.07233
G1 X108.373 Y112.333 E40.10981
G1 X108.242 Y112.767 E40.14748
G1 X108.111 Y113.202 E40.18510
G1 X107.980 Y113.637 E40.22285
G1 X107.849 Y114.072 E40.26046
G1 X107.719 Y114.507 E40.29819
G1 X107.588 Y114.942 E40.33595
G1 X107.457 Y115.377 E40.37370
G1 X107.326 Y115.811 E40.41151
G1 X107.195 Y116.246 E40.44926
G1 X107.064 Y116.681 E40.48701
G1 X106.902 Y117.084 E40.52467
G1 X106.273 Y117.021 E40.57132
G1 X105.855 Y116.886 E40.62403
;LAYER:1
M106 S5
G10
G1 Z0.400
G0 F12000 X102.845 Y117.302 Z0.400
;TYPE:WALL-OUTER
G1 Z0.400
G11
G1 F1620 X101.301 Y117.302 E40.68564
G1 X107.788 Y105.698 E41.21607
G1 X115.212 Y105.698 E41.51229
G1 X121.699 Y117.302 E42.04273
G1 X120.155 Y117.302 E42.10433
G1 X119.842 Y116.743 E42.12989
G1 X120.842 Y116.743 E42.16979
G1 X115.005 Y106.300 E42.64714
G1 X107.995 Y106.300 E42.92684
G1 X102.158 Y116.743 E43.40419
G1 X103.158 Y116.743 E43.44409
G1 X102.845 Y117.302 E43.46965
G0 F12000 X102.623 Y117.161
;TYPE:SKIN
G1 F1620 X102.619 Y116.882 E43.48533
G1 X101.826 Y117.111 E43.50101
G1 X102.207 Y116.165 E43.52987
G1 X102.923 Y114.885 E43.55862
G1 X103.638 Y113.606 E43.58734
G1 X104.353 Y112.327 E43.61591
G1 X104.965 Y111.433 E43.65914
G0 F12000 X105.172 Y110.662
G1 F1620 X105.679 Y110.154 E43.68778
G0 F12000 X105.887 Y109.382
G1 F1620 X106.394 Y108.875 E43.71639
G0 F12000 X106.603 Y108.102
G1 F1620 X107.109 Y107.596 E43.74494
G0 F12000 X107.319 Y106.822
G1 F1620 X107.902 Y106.238 E43.77332
G1 X108.424 Y105.998 E43.79148
G1 X108.989 Y105.998 E43.80967
G1 X109.553 Y105.998 E43.82783
G1 X110.117 Y105.998 E43.84599
G1 X110.681 Y105.998 E43.86416
G1 X111.246 Y105.998 E43.88235
G1 X111.810 Y105.998 E43.90051
G1 X112.374 Y105.998 E43.91867
G1 X112.939 Y105.998 E43.93686
G1 X113.503 Y105.998 E43.95502
G1 X114.067 Y105.998 E43.97318
G1 X114.631 Y105.998 E43.99135
G1 X115.193 Y106.001 E44.00950
G1 X115.341 Y106.417 E44.01745
G1 X115.543 Y106.779 E44.02545
G1 X115.746 Y107.141 E44.03342
G1 X115.948 Y107.503 E44.04137
G1 X116.150 Y107.865 E44.04938
G1 X116.353 Y108.227 E44.05734
G1 X116.555 Y108.589 E44.06530
G1 X116.757 Y108.950 E44.07329
G1 X116.959 Y109.312 E44.08133
G1 X117.162 Y109.674 E44.08934
G1 X117.364 Y110.036 E44.09738
G1 X117.566 Y110.398 E44.10542
G1 X117.768 Y110.760 E44.11347
G1 X117.971 Y111.122 E44.12148
G1 X118.174 Y111.484 E44.12949
G1 X118.376 Y111.846 E44.13753
G1 X118.578 Y112.208 E44.14557
G1 X118.780 Y112.570 E44.15361
G1 X118.982 Y112.932 E44.16165
G1 X119.185 Y113.294 E44.16967
G1 X119.387 Y113.656 E44.17771
G1 X119.590 Y114.018 E44.18576
G1 X119.792 Y114.380 E44.19384
G1 X119.994 Y114.742 E44.20188
G1 X120.197 Y115.104 E44.20994
G1 X120.399 Y115.466 E44.21802
G1 X120.601 Y115.827 E44.22609
G1 X120.803 Y116.189 E44.23413
G1 X121.006 Y116.551 E44.24218
G1 X120.997 Y116.843 E44.25024
G1 X120.536 Y117.021 E44.26596
G1 X120.193 Y117.083 E44.27987
G0 F12000 X121.243 Y117.161
G1 F1620 X121.381 Y117.023 E44.28765
G10
G1 Z0.500
G0 F12000 X117.246 Y116.743
;TYPE:WALL-OUTER
G1 Z0.400
G11
G1 F1620 X117.415 Y117.302 E44.31095
G1 X115.831 Y117.302 E44.37416
G1 X114.052 Y111.398 E44.62019
G1 X108.948 Y111.398 E44.82384
G1 X107.169 Y117.302 E45.06987
G1 X105.586 Y117.302 E45.13303
G1 X105.754 Y116.743 E45.15632
G1 X106.754 Y116.743 E45.19622
G1 X108.546 Y110.796 E45.44404
G1 X114.454 Y110.796 E45.67977
G1 X116.246 Y116.743 E45.92760
G1 X117.246 Y116.743 E45.96750
G0 F12000 X117.008 Y116.882
;TYPE:SKIN
G1 F1620 X116.586 Y117.021 E45.98322
G1 X116.011 Y117.032 E45.99898
G1 X115.903 Y116.576 E46.01145
G1 X115.773 Y116.142 E46.02395
G1 X115.642 Y115.708 E46.03642
G1 X115.511 Y115.275 E46.04890
G1 X115.380 Y114.841 E46.06142
G1 X115.250 Y114.408 E46.07398
G1 X115.119 Y113.974 E46.08654
G1 X114.988 Y113.540 E46.09901
G1 X114.858 Y113.107 E46.11149
G1 X114.727 Y112.673 E46.12400
G1 X114.597 Y112.240 E46.13657
G1 X114.466 Y111.806 E46.14912
G1 X114.336 Y111.372 E46.16172
G1 X114.154 Y110.989 E46.17427
G1 X113.483 Y111.096 E46.19241
G1 X112.919 Y111.096 E46.21057
G1 X112.354 Y111.096 E46.22877
G1 X111.790 Y111.096 E46.24693
G1 X111.227 Y111.096 E46.26506
G1 X110.662 Y111.096 E46.28325
G1 X110.098 Y111.096 E46.30141
G1 X109.534 Y111.096 E46.31951
G1 X108.970 Y111.096 E46.33762
G1 X108.649 Y111.416 E46.35366
G1 X108.406 Y112.223 E46.37701
G1 X108.162 Y113.031 E46.40039
G1 X107.920 Y113.838 E46.42373
G1 X107.677 Y114.646 E46.44710
G1 X107.433 Y115.453 E46.47045
G1 X107.190 Y116.260 E46.49380
G1 X106.857 Y116.876 E46.51719
G1 X106.430 Y117.021 E46.53297
G1 X106.008 Y117.161 E46.55071
;LAYER:2
M106 S10
G10
G1 Z0.500
G0 F12000 X102.845 Y117.302 Z0.500
;TYPE:WALL-OUTER
G1 Z0.500
G11
G1 F1860 X101.301 Y117.302 E46.61231
G1 X107.788 Y105.698 E47.14275
G1 X115.212 Y105.698 E47.43897
G1 X121.699 Y117.302 E47.96940
G1 X120.155 Y117.302 E48.03101
G1 X119.842 Y116.743 E48.05657
G1 X120.842 Y116.743 E48.09647
G1 X115.005 Y106.300 E48.57382
G1 X107.995 Y106.300 E48.85352
G1 X102.158 Y116.743 E49.33086
G1 X103.158 Y116.743 E49.37076
G1 X102.845 Y117.302 E49.39633
G0 F12000 X102.766 Y117.156
;TYPE:SKIN
G1 F1860 X102.350 Y117.021 E49.41172
G1 X101.925 Y116.879 E49.42740
G1 X101.952 Y116.623 E49.43559
G1 X102.154 Y116.261 E49.44380
G1 X102.356 Y115.899 E49.45201
G1 X102.558 Y115.537 E49.46021
G1 X102.760 Y115.175 E49.46838
G1 X102.963 Y114.813 E49.47656
G1 X103.165 Y114.451 E49.48472
G1 X103.367 Y114.089 E49.49289
G1 X103.569 Y113.727 E49.50106
G1 X103.772 Y113.366 E49.50922
G1 X103.975 Y113.003 E49.51741
G1 X104.177 Y112.642 E49.52556
G1 X104.379 Y112.279 E49.53374
G1 X104.581 Y111.917 E49.54191
G1 X104.783 Y111.555 E49.55008
G1 X104.986 Y111.193 E49.55821
G1 X105.188 Y110.831 E49.56638
G1 X105.391 Y110.470 E49.57445
G1 X105.593 Y110.108 E49.58254
G1 X105.795 Y109.746 E49.59062
G1 X105.997 Y109.384 E49.59874
G1 X106.200 Y109.022 E49.60684
G1 X106.402 Y108.660 E49.61492
G1 X106.605 Y108.298 E49.62306
G1 X106.807 Y107.936 E49.63118
G1 X107.009 Y107.574 E49.63935
G1 X107.211 Y107.212 E49.64751
G1 X107.414 Y106.850 E49.65565
G1 X107.616 Y106.488 E49.66377
G1 X107.747 Y106.055 E49.67183
G1 X108.255 Y105.999 E49.68793
G1 X108.819 Y105.999 E49.70603
G1 X109.383 Y105.999 E49.72413
G1 X109.948 Y105.999 E49.74227
G1 X110.512 Y105.999 E49.76038
G1 X111.076 Y105.999 E49.77848
G1 X111.640 Y105.999 E49.79658
G1 X112.205 Y105.999 E49.81472
G1 X112.769 Y105.999 E49.83283
G1 X113.333 Y105.999 E49.85093
G1 X113.898 Y105.999 E49.86907
G1 X114.462 Y105.999 E49.88717
G1 X115.110 Y106.365 E49.90533
G1 X115.821 Y107.075 E49.94542
G0 F12000 X116.030 Y107.849
G1 F1860 X116.536 Y108.355 E49.97397
G0 F12000 X116.745 Y109.128
G1 F1860 X117.252 Y109.635 E50.00258
G0 F12000 X117.460 Y110.407
G1 F1860 X117.967 Y110.914 E50.03119
G0 F12000 X118.174 Y111.686
G1 F1860 X118.682 Y112.194 E50.05985
G0 F12000 X118.889 Y112.965
G1 F1860 X119.501 Y113.859 E50.08846
G1 X120.216 Y115.138 E50.11703
G1 X120.931 Y116.417 E50.14575
G1 X121.110 Y117.161 E50.16595
G1 X120.407 Y117.022 E50.18165
G1 X120.200 Y117.097 E50.19043
G10
G1 Z0.600
G0 F12000 X101.643 Y117.161
G1 Z0.500
G11
G1 F1860 X101.575 Y117.094 E50.19424
G0 F12000 X105.754 Y116.743
;TYPE:WALL-OUTER
G1 F1860 X106.754 Y116.743 E50.23414
G1 X108.546 Y110.796 E50.48196
G1 X114.454 Y110.796 E50.71769
G1 X116.246 Y116.743 E50.96552
G1 X117.246 Y116.743 E51.00542
G1 X117.415 Y117.302 E51.02872
G1 X115.831 Y117.302 E51.09192
G1 X114.052 Y111.398 E51.33795
G1 X108.948 Y111.398 E51.54160
G1 X107.169 Y117.302 E51.78763
G1 X105.586 Y117.302 E51.85079
G1 X105.754 Y116.743 E51.87408
G0 F12000 X105.878 Y116.882
;TYPE:SKIN
G1 F1860 X106.299 Y117.021 E51.88978
G1 X106.806 Y116.964 E51.90549
G1 X107.181 Y116.775 E51.91809
G1 X107.200 Y116.229 E51.93066
G1 X107.331 Y115.796 E51.94323
G1 X107.461 Y115.361 E51.95581
G1 X107.592 Y114.928 E51.96838
G1 X107.722 Y114.495 E51.98095
G1 X107.853 Y114.060 E51.99358
G1 X107.983 Y113.627 E52.00615
G1 X108.114 Y113.194 E52.01873
G1 X108.244 Y112.759 E52.03135
G1 X108.375 Y112.326 E52.04392
G1 X108.506 Y111.892 E52.05653
G1 X108.636 Y111.458 E52.06912
G1 X108.775 Y111.032 E52.08167
G1 X109.402 Y111.095 E52.09969
G1 X109.966 Y111.095 E52.11774
G1 X110.531 Y111.095 E52.13576
G1 X111.095 Y111.095 E52.15381
G1 X111.660 Y111.096 E52.17195
G1 X112.224 Y111.096 E52.19005
G1 X112.788 Y111.096 E52.20816
G1 X113.352 Y111.096 E52.22626
G1 X113.917 Y111.096 E52.24440
G1 X114.397 Y111.576 E52.26951
G1 X114.640 Y112.383 E52.29303
G1 X114.883 Y113.191 E52.31648
G1 X115.126 Y113.998 E52.33991
G1 X115.370 Y114.807 E52.36340
G1 X115.613 Y115.614 E52.38683
G1 X115.857 Y116.422 E52.41021
G1 X116.456 Y117.021 E52.44079
G1 X116.878 Y117.161 E52.45853
;LAYER:3
M106 S15
G10
G1 Z0.600
G0 F12000 X120.155 Y117.302 Z0.600
;TYPE:WALL-OUTER
G1 Z0.600
G11
G1 F1860 X119.842 Y116.743 E52.48410
G1 X120.842 Y116.743 E52.52400
G1 X115.005 Y106.300 E53.00134
G1 X107.995 Y106.300 E53.28104
G1 X102.158 Y116.743 E53.75839
G1 X103.158 Y116.743 E53.79829
G1 X102.845 Y117.302 E53.82385
G1 X101.301 Y117.302 E53.88546
G1 X107.788 Y105.698 E54.41589
G1 X115.212 Y105.698 E54.71211
G1 X121.699 Y117.302 E55.24255
G1 X120.155 Y117.302 E55.30415
G0 F12000 X120.193 Y117.083
;TYPE:SKIN
G1 F1860 X120.536 Y117.021 E55.31548
G1 X120.997 Y116.843 E55.33119
G1 X121.006 Y116.551 E55.33926
G1 X120.803 Y116.189 E55.34731
G1 X120.601 Y115.827 E55.35535
G1 X120.399 Y115.466 E55.36342
G1 X120.197 Y115.104 E55.37150
G1 X120.167 Y114.851 E55.38167
G10
G1 Z0.700
G0 F12000 X121.381 Y117.023
G1 Z0.600
G11
G1 F1860 X121.243 Y117.161 E55.38945
G0 F12000 X119.822 Y114.633
G1 F1860 X119.792 Y114.380 E55.39753
G1 X119.590 Y114.018 E55.40561
G1 X119.387 Y113.656 E55.41366
G1 X119.185 Y113.294 E55.42171
G1 X118.982 Y112.932 E55.42972
G1 X118.780 Y112.570 E55.43776
G1 X118.578 Y112.208 E55.44580
G1 X118.376 Y111.846 E55.45384
G1 X118.174 Y111.484 E55.46189
G1 X117.971 Y111.122 E55.46990
G1 X117.768 Y110.760 E55.47791
G1 X117.566 Y110.398 E55.48595
G1 X117.364 Y110.036 E55.49399
G1 X117.162 Y109.674 E55.50203
G1 X116.959 Y109.312 E55.51004
G1 X116.757 Y108.950 E55.51808
G1 X116.555 Y108.589 E55.52607
G1 X116.353 Y108.227 E55.53403
G1 X116.150 Y107.865 E55.54200
G1 X115.948 Y107.503 E55.55000
G1 X115.746 Y107.141 E55.55796
G1 X115.543 Y106.779 E55.56593
G1 X115.341 Y106.417 E55.57393
G1 X115.193 Y106.001 E55.58187
G1 X114.631 Y105.998 E55.60003
G1 X114.067 Y105.998 E55.61819
G1 X113.503 Y105.998 E55.63635
G1 X112.939 Y105.998 E55.65451
G1 X112.374 Y105.998 E55.67270
G1 X111.810 Y105.998 E55.69086
G1 X111.246 Y105.998 E55.70902
G1 X110.681 Y105.998 E55.72722
G1 X110.117 Y105.998 E55.74538
G1 X109.553 Y105.998 E55.76354
G1 X108.989 Y105.998 E55.78170
G1 X108.424 Y105.998 E55.79989
G1 X107.902 Y106.238 E55.81805
G1 X107.319 Y106.822 E55.85097
G0 F12000 X107.109 Y107.596
G1 F1860 X106.603 Y108.102 E55.87952
G0 F12000 X106.394 Y108.875
G1 F1860 X105.887 Y109.382 E55.90813
G0 F12000 X105.679 Y110.154
G1 F1860 X105.172 Y110.662 E55.93677
G0 F12000 X104.965 Y111.433
G1 F1860 X104.353 Y112.327 E55.96537
G1 X103.638 Y113.606 E55.99395
G1 X102.923 Y114.885 E56.02266
G1 X102.207 Y116.165 E56.05141
G1 X101.826 Y117.111 E56.08027
G1 X102.480 Y117.021 E56.09598
G1 X102.901 Y116.882 E56.11367
G10
G1 Z0.700
G0 F12000 X106.754 Y116.743
;TYPE:WALL-OUTER
G1 Z0.600
G11
G1 F1860 X108.546 Y110.796 E56.36150
G1 X114.454 Y110.796 E56.59723
G1 X116.246 Y116.743 E56.84505
G1 X117.246 Y116.743 E56.88495
G1 X117.415 Y117.302 E56.90825
G1 X115.831 Y117.302 E56.97145
G1 X114.052 Y111.398 E57.21749
G1 X108.948 Y111.398 E57.42113
G1 X107.169 Y117.302 E57.66717
G1 X105.586 Y117.302 E57.73033
G1 X105.754 Y116.743 E57.75362
G1 X106.754 Y116.743 E57.79352
G0 F12000 X106.862 Y116.872
;TYPE:SKIN
G1 F1860 X107.190 Y116.260 E57.81685
G1 X107.433 Y115.453 E57.84019
