;FLAVOR:UltiGCode
;TIME:246
;MATERIAL:220
;MATERIAL2:0
;NOZZLE_DIAMETER:0.400000
;NOZZLE_DIAMETER2:0.400000
;MTYPE:PLA

;Layer count: 38
;LAYER:0
M107
G0 F12000 X109.610 Y102.229 Z0.300
G0 X110.610 Y102.229
;TYPE:SKIRT
G1 F1200 X111.460 Y100.708 E0.20909
G1 X122.773 Y100.708 E1.56665
G1 X122.314 Y102.229 E1.75730
G1 X123.311 Y102.229 E1.87694
G1 X121.885 Y106.968 E2.47081
G1 X121.886 Y106.968 E2.47093
G1 X121.481 Y108.310 E2.63914
G1 X120.856 Y110.386 E2.89930
G1 X120.855 Y110.386 E2.89942
G1 X120.389 Y111.935 E3.09353
G1 X119.725 Y114.135 E3.36930
G1 X119.727 Y114.135 E3.36954
G1 X118.898 Y116.882 E3.71386
G1 X118.700 Y117.539 E3.79620
G1 X118.699 Y117.539 E3.79632
G1 X118.073 Y119.614 E4.05641
G1 X117.263 Y122.292 E4.39214
G1 X98.392 Y122.292 E6.65666
G1 X101.076 Y117.497 E7.31607
G1 X103.688 Y112.825 E7.95838
G1 X103.687 Y112.825 E7.95850
G1 X108.200 Y104.752 E9.06836
G1 X106.187 Y108.352 E9.56331
G1 X106.935 Y107.011 E9.74757
G1 X106.937 Y107.011 E9.74781
G1 X109.610 Y102.229 E10.40521
G1 X110.610 Y102.229 E10.52521
G0 F12000 X110.845 Y102.629
G1 F1200 X111.695 Y101.108 E10.73430
G1 X122.235 Y101.108 E11.99910
G1 X121.776 Y102.629 E12.18975
G1 X122.773 Y102.629 E12.30939
G1 X121.347 Y107.368 E12.90326
G1 X121.348 Y107.368 E12.90338
G1 X121.051 Y108.352 E13.02672
G1 X120.559 Y109.986 E13.23150
G1 X120.558 Y109.986 E13.23162
G1 X120.370 Y110.611 E13.30994
G1 X119.851 Y112.335 E13.52599
G1 X119.187 Y114.535 E13.80175
G1 X119.189 Y114.535 E13.80199
G1 X118.502 Y116.810 E14.08717
G1 X117.690 Y119.499 E14.42424
G1 X116.966 Y121.892 E14.72425
G1 X99.074 Y121.892 E16.87129
G1 X101.758 Y117.097 E17.53070
G1 X104.370 Y112.425 E18.17301
G1 X104.369 Y112.425 E18.17313
G1 X105.733 Y109.986 E18.50847
G1 X105.732 Y109.986 E18.50859
G1 X106.462 Y108.681 E18.68803
G1 X107.170 Y107.411 E18.86251
G1 X107.172 Y107.411 E18.86275
G1 X109.845 Y102.629 E19.52015
G1 X110.845 Y102.629 E19.64015
G10
G1 Z0.400
G0 F12000 X112.839 Y106.029
;TYPE:WALL-OUTER
G1 Z0.300
G11
G1 F1200 X113.690 Y104.508 E19.84930
G1 X114.230 Y104.508 E19.91410
G1 X106.727 Y117.935 E21.75983
G1 X110.149 Y117.935 E22.17047
G1 X110.149 Y114.790 E22.54787
G1 X113.977 Y114.790 E23.00723
G1 X117.076 Y104.508 E24.29590
G1 X117.658 Y104.508 E24.36574
G1 X117.199 Y106.029 E24.55639
G1 X118.198 Y106.029 E24.67627
G1 X118.031 Y106.586 E24.74605
G1 X117.031 Y106.586 E24.86605
G1 X116.451 Y108.510 E25.10719
G1 X117.450 Y108.510 E25.22707
G1 X117.283 Y109.067 E25.29685
G1 X116.283 Y109.067 E25.41685
G1 X115.771 Y110.768 E25.63002
G1 X116.771 Y110.768 E25.75002
G1 X116.603 Y111.326 E25.81995
G1 X115.602 Y111.326 E25.94007
G1 X115.043 Y113.182 E26.17267
G1 X116.042 Y113.182 E26.29255
G1 X115.875 Y113.739 E26.36233
G1 X114.875 Y113.739 E26.48233
G1 X114.274 Y115.735 E26.73247
G1 X115.274 Y115.735 E26.85247
G1 X115.106 Y116.293 E26.92240
G1 X114.105 Y116.293 E27.04252
G1 X113.748 Y117.480 E27.19126
G1 X113.748 Y115.390 E27.44206
G1 X110.749 Y115.390 E27.80194
G1 X110.749 Y118.301 E28.15126
G1 X113.748 Y118.301 E28.51114
G1 X113.748 Y117.935 E28.55506
G1 X114.611 Y117.935 E28.65862
G1 X114.443 Y118.492 E28.72844
G1 X104.874 Y118.492 E29.87672
G1 X105.186 Y117.935 E29.95333
G1 X106.185 Y117.935 E30.07321
G1 X107.103 Y116.293 E30.29895
G1 X106.104 Y116.293 E30.41883
G1 X106.368 Y115.820 E30.48383
G1 X107.367 Y115.820 E30.60371
G1 X108.554 Y113.697 E30.89559
G1 X107.555 Y113.697 E31.01547
G1 X107.819 Y113.224 E31.08047
G1 X108.818 Y113.224 E31.20035
G1 X109.903 Y111.284 E31.46709
G1 X108.903 Y111.284 E31.58709
G1 X109.167 Y110.811 E31.65209
G1 X110.166 Y110.811 E31.77197
G1 X111.165 Y109.025 E32.01754
G1 X110.166 Y109.025 E32.13742
G1 X110.430 Y108.552 E32.20242
G1 X111.429 Y108.552 E32.32230
G1 X112.528 Y106.586 E32.59258
G1 X111.529 Y106.586 E32.71246
G1 X111.840 Y106.029 E32.78901
G1 X112.839 Y106.029 E32.90889
G0 F12000 X113.035 Y105.964
;TYPE:SKIN
G1 F1200 X113.276 Y105.923 E32.93251
G1 X113.409 Y105.489 E32.95620
G1 X113.612 Y105.126 E32.97979
G1 X113.644 Y104.875 E33.01015
G10
G1 Z0.400
G0 F12000 X112.674 Y106.169
G1 Z0.300
G11
G1 F1200 X112.801 Y106.578 E33.06077
G1 X112.598 Y106.941 E33.08460
G1 X112.395 Y107.304 E33.10843
G1 X112.192 Y107.666 E33.13221
G1 X111.989 Y108.030 E33.15622
G1 X111.787 Y108.393 E33.18002
G1 X111.654 Y108.826 E33.20394
G1 X111.050 Y108.788 E33.25732
G1 X110.940 Y108.960 E33.28984
G1 X111.178 Y109.481 E33.31373
G1 X110.975 Y109.844 E33.33768
G1 X110.772 Y110.207 E33.36164
G1 X110.570 Y110.570 E33.38557
G1 X110.438 Y111.004 E33.40938
G1 X109.915 Y111.046 E33.44937
G1 X109.764 Y111.178 E33.48210
G1 X109.962 Y111.659 E33.50597
G1 X109.759 Y112.021 E33.52975
G1 X109.556 Y112.384 E33.55371
G1 X109.353 Y112.747 E33.57767
G1 X109.150 Y113.110 E33.60162
G1 X108.948 Y113.474 E33.62560
G1 X108.832 Y113.641 E33.64939
G1 X108.368 Y113.459 E33.68199
G1 X107.989 Y113.363 E33.72890
G0 F12000 X108.574 Y113.948
G1 F1200 X108.543 Y114.199 E33.75280
G1 X108.340 Y114.562 E33.77676
G1 X108.137 Y114.925 E33.80072
G1 X107.934 Y115.288 E33.82455
G1 X107.731 Y115.651 E33.84850
G1 X107.599 Y116.084 E33.87240
G1 X107.004 Y116.055 E33.92441
G1 X106.889 Y116.223 E33.95709
G1 X107.122 Y116.739 E33.98103
G1 X106.920 Y117.102 E34.00509
G1 X106.717 Y117.465 E34.02929
G1 X106.514 Y117.828 E34.05350
G1 X106.898 Y118.212 E34.12355
G1 X107.464 Y118.212 E34.17042
G1 X108.030 Y118.212 E34.21728
G1 X108.596 Y118.212 E34.26415
G1 X109.161 Y118.212 E34.31093
G1 X109.727 Y118.212 E34.35779
G1 X110.218 Y118.138 E34.40472
G1 X110.609 Y117.962 E34.45913
G1 X110.448 Y117.236 E34.51334
G1 X110.448 Y116.671 E34.56758
G1 X110.448 Y116.105 E34.62192
G1 X110.448 Y115.539 E34.67625
G1 X110.487 Y115.012 E34.73063
G1 X111.128 Y115.088 E34.78485
G1 X111.694 Y115.088 E34.83919
G1 X112.260 Y115.088 E34.89352
G1 X112.825 Y115.088 E34.94776
G1 X113.391 Y115.088 E35.00210
G1 X113.860 Y115.275 E35.05648
G1 X114.029 Y115.726 E35.10488
G1 X114.316 Y116.013 E35.15334
G1 X114.737 Y116.152 E35.20655
G0 F12000 X114.303 Y115.151
G1 F1200 X114.256 Y114.822 E35.24433
G1 X114.387 Y114.387 E35.28181
G1 X114.518 Y113.953 E35.31935
G1 X114.539 Y113.407 E35.35689
G1 X115.157 Y113.459 E35.42591
G1 X115.578 Y113.598 E35.47912
G0 F12000 X114.957 Y112.977
G1 F1200 X114.911 Y112.649 E35.51668
G1 X115.042 Y112.214 E35.55415
G1 X115.173 Y111.779 E35.59163
G1 X115.304 Y111.344 E35.62911
G1 X115.435 Y110.910 E35.66665
G1 X115.567 Y110.476 E35.70421
G1 X115.698 Y110.041 E35.74196
G1 X115.828 Y109.606 E35.77969
G1 X115.959 Y109.171 E35.81731
G1 X116.090 Y108.736 E35.85479
G1 X116.165 Y108.528 E35.89233
G1 X116.707 Y108.787 E35.93919
G1 X117.129 Y108.926 E35.99250
G0 F12000 X116.398 Y108.195
G1 F1200 X116.352 Y107.866 E36.03007
G1 X116.483 Y107.432 E36.06761
G1 X116.614 Y106.997 E36.10509
G1 X116.745 Y106.563 E36.14276
G1 X116.876 Y106.128 E36.18024
G1 X117.008 Y105.694 E36.21780
G1 X117.138 Y105.259 E36.25567
G1 X117.234 Y104.789 E36.29352
G1 X117.448 Y104.720 E36.32050
G0 F12000 X117.200 Y106.169
G1 F1200 X117.620 Y106.307 E36.36718
G1 X117.953 Y106.356 E36.40757
G10
G1 Z0.400
G0 F12000 X116.282 Y110.908
G1 Z0.300
G11
G1 F1200 X116.253 Y111.162 E36.44661
G1 X115.716 Y110.908 E36.51790
G10
G1 Z0.400
G0 F12000 X112.385 Y106.445
G1 Z0.300
G11
G1 F1200 X112.108 Y106.169 E36.56482
G0 F12000 X105.911 Y118.074
G1 F1200 X105.906 Y118.351 E36.61186
G1 X105.346 Y118.074 E36.68683
;LAYER:1
M106 S5
G0 F12000 X106.185 Y117.934 Z0.400
;TYPE:WALL-OUTER
G1 F1620 X107.101 Y116.294 E36.76178
G1 X106.101 Y116.294 E36.80168
G1 X106.367 Y115.819 E36.82341
G1 X107.367 Y115.819 E36.86331
G1 X108.552 Y113.698 E36.96025
G1 X107.552 Y113.698 E37.00015
G1 X107.818 Y113.223 E37.02187
G1 X108.818 Y113.223 E37.06177
G1 X109.901 Y111.285 E37.15035
G1 X108.901 Y111.285 E37.19025
G1 X109.166 Y110.810 E37.21195
G1 X110.166 Y110.810 E37.25185
G1 X111.163 Y109.026 E37.33339
G1 X110.163 Y109.026 E37.37329
G1 X110.429 Y108.551 E37.39502
G1 X111.429 Y108.551 E37.43492
G1 X112.526 Y106.587 E37.52468
G1 X111.526 Y106.587 E37.56458
G1 X111.839 Y106.028 E37.59014
G1 X112.839 Y106.028 E37.63004
G1 X113.689 Y104.507 E37.69956
G1 X114.233 Y104.507 E37.72127
G1 X106.729 Y117.934 E38.33499
G1 X110.148 Y117.934 E38.47141
G1 X110.148 Y114.789 E38.59690
G1 X113.976 Y114.789 E38.74963
G1 X117.075 Y104.507 E39.17811
G1 X117.659 Y104.507 E39.20142
G1 X117.200 Y106.028 E39.26481
G1 X118.200 Y106.028 E39.30471
G1 X118.032 Y106.587 E39.32800
G1 X117.032 Y106.587 E39.36790
G1 X116.452 Y108.509 E39.44800
G1 X117.452 Y108.509 E39.48790
G1 X117.284 Y109.068 E39.51119
G1 X116.284 Y109.068 E39.55109
G1 X115.772 Y110.767 E39.62189
G1 X116.772 Y110.767 E39.66179
G1 X116.603 Y111.327 E39.68513
G1 X115.603 Y111.327 E39.72503
G1 X115.044 Y113.181 E39.80229
G1 X116.044 Y113.181 E39.84219
G1 X115.876 Y113.740 E39.86548
G1 X114.876 Y113.740 E39.90538
G1 X114.275 Y115.734 E39.98848
G1 X115.275 Y115.734 E40.02838
G1 X115.106 Y116.294 E40.05172
G1 X114.106 Y116.294 E40.09162
G1 X113.747 Y117.486 E40.14129
G1 X113.747 Y115.391 E40.22488
G1 X110.750 Y115.391 E40.34446
G1 X110.750 Y118.300 E40.46053
G1 X113.747 Y118.300 E40.58011
G1 X113.747 Y117.934 E40.59471
G1 X114.612 Y117.934 E40.62923
G1 X114.443 Y118.493 E40.65253
G1 X104.872 Y118.493 E41.03441
G1 X105.185 Y117.934 E41.05997
G1 X106.185 Y117.934 E41.09987
G0 F12000 X106.321 Y117.977
;TYPE:SKIN
G1 F1620 X106.808 Y117.771 E41.12848
G1 X106.367 Y118.212 E41.14420
G1 X105.803 Y118.212 E41.15993
G1 X105.381 Y118.352 E41.17767
G0 F12000 X105.381 Y118.193
G0 X107.074 Y118.193
G0 X107.074 Y118.352
G1 F1620 X107.495 Y118.212 E41.19338
G1 X108.059 Y118.212 E41.20906
G1 X108.624 Y118.212 E41.22476
G1 X109.188 Y118.212 E41.24044
G1 X109.752 Y118.212 E41.25612
G1 X110.231 Y118.016 E41.27186
G1 X110.448 Y117.516 E41.28995
G1 X110.448 Y116.952 E41.30800
G1 X110.448 Y116.388 E41.32610
G1 X110.448 Y115.824 E41.34421
G1 X110.674 Y115.315 E41.36231
G1 X111.183 Y115.089 E41.38052
G1 X111.748 Y115.089 E41.39871
G1 X112.312 Y115.089 E41.41682
G1 X112.876 Y115.089 E41.43492
G1 X113.441 Y115.089 E41.45311
G1 X114.024 Y114.787 E41.47124
G1 X114.494 Y114.036 E41.49454
G1 X114.789 Y113.175 E41.52375
G1 X114.980 Y112.421 E41.54701
G1 X115.223 Y111.613 E41.57030
G1 X115.515 Y110.757 E41.59906
G1 X115.710 Y109.997 E41.62244
G1 X115.953 Y109.190 E41.64578
G1 X116.390 Y108.753 E41.66908
G1 X116.920 Y108.787 E41.68480
G1 X117.228 Y108.762 E41.69713
G0 F12000 X116.526 Y107.772
G1 F1620 X116.112 Y108.185 E41.72047
G0 F12000 X116.355 Y107.378
G1 F1620 X116.684 Y106.767 E41.74385
G1 X117.150 Y106.301 E41.76718
G1 X117.708 Y106.307 E41.78292
G1 X117.959 Y106.338 E41.79301
G0 F12000 X117.257 Y105.348
G1 F1620 X116.842 Y105.763 E41.81643
G0 F12000 X117.085 Y104.955
G1 F1620 X117.394 Y104.646 E41.83386
G10
G1 Z0.500
G0 F12000 X113.976 Y104.679
G1 Z0.400
G11
G1 F1620 X113.468 Y105.187 E41.86253
G0 F12000 X113.261 Y105.958
G1 F1620 X112.619 Y106.318 E41.89123
G1 X112.208 Y106.447 E41.90842
G0 F12000 X112.546 Y107.237
G1 F1620 X111.934 Y108.131 E41.93702
G1 X111.207 Y108.858 E41.96571
G1 X110.897 Y108.886 E41.97813
G0 F12000 X111.116 Y109.796
G1 F1620 X110.504 Y110.690 E42.00673
G1 X109.831 Y111.363 E42.03528
G1 X109.681 Y110.949 E42.04625
G1 X109.204 Y111.144 E42.06681
G0 F12000 X109.687 Y112.354
G1 F1620 X108.929 Y113.111 E42.09541
G1 X108.299 Y113.459 E42.10642
G1 X107.920 Y113.557 E42.12204
G0 F12000 X108.463 Y114.142
G1 F1620 X108.972 Y113.633 E42.15076
G0 F12000 X108.257 Y114.912
G1 F1620 X107.480 Y115.689 E42.17933
G1 X106.831 Y116.055 E42.19029
G1 X106.452 Y116.153 E42.20590
G0 F12000 X107.034 Y116.700
G1 F1620 X107.542 Y116.191 E42.23460
G10
G1 Z0.500
G0 F12000 X110.288 Y115.138
G1 Z0.400
G11
G1 F1620 X110.498 Y114.928 E42.24645
G0 F12000 X110.498 Y115.089
G0 X110.450 Y118.202
G0 X110.609 Y118.202
G1 F1620 X110.459 Y118.352 E42.25491
G0 F12000 X110.459 Y118.193
G0 X110.409 Y115.050
G0 X114.088 Y115.050
G0 X113.967 Y115.928
G0 X114.047 Y116.053
G0 X113.887 Y116.053
G1 F1620 X114.222 Y115.999 E42.26652
G1 X114.773 Y116.012 E42.28222
G1 X115.037 Y116.031 E42.29279
G0 F12000 X114.336 Y115.040
G1 F1620 X113.887 Y115.489 E42.31812
G10
G1 Z0.500
G0 F12000 X115.212 Y113.600
G1 Z0.400
G11
G1 F1620 X115.491 Y113.320 E42.33389
G0 F12000 X115.932 Y111.186
G1 F1620 X116.212 Y110.906 E42.34969
;LAYER:2
M106 S10
G0 F12000 X115.603 Y111.327 Z0.500
;TYPE:WALL-OUTER
G1 F1800 X115.044 Y113.181 E42.42696
G1 X116.044 Y113.181 E42.46686
G1 X115.876 Y113.740 E42.49015
G1 X114.876 Y113.740 E42.53005
G1 X114.275 Y115.734 E42.61314
G1 X115.275 Y115.734 E42.65304
G1 X115.106 Y116.294 E42.67638
G1 X114.106 Y116.294 E42.71628
G1 X113.747 Y117.486 E42.76595
G1 X113.747 Y115.391 E42.84954
G1 X110.750 Y115.391 E42.96912
G1 X110.750 Y118.300 E43.08519
G1 X113.747 Y118.300 E43.20477
G1 X113.747 Y117.934 E43.21938
G1 X114.612 Y117.934 E43.25389
G1 X114.443 Y118.493 E43.27719
G1 X104.872 Y118.493 E43.65907
G1 X105.185 Y117.934 E43.68464
G1 X106.185 Y117.934 E43.72454
G1 X107.101 Y116.294 E43.79949
G1 X106.101 Y116.294 E43.83939
G1 X106.367 Y115.819 E43.86111
G1 X107.367 Y115.819 E43.90101
G1 X108.552 Y113.698 E43.99795
G1 X107.552 Y113.698 E44.03785
G1 X107.818 Y113.223 E44.05957
G1 X108.818 Y113.223 E44.09947
G1 X109.901 Y111.285 E44.18805
G1 X108.901 Y111.285 E44.22795
G1 X109.166 Y110.810 E44.24965
G1 X110.166 Y110.810 E44.28955
G1 X111.163 Y109.026 E44.37110
G1 X110.163 Y109.026 E44.41100
G1 X110.429 Y108.551 E44.43272
G1 X111.429 Y108.551 E44.47262
G1 X112.526 Y106.587 E44.56238
G1 X111.526 Y106.587 E44.60228
G1 X111.839 Y106.028 E44.62784
G1 X112.839 Y106.028 E44.66774
G1 X113.689 Y104.507 E44.73726
G1 X114.233 Y104.507 E44.75897
G1 X106.729 Y117.934 E45.37269
G1 X110.148 Y117.934 E45.50911
G1 X110.148 Y114.789 E45.63460
G1 X113.976 Y114.789 E45.78734
G1 X117.075 Y104.507 E46.21582
G1 X117.659 Y104.507 E46.23912
G1 X117.200 Y106.028 E46.30251
G1 X118.200 Y106.028 E46.34241
G1 X118.032 Y106.587 E46.36570
G1 X117.032 Y106.587 E46.40560
G1 X116.452 Y108.509 E46.48570
G1 X117.452 Y108.509 E46.52560
G1 X117.284 Y109.068 E46.54889
G1 X116.284 Y109.068 E46.58879
G1 X115.772 Y110.767 E46.65959
G1 X116.772 Y110.767 E46.69949
G1 X116.603 Y111.327 E46.72283
G1 X115.603 Y111.327 E46.76273
G0 F12000 X115.479 Y111.248
;TYPE:SKIN
G1 F1800 X115.433 Y110.919 E46.77532
G1 X115.564 Y110.486 E46.78790
G1 X115.694 Y110.052 E46.80049
G1 X115.825 Y109.618 E46.81310
G1 X115.955 Y109.185 E46.82566
G1 X116.086 Y108.751 E46.83827
G1 X116.153 Y108.536 E46.85083
G1 X116.687 Y108.788 E46.86648
G1 X117.108 Y108.927 E46.88417
G0 F12000 X116.394 Y108.212
G1 F1800 X116.347 Y107.884 E46.89676
G1 X116.478 Y107.450 E46.90937
G1 X116.609 Y107.017 E46.92194
G1 X116.740 Y106.583 E46.93454
G1 X116.870 Y106.149 E46.94714
G1 X117.000 Y105.716 E46.95975
G1 X117.131 Y105.282 E46.97240
G1 X117.213 Y104.799 E46.98509
G1 X117.440 Y104.745 E46.99440
G0 F12000 X117.170 Y106.167
G1 F1800 X117.591 Y106.307 E47.01015
G1 X117.947 Y106.380 E47.02465
G10
G1 Z0.600
G0 F12000 X113.779 Y105.033
G1 Z0.500
G11
G1 F1800 X113.532 Y105.069 E47.03284
G1 X113.402 Y105.503 E47.04099
G1 X113.200 Y105.865 E47.04916
G1 X113.071 Y106.300 E47.05733
G1 X112.513 Y106.307 E47.07496
G1 X112.357 Y106.433 E47.09072
G1 X112.593 Y106.951 E47.09886
G1 X112.391 Y107.313 E47.10703
G1 X112.188 Y107.675 E47.11520
G1 X111.987 Y108.038 E47.12338
G1 X111.784 Y108.400 E47.13147
G1 X111.654 Y108.834 E47.13958
G1 X111.045 Y108.788 E47.15778
G1 X110.935 Y108.961 E47.16875
G1 X111.177 Y109.485 E47.17689
G1 X110.975 Y109.847 E47.18505
G1 X110.773 Y110.209 E47.19322
G1 X110.570 Y110.571 E47.20140
G1 X110.440 Y111.005 E47.20955
G1 X109.917 Y111.046 E47.22293
G1 X109.765 Y111.176 E47.23393
G1 X109.964 Y111.657 E47.24200
G1 X109.761 Y112.019 E47.25009
G1 X109.559 Y112.381 E47.25826
G1 X109.357 Y112.743 E47.26638
G1 X109.155 Y113.105 E47.27451
G1 X108.952 Y113.467 E47.28264
G1 X108.842 Y113.639 E47.29085
G1 X108.379 Y113.459 E47.30188
G1 X108.000 Y113.361 E47.31750
G0 F12000 X108.576 Y113.938
G1 F1800 X108.547 Y114.191 E47.32570
G1 X108.345 Y114.553 E47.33386
G1 X108.143 Y114.915 E47.34203
G1 X107.941 Y115.277 E47.35011
G1 X107.738 Y115.639 E47.35821
G1 X107.608 Y116.073 E47.36632
