;FLAVOR:UltiGCode
;TIME:3593
;MATERIAL:5637
;MATERIAL2:0
;NOZZLE_DIAMETER:0.400000
;NOZZLE_DIAMETER2:0.400000
;MTYPE:PLA

;Layer count: 38
;LAYER:0
M107
G0 F12000 X44.514 Y89.770 Z0.300
;TYPE:SKIRT
G1 F1200 X53.158 Y92.749 E1.09715
G1 X54.565 Y93.184 E1.27388
G1 X58.853 Y94.512 E1.81255
G1 X64.596 Y96.092 E2.52731
G1 X70.395 Y97.491 E3.24316
G1 X74.779 Y98.402 E3.78048
G1 X76.223 Y98.703 E3.95748
G1 X82.080 Y99.728 E4.67100
G1 X83.523 Y99.933 E4.84590
G1 X87.962 Y100.566 E5.38397
G1 X93.906 Y101.221 E6.10157
G1 X99.690 Y101.673 E6.79776
G1 X102.017 Y101.786 E7.07733
G1 X102.017 Y101.785 E7.07745
G1 X102.766 Y101.820 E7.16743
G1 X102.766 Y101.821 E7.16755
G1 X104.128 Y101.863 E7.33107
G1 X108.303 Y101.996 E7.83232
G1 X111.238 Y102.038 E8.18456
G1 X111.720 Y102.045 E8.24241
G1 X112.207 Y102.037 E8.30085
G1 X114.809 Y101.994 E8.61314
G1 X114.809 Y101.995 E8.61326
G1 X116.495 Y101.942 E8.81568
G1 X120.716 Y101.796 E9.32250
G1 X121.426 Y101.762 E9.40780
G1 X123.603 Y101.655 E9.66935
G1 X129.569 Y101.173 E10.38760
G1 X131.008 Y101.011 E10.56137
G1 X135.474 Y100.506 E11.10071
G1 X139.913 Y99.863 E11.63895
G1 X141.363 Y99.652 E11.81478
G1 X147.225 Y98.611 E12.52923
G1 X148.657 Y98.310 E12.70482
G1 X148.657 Y98.311 E12.70494
G1 X153.042 Y97.387 E13.24270
G1 X158.848 Y95.971 E13.95984
G1 X163.159 Y94.774 E14.49673
G1 X163.159 Y94.773 E14.49685
G1 X164.569 Y94.381 E14.67247
G1 X170.273 Y92.600 E15.38954
G1 X178.429 Y89.763 E16.42578
G1 X179.755 Y93.400 E16.89032
G1 X179.756 Y93.400 E16.89044
G1 X179.930 Y93.876 E16.95126
G1 X182.314 Y100.398 E17.78454
G1 X177.895 Y101.933 E18.34590
G1 X173.800 Y103.356 E18.86613
G1 X167.773 Y105.239 E19.62384
G1 X166.227 Y105.668 E19.81637
G1 X161.691 Y106.928 E20.38130
G1 X155.558 Y108.423 E21.13881
G1 X149.382 Y109.724 E21.89620
G1 X144.745 Y110.547 E22.46134
G1 X143.166 Y110.827 E22.65377
G1 X137.437 Y111.659 E23.34846
G1 X140.670 Y112.597 E23.75242
G1 X143.511 Y113.808 E24.12302
G1 X144.603 Y114.273 E24.26545
G1 X145.805 Y114.996 E24.43377
G1 X148.650 Y116.708 E24.83222
G1 X150.690 Y116.345 E25.08086
G1 X157.048 Y115.007 E25.86053
G1 X158.613 Y114.625 E26.05385
G1 X163.415 Y113.453 E26.64700
G1 X164.941 Y113.029 E26.83706
G1 X169.694 Y111.707 E27.42907
G1 X175.895 Y109.771 E28.20861
G1 X184.630 Y106.737 E29.31824
G1 X186.335 Y111.404 E29.91449
G1 X187.662 Y115.030 E30.37783
G1 X178.678 Y118.152 E31.51915
G1 X178.096 Y118.333 E31.59229
G1 X172.180 Y120.181 E32.33604
G1 X171.592 Y120.344 E32.40926
G1 X165.624 Y122.003 E33.15258
G1 X160.668 Y123.211 E33.76471
G1 X161.809 Y125.711 E34.09448
G1 X156.910 Y126.813 E34.69704
G1 X152.729 Y127.662 E35.20900
G1 X150.356 Y128.098 E35.49853
G1 X147.976 Y128.530 E35.78880
G1 X143.761 Y129.202 E36.30099
G1 X139.259 Y129.830 E36.84646
G1 X134.742 Y130.365 E37.39229
G1 X130.214 Y130.804 E37.93819
G1 X125.683 Y131.149 E38.48349
G1 X125.057 Y131.185 E38.55873
G1 X125.410 Y132.352 E38.70504
G1 X120.053 Y132.357 E39.34788
G1 X118.430 Y132.365 E39.54264
G1 X116.360 Y130.107 E39.91023
G1 X115.470 Y129.139 E40.06802
G1 X115.393 Y128.884 E40.09999
G1 X111.756 Y128.946 E40.53649
G1 X108.119 Y128.893 E40.97298
G1 X108.043 Y129.148 E41.00491
G1 X107.154 Y130.120 E41.16298
G1 X105.096 Y132.377 E41.52951
G1 X102.634 Y132.379 E41.82495
G1 X98.108 Y132.401 E42.36807
G1 X98.460 Y131.223 E42.51561
G1 X98.222 Y131.211 E42.54421
G1 X93.586 Y130.877 E43.10197
G1 X89.056 Y130.455 E43.64792
G1 X84.537 Y129.938 E44.19374
G1 X80.030 Y129.326 E44.73954
G1 X75.535 Y128.621 E45.28554
G1 X71.057 Y127.821 E45.83140
G1 X66.598 Y126.927 E46.37713
G1 X61.719 Y125.845 E46.97684
G1 X62.836 Y123.336 E47.30641
G1 X57.871 Y122.139 E47.91928
G1 X51.308 Y120.333 E48.73611
G1 X45.386 Y118.500 E49.48001
G1 X44.804 Y118.319 E49.55315
G1 X38.946 Y116.301 E50.29665
G1 X35.346 Y115.055 E50.75380
G1 X38.354 Y106.756 E51.81307
G1 X47.543 Y109.924 E52.97945
G1 X53.796 Y111.859 E53.76491
G1 X60.066 Y113.585 E54.54530
G1 X66.430 Y115.120 E55.33088
G1 X72.817 Y116.448 E56.11371
G1 X75.561 Y116.928 E56.44799
G1 X75.985 Y116.673 E56.50737
G1 X79.114 Y114.794 E56.94535
G1 X80.205 Y114.326 E57.08780
G1 X81.042 Y113.966 E57.19714
G1 X80.853 Y113.341 E57.27549
G1 X80.854 Y113.341 E57.27561
G1 X80.317 Y111.573 E57.49734
G1 X80.402 Y110.921 E57.57625
G1 X80.302 Y110.907 E57.58836
G1 X78.723 Y110.631 E57.78072
G1 X74.082 Y109.818 E58.34612
G1 X67.902 Y108.534 E59.10355
G1 X61.765 Y107.054 E59.86111
G1 X55.679 Y105.379 E60.61858
G1 X49.648 Y103.513 E61.37615
G1 X40.655 Y100.413 E62.51763
G1 X43.020 Y93.887 E63.35059
G1 X44.514 Y89.770 E63.87615
G10
G1 Z0.400
G0 F12000 X47.053 Y95.087
;TYPE:WALL-INNER
G1 Z0.300
G11
G1 F1200 X51.862 Y96.745 E64.48656
G1 X57.677 Y98.545 E65.21703
G1 X63.545 Y100.159 E65.94734
G1 X69.462 Y101.587 E66.67777
G1 X75.422 Y102.826 E67.40826
G1 X81.417 Y103.876 E68.13861
G1 X87.443 Y104.734 E68.86902
G1 X93.493 Y105.402 E69.59943
G1 X99.425 Y105.865 E70.31344
G1 X101.821 Y105.981 E70.60129
G1 X101.973 Y105.988 E70.61955
G1 X99.860 Y109.910 E71.15415
G1 X99.217 Y112.053 E71.42264
G1 X104.306 Y112.046 E72.03332
G1 X106.081 Y106.127 E72.77485
G1 X108.234 Y106.196 E73.03334
G1 X111.727 Y106.246 E73.45254
G1 X114.886 Y106.194 E73.83168
G1 X116.638 Y106.139 E74.04202
G1 X117.373 Y106.114 E74.13027
G1 X119.199 Y112.144 E74.88632
G1 X120.045 Y112.143 E74.98784
G1 X120.057 Y122.543 E76.23584
G1 X125.057 Y122.537 E76.83584
G1 X125.045 Y112.137 E78.08384
G1 X124.288 Y112.138 E78.17468
G1 X123.605 Y109.881 E78.45765
G1 X121.482 Y105.963 E78.99240
G1 X123.892 Y105.846 E79.28194
G1 X129.959 Y105.355 E80.01236
G1 X136.008 Y104.673 E80.74284
G1 X142.032 Y103.799 E81.47329
G1 X148.024 Y102.735 E82.20357
G1 X153.980 Y101.481 E82.93396
G1 X159.894 Y100.039 E83.66443
G1 X165.759 Y98.409 E84.39491
G1 X171.569 Y96.595 E85.12530
G1 X175.901 Y95.089 E85.67566
G1 X176.904 Y97.831 E86.02602
G1 X172.487 Y99.366 E86.58716
G1 X166.581 Y101.210 E87.32962
G1 X160.637 Y102.861 E88.06990
G1 X154.626 Y104.327 E88.81236
G1 X148.581 Y105.600 E89.55367
G1 X142.496 Y106.680 E90.29529
G1 X136.377 Y107.568 E91.03726
G1 X128.715 Y108.433 E91.96254
G1 X132.186 Y114.507 E92.80203
G1 X139.254 Y116.559 E93.68522
G1 X142.689 Y118.023 E94.13329
G1 X146.485 Y120.306 E94.66485
G1 X147.115 Y121.247 E94.80074
G1 X151.466 Y120.473 E95.33106
G1 X157.984 Y119.101 E96.13036
G1 X164.454 Y117.523 E96.92952
G1 X170.872 Y115.739 E97.72888
G1 X177.229 Y113.754 E98.52804
G1 X182.104 Y112.061 E99.14731
G1 X182.251 Y112.464 E99.19879
G1 X177.358 Y114.164 E99.82038
G1 X170.998 Y116.150 E100.61992
G1 X164.569 Y117.936 E101.42062
G1 X158.607 Y119.391 E102.15706
G1 X158.095 Y119.516 E102.22030
G1 X151.543 Y120.896 E103.02379
G1 X146.863 Y121.726 E103.59415
G1 X145.151 Y122.031 E103.80283
G1 X145.342 Y123.880 E104.02589
G1 X150.971 Y123.714 E104.70166
G1 X149.600 Y123.966 E104.86894
G1 X147.280 Y124.387 E105.15189
G1 X143.130 Y125.049 E105.65618
G1 X138.732 Y125.663 E106.18906
G1 X134.279 Y126.190 E106.72715
G1 X129.862 Y126.619 E107.25968
G1 X125.394 Y126.959 E107.79739
G1 X124.292 Y127.022 E107.92985
G1 X123.628 Y125.241 E108.15794
G1 X123.309 Y124.393 E108.26666
G1 X118.687 Y124.619 E108.82197
G1 X119.231 Y126.425 E109.04830
G1 X119.501 Y127.318 E109.16025
G1 X119.213 Y127.004 E109.21138
G1 X118.496 Y124.630 E109.50897
G1 X111.750 Y124.746 E110.31861
G1 X105.006 Y124.647 E111.12798
G1 X104.294 Y127.023 E111.42563
G1 X104.007 Y127.338 E111.47676
G1 X104.816 Y124.636 E111.81522
G1 X100.190 Y124.422 E112.37094
G1 X99.215 Y127.056 E112.70798
G1 X98.469 Y127.018 E112.79761
G1 X93.942 Y126.693 E113.34225
G1 X89.498 Y126.278 E113.87785
G1 X85.048 Y125.769 E114.41533
G1 X80.635 Y125.170 E114.94975
G1 X76.220 Y124.477 E115.48604
G1 X72.495 Y123.812 E115.94010
G1 X78.158 Y123.965 E116.61991
G1 X78.344 Y122.115 E116.84303
G1 X73.102 Y121.198 E117.48162
G1 X72.506 Y121.093 E117.55424
G1 X71.933 Y120.993 E117.62404
G1 X71.412 Y120.885 E117.68789
G1 X65.408 Y119.636 E118.42380
G1 X58.913 Y118.070 E119.22553
G1 X52.488 Y116.302 E120.02519
G1 X46.631 Y114.489 E120.76093
G1 X46.097 Y114.323 E120.82804
G1 X40.747 Y112.479 E121.50710
G1 X40.894 Y112.074 E121.55880
G1 X46.245 Y113.919 E122.23802
G1 X52.607 Y115.888 E123.03719
G1 X59.029 Y117.655 E123.83647
G1 X65.503 Y119.217 E124.63564
G1 X72.024 Y120.573 E125.43490
G1 X76.887 Y121.424 E126.02733
G1 X77.354 Y120.750 E126.12572
G1 X81.030 Y118.543 E126.64024
G1 X84.484 Y117.057 E127.09145
G1 X86.212 Y116.550 E127.30755
G1 X84.703 Y111.563 E127.93279
G1 X92.599 Y112.253 E128.88392
G1 X94.747 Y108.476 E129.40533
G1 X87.075 Y107.629 E130.33156
G1 X80.957 Y106.758 E131.07313
G1 X74.876 Y105.693 E131.81395
G1 X68.814 Y104.433 E132.55694
G1 X62.815 Y102.987 E133.29744
G1 X56.859 Y101.348 E134.03872
G1 X50.949 Y99.519 E134.78111
G1 X46.057 Y97.833 E135.40204
G1 X47.053 Y95.087 E135.75256
G0 F12000 X93.952 Y108.882
G0 X98.426 Y112.170
G1 F1200 X98.438 Y122.570 E137.00056
G1 X103.438 Y122.564 E137.60056
G1 X103.426 Y112.164 E138.84856
G1 X98.426 Y112.170 E139.44856
G0 F12000 X102.968 Y112.623
G0 X108.189 Y114.016
G1 F1200 X111.737 Y114.257 E139.87531
G1 X113.793 Y114.112 E140.12264
G1 X115.284 Y114.003 E140.30204
G1 X113.946 Y109.573 E140.85735
G1 X110.626 Y109.577 E141.25575
G1 X109.517 Y109.580 E141.38884
G1 X108.189 Y114.016 E141.94450
G0 F12000 X108.716 Y113.651
G1 F1200 X111.737 Y113.856 E142.30785
G1 X113.764 Y113.713 E142.55170
G1 X114.757 Y113.641 E142.67117
G1 X113.649 Y109.973 E143.13097
G1 X109.815 Y109.979 E143.59105
G1 X108.716 Y113.651 E144.05100
G0 F12000 X104.009 Y111.646
G1 F1200 X105.787 Y105.718 E144.79367
G1 X108.243 Y105.796 E145.08854
G1 X111.727 Y105.846 E145.50666
G1 X114.876 Y105.794 E145.88460
G1 X116.625 Y105.740 E146.09458
G1 X117.667 Y105.704 E146.21969
G1 X119.496 Y111.743 E146.97688
G1 X123.749 Y111.739 E147.48724
G1 X123.234 Y110.036 E147.70074
G1 X120.827 Y105.595 E148.30690
G1 X123.867 Y105.447 E148.67213
G1 X129.921 Y104.957 E149.40099
G1 X135.957 Y104.276 E150.12990
G1 X141.969 Y103.404 E150.85889
G1 X147.948 Y102.342 E151.58760
G1 X153.892 Y101.091 E152.31651
G1 X159.793 Y99.652 E153.04538
G1 X165.646 Y98.026 E153.77434
G1 X171.444 Y96.215 E154.50325
G1 X176.142 Y94.582 E155.10009
G1 X177.419 Y98.075 E155.54639
G1 X172.611 Y99.746 E156.15720
G1 X166.689 Y101.596 E156.90171
G1 X160.742 Y103.248 E157.64237
G1 X154.713 Y104.717 E158.38702
G1 X148.667 Y105.991 E159.12847
G1 X142.558 Y107.076 E159.87302
G1 X136.423 Y107.966 E160.61693
G1 X129.364 Y108.762 E161.46938
G1 X132.453 Y114.168 E162.21653
G1 X139.389 Y116.181 E163.08320
G1 X142.872 Y117.666 E163.53756
G1 X146.767 Y120.009 E164.08301
G1 X147.302 Y120.807 E164.19830
G1 X151.390 Y120.080 E164.69655
G1 X157.896 Y118.711 E165.49437
G1 X164.353 Y117.136 E166.29193
G1 X170.759 Y115.356 E167.08977
G1 X177.104 Y113.374 E167.88746
G1 X182.344 Y111.554 E168.55310
G1 X182.766 Y112.708 E168.70055
G1 X177.482 Y114.544 E169.37182
G1 X171.098 Y116.538 E170.17440
G1 X164.674 Y118.323 E170.97448
G1 X158.165 Y119.910 E171.77845
G1 X151.629 Y121.287 E172.57998
G1 X145.587 Y122.359 E173.31635
G1 X145.701 Y123.469 E173.45025
G1 X155.740 Y123.173 E174.65545
G1 X152.002 Y123.932 E175.11316
G1 X149.673 Y124.360 E175.39732
G1 X147.343 Y124.783 E175.68149
G1 X143.193 Y125.444 E176.18577
G1 X138.779 Y126.060 E176.72058
G1 X134.328 Y126.587 E177.25844
G1 X129.884 Y127.019 E177.79423
G1 X125.436 Y127.357 E178.32953
G1 X124.020 Y127.438 E178.49973
G1 X123.253 Y125.382 E178.76305
G1 X123.037 Y124.806 E178.83687
G1 X119.217 Y124.993 E179.29582
G1 X120.293 Y128.557 E179.74257
G1 X120.093 Y128.557 E179.76657
G1 X118.856 Y127.209 E179.98612
G1 X118.200 Y125.035 E180.25861
G1 X111.751 Y125.146 E181.03261
G1 X105.302 Y125.051 E181.80657
G1 X104.651 Y127.226 E182.07901
G1 X103.417 Y128.578 E182.29867
G1 X103.219 Y128.578 E182.32243
G1 X104.286 Y125.012 E182.76910
G1 X100.463 Y124.835 E183.22835
G1 X99.488 Y127.471 E183.56561
G1 X98.448 Y127.418 E183.69057
G1 X93.902 Y127.091 E184.23750
G1 X89.454 Y126.676 E184.77358
G1 X85.015 Y126.168 E185.30974
G1 X80.574 Y125.565 E185.84755
G1 X76.173 Y124.874 E186.38214
G1 X71.759 Y124.086 E186.92019
G1 X67.753 Y123.283 E187.41048
G1 X77.797 Y123.555 E188.61620
G1 X77.909 Y122.445 E188.75007
G1 X71.876 Y121.389 E189.48504
G1 X65.311 Y120.024 E190.28969
G1 X58.830 Y118.461 E191.08971
G1 X52.365 Y116.682 E191.89434
G1 X45.983 Y114.707 E192.69602
G1 X40.232 Y112.725 E193.42597
G1 X40.652 Y111.568 E193.57367
G1 X46.369 Y113.538 E194.29930
G1 X52.720 Y115.504 E195.09710
G1 X59.129 Y117.268 E195.89478
G1 X65.591 Y118.827 E196.69247
G1 X72.099 Y120.180 E197.49013
G1 X76.704 Y120.986 E198.05113
G1 X77.074 Y120.452 E198.12909
G1 X80.850 Y118.184 E198.65766
G1 X84.344 Y116.681 E199.11409
G1 X85.713 Y116.280 E199.28527
G1 X84.190 Y111.252 E199.91570
G1 X84.208 Y111.118 E199.93193
G1 X92.378 Y111.832 E200.91606
G1 X94.098 Y108.807 E201.33364
G1 X87.037 Y108.028 E202.18610
G1 X80.893 Y107.153 E202.93082
G1 X74.787 Y106.084 E203.67468
G1 X68.742 Y104.828 E204.41558
G1 X62.706 Y103.372 E205.16067
G1 X56.753 Y101.734 E205.90158
G1 X50.836 Y99.903 E206.64484
G1 X45.543 Y98.078 E207.31669
G1 X46.811 Y94.580 E207.76318
G1 X51.987 Y96.364 E208.42016
G1 X57.789 Y98.161 E209.14903
G1 X63.645 Y99.772 E209.87786
G1 X69.550 Y101.197 E210.60680
G1 X75.497 Y102.433 E211.33569
G1 X81.480 Y103.481 E212.06458
G1 X87.493 Y104.337 E212.79341
G1 X93.531 Y105.003 E213.52237
G1 X99.450 Y105.466 E214.23482
G1 X102.593 Y105.617 E214.61241
G1 X102.626 Y105.618 E214.61637
G1 X100.232 Y110.064 E215.22232
G1 X99.755 Y111.652 E215.42129
G1 X104.009 Y111.646 E215.93177
G0 F12000 X103.026 Y112.564
G1 F1200 X98.826 Y112.570 E216.43577
G1 X98.838 Y122.170 E217.58778
G1 X103.038 Y122.164 E218.09178
G1 X103.026 Y112.564 E219.24378
G0 F12000 X109.845 Y110.018
G0 X113.620 Y110.014
G0 X120.445 Y112.543
G1 F1200 X120.457 Y122.143 E220.39578
G1 X124.657 Y122.137 E220.89978
G1 X124.645 Y112.537 E222.05178
G1 X120.445 Y112.543 E222.55578
G0 F12000 X120.846 Y112.942
;TYPE:WALL-OUTER
G1 F1200 X120.856 Y121.742 E223.61178
G1 X124.256 Y121.738 E224.01978
G1 X124.246 Y112.938 E225.07578
G1 X120.846 Y112.942 E225.48378
G0 F12000 X120.846 Y112.642
G0 X119.793 Y111.643
G0 X119.793 Y111.343
G1 F1200 X123.210 Y111.340 E225.89382
G1 X122.863 Y110.191 E226.03785
G1 X120.505 Y105.841 E226.63161
G1 X118.128 Y105.844 E226.91685
G1 X119.793 Y111.343 E227.60632
G0 F12000 X119.793 Y111.643
G0 X114.251 Y113.577
G0 X114.230 Y113.279
G1 F1200 X113.352 Y110.374 E227.97049
G1 X110.113 Y110.378 E228.35917
G1 X109.243 Y113.286 E228.72341
G1 X111.736 Y113.455 E229.02326
G1 X114.230 Y113.279 E229.32328
G0 F12000 X114.251 Y113.577
G0 X114.657 Y113.572
G0 X114.885 Y105.694
G0 X114.867 Y105.394
G1 F1200 X120.843 Y105.194 E230.04081
G1 X123.841 Y105.048 E230.40099
G1 X129.882 Y104.559 E231.12828
G1 X135.906 Y103.879 E231.85575
G1 X141.905 Y103.009 E232.58317
G1 X147.872 Y101.949 E233.31042
G1 X153.803 Y100.701 E234.03772
G1 X159.692 Y99.265 E234.76511
G1 X165.533 Y97.642 E235.49258
G1 X171.319 Y95.835 E236.21998
G1 X176.383 Y94.075 E236.86331
G1 X177.934 Y98.320 E237.40565
G1 X172.737 Y100.126 E238.06587
G1 X166.810 Y101.977 E238.81099
G1 X160.831 Y103.638 E239.55564
G1 X154.808 Y105.107 E240.29959
G1 X148.729 Y106.386 E241.04504
G1 X142.627 Y107.470 E241.78874
G1 X136.487 Y108.361 E242.53326
G1 X130.013 Y109.091 E243.31506
G1 X132.720 Y113.829 E243.96988
G1 X139.527 Y115.805 E244.82044
G1 X143.054 Y117.309 E245.28055
G1 X147.051 Y119.713 E245.84026
G1 X147.488 Y120.368 E245.93475
G1 X151.314 Y119.687 E246.40108
G1 X157.807 Y118.321 E247.19730
G1 X164.252 Y116.749 E247.99337
G1 X170.646 Y114.972 E248.78973
G1 X176.979 Y112.994 E249.58590
G1 X182.585 Y111.047 E250.29804
G1 X183.281 Y112.953 E250.54153
G1 X177.611 Y114.923 E251.26183
G1 X171.223 Y116.918 E252.06490
G1 X164.763 Y118.713 E252.86947
G1 X158.260 Y120.300 E253.67273
G1 X151.696 Y121.681 E254.47766
G1 X146.023 Y122.688 E255.16906
G1 X146.061 Y123.058 E255.21369
G1 X156.724 Y122.744 E256.49381
G1 X156.979 Y123.313 E256.56863
G1 X156.200 Y123.488 E256.66444
G1 X152.086 Y124.323 E257.16818
G1 X147.406 Y125.177 E257.73906
