;FLAVOR:UltiGCode
;TIME:5831
;MATERIAL:10028
;MATERIAL2:0
;NOZZLE_DIAMETER:0.400000
;NOZZLE_DIAMETER2:0.400000
;MTYPE:PLA

;Layer count: 34
;LAYER:0
M107
G0 F12000 X53.211 Y79.731 Z0.300
G0 X55.281 Y80.476
;TYPE:SKIRT
G1 F1200 X56.013 Y78.463 E0.25704
G1 X61.777 Y80.402 E0.98680
G1 X64.770 Y81.340 E1.36319
G1 X67.972 Y82.275 E1.76347
G1 X71.236 Y83.156 E2.16917
G1 X74.482 Y83.957 E2.57038
G1 X77.755 Y84.694 E2.97297
G1 X81.021 Y85.357 E3.37288
G1 X84.347 Y85.960 E3.77851
G1 X87.633 Y86.486 E4.17785
G1 X91.001 Y86.953 E4.58588
G1 X94.305 Y87.340 E4.98507
G1 X97.619 Y87.657 E5.38456
G1 X100.996 Y87.910 E5.79094
G1 X104.324 Y88.089 E6.19088
G1 X107.660 Y88.199 E6.59141
G1 X111.070 Y88.240 E7.00064
G1 X111.273 Y88.243 E7.02501
G1 X114.372 Y88.210 E7.39691
G1 X117.753 Y88.109 E7.80281
G1 X121.086 Y87.939 E8.20329
G1 X124.452 Y87.697 E8.60825
G1 X127.774 Y87.388 E9.00861
G1 X131.091 Y87.008 E9.40925
G1 X134.443 Y86.553 E9.81518
G1 X137.745 Y86.035 E10.21627
G1 X141.011 Y85.453 E10.61436
G1 X144.332 Y84.789 E11.02077
G1 X147.595 Y84.064 E11.42188
G1 X150.878 Y83.263 E11.82740
G1 X154.111 Y82.401 E12.22891
G1 X157.300 Y81.480 E12.62723
G1 X160.536 Y80.471 E13.03399
G1 X163.686 Y79.415 E13.43266
G1 X165.897 Y78.626 E13.71437
G1 X167.752 Y77.937 E13.95183
G1 X170.898 Y76.766 E14.35465
G1 X173.781 Y84.675 E15.36482
G1 X171.903 Y85.367 E15.60499
G1 X182.942 Y115.697 E19.47817
G1 X184.818 Y115.007 E19.71803
G1 X186.555 Y119.776 E20.32709
G1 X187.685 Y122.902 E20.72597
G1 X185.814 Y123.591 E20.96523
G1 X186.381 Y125.150 E21.16429
G1 X186.382 Y125.150 E21.16441
G1 X186.754 Y126.170 E21.29470
G1 X188.025 Y129.677 E21.74233
G1 X180.718 Y132.354 E22.67616
G1 X179.541 Y135.200 E23.04573
G1 X172.978 Y137.588 E23.88381
G1 X172.909 Y136.381 E24.02888
G1 X169.673 Y137.320 E24.43322
G1 X165.280 Y138.498 E24.97900
G1 X160.863 Y139.583 E25.52480
G1 X156.423 Y140.575 E26.07074
G1 X151.964 Y141.474 E26.61658
G1 X147.487 Y142.280 E27.16246
G1 X142.993 Y142.992 E27.70847
G1 X138.487 Y143.609 E28.25423
G1 X133.969 Y144.132 E28.80001
G1 X129.440 Y144.560 E29.34591
G1 X124.903 Y144.893 E29.89182
G1 X120.473 Y145.125 E30.42415
G1 X118.645 Y145.195 E30.64367
G1 X114.611 Y145.292 E31.12789
G1 X114.078 Y145.301 E31.19186
G1 X111.266 Y145.311 E31.52930
G1 X108.453 Y145.302 E31.86686
G1 X107.919 Y145.293 E31.93095
G1 X103.885 Y145.195 E32.41517
G1 X102.181 Y145.130 E32.61980
G1 X97.946 Y144.910 E33.12869
G1 X97.304 Y144.870 E33.20588
G1 X93.090 Y144.560 E33.71292
G1 X88.561 Y144.132 E34.25882
G1 X84.043 Y143.609 E34.80460
G1 X79.537 Y142.992 E35.35037
G1 X75.043 Y142.280 E35.89638
G1 X70.566 Y141.474 E36.44225
G1 X66.107 Y140.575 E36.98810
G1 X61.667 Y139.583 E37.53404
G1 X57.250 Y138.498 E38.07983
G1 X52.857 Y137.320 E38.62562
G1 X49.614 Y136.379 E39.03083
G1 X49.543 Y137.585 E39.17580
G1 X42.989 Y135.200 E40.01274
G1 X41.808 Y132.342 E40.38382
G1 X38.353 Y131.085 E40.82501
G1 X34.969 Y129.847 E41.25741
G1 X36.247 Y126.340 E41.70532
G1 X37.855 Y121.919 E42.26985
G1 X38.636 Y119.776 E42.54355
G1 X53.211 Y79.731 E47.65734
G1 X55.281 Y80.476 E47.92134
G10
G1 Z0.400
G0 F12000 X56.712 Y85.456
;TYPE:WALL-INNER
G1 Z0.300
G11
G1 F1200 X57.795 Y85.849 E48.05959
G1 X58.559 Y83.751 E48.32753
G1 X60.488 Y84.400 E48.57176
G1 X63.546 Y85.358 E48.95630
G1 X66.850 Y86.323 E49.36935
G1 X70.172 Y87.219 E49.78223
G1 X73.512 Y88.044 E50.19508
G1 X76.870 Y88.800 E50.60813
G1 X80.242 Y89.485 E51.02103
G1 X83.629 Y90.099 E51.43409
G1 X87.026 Y90.642 E51.84691
G1 X90.436 Y91.115 E52.26003
G1 X93.854 Y91.515 E52.67299
G1 X97.280 Y91.843 E53.08599
G1 X100.712 Y92.100 E53.49898
G1 X104.148 Y92.285 E53.91190
G1 X107.587 Y92.399 E54.32480
G1 X111.264 Y92.443 E54.76607
G1 X114.470 Y92.410 E55.15082
G1 X117.910 Y92.306 E55.56380
G1 X121.345 Y92.131 E55.97654
G1 X124.778 Y91.885 E56.38955
G1 X128.205 Y91.566 E56.80257
G1 X131.624 Y91.174 E57.21554
G1 X135.035 Y90.712 E57.62860
G1 X138.433 Y90.178 E58.04136
G1 X141.822 Y89.575 E58.45443
G1 X145.197 Y88.899 E58.86747
G1 X148.556 Y88.153 E59.28037
G1 X151.899 Y87.337 E59.69331
G1 X155.225 Y86.451 E60.10635
G1 X158.531 Y85.496 E60.51929
G1 X161.816 Y84.472 E60.93220
G1 X165.079 Y83.378 E61.34518
G1 X167.315 Y82.580 E61.63008
G1 X168.400 Y82.177 E61.76897
G1 X166.524 Y82.871 E62.00900
G1 X180.437 Y121.094 E66.89017
G1 X182.313 Y120.404 E67.13003
G1 X180.437 Y121.095 E67.36994
G1 X182.437 Y126.592 E68.07188
G1 X182.649 Y127.173 E68.14610
G1 X176.975 Y129.251 E68.87120
G1 X176.975 Y130.414 E69.01076
G1 X176.802 Y130.833 E69.06516
G1 X176.799 Y130.786 E69.07081
G1 X172.826 Y132.031 E69.57043
G1 X168.554 Y133.272 E70.10426
G1 X164.229 Y134.431 E70.64157
G1 X159.907 Y135.493 E71.17564
G1 X155.539 Y136.469 E71.71273
G1 X151.176 Y137.349 E72.24683
G1 X146.797 Y138.137 E72.78075
G1 X142.382 Y138.836 E73.31715
G1 X137.950 Y139.443 E73.85396
G1 X133.540 Y139.954 E74.38670
G1 X129.078 Y140.375 E74.92451
G1 X124.650 Y140.700 E75.45730
G1 X120.276 Y140.929 E75.98290
G1 X118.521 Y140.996 E76.19366
G1 X114.523 Y141.093 E76.67356
G1 X111.264 Y141.111 E77.06464
G1 X108.500 Y141.102 E77.39632
G1 X104.009 Y140.996 E77.93539
G1 X102.377 Y140.935 E78.13137
G1 X98.181 Y140.716 E78.63558
G1 X97.583 Y140.679 E78.70747
G1 X93.452 Y140.376 E79.20453
G1 X88.990 Y139.953 E79.74237
G1 X84.580 Y139.443 E80.27509
G1 X80.148 Y138.836 E80.81190
G1 X75.733 Y138.137 E81.34830
G1 X71.354 Y137.349 E81.88222
G1 X66.991 Y136.469 E82.41632
G1 X62.623 Y135.493 E82.95341
G1 X58.301 Y134.431 E83.48747
G1 X53.976 Y133.272 E84.02479
G1 X49.704 Y132.031 E84.55862
G1 X45.731 Y130.786 E85.05824
G1 X45.728 Y130.832 E85.06377
G1 X45.566 Y130.438 E85.11489
G1 X45.586 Y130.061 E85.16020
G1 X45.639 Y129.267 E85.25569
G1 X40.352 Y127.343 E85.93083
G1 X41.814 Y123.324 E86.44403
G1 X43.884 Y124.069 E86.70803
G1 X45.389 Y119.935 E87.23596
G1 X43.319 Y119.191 E87.49992
G1 X55.726 Y85.101 E91.85322
G1 X56.712 Y85.456 E91.97898
G0 F12000 X56.851 Y85.081
G1 F1200 X57.556 Y85.337 E92.06899
G1 X58.317 Y83.248 E92.33578
G1 X60.612 Y84.020 E92.62634
G1 X63.662 Y84.975 E93.00987
G1 X66.958 Y85.938 E93.42192
G1 X70.272 Y86.832 E93.83382
G1 X73.604 Y87.655 E94.24567
G1 X76.953 Y88.409 E94.65761
G1 X80.318 Y89.092 E95.06965
G1 X83.696 Y89.704 E95.48161
G1 X87.085 Y90.246 E95.89346
G1 X90.487 Y90.718 E96.30561
G1 X93.896 Y91.118 E96.71749
G1 X97.314 Y91.445 E97.12952
G1 X100.737 Y91.701 E97.54143
G1 X104.165 Y91.885 E97.95338
G1 X107.596 Y91.999 E98.36533
G1 X111.265 Y92.043 E98.80564
G1 X114.462 Y92.010 E99.18930
G1 X117.893 Y91.907 E99.60121
G1 X121.321 Y91.732 E100.01310
G1 X124.745 Y91.486 E100.42504
G1 X128.164 Y91.168 E100.83709
G1 X131.574 Y90.777 E101.24898
G1 X134.977 Y90.316 E101.66107
G1 X138.367 Y89.784 E102.07284
G1 X141.747 Y89.182 E102.48483
G1 X145.114 Y88.508 E102.89688
G1 X148.465 Y87.763 E103.30882
G1 X151.800 Y86.949 E103.72077
G1 X155.118 Y86.065 E104.13282
G1 X158.416 Y85.113 E104.54474
G1 X161.693 Y84.091 E104.95666
G1 X164.948 Y83.000 E105.36861
G1 X167.178 Y82.204 E105.65275
G1 X168.638 Y81.661 E105.83968
G1 X168.913 Y82.418 E105.93632
G1 X167.037 Y83.109 E106.17623
G1 X180.675 Y120.580 E110.96131
G1 X182.552 Y119.890 E111.20129
G1 X182.826 Y120.641 E111.29722
G1 X180.949 Y121.332 E111.53724
G1 X183.161 Y127.412 E112.31362
G1 X177.375 Y129.531 E113.05304
G1 X177.375 Y130.494 E113.16860
G1 X176.669 Y132.201 E113.39027
G1 X176.482 Y132.269 E113.41415
G1 X176.428 Y131.321 E113.52809
G1 X172.938 Y132.415 E113.96699
G1 X168.658 Y133.658 E114.50181
G1 X164.331 Y134.817 E115.03935
G1 X160.001 Y135.881 E115.57441
G1 X155.627 Y136.859 E116.11225
G1 X151.258 Y137.740 E116.64708
G1 X146.852 Y138.533 E117.18430
G1 X142.432 Y139.233 E117.72131
G1 X138.017 Y139.838 E118.25606
G1 X133.565 Y140.353 E118.79386
G1 X129.122 Y140.773 E119.32940
G1 X124.671 Y141.100 E119.86496
G1 X120.305 Y141.329 E120.38960
G1 X118.522 Y141.396 E120.60371
G1 X114.532 Y141.493 E121.08265
G1 X111.265 Y141.511 E121.47470
G1 X108.494 Y141.502 E121.80722
G1 X104.008 Y141.396 E122.34569
G1 X102.348 Y141.333 E122.54503
G1 X98.166 Y141.116 E123.04755
G1 X97.558 Y141.078 E123.12065
G1 X93.408 Y140.773 E123.61999
G1 X88.965 Y140.353 E124.15553
G1 X84.513 Y139.838 E124.69333
G1 X80.098 Y139.234 E125.22807
G1 X75.678 Y138.533 E125.76510
G1 X71.272 Y137.740 E126.30231
G1 X66.903 Y136.859 E126.83714
G1 X62.529 Y135.881 E127.37498
G1 X58.199 Y134.817 E127.91004
G1 X53.872 Y133.658 E128.44759
G1 X49.592 Y132.415 E128.98241
G1 X46.102 Y131.321 E129.42130
G1 X46.048 Y132.269 E129.53525
G1 X45.862 Y132.202 E129.55897
G1 X45.168 Y130.524 E129.77687
G1 X45.162 Y130.508 E129.77892
G1 X45.220 Y129.540 E129.89529
G1 X39.839 Y127.582 E130.58243
G1 X41.574 Y122.813 E131.19141
G1 X43.644 Y123.558 E131.45540
G1 X44.876 Y120.175 E131.88745
G1 X42.806 Y119.430 E132.15144
G1 X55.486 Y84.590 E136.60053
G1 X56.851 Y85.081 E136.77460
G0 F12000 X57.317 Y84.824
;TYPE:WALL-OUTER
G1 F1200 X58.074 Y82.744 E137.04022
G1 X60.735 Y83.639 E137.37712
G1 X63.778 Y84.592 E137.75977
G1 X67.066 Y85.553 E138.17083
G1 X70.372 Y86.445 E138.58174
G1 X73.696 Y87.266 E138.99261
G1 X77.037 Y88.018 E139.40356
G1 X80.393 Y88.699 E139.81448
G1 X83.763 Y89.310 E140.22548
G1 X87.144 Y89.851 E140.63636
G1 X90.538 Y90.321 E141.04752
G1 X93.939 Y90.720 E141.45844
G1 X97.348 Y91.046 E141.86939
G1 X100.763 Y91.302 E142.28034
G1 X104.182 Y91.486 E142.69121
G1 X107.605 Y91.599 E143.10220
G1 X111.265 Y91.643 E143.54143
G1 X114.454 Y91.610 E143.92413
G1 X117.877 Y91.507 E144.33508
G1 X121.296 Y91.333 E144.74589
G1 X124.712 Y91.087 E145.15687
G1 X128.123 Y90.770 E145.56795
G1 X131.525 Y90.380 E145.97887
G1 X134.919 Y89.920 E146.38987
G1 X138.301 Y89.389 E146.80068
G1 X141.673 Y88.789 E147.21168
G1 X145.031 Y88.117 E147.62263
G1 X148.374 Y87.374 E148.03358
G1 X151.701 Y86.562 E148.44453
G1 X155.011 Y85.680 E148.85559
G1 X158.301 Y84.730 E149.26652
G1 X161.570 Y83.710 E149.67746
G1 X164.817 Y82.622 E150.08839
G1 X167.041 Y81.828 E150.37177
G1 X168.876 Y81.146 E150.60668
G1 X169.426 Y82.655 E150.79942
G1 X167.549 Y83.346 E151.03943
G1 X180.914 Y120.066 E155.72863
G1 X182.791 Y119.376 E155.96860
G1 X183.338 Y120.879 E156.16054
G1 X181.461 Y121.570 E156.40056
G1 X183.674 Y127.650 E157.17698
G1 X177.775 Y129.810 E157.93082
G1 X177.775 Y130.572 E158.02226
G1 X176.971 Y132.517 E158.27482
G1 X176.114 Y132.829 E158.38426
G1 X176.058 Y131.856 E158.50122
G1 X173.057 Y132.797 E158.87862
G1 X168.757 Y134.046 E159.41595
G1 X164.436 Y135.204 E159.95277
G1 X160.088 Y136.272 E160.49004
G1 X155.718 Y137.249 E161.02738
G1 X151.329 Y138.134 E161.56466
G1 X146.922 Y138.927 E162.10200
G1 X142.495 Y139.628 E162.63986
G1 X138.063 Y140.235 E163.17666
G1 X133.611 Y140.750 E163.71446
G1 X129.153 Y141.172 E164.25182
G1 X124.692 Y141.500 E164.78858
G1 X120.318 Y141.728 E165.31417
G1 X118.537 Y141.796 E165.52805
G1 X114.542 Y141.893 E166.00759
G1 X111.265 Y141.911 E166.40084
G1 X108.487 Y141.902 E166.73420
G1 X103.993 Y141.796 E167.27363
G1 X102.335 Y141.733 E167.47273
G1 X98.141 Y141.515 E167.97669
G1 X97.533 Y141.477 E168.04979
G1 X93.377 Y141.172 E168.54985
G1 X88.919 Y140.750 E169.08721
G1 X84.467 Y140.235 E169.62501
G1 X80.035 Y139.629 E170.16180
G1 X75.608 Y138.927 E170.69967
G1 X71.201 Y138.134 E171.23701
G1 X66.812 Y137.249 E171.77429
G1 X62.442 Y136.272 E172.31163
G1 X58.094 Y135.204 E172.84890
G1 X53.773 Y134.046 E173.38572
G1 X49.473 Y132.797 E173.92305
G1 X46.472 Y131.856 E174.30046
G1 X46.416 Y132.829 E174.41741
G1 X45.559 Y132.517 E174.52685
G1 X44.757 Y130.578 E174.77865
G1 X44.789 Y130.009 E174.84704
G1 X44.801 Y129.813 E174.87060
G1 X39.326 Y127.821 E175.56974
G1 X41.335 Y122.302 E176.27453
G1 X43.405 Y123.047 E176.53853
G1 X44.363 Y120.416 E176.87453
G1 X42.292 Y119.671 E177.13864
G1 X55.247 Y84.078 E181.68392
G1 X57.317 Y84.824 E181.94796
G0 F12000 X58.219 Y85.089
;TYPE:SKIN
G1 F1200 X114.082 Y140.952 E191.42822
G0 F12000 X114.643 Y140.948
G1 F1200 X58.370 Y84.675 E200.97807
G0 F12000 X58.521 Y84.260
G1 F1200 X115.196 Y140.934 E210.59605
G0 F12000 X115.748 Y140.921
G1 F1200 X58.808 Y83.981 E220.25909
G0 F12000 X59.660 Y84.268
G1 F1200 X116.300 Y140.907 E229.87113
G0 F12000 X116.852 Y140.894
G1 F1200 X60.511 Y84.553 E239.43252
G0 F12000 X61.335 Y84.811
G1 F1200 X117.405 Y140.881 E248.94791
G0 F12000 X117.958 Y140.868
G1 F1200 X62.159 Y85.069 E258.41731
G0 F12000 X62.983 Y85.327
G1 F1200 X118.510 Y140.854 E267.84056
G0 F12000 X119.049 Y140.828
G1 F1200 X63.797 Y85.576 E277.21713
G0 F12000 X64.596 Y85.809
G1 F1200 X119.589 Y140.802 E286.54976
G0 F12000 X113.517 Y140.953
G1 F1200 X58.069 Y85.504 E295.95968
G0 F12000 X57.918 Y85.919
G1 F1200 X112.952 Y140.953 E305.29926
G0 F12000 X112.387 Y140.954
G1 F1200 X57.224 Y85.791 E314.66073
G0 F12000 X56.338 Y85.470
G1 F1200 X111.823 Y140.956 E324.07693
G0 F12000 X111.258 Y140.956
G1 F1200 X55.748 Y85.446 E333.49729
G0 F12000 X55.597 Y85.861
G1 F1200 X110.693 Y140.957 E342.84739
G0 F12000 X110.129 Y140.958
G1 F1200 X55.446 Y86.276 E352.12732
G0 F12000 X55.295 Y86.691
G1 F1200 X109.564 Y140.959 E361.33699
G0 F12000 X108.999 Y140.960
G1 F1200 X55.144 Y87.105 E370.47649
G0 F12000 X54.993 Y87.520
G1 F1200 X108.432 Y140.959 E379.54539
G0 F12000 X107.850 Y140.943
G1 F1200 X54.842 Y87.935 E388.54114
G0 F12000 X54.691 Y88.350
G1 F1200 X107.269 Y140.927 E397.46384
G0 F12000 X106.687 Y140.911
G1 F1200 X54.540 Y88.764 E406.31348
G0 F12000 X54.389 Y89.179
G1 F1200 X106.106 Y140.895 E415.09006
G0 F12000 X105.524 Y140.879
G1 F1200 X54.238 Y89.593 E423.79358
G0 F12000 X54.088 Y90.009
G1 F1200 X104.943 Y140.864 E432.42396
G0 F12000 X104.361 Y140.847
G1 F1200 X53.936 Y90.423 E440.98128
G0 F12000 X53.786 Y90.838
G1 F1200 X103.779 Y140.832 E449.46546
G0 F12000 X103.197 Y140.816
G1 F1200 X53.635 Y91.253 E457.87650
G0 F12000 X53.484 Y91.667
G1 F1200 X102.616 Y140.799 E466.21447
G0 F12000 X102.024 Y140.774
G1 F1200 X53.333 Y92.082 E474.47770
G0 F12000 X53.182 Y92.497
G1 F1200 X101.427 Y140.742 E482.66514
G0 F12000 X100.829 Y140.710
G1 F1200 X53.031 Y92.912 E490.77673
G0 F12000 X52.880 Y93.326
G1 F1200 X100.232 Y140.678 E498.81263
G0 F12000 X99.634 Y140.646
G1 F1200 X52.729 Y93.741 E506.77268
G0 F12000 X52.578 Y94.156
G1 F1200 X99.036 Y140.614 E514.65686
G0 F12000 X98.439 Y140.582
G1 F1200 X52.427 Y94.571 E522.46527
G0 F12000 X52.276 Y94.985
G1 F1200 X97.841 Y140.550 E530.19791
G0 F12000 X97.237 Y140.512
G1 F1200 X52.125 Y95.400 E537.85367
G0 F12000 X51.974 Y95.815
G1 F1200 X96.627 Y140.468 E545.43153
G0 F12000 X96.016 Y140.422
G1 F1200 X51.823 Y96.230 E552.93125
G0 F12000 X51.673 Y96.645
G1 F1200 X95.406 Y140.378 E560.35299
G0 F12000 X94.796 Y140.333
G1 F1200 X51.521 Y97.059 E567.69691
G0 F12000 X51.371 Y97.474
G1 F1200 X94.185 Y140.288 E574.96269
G0 F12000 X93.574 Y140.244
G1 F1200 X51.219 Y97.889 E582.15057
G0 F12000 X51.069 Y98.304
G1 F1200 X92.952 Y140.187 E589.25835
G0 F12000 X92.327 Y140.128
G1 F1200 X50.918 Y98.718 E596.28578
G0 F12000 X50.767 Y99.133
G1 F1200 X91.702 Y140.068 E603.23268
G0 F12000 X91.077 Y140.009
G1 F1200 X50.616 Y99.547 E610.09922
G0 F12000 X50.465 Y99.962
G1 F1200 X90.452 Y139.949 E616.88524
G0 F12000 X89.827 Y139.890
G1 F1200 X50.314 Y100.377 E623.59082
G0 F12000 X50.163 Y100.792
G1 F1200 X89.202 Y139.831 E630.21596
G0 F12000 X88.567 Y139.761
G1 F1200 X50.012 Y101.206 E636.75896
G0 F12000 X49.861 Y101.621
G1 F1200 X87.927 Y139.687 E643.21897
G0 F12000 X87.288 Y139.613
G1 F1200 X49.711 Y102.036 E649.59600
G0 F12000 X49.559 Y102.451
G1 F1200 X86.648 Y139.540 E655.89021
G0 F12000 X86.008 Y139.466
G1 F1200 X49.409 Y102.866 E662.10135
G0 F12000 X49.257 Y103.280
G1 F1200 X85.369 Y139.392 E668.22976
G0 F12000 X84.730 Y139.319
G1 F1200 X49.107 Y103.695 E674.27527
G0 F12000 X48.955 Y104.110
G1 F1200 X84.077 Y139.232 E680.23567
G0 F12000 X83.423 Y139.143
G1 F1200 X48.805 Y104.525 E686.11054
G0 F12000 X48.653 Y104.939
G1 F1200 X82.767 Y139.053 E691.89988
G0 F12000 X82.112 Y138.963
G1 F1200 X48.503 Y105.354 E697.60351
G0 F12000 X48.351 Y105.769
G1 F1200 X81.456 Y138.873 E703.22153
G0 F12000 X80.801 Y138.783
G1 F1200 X48.201 Y106.184 E708.75385
G0 F12000 X48.050 Y106.598
G1 F1200 X80.145 Y138.694 E714.20064
G0 F12000 X79.471 Y138.585
