;FLAVOR:UltiGCode
;TIME:3485
;MATERIAL:5459
;MATERIAL2:0
;NOZZLE_DIAMETER:0.400000
;NOZZLE_DIAMETER2:0.400000
;MTYPE:PLA

;Layer count: 38
;LAYER:0
M107
G0 F12000 X44.514 Y89.770 Z0.300
;TYPE:SKIRT
G1 F1200 X53.160 Y92.751 E1.09746
G1 X57.457 Y94.080 E1.63720
G1 X58.874 Y94.519 E1.81521
G1 X64.581 Y96.089 E2.52549
G1 X68.961 Y97.145 E3.06615
G1 X70.376 Y97.488 E3.24087
G1 X76.210 Y98.700 E3.95590
G1 X82.076 Y99.727 E4.67052
G1 X86.522 Y100.360 E5.20942
G1 X87.964 Y100.566 E5.38422
G1 X93.906 Y101.221 E6.10158
G1 X98.364 Y101.570 E6.63818
G1 X99.697 Y101.675 E6.79863
G1 X102.017 Y101.786 E7.07735
G1 X102.017 Y101.785 E7.07747
G1 X102.766 Y101.820 E7.16745
G1 X102.766 Y101.821 E7.16757
G1 X108.304 Y101.996 E7.83246
G1 X110.908 Y102.033 E8.14497
G1 X111.641 Y102.045 E8.23294
G1 X111.701 Y102.046 E8.24014
G1 X112.207 Y102.038 E8.30087
G1 X114.808 Y101.994 E8.61304
G1 X119.314 Y101.845 E9.15405
G1 X120.715 Y101.796 E9.32228
G1 X122.922 Y101.689 E9.58743
G1 X123.604 Y101.655 E9.66937
G1 X129.570 Y101.173 E10.38762
G1 X131.009 Y101.011 E10.56139
G1 X135.476 Y100.507 E11.10083
G1 X136.919 Y100.298 E11.27580
G1 X141.370 Y99.651 E11.81553
G1 X142.803 Y99.397 E11.99017
G1 X147.226 Y98.611 E12.52925
G1 X148.658 Y98.310 E12.70484
G1 X148.658 Y98.311 E12.70496
G1 X153.051 Y97.385 E13.24371
G1 X154.471 Y97.039 E13.41909
G1 X158.855 Y95.969 E13.96062
G1 X164.574 Y94.380 E14.67289
G1 X170.225 Y92.615 E15.38332
G1 X178.430 Y89.764 E16.42567
G1 X179.757 Y93.403 E16.89047
G1 X179.758 Y93.403 E16.89059
G1 X180.507 Y95.455 E17.15272
G1 X181.175 Y97.282 E17.38616
G1 X182.286 Y100.409 E17.78438
G1 X173.799 Y103.356 E18.86247
G1 X167.775 Y105.239 E19.61984
G1 X161.691 Y106.929 E20.37757
G1 X155.559 Y108.424 E21.13496
G1 X149.381 Y109.724 E21.89256
G1 X143.166 Y110.829 E22.65005
G1 X136.926 Y111.733 E23.40667
G1 X134.291 Y112.043 E23.72505
G1 X137.941 Y118.400 E24.60469
G1 X138.571 Y118.313 E24.68101
G1 X141.813 Y117.864 E25.07376
G1 X142.836 Y117.701 E25.19807
G1 X146.031 Y117.190 E25.58634
G1 X150.291 Y116.418 E26.10587
G1 X152.256 Y116.016 E26.34655
G1 X157.054 Y115.005 E26.93496
G1 X158.614 Y114.625 E27.12763
G1 X163.416 Y113.453 E27.72078
G1 X169.686 Y111.711 E28.50168
G1 X175.885 Y109.775 E29.28100
G1 X184.630 Y106.736 E30.39196
G1 X186.335 Y111.404 E30.98831
G1 X187.663 Y115.033 E31.45204
G1 X184.102 Y116.267 E31.90429
G1 X178.680 Y118.151 E32.59308
G1 X172.765 Y119.999 E33.33672
G1 X172.765 Y119.998 E33.33684
G1 X172.183 Y120.180 E33.41002
G1 X166.213 Y121.838 E34.15353
G1 X166.213 Y121.839 E34.15365
G1 X165.624 Y122.003 E34.22702
G1 X160.669 Y123.211 E34.83903
G1 X161.811 Y125.715 E35.16929
G1 X156.973 Y126.799 E35.76424
G1 X152.730 Y127.662 E36.28383
G1 X150.356 Y128.098 E36.57347
G1 X148.253 Y128.479 E36.82994
G1 X143.765 Y129.202 E37.37544
G1 X139.259 Y129.831 E37.92141
G1 X134.743 Y130.365 E38.46710
G1 X130.229 Y130.804 E39.01134
G1 X129.637 Y130.854 E39.08263
G1 X125.396 Y131.172 E39.59298
G1 X125.059 Y131.190 E39.63348
G1 X125.409 Y132.349 E39.77876
G1 X118.425 Y132.360 E40.61684
G1 X116.360 Y130.107 E40.98358
G1 X115.470 Y129.139 E41.14138
G1 X115.393 Y128.884 E41.17334
G1 X111.756 Y128.946 E41.60985
G1 X108.118 Y128.893 E42.04645
G1 X108.041 Y129.150 E42.07865
G1 X105.095 Y132.376 E42.60290
G1 X98.112 Y132.387 E43.44086
G1 X98.461 Y131.222 E43.58680
G1 X98.122 Y131.205 E43.62753
G1 X93.585 Y130.878 E44.17338
G1 X89.056 Y130.456 E44.71921
G1 X84.537 Y129.938 E45.26505
G1 X80.030 Y129.326 E45.81085
G1 X75.537 Y128.621 E46.35661
G1 X71.058 Y127.821 E46.90259
G1 X66.598 Y126.927 E47.44844
G1 X61.725 Y125.845 E48.04744
G1 X62.839 Y123.338 E48.37664
G1 X57.872 Y122.139 E48.98980
G1 X51.308 Y120.333 E49.80675
G1 X44.806 Y118.320 E50.62353
G1 X35.345 Y115.059 E51.82440
G1 X37.211 Y109.912 E52.48138
G1 X37.210 Y109.912 E52.48150
G1 X38.351 Y106.755 E52.88432
G1 X47.543 Y109.924 E54.05107
G1 X52.252 Y111.381 E54.64258
G1 X53.794 Y111.860 E54.83634
G1 X58.530 Y113.162 E55.42575
G1 X60.066 Y113.585 E55.61693
G1 X66.430 Y115.121 E56.40254
G1 X71.241 Y116.120 E56.99217
G1 X72.827 Y116.450 E57.18657
G1 X76.398 Y117.088 E57.62188
G1 X77.454 Y117.277 E57.75061
G1 X81.687 Y117.942 E58.26480
G1 X85.545 Y118.466 E58.73201
G1 X89.178 Y112.101 E59.61147
G1 X86.543 Y111.797 E59.92977
G1 X80.302 Y110.907 E60.68627
G1 X78.723 Y110.631 E60.87862
G1 X74.083 Y109.818 E61.44390
G1 X67.903 Y108.534 E62.20134
G1 X61.767 Y107.054 E62.95877
G1 X60.221 Y106.630 E63.15114
G1 X55.679 Y105.380 E63.71645
G1 X49.649 Y103.513 E64.47394
G1 X40.655 Y100.413 E65.61553
G1 X43.020 Y93.887 E66.44849
G1 X44.514 Y89.770 E66.97405
G10
G1 Z0.400
G0 F12000 X47.053 Y95.087
;TYPE:WALL-INNER
G1 Z0.300
G11
G1 F1200 X51.862 Y96.746 E67.58450
G1 X57.677 Y98.545 E68.31494
G1 X63.545 Y100.159 E69.04525
G1 X69.463 Y101.588 E69.77582
G1 X75.422 Y102.826 E70.50616
G1 X81.417 Y103.876 E71.23652
G1 X87.444 Y104.734 E71.96705
G1 X93.493 Y105.402 E72.69734
G1 X99.426 Y105.866 E73.41147
G1 X101.821 Y105.981 E73.69920
G1 X102.578 Y106.016 E73.79014
G1 X108.235 Y106.196 E74.46933
G1 X110.843 Y106.233 E74.78232
G1 X111.576 Y106.245 E74.87029
G1 X111.730 Y106.246 E74.88877
G1 X112.277 Y106.238 E74.95442
G1 X114.887 Y106.194 E75.26766
G1 X119.459 Y106.042 E75.81660
G1 X120.878 Y105.993 E75.98699
G1 X123.893 Y105.846 E76.34922
G1 X129.960 Y105.355 E77.07964
G1 X136.009 Y104.674 E77.81010
G1 X142.032 Y103.799 E78.54045
G1 X148.025 Y102.735 E79.27085
G1 X153.981 Y101.481 E80.00124
G1 X159.894 Y100.039 E80.73160
G1 X165.760 Y98.409 E81.46219
G1 X171.569 Y96.595 E82.19247
G1 X175.903 Y95.089 E82.74305
G1 X176.563 Y96.898 E82.97413
G1 X176.904 Y97.831 E83.09333
G1 X172.487 Y99.366 E83.65447
G1 X166.571 Y101.214 E84.39822
G1 X160.647 Y102.860 E85.13603
G1 X154.627 Y104.328 E85.87959
G1 X148.581 Y105.600 E86.62100
G1 X142.492 Y106.682 E87.36312
G1 X136.367 Y107.570 E88.10581
G1 X132.073 Y108.076 E88.62465
G1 X127.426 Y108.522 E89.18486
G1 X135.683 Y122.902 E91.17470
G1 X138.053 Y122.624 E91.46105
G1 X142.408 Y122.022 E91.98861
G1 X146.749 Y121.329 E92.51613
G1 X151.074 Y120.545 E93.04359
G1 X153.101 Y120.130 E93.29187
G1 X157.984 Y119.101 E93.89070
G1 X164.455 Y117.523 E94.68998
G1 X170.872 Y115.740 E95.48919
G1 X177.229 Y113.755 E96.28836
G1 X182.104 Y112.061 E96.90767
G1 X182.251 Y112.463 E96.95903
G1 X177.367 Y114.161 E97.57952
G1 X170.998 Y116.150 E98.38020
G1 X164.561 Y117.938 E99.18189
G1 X158.607 Y119.391 E99.91734
G1 X158.095 Y119.516 E99.98058
G1 X152.080 Y120.783 E100.71822
G1 X151.566 Y120.892 E100.78127
G1 X146.863 Y121.727 E101.35446
G1 X145.151 Y122.032 E101.56313
G1 X145.342 Y123.881 E101.78619
G1 X150.968 Y123.715 E102.46161
G1 X149.600 Y123.966 E102.62851
G1 X147.535 Y124.341 E102.88036
G1 X143.133 Y125.049 E103.41539
G1 X138.733 Y125.664 E103.94852
G1 X134.286 Y126.190 E104.48588
G1 X129.842 Y126.622 E105.02168
G1 X129.308 Y126.667 E105.08598
G1 X125.138 Y126.979 E105.58778
G1 X124.292 Y127.024 E105.68945
G1 X123.312 Y124.392 E106.02647
G1 X118.685 Y124.619 E106.58238
G1 X119.501 Y127.318 E106.92073
G1 X119.213 Y127.004 E106.97186
G1 X118.496 Y124.631 E107.26934
G1 X111.750 Y124.746 E108.07898
G1 X105.005 Y124.647 E108.88846
G1 X104.378 Y126.750 E109.15180
G1 X104.294 Y127.026 E109.18642
G1 X104.006 Y127.341 E109.23764
G1 X104.816 Y124.636 E109.57648
G1 X100.190 Y124.423 E110.13219
G1 X99.215 Y127.055 E110.46900
G1 X98.370 Y127.012 E110.57053
G1 X93.942 Y126.694 E111.10326
G1 X89.499 Y126.279 E111.63874
G1 X85.048 Y125.769 E112.17636
G1 X80.635 Y125.170 E112.71077
G1 X76.221 Y124.477 E113.24694
G1 X72.499 Y123.813 E113.70063
G1 X78.158 Y123.965 E114.37996
G1 X78.344 Y122.115 E114.60308
G1 X71.934 Y120.994 E115.38395
G1 X71.413 Y120.886 E115.44780
G1 X65.408 Y119.637 E116.18382
G1 X58.915 Y118.070 E116.98535
G1 X52.488 Y116.302 E117.78524
G1 X46.107 Y114.326 E118.58683
G1 X40.747 Y112.479 E119.26715
G1 X40.894 Y112.074 E119.31885
G1 X46.245 Y113.919 E119.99807
G1 X52.608 Y115.889 E120.79739
G1 X59.029 Y117.655 E121.59652
G1 X65.504 Y119.218 E122.39584
G1 X72.022 Y120.573 E123.19472
G1 X76.745 Y121.417 E123.77046
G1 X81.087 Y122.100 E124.29790
G1 X85.443 Y122.690 E124.82540
G1 X87.815 Y122.961 E125.11189
G1 X96.035 Y108.559 E127.10181
G1 X93.709 Y108.344 E127.38212
G1 X91.364 Y108.125 E127.66475
G1 X87.093 Y107.633 E128.18066
G1 X80.957 Y106.758 E128.92443
G1 X74.877 Y105.693 E129.66513
G1 X68.815 Y104.433 E130.40812
G1 X62.816 Y102.987 E131.14862
G1 X56.859 Y101.349 E131.88999
G1 X50.950 Y99.519 E132.63230
G1 X46.057 Y97.833 E133.25334
G1 X47.053 Y95.087 E133.60386
G0 F12000 X95.229 Y108.979
G0 X95.185 Y118.091
G1 F1200 X104.437 Y118.080 E134.71410
G1 X107.127 Y109.115 E135.83729
G1 X100.306 Y108.902 E136.65621
G1 X95.185 Y118.091 E137.91856
G0 F12000 X105.629 Y124.245
G1 F1200 X110.645 Y124.302 E138.52052
G1 X111.750 Y124.312 E138.65313
G1 X116.146 Y124.261 E139.18068
G1 X117.864 Y124.202 E139.38696
G1 X114.202 Y112.078 E140.90676
G1 X111.733 Y112.252 E141.20378
G1 X109.268 Y112.085 E141.50025
G1 X105.629 Y124.245 E143.02339
G0 F12000 X117.226 Y123.745
G0 X119.048 Y118.061
G1 F1200 X128.301 Y118.050 E144.13375
G1 X123.145 Y108.852 E145.39910
G1 X116.402 Y109.321 E146.21021
G1 X119.048 Y118.061 E147.30603
G0 F12000 X119.345 Y117.661
G1 F1200 X127.619 Y117.651 E148.29891
G1 X122.920 Y109.268 E149.45213
G1 X116.931 Y109.685 E150.17255
G1 X119.345 Y117.661 E151.17254
G0 F12000 X117.331 Y123.820
G1 F1200 X113.912 Y112.500 E152.59155
G1 X111.735 Y112.653 E152.85343
G1 X109.560 Y112.506 E153.11503
G1 X106.164 Y123.851 E154.53611
G1 X110.649 Y123.902 E155.07435
G1 X111.750 Y123.912 E155.20647
G1 X116.137 Y123.861 E155.73295
G1 X117.331 Y123.820 E155.87631
G0 F12000 X118.200 Y125.036
G1 F1200 X111.751 Y125.146 E156.65031
G1 X105.302 Y125.051 E157.42427
G1 X104.760 Y126.865 E157.65146
G1 X104.651 Y127.227 E157.69683
G1 X103.417 Y128.578 E157.91640
G1 X103.218 Y128.579 E157.94028
G1 X104.286 Y125.012 E158.38709
G1 X100.463 Y124.836 E158.84634
G1 X99.488 Y127.470 E159.18338
G1 X98.350 Y127.412 E159.32011
G1 X93.902 Y127.092 E159.85525
G1 X89.455 Y126.677 E160.39121
G1 X85.015 Y126.168 E160.92750
G1 X80.574 Y125.565 E161.46531
G1 X76.166 Y124.873 E162.00075
G1 X71.759 Y124.086 E162.53796
G1 X67.758 Y123.284 E163.02763
G1 X77.797 Y123.555 E164.23275
G1 X77.909 Y122.445 E164.36662
G1 X71.877 Y121.390 E165.10145
G1 X65.311 Y120.025 E165.90622
G1 X58.831 Y118.461 E166.70614
G1 X52.365 Y116.682 E167.51090
G1 X45.994 Y114.710 E168.31120
G1 X40.233 Y112.724 E169.04245
G1 X40.652 Y111.568 E169.19000
G1 X46.369 Y113.538 E169.91563
G1 X52.720 Y115.505 E170.71346
G1 X59.129 Y117.268 E171.51111
G1 X65.592 Y118.828 E172.30894
G1 X72.098 Y120.180 E173.10634
G1 X76.812 Y121.023 E173.68099
G1 X81.145 Y121.704 E174.20734
G1 X85.493 Y122.293 E174.73386
G1 X87.598 Y122.534 E174.98811
G1 X95.380 Y108.900 E176.87194
G1 X91.340 Y108.525 E177.35883
G1 X87.031 Y108.028 E177.87934
G1 X80.893 Y107.153 E178.62334
G1 X74.788 Y106.084 E179.36709
G1 X68.743 Y104.828 E180.10798
G1 X62.725 Y103.376 E180.85086
G1 X56.736 Y101.729 E181.59622
G1 X50.837 Y99.903 E182.33724
G1 X45.543 Y98.078 E183.00921
G1 X46.811 Y94.581 E183.45558
G1 X51.987 Y96.365 E184.11256
G1 X57.789 Y98.161 E184.84140
G1 X63.645 Y99.772 E185.57022
G1 X69.551 Y101.198 E186.29931
G1 X75.497 Y102.433 E187.02806
G1 X81.480 Y103.481 E187.75695
G1 X87.494 Y104.337 E188.48590
G1 X93.531 Y105.003 E189.21474
G1 X99.451 Y105.467 E189.92732
G1 X102.593 Y105.617 E190.30479
G1 X108.244 Y105.796 E190.98325
G1 X110.849 Y105.833 E191.29588
G1 X111.581 Y105.845 E191.38373
G1 X111.728 Y105.846 E191.40137
G1 X112.271 Y105.838 E191.46654
G1 X114.877 Y105.794 E191.77930
G1 X120.860 Y105.594 E192.49766
G1 X123.867 Y105.447 E192.85893
G1 X129.922 Y104.957 E193.58791
G1 X135.958 Y104.277 E194.31681
G1 X141.968 Y103.404 E195.04558
G1 X147.949 Y102.342 E195.77453
G1 X153.893 Y101.091 E196.50343
G1 X159.793 Y99.652 E197.23219
G1 X165.647 Y98.026 E197.96126
G1 X171.444 Y96.215 E198.69006
G1 X176.143 Y94.582 E199.28702
G1 X177.419 Y98.076 E199.73338
G1 X172.611 Y99.746 E200.34415
G1 X166.690 Y101.596 E201.08855
G1 X160.734 Y103.251 E201.83035
G1 X154.714 Y104.718 E202.57389
G1 X148.667 Y105.991 E203.31543
G1 X142.558 Y107.077 E204.06001
G1 X136.428 Y107.965 E204.80328
G1 X132.121 Y108.473 E205.32371
G1 X128.082 Y108.861 E205.81062
G1 X135.899 Y122.474 E207.69435
G1 X138.003 Y122.227 E207.94856
G1 X142.349 Y121.627 E208.47503
G1 X146.682 Y120.935 E209.00158
G1 X150.999 Y120.152 E209.52807
G1 X153.020 Y119.738 E209.77562
G1 X157.896 Y118.711 E210.37358
G1 X164.354 Y117.136 E211.17126
G1 X170.759 Y115.357 E211.96895
G1 X177.104 Y113.375 E212.76664
G1 X182.344 Y111.554 E213.43232
G1 X182.766 Y112.709 E213.57989
G1 X177.498 Y114.539 E214.24910
G1 X171.098 Y116.538 E215.05369
G1 X164.666 Y118.325 E215.85477
G1 X158.165 Y119.910 E216.65774
G1 X151.630 Y121.287 E217.45916
G1 X145.587 Y122.360 E218.19566
G1 X145.701 Y123.470 E218.32956
G1 X155.733 Y123.174 E219.53393
G1 X152.002 Y123.932 E219.99079
G1 X149.673 Y124.360 E220.27495
G1 X147.609 Y124.734 E220.52667
G1 X143.206 Y125.443 E221.06183
G1 X138.780 Y126.061 E221.59810
G1 X134.330 Y126.587 E222.13582
G1 X129.888 Y127.019 E222.67138
G1 X129.332 Y127.066 E222.73834
G1 X125.159 Y127.379 E223.24050
G1 X124.020 Y127.440 E223.37738
G1 X123.039 Y124.806 E223.71467
G1 X119.216 Y124.993 E224.17398
G1 X120.293 Y128.557 E224.62076
G1 X120.094 Y128.558 E224.64464
G1 X118.857 Y127.209 E224.86427
G1 X118.200 Y125.036 E225.13669
G0 F12000 X106.271 Y123.772
G0 X104.140 Y117.680
G1 F1200 X106.594 Y109.499 E226.16163
G1 X100.537 Y109.309 E226.88882
G1 X95.866 Y117.690 E228.04019
G1 X104.140 Y117.680 E229.03308
G0 F12000 X103.842 Y117.281
;TYPE:WALL-OUTER
G1 F1200 X106.061 Y109.882 E229.96002
G1 X100.768 Y109.716 E230.59550
G1 X96.547 Y117.289 E231.63589
G1 X103.842 Y117.281 E232.51129
G0 F12000 X104.128 Y117.368
G0 X106.271 Y123.772
G0 X106.695 Y123.756
G0 X106.699 Y123.457
G1 F1200 X111.749 Y123.512 E233.11732
G1 X116.128 Y123.461 E233.64284
G1 X116.798 Y123.438 E233.72328
G1 X113.621 Y112.921 E235.04165
G1 X111.736 Y113.054 E235.26841
G1 X109.851 Y112.927 E235.49513
G1 X106.699 Y123.457 E236.81412
G0 F12000 X106.695 Y123.756
G0 X105.602 Y125.157
G0 X105.599 Y125.456
G1 F1200 X105.008 Y127.429 E237.06128
G1 X103.593 Y128.978 E237.31304
G1 X102.681 Y128.980 E237.42248
G1 X103.756 Y125.388 E237.87241
G1 X100.737 Y125.249 E238.23507
G1 X99.761 Y127.884 E238.57226
G1 X98.329 Y127.811 E238.74433
G1 X93.868 Y127.490 E239.28103
G1 X89.410 Y127.074 E239.81831
G1 X84.957 Y126.564 E240.35617
G1 X80.524 Y125.963 E240.89299
G1 X76.097 Y125.267 E241.43076
G1 X71.689 Y124.480 E241.96808
G1 X67.298 Y123.600 E242.50548
G1 X66.519 Y123.427 E242.60124
G1 X66.772 Y122.858 E242.67596
G1 X77.436 Y123.145 E243.95611
G1 X77.474 Y122.775 E244.00074
G1 X71.797 Y121.782 E244.69232
G1 X65.230 Y120.417 E245.49721
G1 X58.725 Y118.847 E246.30022
G1 X52.259 Y117.068 E247.10497
G1 X45.860 Y115.087 E247.90881
G1 X39.718 Y112.970 E248.68840
G1 X40.410 Y111.061 E248.93207
G1 X46.494 Y113.158 E249.70430
G1 X52.832 Y115.121 E250.50050
G1 X59.229 Y116.881 E251.29666
G1 X65.679 Y118.437 E252.09287
G1 X72.174 Y119.787 E252.88893
G1 X76.878 Y120.628 E253.46236
G1 X81.203 Y121.308 E253.98773
G1 X85.542 Y121.896 E254.51317
G1 X87.381 Y122.107 E254.73530
G1 X94.725 Y109.241 E256.51303
G1 X91.294 Y108.922 E256.92653
G1 X86.975 Y108.424 E257.44824
G1 X80.831 Y107.548 E258.19298
G1 X74.726 Y106.479 E258.93673
G1 X68.645 Y105.215 E259.68204
G1 X62.619 Y103.762 E260.42589
G1 X56.630 Y102.115 E261.17125
G1 X50.703 Y100.280 E261.91580
G1 X45.028 Y98.324 E262.63611
G1 X46.569 Y94.074 E263.17860
G1 X52.111 Y95.985 E263.88207
G1 X57.901 Y97.777 E264.60939
G1 X63.745 Y99.385 E265.33673
G1 X69.638 Y100.807 E266.06418
G1 X75.572 Y102.040 E266.79147
G1 X81.543 Y103.086 E267.51891
G1 X87.544 Y103.940 E268.24628
G1 X93.568 Y104.605 E268.97355
G1 X99.476 Y105.068 E269.68469
G1 X102.609 Y105.217 E270.06107
G1 X108.253 Y105.396 E270.73869
G1 X111.586 Y105.445 E271.13869
G1 X111.727 Y105.446 E271.15561
G1 X114.867 Y105.394 E271.53247
G1 X120.844 Y105.194 E272.25011
G1 X123.841 Y105.048 E272.61017
