;FLAVOR:UltiGCode
;TIME:3609
;MATERIAL:5220
;MATERIAL2:0
;NOZZLE_DIAMETER:0.400000
;NOZZLE_DIAMETER2:0.400000
;MTYPE:PLA

;Layer count: 68
;LAYER:0
M107
G0 F12000 X52.864 Y97.435 Z0.300
;TYPE:SKIRT
G1 F1200 X60.855 Y100.227 E1.01577
G1 X65.691 Y101.740 E1.62382
G1 X70.613 Y103.112 E2.23698
G1 X75.523 Y104.313 E2.84355
G1 X80.508 Y105.366 E3.45495
G1 X85.553 Y106.266 E4.06991
G1 X85.830 Y106.315 E4.10367
G1 X90.496 Y106.986 E4.66935
G1 X95.629 Y107.569 E5.28927
G1 X95.629 Y107.570 E5.28939
G1 X95.887 Y107.598 E5.32053
G1 X100.688 Y107.980 E5.89847
G1 X100.983 Y108.004 E5.93399
G1 X105.715 Y108.228 E6.50246
G1 X110.848 Y108.319 E7.11852
G1 X111.094 Y108.324 E7.14804
G1 X115.921 Y108.248 E7.72736
G1 X115.921 Y108.249 E7.72748
G1 X116.189 Y108.244 E7.75964
G1 X120.946 Y108.018 E8.33113
G1 X126.058 Y107.622 E8.94640
G1 X126.058 Y107.621 E8.94652
G1 X126.355 Y107.597 E8.98228
G1 X131.111 Y107.067 E9.55653
G1 X131.395 Y107.035 E9.59083
G1 X136.097 Y106.360 E10.16085
G1 X141.140 Y105.480 E10.77516
G1 X141.418 Y105.430 E10.80905
G1 X146.079 Y104.456 E11.38045
G1 X151.004 Y103.271 E11.98832
G1 X155.909 Y101.926 E12.59865
G1 X160.803 Y100.415 E13.21328
G1 X164.728 Y99.066 E13.71132
G1 X167.956 Y97.942 E14.12150
G1 X169.222 Y101.424 E14.56610
G1 X169.447 Y102.042 E14.64502
G1 X172.264 Y101.013 E15.00490
G1 X175.746 Y110.575 E16.22606
G1 X172.911 Y111.556 E16.58605
G1 X173.561 Y113.341 E16.81401
G1 X166.187 Y115.892 E17.75034
G1 X160.840 Y117.555 E18.42230
G1 X155.440 Y119.047 E19.09458
G1 X149.998 Y120.367 E19.76655
G1 X144.517 Y121.515 E20.43855
G1 X139.001 Y122.487 E21.11066
G1 X133.457 Y123.284 E21.78278
G1 X127.891 Y123.905 E22.45485
G1 X122.308 Y124.349 E23.12692
G1 X116.713 Y124.615 E23.79908
G1 X111.114 Y124.703 E24.47104
G1 X105.515 Y124.615 E25.14301
G1 X99.920 Y124.349 E25.81517
G1 X94.337 Y123.905 E26.48724
G1 X88.771 Y123.284 E27.15930
G1 X83.227 Y122.487 E27.83142
G1 X77.711 Y121.515 E28.50354
G1 X72.230 Y120.367 E29.17553
G1 X66.788 Y119.047 E29.84751
G1 X61.388 Y117.555 E30.51979
G1 X56.040 Y115.892 E31.19186
G1 X50.749 Y114.061 E31.86372
G1 X47.256 Y112.730 E32.31228
G1 X48.726 Y108.830 E32.81243
G1 X49.370 Y107.080 E33.03619
G1 X49.353 Y107.074 E33.03836
G1 X51.615 Y100.860 E33.83190
G1 X52.864 Y97.435 E34.26938
G10
G1 Z0.400
G0 F12000 X55.391 Y102.767
;TYPE:WALL-INNER
G1 Z0.300
G11
G1 F1200 X59.532 Y104.213 E34.79572
G1 X64.508 Y105.771 E35.42143
G1 X69.531 Y107.171 E36.04716
G1 X74.596 Y108.410 E36.67288
G1 X79.697 Y109.488 E37.29852
G1 X85.151 Y110.460 E37.96332
G1 X89.990 Y111.156 E38.54997
G1 X95.156 Y111.743 E39.17388
G1 X95.495 Y111.781 E39.21482
G1 X100.693 Y112.194 E39.84054
G1 X105.576 Y112.426 E40.42716
G1 X111.113 Y112.524 E41.09171
G1 X115.988 Y112.448 E41.67678
G1 X116.328 Y112.442 E41.71758
G1 X121.210 Y112.210 E42.30409
G1 X126.394 Y111.808 E42.92803
G1 X126.734 Y111.781 E42.96896
G1 X131.916 Y111.203 E43.59466
G1 X136.754 Y110.508 E44.18118
G1 X141.877 Y109.615 E44.80521
G1 X146.996 Y108.555 E45.43252
G1 X152.065 Y107.336 E46.05814
G1 X157.093 Y105.956 E46.68381
G1 X162.075 Y104.418 E47.30949
G1 X165.423 Y103.268 E47.73429
G1 X166.937 Y107.426 E48.26530
G1 X169.755 Y106.400 E48.62518
G1 X170.338 Y108.001 E48.82964
G1 X167.504 Y108.982 E49.18952
G1 X168.154 Y110.767 E49.41748
G1 X164.881 Y111.899 E49.83306
G1 X159.653 Y113.525 E50.49007
G1 X154.392 Y114.979 E51.14505
G1 X149.072 Y116.269 E51.80195
G1 X143.722 Y117.390 E52.45790
G1 X138.333 Y118.340 E53.11455
G1 X132.927 Y119.117 E53.76993
G1 X127.490 Y119.723 E54.42641
G1 X122.041 Y120.157 E55.08236
G1 X116.581 Y120.416 E55.73830
G1 X111.114 Y120.503 E56.39442
G1 X105.647 Y120.416 E57.05055
G1 X100.187 Y120.157 E57.70648
G1 X94.738 Y119.723 E58.36243
G1 X89.301 Y119.117 E59.01891
G1 X83.895 Y118.340 E59.67430
G1 X78.506 Y117.390 E60.33095
G1 X73.156 Y116.269 E60.98689
G1 X67.836 Y114.979 E61.64379
G1 X62.575 Y113.525 E62.29878
G1 X57.347 Y111.899 E62.95578
G1 X55.493 Y111.258 E63.19119
G1 X57.011 Y107.085 E63.72405
G1 X57.557 Y105.590 E63.91504
G1 X54.737 Y104.563 E64.27518
G1 X55.391 Y102.767 E64.50455
G0 F12000 X55.150 Y102.259
G1 F1200 X59.657 Y103.834 E65.07746
G1 X64.622 Y105.387 E65.70172
G1 X69.632 Y106.784 E66.32586
G1 X74.685 Y108.020 E66.95010
G1 X79.773 Y109.095 E67.57413
G1 X85.215 Y110.065 E68.23747
G1 X90.041 Y110.759 E68.82254
G1 X95.201 Y111.345 E69.44572
G1 X95.533 Y111.382 E69.48581
G1 X100.718 Y111.795 E70.10998
G1 X105.589 Y112.026 E70.69516
G1 X111.113 Y112.124 E71.35814
G1 X115.981 Y112.048 E71.94237
G1 X116.315 Y112.042 E71.98246
G1 X121.185 Y111.811 E72.56752
G1 X126.362 Y111.409 E73.19063
G1 X131.865 Y110.806 E73.85494
G1 X136.691 Y110.113 E74.44000
G1 X141.807 Y109.221 E75.06318
G1 X146.909 Y108.164 E75.68842
G1 X151.966 Y106.948 E76.31256
G1 X156.981 Y105.572 E76.93660
G1 X161.951 Y104.038 E77.56076
G1 X165.665 Y102.762 E78.03201
G1 X167.176 Y106.913 E78.56211
G1 X169.994 Y105.887 E78.92198
G1 X170.854 Y108.246 E79.22329
G1 X168.019 Y109.227 E79.58328
G1 X168.669 Y111.012 E79.81124
G1 X165.005 Y112.280 E80.27651
G1 X159.761 Y113.911 E80.93552
G1 X154.489 Y115.368 E81.59188
G1 X149.159 Y116.660 E82.25000
G1 X143.807 Y117.781 E82.90617
G1 X138.399 Y118.735 E83.56515
G1 X132.967 Y119.515 E84.22368
G1 X127.535 Y120.121 E84.87956
G1 X122.059 Y120.557 E85.53876
G1 X116.603 Y120.816 E86.19422
G1 X111.114 Y120.903 E86.85298
G1 X105.625 Y120.816 E87.51175
G1 X100.169 Y120.557 E88.16720
G1 X94.693 Y120.121 E88.82640
G1 X89.261 Y119.515 E89.48229
G1 X83.829 Y118.735 E90.14081
G1 X78.421 Y117.781 E90.79979
G1 X73.069 Y116.660 E91.45597
G1 X67.739 Y115.368 E92.11409
G1 X62.467 Y113.911 E92.77045
G1 X57.224 Y112.280 E93.42935
G1 X52.148 Y110.524 E94.07389
G1 X52.218 Y110.341 E94.09740
G1 X54.094 Y111.057 E94.33836
G1 X55.012 Y111.409 E94.45634
G1 X57.043 Y105.828 E95.16903
G1 X54.224 Y104.802 E95.52901
G1 X55.150 Y102.259 E95.85378
G0 F12000 X54.909 Y101.751
;TYPE:WALL-OUTER
G1 F1200 X59.783 Y103.454 E96.47333
G1 X64.735 Y105.004 E97.09600
G1 X69.733 Y106.397 E97.71862
G1 X74.774 Y107.630 E98.34137
G1 X79.850 Y108.702 E98.96393
G1 X85.278 Y109.670 E99.62556
G1 X90.092 Y110.362 E100.20918
G1 X95.571 Y110.984 E100.87089
G1 X100.743 Y111.396 E101.49349
G1 X105.602 Y111.626 E102.07722
G1 X111.114 Y111.724 E102.73877
G1 X116.301 Y111.642 E103.36129
G1 X121.160 Y111.412 E103.94502
G1 X126.657 Y110.984 E104.60666
G1 X131.814 Y110.409 E105.22933
G1 X136.628 Y109.718 E105.81293
G1 X142.060 Y108.769 E106.47464
G1 X146.821 Y107.774 E107.05831
G1 X151.866 Y106.561 E107.68096
G1 X156.869 Y105.188 E108.30352
G1 X161.827 Y103.657 E108.92620
G1 X165.906 Y102.255 E109.44378
G1 X167.415 Y106.400 E109.97312
G1 X170.234 Y105.374 E110.33311
G1 X171.369 Y108.492 E110.73129
G1 X168.534 Y109.472 E111.09124
G1 X169.184 Y111.258 E111.31931
G1 X165.130 Y112.660 E111.83406
G1 X159.885 Y114.291 E112.49319
G1 X154.584 Y115.756 E113.15316
G1 X149.252 Y117.050 E113.81157
G1 X143.868 Y118.176 E114.47163
G1 X138.460 Y119.130 E115.13061
G1 X133.030 Y119.910 E115.78890
G1 X127.565 Y120.520 E116.44877
G1 X122.096 Y120.955 E117.10712
G1 X116.603 Y121.216 E117.76702
G1 X111.114 Y121.303 E118.42579
G1 X105.625 Y121.216 E119.08455
G1 X100.132 Y120.955 E119.74445
G1 X94.663 Y120.520 E120.40281
G1 X89.198 Y119.910 E121.06268
G1 X83.768 Y119.130 E121.72097
G1 X78.360 Y118.176 E122.37995
G1 X72.976 Y117.049 E123.04003
G1 X67.644 Y115.756 E123.69841
G1 X62.343 Y114.291 E124.35838
G1 X57.098 Y112.660 E125.01751
G1 X51.913 Y110.866 E125.67590
G1 X51.632 Y110.759 E125.71198
G1 X51.916 Y110.006 E125.80855
G1 X51.984 Y109.823 E125.83198
G1 X54.775 Y110.889 E126.19050
G1 X56.530 Y106.067 E126.80627
G1 X53.711 Y105.041 E127.16626
G1 X54.909 Y101.751 E127.58642
G0 F12000 X55.007 Y102.102
G0 X55.386 Y103.186
;TYPE:SKIN
G1 F1200 X57.686 Y105.486 E127.97674
G0 F12000 X57.727 Y105.527
G1 F1200 X66.725 Y114.525 E129.50375
G0 F12000 X67.506 Y114.741
G1 F1200 X55.835 Y103.070 E131.48439
G0 F12000 X55.234 Y103.601
G1 F1200 X56.797 Y105.163 E131.74955
G0 F12000 X55.908 Y104.840
G1 F1200 X55.083 Y104.015 E131.88956
G0 F12000 X54.933 Y104.430
G1 F1200 X55.019 Y104.516 E131.90416
G0 F12000 X56.704 Y103.373
G1 F1200 X68.269 Y114.938 E133.86680
G0 F12000 X69.016 Y115.119
G1 F1200 X57.573 Y103.676 E135.80874
G0 F12000 X58.442 Y103.980
G1 F1200 X69.763 Y115.300 E137.72990
G0 F12000 X70.510 Y115.482
G1 F1200 X59.311 Y104.283 E139.63043
G0 F12000 X57.576 Y105.942
G1 F1200 X65.943 Y114.309 E141.05036
G0 F12000 X65.162 Y114.093
G1 F1200 X57.425 Y106.357 E142.36328
G0 F12000 X57.274 Y106.771
G1 F1200 X64.380 Y113.878 E143.56930
G0 F12000 X63.599 Y113.662
G1 F1200 X57.123 Y107.186 E144.66831
G0 F12000 X56.972 Y107.601
G1 F1200 X62.817 Y113.446 E145.66024
G0 F12000 X62.006 Y113.201
G1 F1200 X56.821 Y108.016 E146.54016
G0 F12000 X56.670 Y108.430
G1 F1200 X61.185 Y112.946 E147.30647
G0 F12000 X60.364 Y112.690
G1 F1200 X56.519 Y108.844 E147.95907
G0 F12000 X56.368 Y109.260
G1 F1200 X59.543 Y112.434 E148.49780
G0 F12000 X58.722 Y112.179
G1 F1200 X56.217 Y109.674 E148.92292
G0 F12000 X56.066 Y110.089
G1 F1200 X57.901 Y111.924 E149.23433
G0 F12000 X57.064 Y111.652
G1 F1200 X55.915 Y110.503 E149.42932
G0 F12000 X55.764 Y110.918
G1 F1200 X56.199 Y111.353 E149.50314
G0 F12000 X60.145 Y104.552
G1 F1200 X71.257 Y115.663 E151.38882
G0 F12000 X72.003 Y115.844
G1 F1200 X60.969 Y104.810 E153.26135
G0 F12000 X61.792 Y105.067
G1 F1200 X72.750 Y116.025 E155.12099
G0 F12000 X73.483 Y116.193
G1 F1200 X62.616 Y105.325 E156.96527
G0 F12000 X63.440 Y105.583
G1 F1200 X74.199 Y116.343 E158.79121
G0 F12000 X74.915 Y116.493
G1 F1200 X64.263 Y105.841 E160.59892
G0 F12000 X65.057 Y106.069
G1 F1200 X75.630 Y116.642 E162.39321
G0 F12000 X76.346 Y116.792
G1 F1200 X65.841 Y106.288 E164.17589
G0 F12000 X66.625 Y106.506
G1 F1200 X77.061 Y116.942 E165.94694
G0 F12000 X77.777 Y117.092
G1 F1200 X67.409 Y106.725 E167.70636
G0 F12000 X68.194 Y106.943
G1 F1200 X78.493 Y117.242 E169.45416
G0 F12000 X79.181 Y117.365
G1 F1200 X68.978 Y107.162 E171.18566
G0 F12000 X69.750 Y107.368
G1 F1200 X79.868 Y117.486 E172.90274
G0 F12000 X80.555 Y117.607
G1 F1200 X70.499 Y107.551 E174.60930
G0 F12000 X71.248 Y107.734
G1 F1200 X81.242 Y117.729 E176.30543
G0 F12000 X81.928 Y117.849
G1 F1200 X71.996 Y107.917 E177.99094
G0 F12000 X72.745 Y108.101
G1 F1200 X82.615 Y117.970 E179.66585
G0 F12000 X83.302 Y118.091
G1 F1200 X73.493 Y108.283 E181.33041
G0 F12000 X74.242 Y108.466
G1 F1200 X83.986 Y118.210 E182.98402
G0 F12000 X84.647 Y118.305
G1 F1200 X74.973 Y108.632 E184.62567
G0 F12000 X75.690 Y108.783
G1 F1200 X85.308 Y118.400 E186.25781
G0 F12000 X85.968 Y118.495
G1 F1200 X76.407 Y108.934 E187.88037
G0 F12000 X77.125 Y109.086
G1 F1200 X86.629 Y118.590 E189.49325
G0 F12000 X87.290 Y118.685
G1 F1200 X77.842 Y109.238 E191.09655
G0 F12000 X78.559 Y109.389
G1 F1200 X87.950 Y118.780 E192.69025
G0 F12000 X88.611 Y118.875
G1 F1200 X79.277 Y109.541 E194.27428
G0 F12000 X79.981 Y109.680
G1 F1200 X89.272 Y118.970 E195.85093
G0 F12000 X89.910 Y119.042
G1 F1200 X80.669 Y109.802 E197.41910
G0 F12000 X81.358 Y109.925
G1 F1200 X90.547 Y119.114 E198.97852
G0 F12000 X91.183 Y119.184
G1 F1200 X82.046 Y110.047 E200.52912
G0 F12000 X82.735 Y110.170
G1 F1200 X91.819 Y119.255 E202.07081
G0 F12000 X92.457 Y119.327
G1 F1200 X83.423 Y110.293 E203.60394
G0 F12000 X84.111 Y110.416
G1 F1200 X93.093 Y119.397 E205.12815
G0 F12000 X93.729 Y119.468
G1 F1200 X84.799 Y110.538 E206.64362
G0 F12000 X85.473 Y110.646
G1 F1200 X94.366 Y119.539 E208.15281
G0 F12000 X94.994 Y119.602
G1 F1200 X86.134 Y110.742 E209.65640
G0 F12000 X86.795 Y110.837
G1 F1200 X95.609 Y119.650 E211.15210
G0 F12000 X96.223 Y119.699
G1 F1200 X87.456 Y110.932 E212.63991
G0 F12000 X88.117 Y111.027
G1 F1200 X96.838 Y119.749 E214.12000
G0 F12000 X97.453 Y119.798
G1 F1200 X88.778 Y111.123 E215.59220
G0 F12000 X89.439 Y111.217
G1 F1200 X98.067 Y119.846 E217.05650
G0 F12000 X98.682 Y119.895
G1 F1200 X90.093 Y111.307 E218.51402
G0 F12000 X90.732 Y111.379
G1 F1200 X99.297 Y119.945 E219.96763
G0 F12000 X99.912 Y119.993
G1 F1200 X91.370 Y111.452 E221.41717
G0 F12000 X92.008 Y111.524
G1 F1200 X100.515 Y120.031 E222.86086
G0 F12000 X101.109 Y120.059
G1 F1200 X92.647 Y111.597 E224.29691
G0 F12000 X93.285 Y111.669
G1 F1200 X101.703 Y120.087 E225.72549
G0 F12000 X102.297 Y120.116
G1 F1200 X93.923 Y111.742 E227.14660
G0 F12000 X94.561 Y111.814
G1 F1200 X102.890 Y120.143 E228.56008
G0 F12000 X103.484 Y120.172
G1 F1200 X95.199 Y111.887 E229.96609
G0 F12000 X95.824 Y111.947
G1 F1200 X104.078 Y120.200 E231.36676
G0 F12000 X104.672 Y120.228
G1 F1200 X96.439 Y111.995 E232.76394
G0 F12000 X97.053 Y112.044
G1 F1200 X105.266 Y120.256 E234.15765
G0 F12000 X105.853 Y120.278
G1 F1200 X97.669 Y112.094 E235.54652
G0 F12000 X98.283 Y112.142
G1 F1200 X106.428 Y120.287 E236.92877
G0 F12000 X107.002 Y120.296
G1 F1200 X98.898 Y112.191 E238.30415
G0 F12000 X99.512 Y112.240
G1 F1200 X107.577 Y120.305 E239.67283
G0 F12000 X108.152 Y120.314
G1 F1200 X100.127 Y112.289 E241.03472
G0 F12000 X100.740 Y112.336
G1 F1200 X108.727 Y120.324 E242.39024
G0 F12000 X109.302 Y120.333
G1 F1200 X101.334 Y112.364 E243.74254
G0 F12000 X101.928 Y112.393
G1 F1200 X109.877 Y120.342 E245.09153
G0 F12000 X110.452 Y120.351
G1 F1200 X102.521 Y112.420 E246.43747
G0 F12000 X103.115 Y112.449
G1 F1200 X111.027 Y120.360 E247.78009
G0 F12000 X111.586 Y120.354
G1 F1200 X103.709 Y112.477 E249.11686
G0 F12000 X104.303 Y112.505
G1 F1200 X112.142 Y120.345 E250.44727
G0 F12000 X112.700 Y120.336
G1 F1200 X104.896 Y112.533 E251.77157
G0 F12000 X105.490 Y112.561
G1 F1200 X113.256 Y120.327 E253.08950
G0 F12000 X113.813 Y120.319
G1 F1200 X106.068 Y112.574 E254.40387
G0 F12000 X106.644 Y112.584
G1 F1200 X114.370 Y120.309 E255.71493
G0 F12000 X114.927 Y120.301
G1 F1200 X107.220 Y112.594 E257.02285
G0 F12000 X107.796 Y112.604
G1 F1200 X115.483 Y120.292 E258.32747
G0 F12000 X116.041 Y120.283
G1 F1200 X108.372 Y112.615 E259.62885
G0 F12000 X108.948 Y112.625
G1 F1200 X116.596 Y120.273 E260.92676
G0 F12000 X117.137 Y120.248
G1 F1200 X109.524 Y112.635 E262.21873
G0 F12000 X110.100 Y112.645
G1 F1200 X117.677 Y120.223 E263.50468
G0 F12000 X118.217 Y120.197
G1 F1200 X110.676 Y112.656 E264.78443
G0 F12000 X111.247 Y112.661
G1 F1200 X118.757 Y120.172 E266.05900
G0 F12000 X119.297 Y120.145
G1 F1200 X111.804 Y112.652 E267.33060
G0 F12000 X112.361 Y112.644
G1 F1200 X119.837 Y120.120 E268.59932
G0 F12000 X120.377 Y120.095
G1 F1200 X112.918 Y112.635 E269.86524
G0 F12000 X113.475 Y112.626
G1 F1200 X120.918 Y120.069 E271.12836
G0 F12000 X121.458 Y120.044
G1 F1200 X114.032 Y112.618 E272.38860
G0 F12000 X114.589 Y112.609
G1 F1200 X121.998 Y120.018 E273.64595
G0 F12000 X122.523 Y119.977
G1 F1200 X115.146 Y112.601 E274.89778
G0 F12000 X115.703 Y112.591
G1 F1200 X123.047 Y119.935 E276.14410
G0 F12000 X123.571 Y119.894
G1 F1200 X116.260 Y112.583 E277.38481
G0 F12000 X116.802 Y112.560
G1 F1200 X124.095 Y119.852 E278.62239
G0 F12000 X124.619 Y119.810
G1 F1200 X117.342 Y112.534 E279.85726
G0 F12000 X117.882 Y112.508
G1 F1200 X125.143 Y119.769 E281.08949
G0 F12000 X125.667 Y119.727
G1 F1200 X118.422 Y112.483 E282.31892
G0 F12000 X118.962 Y112.457
G1 F1200 X126.190 Y119.685 E283.54555
G0 F12000 X126.714 Y119.643
G1 F1200 X119.503 Y112.432 E284.76930
G0 F12000 X120.042 Y112.405
G1 F1200 X127.238 Y119.602 E285.99059
G0 F12000 X127.754 Y119.551
G1 F1200 X120.582 Y112.380 E287.20763
G0 F12000 X121.123 Y112.355
G1 F1200 X128.263 Y119.495 E288.41933
G0 F12000 X128.772 Y119.438
G1 F1200 X121.650 Y112.316 E289.62797
G0 F12000 X122.175 Y112.275
G1 F1200 X129.281 Y119.382 E290.83399
G0 F12000 X129.790 Y119.324
G1 F1200 X122.699 Y112.234 E292.03728
G0 F12000 X123.225 Y112.194
G1 F1200 X130.299 Y119.268 E293.23778
G0 F12000 X130.808 Y119.211
G1 F1200 X123.750 Y112.153 E294.43556
G0 F12000 X124.274 Y112.112
G1 F1200 X131.317 Y119.155 E295.63080
G0 F12000 X131.826 Y119.098
G1 F1200 X124.799 Y112.071 E296.82332
G0 F12000 X125.324 Y112.031
G1 F1200 X132.335 Y119.041 E298.01304
G0 F12000 X132.844 Y118.984
G1 F1200 X125.849 Y111.990 E299.20005
G0 F12000 X126.374 Y111.949
G1 F1200 X133.340 Y118.915 E300.38222
G0 F12000 X133.835 Y118.844
