;FLAVOR:UltiGCode
;TIME:3810
;MATERIAL:6060
;MATERIAL2:0
;NOZZLE_DIAMETER:0.400000
;NOZZLE_DIAMETER2:0.400000
;MTYPE:PLA

;Layer count: 38
;LAYER:0
M107
G0 F12000 X46.945 Y89.108 Z0.300
;TYPE:SKIRT
G1 F1200 X53.859 Y91.500 E0.87793
G1 X55.130 Y91.940 E1.03933
G1 X60.831 Y93.713 E1.75577
G1 X66.522 Y95.286 E2.46430
G1 X72.351 Y96.700 E3.18406
G1 X78.163 Y97.916 E3.89661
G1 X83.998 Y98.946 E4.60763
G1 X89.943 Y99.800 E5.32835
G1 X95.821 Y100.455 E6.03808
G1 X101.639 Y100.918 E6.73845
G1 X103.967 Y101.033 E7.01815
G1 X104.686 Y101.068 E7.10453
G1 X108.894 Y101.206 E7.60976
G1 X110.248 Y101.251 E7.77233
G1 X113.184 Y101.297 E8.12469
G1 X113.673 Y101.305 E8.18338
G1 X114.151 Y101.298 E8.24075
G1 X116.729 Y101.257 E8.55015
G1 X118.451 Y101.206 E8.75688
G1 X118.451 Y101.207 E8.75700
G1 X122.657 Y101.067 E9.26200
G1 X124.866 Y100.962 E9.52738
G1 X125.553 Y100.929 E9.60991
G1 X131.515 Y100.455 E10.32761
G1 X137.391 Y99.800 E11.03710
G1 X143.336 Y98.946 E11.75782
G1 X149.164 Y97.917 E12.46800
G1 X154.990 Y96.699 E13.18223
G1 X160.812 Y95.286 E13.90115
G1 X165.114 Y94.098 E14.43672
G1 X165.114 Y94.097 E14.43684
G1 X166.519 Y93.708 E14.61178
G1 X172.224 Y91.934 E15.32871
G1 X176.097 Y90.594 E15.82050
G1 X176.097 Y90.593 E15.82062
G1 X180.389 Y89.106 E16.36570
G1 X181.712 Y92.747 E16.83057
G1 X182.460 Y94.801 E17.09288
G1 X184.261 Y99.745 E17.72430
G1 X175.743 Y102.694 E18.80599
G1 X169.714 Y104.569 E19.56365
G1 X168.169 Y104.996 E19.75600
G1 X168.169 Y104.995 E19.75612
G1 X163.629 Y106.251 E20.32138
G1 X157.495 Y107.738 E21.07878
G1 X151.317 Y109.031 E21.83620
G1 X145.100 Y110.127 E22.59375
G1 X138.851 Y111.026 E23.35135
G1 X138.168 Y111.102 E23.43381
G1 X142.346 Y112.322 E23.95611
G1 X146.292 Y114.014 E24.47133
G1 X147.458 Y114.711 E24.63434
G1 X149.849 Y116.143 E24.96878
G1 X152.591 Y115.659 E25.30291
G1 X154.165 Y115.330 E25.49587
G1 X158.985 Y114.321 E26.08681
G1 X160.542 Y113.943 E26.27908
G1 X165.321 Y112.783 E26.86921
G1 X166.874 Y112.354 E27.06255
G1 X166.874 Y112.355 E27.06267
G1 X171.602 Y111.047 E27.65134
G1 X177.862 Y109.101 E28.43800
G1 X182.145 Y107.619 E28.98186
G1 X186.569 Y106.085 E29.54375
G1 X188.269 Y110.759 E30.14057
G1 X189.590 Y114.385 E30.60367
G1 X180.602 Y117.496 E31.74501
G1 X180.023 Y117.675 E31.81773
G1 X180.023 Y117.676 E31.81785
G1 X174.102 Y119.517 E32.56193
G1 X173.513 Y119.679 E32.63523
G1 X167.543 Y121.330 E33.37852
G1 X162.588 Y122.532 E33.99037
G1 X163.728 Y125.031 E34.31998
G1 X158.824 Y126.130 E34.92305
G1 X154.641 Y126.973 E35.43511
G1 X152.268 Y127.406 E35.72457
G1 X149.887 Y127.834 E36.01487
G1 X145.685 Y128.499 E36.52538
G1 X145.101 Y128.585 E36.59622
G1 X140.888 Y129.164 E37.10653
G1 X136.649 Y129.653 E37.61858
G1 X132.139 Y130.086 E38.16227
G1 X131.547 Y130.136 E38.23356
G1 X127.304 Y130.448 E38.74410
G1 X126.967 Y130.466 E38.78460
G1 X127.317 Y131.627 E38.93011
G1 X120.333 Y131.627 E39.76819
G1 X118.118 Y129.207 E40.16187
G1 X117.382 Y128.404 E40.29258
G1 X117.305 Y128.148 E40.32466
G1 X113.667 Y128.206 E40.76127
G1 X110.029 Y128.148 E41.19789
G1 X109.953 Y128.402 E41.22971
G1 X109.065 Y129.373 E41.38760
G1 X107.000 Y131.627 E41.75443
G1 X100.017 Y131.627 E42.59239
G1 X100.366 Y130.466 E42.73787
G1 X100.130 Y130.454 E42.76623
G1 X95.494 Y130.115 E43.32403
G1 X90.964 Y129.687 E43.87005
G1 X86.446 Y129.164 E44.41584
G1 X81.939 Y128.546 E44.96174
G1 X77.447 Y127.834 E45.50751
G1 X75.072 Y127.406 E45.79710
G1 X75.072 Y127.407 E45.79722
G1 X72.971 Y127.030 E46.05336
G1 X68.790 Y126.187 E46.56518
G1 X65.780 Y125.525 E46.93501
G1 X65.746 Y125.558 E46.94070
G1 X64.165 Y125.170 E47.13605
G1 X63.629 Y125.052 E47.20191
G1 X63.635 Y125.040 E47.20352
G1 X59.815 Y124.102 E47.67554
G1 X57.181 Y133.796 E48.88099
G1 X53.506 Y132.759 E49.33921
G1 X49.523 Y131.632 E49.83594
G1 X48.931 Y131.451 E49.91022
G1 X44.972 Y130.240 E50.40703
G1 X40.452 Y128.755 E50.97796
G1 X33.417 Y126.277 E51.87300
G1 X41.691 Y103.543 E54.77614
G1 X43.767 Y104.275 E55.04029
G1 X44.520 Y102.206 E55.30450
G1 X48.743 Y103.695 E55.84184
G1 X52.480 Y104.928 E56.31406
G1 X52.964 Y105.088 E56.37523
G1 X56.497 Y106.166 E56.81849
G1 X56.962 Y106.309 E56.87687
G1 X57.969 Y106.594 E57.00245
G1 X61.018 Y107.457 E57.38271
G1 X64.089 Y108.257 E57.76352
G1 X65.087 Y108.517 E57.88728
G1 X66.097 Y108.757 E58.01186
G1 X69.201 Y109.498 E58.39480
G1 X70.499 Y109.780 E58.55420
G1 X72.731 Y110.263 E58.82824
G1 X73.300 Y110.386 E58.89809
G1 X77.424 Y111.188 E59.40224
G1 X81.555 Y111.901 E59.90529
G1 X82.577 Y112.055 E60.02932
G1 X84.818 Y112.394 E60.30130
G1 X84.989 Y112.321 E60.32361
G1 X86.708 Y111.821 E60.53844
G1 X86.708 Y111.820 E60.53856
G1 X89.166 Y111.102 E60.84584
G1 X88.483 Y111.026 E60.92831
G1 X82.235 Y110.127 E61.68579
G1 X80.656 Y109.849 E61.87819
G1 X76.017 Y109.030 E62.44348
G1 X69.840 Y107.738 E63.20076
G1 X68.282 Y107.361 E63.39311
G1 X63.704 Y106.251 E63.95839
G1 X63.116 Y106.088 E64.03161
G1 X63.116 Y106.087 E64.03173
G1 X57.621 Y104.569 E64.71583
G1 X57.078 Y104.401 E64.78404
G1 X51.591 Y102.693 E65.47364
G1 X43.075 Y99.746 E66.55502
G1 X44.320 Y96.321 E66.99233
G1 X44.318 Y96.320 E66.99260
G1 X45.077 Y94.240 E67.25830
G1 X45.687 Y92.562 E67.47255
G1 X45.689 Y92.563 E67.47282
G1 X45.798 Y92.264 E67.51101
G1 X46.945 Y89.108 E67.91396
G10
G1 Z0.400
G0 F12000 X51.375 Y95.650
;TYPE:WALL-INNER
G1 Z0.300
G11
G1 F1200 X51.558 Y95.149 E67.97797
G1 X53.813 Y95.929 E68.26430
G1 X59.625 Y97.737 E68.99471
G1 X65.492 Y99.358 E69.72512
G1 X71.408 Y100.794 E70.45566
G1 X77.366 Y102.040 E71.18609
G1 X83.360 Y103.098 E71.91648
G1 X89.385 Y103.963 E72.64690
G1 X95.434 Y104.638 E73.37728
G1 X101.365 Y105.109 E74.09124
G1 X103.760 Y105.228 E74.37900
G1 X104.518 Y105.264 E74.47006
G1 X110.174 Y105.451 E75.14915
G1 X113.115 Y105.497 E75.50212
G1 X113.666 Y105.506 E75.56824
G1 X116.825 Y105.457 E75.94737
G1 X118.577 Y105.405 E76.15770
G1 X122.816 Y105.264 E76.66666
G1 X125.832 Y105.120 E77.02900
G1 X131.900 Y104.638 E77.75945
G1 X137.949 Y103.963 E78.48983
G1 X143.974 Y103.098 E79.22025
G1 X149.968 Y102.040 E79.95065
G1 X155.926 Y100.794 E80.68107
G1 X161.842 Y99.358 E81.41161
G1 X167.709 Y97.737 E82.14203
G1 X173.521 Y95.929 E82.87243
G1 X177.855 Y94.429 E83.42278
G1 X178.513 Y96.239 E83.65389
G1 X178.853 Y97.173 E83.77316
G1 X174.436 Y98.701 E84.33402
G1 X168.528 Y100.539 E85.07650
G1 X162.581 Y102.183 E85.81691
G1 X156.569 Y103.640 E86.55923
G1 X150.522 Y104.906 E87.30060
G1 X144.432 Y105.980 E88.04268
G1 X138.321 Y106.859 E88.78355
G1 X130.652 Y107.713 E89.70952
G1 X134.458 Y114.395 E90.63230
G1 X140.925 Y116.282 E91.44071
G1 X144.379 Y117.763 E91.89168
G1 X148.059 Y119.967 E92.40642
G1 X148.526 Y120.640 E92.50472
G1 X153.388 Y119.783 E93.09716
G1 X159.907 Y118.419 E93.89638
G1 X166.380 Y116.848 E94.69569
G1 X172.800 Y115.074 E95.49496
G1 X179.159 Y113.096 E96.29410
G1 X184.036 Y111.408 E96.91340
G1 X184.183 Y111.812 E96.96499
G1 X179.289 Y113.506 E97.58646
G1 X178.776 Y113.665 E97.65091
G1 X172.911 Y115.489 E98.38796
G1 X172.398 Y115.630 E98.45180
G1 X166.494 Y117.262 E99.18685
G1 X160.002 Y118.837 E99.98849
G1 X153.461 Y120.207 E100.79044
G1 X152.909 Y120.303 E100.85768
G1 X148.783 Y121.030 E101.36042
G1 X148.192 Y121.136 E101.43248
G1 X147.071 Y121.329 E101.56897
G1 X147.256 Y123.182 E101.79244
G1 X152.889 Y123.023 E102.46867
G1 X151.518 Y123.273 E102.63590
G1 X149.197 Y123.691 E102.91890
G1 X145.047 Y124.348 E103.42310
G1 X144.515 Y124.427 E103.48764
G1 X140.351 Y124.998 E103.99200
G1 X136.202 Y125.478 E104.49320
G1 X131.762 Y125.903 E105.02844
G1 X131.222 Y125.949 E105.09347
G1 X127.051 Y126.255 E105.59534
G1 X126.205 Y126.299 E105.69699
G1 X125.543 Y124.518 E105.92500
G1 X125.229 Y123.666 E106.03396
G1 X120.601 Y123.887 E106.58996
G1 X121.414 Y126.587 E106.92833
G1 X121.127 Y126.274 E106.97928
G1 X120.412 Y123.898 E107.27703
G1 X113.667 Y124.006 E108.08654
G1 X106.922 Y123.898 E108.89604
G1 X106.207 Y126.274 E109.19379
G1 X105.920 Y126.587 E109.24475
G1 X106.733 Y123.887 E109.58312
G1 X102.106 Y123.667 E110.13899
G1 X101.129 Y126.300 E110.47600
G1 X100.382 Y126.261 E110.56576
G1 X95.855 Y125.931 E111.11044
G1 X91.393 Y125.508 E111.64828
G1 X86.983 Y124.998 E112.18101
G1 X82.551 Y124.390 E112.71783
G1 X78.137 Y123.691 E113.25411
G1 X74.415 Y123.022 E113.70791
G1 X80.076 Y123.182 E114.38750
G1 X80.264 Y121.332 E114.61064
G1 X73.869 Y120.206 E115.38985
G1 X66.799 Y118.726 E116.25664
G1 X64.505 Y120.929 E116.63830
G1 X60.703 Y119.995 E117.10810
G1 X56.858 Y118.965 E117.58577
G1 X54.240 Y128.602 E118.78413
G1 X50.698 Y127.600 E119.22585
G1 X46.252 Y126.240 E119.78377
G1 X41.795 Y124.775 E120.34676
G1 X38.815 Y123.726 E120.72587
G1 X44.217 Y108.886 E122.62098
G1 X46.291 Y109.617 E122.88487
G1 X47.044 Y107.549 E123.14897
G1 X51.164 Y108.917 E123.66991
G1 X51.683 Y109.087 E123.73545
G1 X55.266 Y110.181 E124.18500
G1 X55.788 Y110.342 E124.25055
G1 X59.920 Y111.511 E124.76586
G1 X64.074 Y112.593 E125.28097
G1 X68.250 Y113.589 E125.79614
G1 X69.611 Y113.885 E125.96328
G1 X71.842 Y114.367 E126.23718
G1 X72.447 Y114.499 E126.31149
G1 X76.662 Y115.318 E126.82675
G1 X80.892 Y116.048 E127.34185
G1 X85.373 Y116.726 E127.88569
G1 X86.408 Y116.282 E128.02084
G1 X92.876 Y114.395 E128.82935
G1 X96.682 Y107.713 E129.75214
G1 X89.013 Y106.859 E130.67811
G1 X82.896 Y105.979 E131.41971
G1 X76.817 Y104.907 E132.16044
G1 X70.757 Y103.639 E132.90339
G1 X64.768 Y102.187 E133.64289
G1 X58.788 Y100.534 E134.38740
G1 X52.898 Y98.701 E135.12764
G1 X50.559 Y97.892 E135.42463
G1 X51.375 Y95.650 E135.71094
G0 F12000 X95.887 Y108.119
G0 X92.597 Y114.044
G0 X97.110 Y117.330
G1 F1200 X106.361 Y117.330 E136.82106
G1 X109.061 Y108.369 E137.94413
G1 X102.242 Y108.147 E138.76284
G1 X97.110 Y117.330 E140.02521
G0 F12000 X107.545 Y123.496
G1 F1200 X112.561 Y123.559 E140.62718
G1 X113.667 Y123.571 E140.75991
G1 X118.062 Y123.526 E141.28734
G1 X119.781 Y123.471 E141.49372
G1 X116.135 Y111.341 E143.01365
G1 X113.667 Y111.512 E143.31052
G1 X111.199 Y111.341 E143.60739
G1 X107.545 Y123.496 E145.13048
G0 F12000 X119.144 Y123.012
G0 X120.973 Y117.330
G1 F1200 X130.224 Y117.330 E146.24060
G1 X125.080 Y108.125 E147.50597
G1 X118.338 Y108.587 E148.31691
G1 X120.973 Y117.330 E149.41268
G0 F12000 X121.270 Y116.930
G1 F1200 X129.543 Y116.930 E150.40544
G1 X124.854 Y108.541 E151.55870
G1 X118.865 Y108.952 E152.27907
G1 X121.270 Y116.930 E153.27899
G0 F12000 X119.248 Y123.088
G1 F1200 X115.844 Y111.762 E154.69817
G1 X113.667 Y111.913 E154.96003
G1 X111.490 Y111.762 E155.22190
G1 X108.081 Y123.103 E156.64297
G1 X113.666 Y123.171 E157.31322
G1 X118.054 Y123.126 E157.83981
G1 X119.248 Y123.088 E157.98316
G0 F12000 X120.116 Y124.303
G1 F1200 X113.667 Y124.406 E158.75714
G1 X107.218 Y124.303 E159.53112
G1 X106.563 Y126.477 E159.80359
G1 X105.328 Y127.827 E160.02315
G1 X105.130 Y127.827 E160.04691
G1 X106.202 Y124.262 E160.49363
G1 X102.379 Y124.080 E160.95291
G1 X101.401 Y126.715 E161.29019
G1 X100.361 Y126.661 E161.41515
G1 X95.811 Y126.328 E161.96261
G1 X91.368 Y125.908 E162.49815
G1 X86.916 Y125.393 E163.03595
G1 X82.501 Y124.788 E163.57070
G1 X78.082 Y124.087 E164.10762
G1 X73.676 Y123.295 E164.64481
G1 X69.666 Y122.488 E165.13566
G1 X79.716 Y122.772 E166.34214
G1 X79.828 Y121.662 E166.47602
G1 X73.779 Y120.596 E167.21308
G1 X66.924 Y119.161 E168.05351
G1 X64.623 Y121.369 E168.43619
G1 X60.601 Y120.381 E168.93318
G1 X57.140 Y119.455 E169.36311
G1 X54.520 Y129.097 E170.56211
G1 X50.601 Y127.988 E171.05085
G1 X46.115 Y126.616 E171.61379
G1 X41.680 Y125.158 E172.17401
G1 X38.301 Y123.969 E172.60386
G1 X43.976 Y108.377 E174.59498
G1 X46.051 Y109.108 E174.85898
G1 X46.804 Y107.040 E175.12308
G1 X47.546 Y107.302 E175.21750
G1 X51.803 Y108.706 E175.75541
G1 X55.902 Y109.959 E176.26976
G1 X60.025 Y111.125 E176.78392
G1 X64.171 Y112.205 E177.29804
G1 X68.339 Y113.199 E177.81223
G1 X72.527 Y114.107 E178.32647
G1 X76.734 Y114.924 E178.84074
G1 X80.956 Y115.653 E179.35488
G1 X85.320 Y116.314 E179.88453
G1 X86.273 Y115.905 E180.00898
G1 X92.608 Y114.056 E180.80089
G1 X96.034 Y108.044 E181.63125
G1 X88.973 Y107.257 E182.48382
G1 X82.836 Y106.375 E183.22783
G1 X76.727 Y105.297 E183.97223
G1 X70.678 Y104.031 E184.71384
G1 X64.656 Y102.572 E185.45739
G1 X58.698 Y100.925 E186.19916
G1 X52.775 Y99.082 E186.94353
G1 X47.965 Y97.417 E187.55434
G1 X47.980 Y97.376 E187.55958
G1 X49.292 Y97.830 E187.72618
G1 X50.058 Y98.098 E187.82356
G1 X51.290 Y94.713 E188.25583
G1 X49.212 Y93.994 E188.51969
G1 X49.238 Y93.922 E188.52888
G1 X53.938 Y95.549 E189.12571
G1 X59.738 Y97.353 E189.85460
G1 X65.592 Y98.971 E190.58342
G1 X71.496 Y100.403 E191.31244
G1 X77.441 Y101.647 E192.04130
G1 X83.423 Y102.703 E192.77023
G1 X89.435 Y103.566 E193.49907
G1 X95.472 Y104.239 E194.22800
G1 X101.390 Y104.710 E194.94040
G1 X104.533 Y104.865 E195.31802
G1 X110.183 Y105.051 E195.99639
G1 X113.667 Y105.106 E196.41452
G1 X116.816 Y105.057 E196.79245
G1 X118.565 Y105.005 E197.00242
G1 X122.800 Y104.865 E197.51090
G1 X125.807 Y104.721 E197.87215
G1 X131.862 Y104.239 E198.60105
G1 X137.899 Y103.566 E199.32998
G1 X143.911 Y102.703 E200.05881
G1 X149.893 Y101.647 E200.78775
G1 X155.838 Y100.403 E201.51660
G1 X161.742 Y98.971 E202.24562
G1 X167.596 Y97.353 E202.97444
G1 X173.396 Y95.549 E203.70333
G1 X178.096 Y93.922 E204.30017
G1 X179.369 Y97.418 E204.74663
G1 X174.559 Y99.082 E205.35740
G1 X168.636 Y100.925 E206.10177
G1 X162.678 Y102.572 E206.84355
G1 X156.656 Y104.031 E207.58709
G1 X150.607 Y105.297 E208.32870
G1 X144.498 Y106.375 E209.07311
G1 X138.361 Y107.257 E209.81711
G1 X131.300 Y108.044 E210.66968
G1 X134.726 Y114.056 E211.50004
G1 X141.065 Y115.906 E212.29245
G1 X144.555 Y117.403 E212.74815
G1 X148.340 Y119.669 E213.27753
G1 X148.709 Y120.201 E213.35522
G1 X153.312 Y119.390 E213.91609
G1 X159.819 Y118.028 E214.71385
G1 X166.280 Y116.461 E215.51165
G1 X172.687 Y114.690 E216.30932
G1 X179.034 Y112.716 E217.10695
G1 X184.277 Y110.901 E217.77274
G1 X184.698 Y112.057 E217.92037
G1 X179.412 Y113.887 E218.59163
G1 X173.043 Y115.867 E219.39199
G1 X166.580 Y117.653 E220.19662
G1 X160.089 Y119.228 E220.99814
G1 X153.550 Y120.597 E221.79983
G1 X148.853 Y121.424 E222.37214
G1 X148.257 Y121.530 E222.44478
G1 X147.506 Y121.660 E222.53624
G1 X147.617 Y122.772 E222.67035
G1 X157.664 Y122.488 E223.87647
G1 X153.930 Y123.240 E224.33354
G1 X151.591 Y123.667 E224.61886
G1 X149.252 Y124.087 E224.90403
G1 X145.107 Y124.743 E225.40762
G1 X144.564 Y124.823 E225.47349
G1 X140.418 Y125.393 E225.97569
G1 X136.244 Y125.875 E226.47989
G1 X131.800 Y126.301 E227.01562
G1 X131.244 Y126.348 E227.08258
G1 X127.072 Y126.655 E227.58457
G1 X125.933 Y126.715 E227.72144
G1 X124.955 Y124.080 E228.05872
G1 X121.132 Y124.262 E228.51800
G1 X122.204 Y127.827 E228.96472
G1 X122.006 Y127.827 E228.98848
G1 X120.771 Y126.477 E229.20804
G1 X120.116 Y124.303 E229.48050
G0 F12000 X108.188 Y123.024
G0 X106.064 Y116.930
G1 F1200 X108.528 Y108.752 E230.50544
G1 X102.472 Y108.554 E231.23255
G1 X97.791 Y116.930 E232.38398
G1 X106.064 Y116.930 E233.37674
G0 F12000 X105.767 Y116.530
;TYPE:WALL-OUTER
G1 F1200 X107.995 Y109.135 E234.30354
G1 X102.703 Y108.962 E234.93892
G1 X98.473 Y116.530 E235.97931
G1 X105.767 Y116.530 E236.85459
G0 F12000 X106.052 Y116.617
G0 X108.188 Y123.024
G0 X108.613 Y123.009
G0 X108.617 Y122.710
G1 F1200 X113.667 Y122.771 E237.46064
G1 X118.045 Y122.726 E237.98602
G1 X118.715 Y122.705 E238.06646
G1 X115.553 Y112.183 E239.38488
G1 X113.667 Y112.314 E239.61175
G1 X111.781 Y112.183 E239.83862
G1 X108.617 Y122.710 E241.15768
G0 F12000 X108.613 Y123.009
G0 X107.228 Y124.621
G0 X107.514 Y124.708
G1 F1200 X106.920 Y126.680 E241.40482
G1 X105.504 Y128.227 E241.65649
G1 X104.592 Y128.227 E241.76593
G1 X105.671 Y124.637 E242.21576
G1 X102.652 Y124.493 E242.57846
G1 X101.674 Y127.129 E242.91585
G1 X100.340 Y127.060 E243.07614
G1 X95.780 Y126.727 E243.62480
G1 X91.322 Y126.305 E244.16215
G1 X86.870 Y125.790 E244.69995
G1 X82.438 Y125.183 E245.23676
G1 X78.012 Y124.481 E245.77451
G1 X73.605 Y123.689 E246.31183
G1 X69.489 Y122.860 E246.81567
G1 X68.437 Y122.629 E246.94491
G1 X68.692 Y122.060 E247.01974
G1 X79.355 Y122.361 E248.29981
G1 X79.393 Y121.991 E248.34444
