;FLAVOR:UltiGCode
;TIME:3859
;MATERIAL:6140
;MATERIAL2:0
;NOZZLE_DIAMETER:0.400000
;NOZZLE_DIAMETER2:0.400000
;MTYPE:PLA

;Layer count: 38
;LAYER:0
M107
G0 F12000 X42.141 Y89.026 Z0.300
;TYPE:SKIRT
G1 F1200 X50.787 Y92.018 E1.09789
G1 X56.497 Y93.794 E1.81547
G1 X60.804 Y94.983 E2.35164
G1 X62.206 Y95.371 E2.52620
G1 X68.018 Y96.781 E3.24387
G1 X73.830 Y97.997 E3.95641
G1 X79.665 Y99.027 E4.66744
G1 X84.135 Y99.669 E5.20934
G1 X85.584 Y99.878 E5.38502
G1 X91.488 Y100.536 E6.09789
G1 X97.306 Y100.999 E6.79826
G1 X99.634 Y101.114 E7.07796
G1 X100.353 Y101.149 E7.16434
G1 X104.561 Y101.287 E7.66957
G1 X105.915 Y101.332 E7.83214
G1 X108.851 Y101.378 E8.18450
G1 X109.340 Y101.386 E8.24319
G1 X109.818 Y101.379 E8.30056
G1 X112.420 Y101.338 E8.61284
G1 X116.926 Y101.195 E9.15383
G1 X118.326 Y101.148 E9.32192
G1 X120.533 Y101.043 E9.58706
G1 X121.223 Y101.010 E9.66996
G1 X125.843 Y100.643 E10.22611
G1 X127.184 Y100.536 E10.38754
G1 X133.058 Y99.881 E11.09679
G1 X137.529 Y99.239 E11.63881
G1 X137.529 Y99.240 E11.63893
G1 X138.976 Y99.031 E11.81437
G1 X144.838 Y97.997 E12.52867
G1 X150.650 Y96.781 E13.24121
G1 X156.479 Y95.367 E13.96098
G1 X160.781 Y94.179 E14.49654
G1 X160.781 Y94.178 E14.49666
G1 X162.186 Y93.789 E14.67160
G1 X167.881 Y92.018 E15.38728
G1 X176.529 Y89.025 E16.48544
G1 X176.992 Y90.299 E16.64810
G1 X178.859 Y89.582 E16.88809
G1 X180.543 Y94.215 E17.47964
G1 X181.740 Y97.479 E17.89683
G1 X179.865 Y98.196 E18.13772
G1 X180.400 Y99.665 E18.32533
G1 X176.838 Y100.896 E18.77757
G1 X171.408 Y102.775 E19.46708
G1 X170.864 Y102.944 E19.53544
G1 X170.864 Y102.943 E19.53556
G1 X165.381 Y104.650 E20.22467
G1 X164.372 Y104.928 E20.35026
G1 X159.296 Y106.332 E20.98225
G1 X157.738 Y106.709 E21.17461
G1 X153.162 Y107.819 E21.73965
G1 X146.983 Y109.112 E22.49719
G1 X145.403 Y109.390 E22.68970
G1 X145.403 Y109.389 E22.68982
G1 X140.767 Y110.208 E23.25476
G1 X134.518 Y111.107 E24.01236
G1 X133.835 Y111.183 E24.09482
G1 X138.013 Y112.403 E24.61712
G1 X138.183 Y112.476 E24.63932
G1 X140.421 Y112.137 E24.91095
G1 X141.469 Y111.978 E25.03814
G1 X145.577 Y111.269 E25.53839
G1 X149.695 Y110.468 E26.04181
G1 X151.458 Y110.088 E26.25823
G1 X152.047 Y109.960 E26.33056
G1 X153.358 Y109.675 E26.49156
G1 X156.903 Y108.839 E26.92863
G1 X157.923 Y108.595 E27.05448
G1 X160.979 Y107.800 E27.43341
G1 X161.973 Y107.541 E27.55667
G1 X165.029 Y106.677 E27.93776
G1 X165.029 Y106.676 E27.93788
G1 X165.545 Y106.530 E28.00223
G1 X166.024 Y106.395 E28.06195
G1 X169.565 Y105.313 E28.50627
G1 X170.058 Y105.162 E28.56814
G1 X174.053 Y103.849 E29.07277
G1 X177.538 Y102.621 E29.51617
G1 X177.987 Y102.462 E29.57333
G1 X179.618 Y101.850 E29.78237
G1 X179.618 Y101.851 E29.78249
G1 X182.878 Y100.624 E30.20049
G1 X184.580 Y105.302 E30.79785
G1 X185.756 Y108.516 E31.20853
G1 X183.879 Y109.222 E31.44918
G1 X190.056 Y126.196 E33.61674
G1 X186.448 Y127.462 E34.07558
G1 X186.448 Y127.461 E34.07570
G1 X182.549 Y128.835 E34.57178
G1 X178.028 Y130.322 E35.14289
G1 X177.437 Y130.502 E35.21703
G1 X173.477 Y131.713 E35.71395
G1 X172.879 Y131.882 E35.78852
G1 X165.819 Y133.880 E36.66900
G1 X164.647 Y129.553 E37.20695
G1 X164.646 Y129.553 E37.20707
G1 X163.186 Y124.183 E37.87486
G1 X157.255 Y125.640 E38.60774
G1 X157.214 Y125.601 E38.61453
G1 X154.491 Y126.211 E38.94939
G1 X150.030 Y127.111 E39.49549
G1 X145.553 Y127.915 E40.04133
G1 X141.062 Y128.627 E40.58698
G1 X136.555 Y129.245 E41.13288
G1 X132.037 Y129.768 E41.67866
G1 X127.508 Y130.196 E42.22456
G1 X122.971 Y130.529 E42.77047
G1 X122.634 Y130.547 E42.81096
G1 X122.984 Y131.708 E42.95648
G1 X116.000 Y131.708 E43.79456
G1 X113.785 Y129.288 E44.18823
G1 X113.049 Y128.485 E44.31895
G1 X112.972 Y128.229 E44.35103
G1 X109.334 Y128.287 E44.78764
G1 X105.696 Y128.229 E45.22426
G1 X105.619 Y128.484 E45.25622
G1 X102.668 Y131.708 E45.78070
G1 X95.684 Y131.708 E46.61878
G1 X96.034 Y130.547 E46.76429
G1 X95.697 Y130.529 E46.80479
G1 X91.160 Y130.196 E47.35069
G1 X86.631 Y129.768 E47.89660
G1 X82.113 Y129.245 E48.44238
G1 X77.606 Y128.627 E48.98828
G1 X73.114 Y127.915 E49.53405
G1 X70.739 Y127.487 E49.82364
G1 X70.739 Y127.488 E49.82376
G1 X68.638 Y127.111 E50.07990
G1 X64.177 Y126.211 E50.62601
G1 X59.303 Y125.119 E51.22539
G1 X60.422 Y122.616 E51.55440
G1 X55.460 Y121.411 E52.16715
G1 X54.873 Y121.250 E52.24019
G1 X48.899 Y119.598 E52.98397
G1 X48.318 Y119.418 E53.05696
G1 X42.399 Y117.577 E53.80080
G1 X41.823 Y117.379 E53.87389
G1 X32.942 Y114.303 E55.00173
G1 X34.259 Y110.678 E55.46455
G1 X35.961 Y106.005 E56.06134
G1 X45.149 Y109.185 E57.22807
G1 X51.407 Y111.131 E58.01450
G1 X57.658 Y112.859 E58.79276
G1 X64.029 Y114.405 E59.57946
G1 X68.836 Y115.410 E60.16878
G1 X70.428 Y115.744 E60.36397
G1 X73.154 Y116.224 E60.69613
G1 X76.709 Y114.095 E61.19338
G1 X80.655 Y112.403 E61.70859
G1 X84.833 Y111.183 E62.23089
G1 X84.150 Y111.107 E62.31336
G1 X77.902 Y110.208 E63.07084
G1 X76.323 Y109.930 E63.26323
G1 X71.684 Y109.111 E63.82852
G1 X65.507 Y107.819 E64.58580
G1 X63.949 Y107.442 E64.77816
G1 X59.372 Y106.332 E65.34332
G1 X57.827 Y105.905 E65.53567
G1 X53.286 Y104.650 E66.10102
G1 X47.259 Y102.775 E66.85845
G1 X45.744 Y102.251 E67.05081
G1 X38.269 Y99.664 E68.00001
G1 X39.800 Y95.454 E68.53758
G1 X42.141 Y89.026 E69.35850
G10
G1 Z0.400
G0 F12000 X178.719 Y106.952
;TYPE:FILL
G1 Z0.300
G11
G1 F1200 X178.944 Y106.726 E69.39677
G0 F12000 X178.511 Y106.753
;TYPE:WALL-INNER
G1 F1200 X184.656 Y123.640 E71.55321
G1 X181.206 Y124.856 E71.99217
G1 X176.749 Y126.321 E72.55516
G1 X172.287 Y127.686 E73.11510
G1 X171.739 Y127.840 E73.18341
G1 X168.761 Y128.683 E73.55481
G1 X166.143 Y119.046 E74.75316
G1 X162.298 Y120.076 E75.23083
G1 X158.496 Y121.010 E75.70063
G1 X156.202 Y118.807 E76.08230
G1 X149.144 Y120.284 E76.94760
G1 X142.737 Y121.413 E77.72829
G1 X142.925 Y123.263 E77.95143
G1 X148.586 Y123.103 E78.63102
G1 X144.864 Y123.772 E79.08482
G1 X140.450 Y124.471 E79.62110
G1 X136.018 Y125.079 E80.15792
G1 X131.608 Y125.590 E80.69066
G1 X127.146 Y126.011 E81.22848
G1 X122.718 Y126.336 E81.76127
G1 X121.874 Y126.380 E81.86269
G1 X120.895 Y123.748 E82.19967
G1 X116.268 Y123.968 E82.75554
G1 X117.081 Y126.668 E83.09391
G1 X116.794 Y126.355 E83.14486
G1 X116.079 Y123.979 E83.44261
G1 X109.334 Y124.087 E84.25212
G1 X102.589 Y123.979 E85.06162
G1 X101.874 Y126.355 E85.35937
G1 X101.587 Y126.668 E85.41033
G1 X102.400 Y123.968 E85.74870
G1 X97.773 Y123.748 E86.30457
G1 X96.796 Y126.380 E86.64147
G1 X95.950 Y126.336 E86.74312
G1 X91.522 Y126.012 E87.27590
G1 X87.060 Y125.589 E87.81374
G1 X82.650 Y125.079 E88.34647
G1 X78.218 Y124.471 E88.88329
G1 X73.804 Y123.772 E89.41957
G1 X70.082 Y123.103 E89.87337
G1 X75.743 Y123.263 E90.55296
G1 X75.931 Y121.413 E90.77611
G1 X70.687 Y120.490 E91.41506
G1 X70.093 Y120.384 E91.48746
G1 X69.534 Y120.286 E91.55557
G1 X62.997 Y118.918 E92.35700
G1 X62.471 Y118.791 E92.42193
G1 X56.498 Y117.341 E93.15951
G1 X55.990 Y117.201 E93.22274
G1 X50.074 Y115.565 E93.95931
G1 X49.563 Y115.407 E94.02349
G1 X43.693 Y113.581 E94.76119
G1 X43.195 Y113.409 E94.82441
G1 X38.346 Y111.730 E95.44019
G1 X38.493 Y111.326 E95.49178
G1 X43.842 Y113.177 E96.17100
G1 X50.201 Y115.155 E96.97015
G1 X56.621 Y116.929 E97.76942
G1 X63.094 Y118.500 E98.56873
G1 X69.613 Y119.864 E99.36795
G1 X74.475 Y120.721 E99.96038
G1 X74.941 Y120.049 E100.05851
G1 X78.626 Y117.843 E100.57389
G1 X82.076 Y116.363 E101.02438
G1 X88.543 Y114.476 E101.83278
G1 X92.349 Y107.795 E102.75547
G1 X84.680 Y106.940 E103.68145
G1 X78.563 Y106.060 E104.42305
G1 X72.484 Y104.988 E105.16378
G1 X66.424 Y103.720 E105.90673
G1 X60.427 Y102.266 E106.64722
G1 X54.473 Y100.620 E107.38850
G1 X48.565 Y98.782 E108.13098
G1 X43.675 Y97.090 E108.75191
G1 X44.673 Y94.347 E109.10218
G1 X49.480 Y96.010 E109.71256
G1 X55.292 Y97.818 E110.44297
G1 X61.159 Y99.439 E111.17339
G1 X67.075 Y100.875 E111.90392
G1 X73.033 Y102.121 E112.63435
G1 X79.027 Y103.179 E113.36475
G1 X85.052 Y104.044 E114.09516
G1 X91.101 Y104.719 E114.82555
G1 X97.032 Y105.190 E115.53951
G1 X99.427 Y105.309 E115.82726
G1 X100.185 Y105.345 E115.91833
G1 X105.841 Y105.532 E116.59742
G1 X108.782 Y105.578 E116.95038
G1 X109.333 Y105.587 E117.01651
G1 X112.493 Y105.538 E117.39575
G1 X117.066 Y105.392 E117.94479
G1 X118.483 Y105.345 E118.11493
G1 X121.499 Y105.201 E118.47726
G1 X127.567 Y104.719 E119.20771
G1 X133.616 Y104.044 E119.93810
G1 X139.641 Y103.179 E120.66851
G1 X145.635 Y102.121 E121.39891
G1 X151.593 Y100.875 E122.12934
G1 X157.509 Y99.439 E122.85987
G1 X163.376 Y97.818 E123.59029
G1 X169.188 Y96.010 E124.32070
G1 X173.994 Y94.347 E124.93097
G1 X174.504 Y95.748 E125.10988
G1 X174.993 Y97.090 E125.28128
G1 X170.095 Y98.785 E125.90324
G1 X164.195 Y100.620 E126.64469
G1 X158.241 Y102.266 E127.38597
G1 X152.244 Y103.720 E128.12646
G1 X146.184 Y104.988 E128.86941
G1 X140.105 Y106.060 E129.61014
G1 X133.988 Y106.940 E130.35174
G1 X126.319 Y107.794 E131.27771
G1 X130.125 Y114.476 E132.20050
G1 X136.592 Y116.363 E133.00890
G1 X137.158 Y116.606 E133.08281
G1 X137.628 Y116.807 E133.14416
G1 X142.109 Y116.129 E133.68800
G1 X146.339 Y115.399 E134.20310
G1 X150.554 Y114.580 E134.71836
G1 X152.345 Y114.193 E134.93824
G1 X154.299 Y113.768 E135.17820
G1 X157.877 Y112.925 E135.61932
G1 X158.927 Y112.674 E135.74887
G1 X163.081 Y111.592 E136.26398
G1 X167.212 Y110.423 E136.77917
G1 X170.798 Y109.328 E137.22910
G1 X171.319 Y109.168 E137.29450
G1 X175.397 Y107.828 E137.80960
G1 X179.447 Y106.401 E138.32489
G1 X180.346 Y106.063 E138.44014
G1 X178.511 Y106.753 E138.67540
G0 F12000 X157.784 Y112.535
G0 X142.044 Y115.734
G0 X137.682 Y116.387
G0 X125.891 Y117.411
G1 F1200 X120.759 Y108.228 E139.93776
G1 X113.939 Y108.450 E140.75660
G1 X116.640 Y117.411 E141.87970
G1 X125.891 Y117.411 E142.98982
G0 F12000 X115.448 Y123.552
G1 F1200 X111.802 Y111.422 E144.50976
G1 X109.334 Y111.593 E144.80663
G1 X106.866 Y111.422 E145.10350
G1 X103.212 Y123.577 E146.62658
G1 X108.228 Y123.640 E147.22855
G1 X109.334 Y123.652 E147.36127
G1 X113.729 Y123.607 E147.88870
G1 X115.448 Y123.552 E148.09509
G0 F12000 X103.855 Y123.105
G0 X102.028 Y117.411
G1 F1200 X104.663 Y108.668 E149.19086
G1 X97.921 Y108.206 E150.00180
G1 X92.777 Y117.411 E151.26717
G1 X102.028 Y117.411 E152.37729
G0 F12000 X101.731 Y117.011
G1 F1200 X104.135 Y109.033 E153.37717
G1 X98.147 Y108.622 E154.09742
G1 X93.458 Y117.011 E155.25069
G1 X101.731 Y117.011 E156.24345
G0 F12000 X103.748 Y123.184
G1 F1200 X109.333 Y123.252 E156.91370
G1 X113.721 Y123.207 E157.44028
G1 X114.915 Y123.169 E157.58364
G1 X111.511 Y111.843 E159.00281
G1 X109.334 Y111.994 E159.26468
G1 X107.157 Y111.843 E159.52655
G1 X103.748 Y123.184 E160.94762
G0 F12000 X102.885 Y124.384
G1 F1200 X102.230 Y126.558 E161.22008
G1 X100.995 Y127.908 E161.43965
G1 X100.797 Y127.908 E161.46341
G1 X101.869 Y124.343 E161.91013
G1 X98.046 Y124.161 E162.36941
G1 X97.068 Y126.796 E162.70669
G1 X95.929 Y126.736 E162.84355
G1 X91.478 Y126.409 E163.37911
G1 X87.035 Y125.989 E163.91465
G1 X82.583 Y125.474 E164.45245
G1 X78.168 Y124.869 E164.98720
G1 X73.749 Y124.168 E165.52412
G1 X69.343 Y123.376 E166.06131
G1 X65.338 Y122.569 E166.55157
G1 X75.383 Y122.853 E167.75745
G1 X75.495 Y121.743 E167.89133
G1 X70.619 Y120.884 E168.48546
G1 X70.023 Y120.778 E168.55810
G1 X69.445 Y120.677 E168.62851
G1 X62.918 Y119.311 E169.42872
G1 X56.421 Y117.734 E170.23100
G1 X49.958 Y115.948 E171.03563
G1 X43.589 Y113.968 E171.83599
G1 X37.831 Y111.975 E172.56717
G1 X38.252 Y110.819 E172.71480
G1 X43.967 Y112.797 E173.44051
G1 X50.314 Y114.771 E174.23814
G1 X56.721 Y116.542 E175.03581
G1 X63.182 Y118.109 E175.83361
G1 X69.688 Y119.471 E176.63125
G1 X74.292 Y120.283 E177.19226
G1 X74.661 Y119.750 E177.27005
G1 X78.446 Y117.484 E177.79943
G1 X81.936 Y115.987 E178.25513
G1 X88.275 Y114.137 E179.04754
G1 X91.701 Y108.125 E179.87790
G1 X84.640 Y107.338 E180.73047
G1 X78.503 Y106.456 E181.47447
G1 X72.394 Y105.378 E182.21888
G1 X66.345 Y104.112 E182.96049
G1 X60.323 Y102.653 E183.70403
G1 X54.365 Y101.006 E184.44581
G1 X48.442 Y99.163 E185.19018
G1 X43.159 Y97.335 E185.86102
G1 X44.432 Y93.840 E186.30737
G1 X49.605 Y95.630 E186.96425
G1 X55.405 Y97.434 E187.69314
G1 X61.259 Y99.052 E188.42195
G1 X67.163 Y100.484 E189.15098
G1 X73.108 Y101.728 E189.87983
G1 X79.090 Y102.784 E190.60877
G1 X85.102 Y103.647 E191.33760
G1 X91.139 Y104.320 E192.06653
G1 X97.057 Y104.791 E192.77893
G1 X100.200 Y104.946 E193.15655
G1 X105.850 Y105.132 E193.83492
G1 X109.334 Y105.187 E194.25305
G1 X112.484 Y105.138 E194.63110
G1 X118.467 Y104.946 E195.34943
G1 X121.474 Y104.802 E195.71068
G1 X127.529 Y104.320 E196.43958
G1 X133.566 Y103.647 E197.16851
G1 X139.578 Y102.784 E197.89734
G1 X145.560 Y101.728 E198.62628
G1 X151.505 Y100.484 E199.35513
G1 X157.409 Y99.052 E200.08415
G1 X163.263 Y97.434 E200.81297
G1 X169.063 Y95.630 E201.54186
G1 X174.236 Y93.840 E202.19873
G1 X174.741 Y95.230 E202.37620
G1 X176.609 Y94.517 E202.61614
G1 X176.882 Y95.268 E202.71203
G1 X175.015 Y95.981 E202.95185
G1 X175.508 Y97.335 E203.12476
G1 X170.226 Y99.163 E203.79549
G1 X164.302 Y101.006 E204.53998
G1 X158.352 Y102.651 E205.28076
G1 X152.323 Y104.112 E206.02518
G1 X146.274 Y105.378 E206.76679
G1 X140.165 Y106.456 E207.51119
G1 X134.028 Y107.338 E208.25520
G1 X126.967 Y108.125 E209.10777
G1 X130.393 Y114.137 E209.93813
G1 X136.728 Y115.986 E210.73004
G1 X137.681 Y116.395 E210.85449
G1 X142.045 Y115.734 E211.38414
G1 X146.267 Y115.005 E211.89828
G1 X150.473 Y114.188 E212.41243
G1 X152.854 Y113.673 E212.70476
G1 X154.211 Y113.378 E212.87141
G1 X157.784 Y112.536 E213.31191
G1 X158.830 Y112.286 E213.44096
G1 X162.976 Y111.206 E213.95509
G1 X167.099 Y110.040 E214.46925
G1 X171.197 Y108.787 E214.98349
G1 X175.268 Y107.449 E215.49771
G1 X179.310 Y106.025 E216.01197
G1 X180.620 Y105.533 E216.17990
G1 X180.893 Y106.284 E216.27579
G1 X179.022 Y106.988 E216.51567
G1 X185.171 Y123.884 E218.67329
G1 X181.321 Y125.239 E219.16307
G1 X176.886 Y126.697 E219.72329
G1 X172.400 Y128.069 E220.28622
G1 X168.481 Y129.178 E220.77497
G1 X165.862 Y119.536 E221.97393
G1 X162.400 Y120.462 E222.40398
G1 X158.378 Y121.450 E222.90097
G1 X156.077 Y119.242 E223.28365
G1 X149.222 Y120.677 E224.12408
G1 X143.173 Y121.743 E224.86114
G1 X143.285 Y122.853 E224.99502
G1 X153.330 Y122.569 E226.20090
G1 X149.325 Y123.376 E226.69116
G1 X144.919 Y124.168 E227.22836
G1 X140.500 Y124.868 E227.76525
G1 X136.085 Y125.474 E228.30002
G1 X131.633 Y125.989 E228.83782
G1 X127.190 Y126.409 E229.37335
G1 X122.739 Y126.736 E229.90891
G1 X121.600 Y126.796 E230.04578
G1 X120.622 Y124.161 E230.38306
G1 X116.799 Y124.343 E230.84234
G1 X117.871 Y127.908 E231.28906
G1 X117.673 Y127.908 E231.31282
G1 X116.438 Y126.558 E231.53238
G1 X115.783 Y124.384 E231.80485
G1 X109.334 Y124.487 E232.57883
G1 X102.885 Y124.384 E233.35281
G0 F12000 X114.811 Y123.093
G0 X116.937 Y117.011
G1 F1200 X125.210 Y117.011 E234.34557
G1 X120.529 Y108.635 E235.49700
G1 X114.472 Y108.833 E236.22423
G1 X116.937 Y117.011 E237.24920
G0 F12000 X117.234 Y116.611
;TYPE:WALL-OUTER
G1 F1200 X124.528 Y116.611 E238.12448
G1 X120.298 Y109.043 E239.16487
G1 X115.005 Y109.216 E239.80037
G1 X117.234 Y116.611 E240.72720
G0 F12000 X116.948 Y116.696
G0 X114.811 Y123.093
G0 X114.392 Y123.086
G0 X114.382 Y122.786
G1 F1200 X111.220 Y112.264 E242.04562
G1 X109.334 Y112.395 E242.27249
G1 X107.448 Y112.264 E242.49935
G1 X104.284 Y122.791 E243.81842
G1 X109.334 Y122.852 E244.42446
G1 X113.712 Y122.807 E244.94985
G1 X114.382 Y122.786 E245.03029
G0 F12000 X114.392 Y123.086
G0 X115.774 Y124.703
G0 X115.487 Y124.789
G1 F1200 X109.334 Y124.887 E245.76874
G1 X103.181 Y124.789 E246.50720
G1 X102.587 Y126.761 E246.75434
G1 X101.171 Y128.308 E247.00600
G1 X100.259 Y128.308 E247.11544
G1 X101.338 Y124.718 E247.56528
G1 X98.319 Y124.574 E247.92797
G1 X97.341 Y127.210 E248.26536
G1 X95.908 Y127.135 E248.43756
G1 X91.447 Y126.808 E248.97431
G1 X86.989 Y126.386 E249.51167
G1 X82.537 Y125.871 E250.04947
G1 X78.105 Y125.264 E250.58627
G1 X73.679 Y124.562 E251.12403
G1 X69.272 Y123.770 E251.66134
G1 X64.883 Y122.885 E252.19863
G1 X64.104 Y122.711 E252.29441
G1 X64.359 Y122.141 E252.36934
G1 X75.022 Y122.442 E253.64941
