;FLAVOR:UltiGCode
;TIME:9940
;MATERIAL:15103
;MATERIAL2:0
;NOZZLE_DIAMETER:0.400000
;NOZZLE_DIAMETER2:0.400000
;MTYPE:PLA

;Layer count: 38
;LAYER:0
M107
G0 F12000 X54.020 Y76.842 Z0.300
;TYPE:SKIRT
G1 F1200 X60.312 Y79.030 E0.79939
G1 X61.380 Y79.401 E0.93506
G1 X65.031 Y80.542 E1.39408
G1 X66.218 Y80.913 E1.54331
G1 X71.102 Y82.271 E2.15163
G1 X74.842 Y83.184 E2.61361
G1 X76.045 Y83.479 E2.76224
G1 X79.805 Y84.271 E3.22334
G1 X81.022 Y84.528 E3.37261
G1 X82.247 Y84.745 E3.52189
G1 X86.038 Y85.419 E3.98395
G1 X89.820 Y85.968 E4.44254
G1 X91.063 Y86.149 E4.59328
G1 X94.864 Y86.578 E5.05229
G1 X96.098 Y86.718 E5.20132
G1 X99.924 Y87.027 E5.66194
G1 X101.157 Y87.128 E5.81039
G1 X102.409 Y87.189 E5.96081
G1 X106.223 Y87.378 E6.41905
G1 X111.325 Y87.465 E7.03138
G1 X115.154 Y87.411 E7.49091
G1 X116.401 Y87.393 E7.64056
G1 X117.643 Y87.336 E7.78976
G1 X121.505 Y87.157 E8.25370
G1 X122.716 Y87.063 E8.39946
G1 X126.526 Y86.765 E8.85805
G1 X131.604 Y86.206 E9.47109
G1 X132.823 Y86.033 E9.61884
G1 X136.626 Y85.492 E10.07979
G1 X141.630 Y84.616 E10.68941
G1 X142.845 Y84.364 E10.83831
G1 X146.603 Y83.583 E11.29890
G1 X147.811 Y83.292 E11.44801
G1 X151.541 Y82.393 E11.90843
G1 X152.742 Y82.063 E12.05789
G1 X156.419 Y81.052 E12.51550
G1 X157.630 Y80.678 E12.66760
G1 X161.283 Y79.548 E13.12645
G1 X169.124 Y76.848 E14.12159
G1 X174.798 Y92.510 E16.12056
G1 X176.667 Y91.799 E16.36052
G1 X179.870 Y100.637 E17.48859
G1 X178.001 Y101.348 E17.72855
G1 X184.375 Y118.941 E19.97399
G1 X184.802 Y120.118 E20.12424
G1 X186.445 Y124.653 E20.70306
G1 X187.653 Y127.994 E21.12938
G1 X178.770 Y131.055 E22.25685
G1 X178.193 Y131.253 E22.33005
G1 X172.277 Y133.083 E23.07316
G1 X171.692 Y133.265 E23.14668
G1 X165.714 Y134.907 E23.89061
G1 X165.714 Y134.906 E23.89073
G1 X165.129 Y135.068 E23.96357
G1 X160.160 Y136.267 E24.57696
G1 X161.295 Y138.822 E24.91246
G1 X152.663 Y140.616 E25.97043
G1 X145.980 Y141.794 E26.78475
G1 X139.160 Y142.777 E27.61161
G1 X132.333 Y143.542 E28.43598
G1 X131.437 Y143.626 E28.54397
G1 X125.013 Y144.128 E29.31720
G1 X124.537 Y144.150 E29.37438
G1 X124.882 Y145.305 E29.51903
G1 X119.511 Y145.300 E30.16355
G1 X117.895 Y145.292 E30.35747
G1 X115.816 Y143.012 E30.72774
G1 X106.661 Y142.999 E31.82634
G1 X104.569 Y145.277 E32.19748
G1 X97.586 Y145.266 E33.03545
G1 X97.935 Y144.112 E33.18012
G1 X97.462 Y144.089 E33.23695
G1 X91.039 Y143.568 E34.01024
G1 X90.146 Y143.482 E34.11789
G1 X83.743 Y142.758 E34.89115
G1 X76.923 Y141.767 E35.71814
G1 X70.582 Y140.641 E36.49097
G1 X69.803 Y140.491 E36.58617
G1 X61.194 Y138.674 E37.64200
G1 X62.337 Y136.123 E37.97745
G1 X57.376 Y134.911 E38.59028
G1 X56.789 Y134.748 E38.66338
G1 X50.817 Y133.088 E39.40719
G1 X50.236 Y132.907 E39.48022
G1 X44.321 Y131.057 E40.22392
G1 X43.785 Y130.871 E40.29201
G1 X35.340 Y127.934 E41.36494
G1 X37.270 Y122.650 E42.04000
G1 X47.166 Y95.588 E45.49775
G1 X54.020 Y76.842 E47.89292
G10
G1 Z0.400
G0 F12000 X56.545 Y82.167
;TYPE:WALL-INNER
G1 Z0.300
G11
G1 F1200 X60.054 Y83.387 E48.33872
G1 X65.030 Y84.942 E48.96432
G1 X70.053 Y86.339 E49.58996
G1 X75.119 Y87.576 E50.21574
G1 X80.222 Y88.652 E50.84156
G1 X85.355 Y89.564 E51.46717
G1 X90.515 Y90.314 E52.09287
G1 X95.696 Y90.899 E52.71854
G1 X100.893 Y91.320 E53.34423
G1 X106.101 Y91.577 E53.96995
G1 X111.315 Y91.666 E54.59572
G1 X116.527 Y91.592 E55.22122
G1 X121.735 Y91.351 E55.84685
G1 X126.934 Y90.946 E56.47262
G1 X132.117 Y90.375 E57.09834
G1 X137.279 Y89.641 E57.72401
G1 X142.416 Y88.742 E58.34982
G1 X147.521 Y87.682 E58.97549
G1 X152.589 Y86.461 E59.60105
G1 X157.617 Y85.078 E60.22682
G1 X162.598 Y83.538 E60.85245
G1 X166.583 Y82.165 E61.35824
G1 X171.900 Y96.839 E63.23115
G1 X172.300 Y97.954 E63.37330
G1 X174.172 Y97.242 E63.61364
G1 X174.512 Y98.181 E63.73348
G1 X172.644 Y98.892 E63.97333
G1 X180.427 Y120.374 E66.71514
G1 X182.253 Y125.413 E67.35830
G1 X176.885 Y127.262 E68.03960
G1 X171.031 Y129.072 E68.77489
G1 X170.502 Y129.236 E68.84135
G1 X164.600 Y130.857 E69.57582
G1 X164.069 Y131.004 E69.64194
G1 X157.591 Y132.566 E70.44158
G1 X151.057 Y133.922 E71.24236
G1 X144.654 Y135.042 E72.02239
G1 X144.838 Y136.891 E72.24537
G1 X146.427 Y136.850 E72.43611
G1 X150.445 Y136.742 E72.91844
G1 X145.317 Y137.646 E73.54329
G1 X138.623 Y138.611 E74.35488
G1 X131.912 Y139.363 E75.16524
G1 X131.070 Y139.442 E75.26672
G1 X124.754 Y139.936 E76.02695
G1 X123.782 Y139.981 E76.14372
G1 X122.808 Y137.344 E76.48106
G1 X120.114 Y137.467 E76.80467
G1 X118.182 Y137.559 E77.03677
G1 X118.990 Y140.259 E77.37497
G1 X118.703 Y139.944 E77.42611
G1 X118.365 Y138.816 E77.56741
G1 X104.125 Y138.795 E79.27622
G1 X103.784 Y139.924 E79.41774
G1 X103.495 Y140.239 E79.46904
G1 X104.312 Y137.537 E79.80778
G1 X101.072 Y137.378 E80.19705
G1 X99.687 Y137.308 E80.36346
G1 X98.703 Y139.944 E80.70110
G1 X97.736 Y139.897 E80.81728
G1 X91.404 Y139.384 E81.57961
G1 X90.593 Y139.305 E81.67739
G1 X84.285 Y138.592 E82.43917
G1 X77.593 Y137.620 E83.25063
G1 X71.989 Y136.625 E83.93363
G1 X77.657 Y136.793 E84.61409
G1 X77.847 Y134.943 E84.83726
G1 X76.135 Y134.640 E85.04589
G1 X71.449 Y133.806 E85.61705
G1 X64.920 Y132.430 E86.41774
G1 X58.429 Y130.844 E87.21957
G1 X57.912 Y130.701 E87.28394
G1 X52.019 Y129.063 E88.01791
G1 X51.486 Y128.897 E88.08490
G1 X45.642 Y127.069 E88.81969
G1 X45.161 Y126.903 E88.88075
G1 X40.749 Y125.368 E89.44132
G1 X49.691 Y100.913 E92.56594
G1 X50.600 Y101.229 E92.68143
G1 X51.769 Y101.638 E92.83004
G1 X53.623 Y96.564 E93.47830
G1 X51.545 Y95.841 E93.74232
G1 X56.545 Y82.167 E95.48946
G0 F12000 X75.208 Y87.186
G0 X90.567 Y89.917
G0 X165.010 Y104.349
G1 F1200 X164.982 Y104.977 E95.56489
G1 X165.173 Y105.683 E95.65266
G1 X165.536 Y106.682 E95.78021
G1 X165.820 Y107.283 E95.85997
G1 X166.239 Y107.742 E95.93455
G1 X166.748 Y108.068 E96.00708
G1 X167.322 Y108.249 E96.07931
G1 X167.924 Y108.277 E96.15163
G1 X168.514 Y108.147 E96.22412
G1 X169.048 Y107.868 E96.29642
G1 X169.492 Y107.463 E96.36854
G1 X169.818 Y106.954 E96.44107
G1 X169.999 Y106.380 E96.51330
G1 X170.026 Y105.778 E96.58561
G1 X169.911 Y105.255 E96.64987
G1 X169.475 Y104.049 E96.80375
G1 X169.422 Y103.904 E96.82228
G1 X169.175 Y103.432 E96.88621
G1 X168.769 Y102.987 E96.95849
G1 X168.261 Y102.664 E97.03073
G1 X167.688 Y102.481 E97.10291
G1 X167.085 Y102.454 E97.17535
G1 X166.497 Y102.584 E97.24761
G1 X165.961 Y102.861 E97.32001
G1 X165.517 Y103.268 E97.39229
G1 X165.193 Y103.774 E97.46439
G1 X165.010 Y104.349 E97.53680
G0 F12000 X165.407 Y104.420
G1 F1200 X165.384 Y104.933 E97.59842
G1 X165.554 Y105.562 E97.67661
G1 X165.906 Y106.528 E97.79999
G1 X166.156 Y107.058 E97.87031
G1 X166.499 Y107.434 E97.93138
G1 X166.919 Y107.702 E97.99117
G1 X167.393 Y107.852 E98.05083
G1 X167.889 Y107.875 E98.11041
G1 X168.376 Y107.768 E98.17024
G1 X168.817 Y107.538 E98.22993
G1 X169.184 Y107.203 E98.28956
G1 X169.452 Y106.783 E98.34934
G1 X169.602 Y106.309 E98.40900
G1 X169.624 Y105.813 E98.46858
G1 X169.526 Y105.367 E98.52338
G1 X169.100 Y104.186 E98.67404
G1 X169.055 Y104.067 E98.68931
G1 X168.845 Y103.663 E98.74394
G1 X168.509 Y103.296 E98.80365
G1 X168.090 Y103.029 E98.86327
G1 X167.617 Y102.878 E98.92286
G1 X167.120 Y102.856 E98.98255
G1 X166.634 Y102.963 E99.04227
G1 X166.192 Y103.192 E99.10201
G1 X165.826 Y103.528 E99.16163
G1 X165.558 Y103.946 E99.22121
G1 X165.407 Y104.420 E99.28091
G0 F12000 X166.194 Y103.193
G0 X173.154 Y99.126
G1 F1200 X182.768 Y125.659 E102.66744
G1 X177.016 Y127.640 E103.39747
G1 X170.634 Y129.614 E104.19910
G1 X164.168 Y131.391 E105.00379
G1 X157.669 Y132.959 E105.80605
G1 X151.139 Y134.314 E106.60634
G1 X145.089 Y135.372 E107.34336
G1 X145.199 Y136.481 E107.47709
G1 X155.170 Y136.214 E108.67404
G1 X151.955 Y136.882 E109.06808
G1 X145.383 Y138.041 E109.86889
G1 X138.667 Y139.009 E110.68314
G1 X131.936 Y139.763 E111.49591
G1 X131.116 Y139.840 E111.59474
G1 X124.771 Y140.336 E112.35847
G1 X123.509 Y140.395 E112.51007
G1 X122.534 Y137.757 E112.84756
G1 X118.711 Y137.933 E113.30681
G1 X119.778 Y141.500 E113.75359
G1 X119.579 Y141.500 E113.77747
G1 X118.346 Y140.148 E113.99704
G1 X118.067 Y139.216 E114.11379
G1 X104.422 Y139.195 E115.75119
G1 X104.141 Y140.125 E115.86777
G1 X102.902 Y141.475 E116.08766
G1 X102.703 Y141.474 E116.11154
G1 X103.781 Y137.911 E116.55824
G1 X99.959 Y137.723 E117.01743
G1 X98.975 Y140.359 E117.35508
G1 X97.715 Y140.297 E117.50646
G1 X91.371 Y139.783 E118.27023
G1 X90.539 Y139.702 E118.37055
G1 X84.239 Y138.990 E119.13136
G1 X77.531 Y138.016 E119.94476
G1 X71.269 Y136.903 E120.70798
G1 X70.559 Y136.767 E120.79473
G1 X67.332 Y136.086 E121.19049
G1 X77.297 Y136.382 E122.38682
G1 X77.411 Y135.272 E122.52072
G1 X71.363 Y134.197 E123.25786
G1 X64.833 Y132.820 E124.05869
G1 X58.325 Y131.231 E124.86259
G1 X51.900 Y129.445 E125.66283
G1 X45.507 Y127.446 E126.46661
G1 X40.234 Y125.613 E127.13652
G1 X49.451 Y100.406 E130.35723
G1 X50.734 Y100.852 E130.52022
G1 X51.528 Y101.130 E130.62118
G1 X53.108 Y96.809 E131.17327
G1 X51.030 Y96.086 E131.43729
G1 X56.305 Y81.660 E133.28052
G1 X60.179 Y83.007 E133.77270
G1 X65.143 Y84.559 E134.39681
G1 X70.154 Y85.952 E135.02093
G1 X75.208 Y87.186 E135.64523
G1 X80.298 Y88.259 E136.26945
G1 X85.419 Y89.169 E136.89360
G1 X90.566 Y89.917 E137.51773
G1 X95.734 Y90.501 E138.14184
G1 X100.919 Y90.921 E138.76607
G1 X106.114 Y91.177 E139.39023
G1 X111.315 Y91.266 E140.01444
G1 X116.515 Y91.192 E140.63850
G1 X121.711 Y90.952 E141.26269
G1 X126.897 Y90.547 E141.88690
G1 X132.067 Y89.978 E142.51105
G1 X137.217 Y89.246 E143.13526
G1 X142.341 Y88.349 E143.75949
G1 X147.433 Y87.292 E144.38356
G1 X152.490 Y86.073 E145.00778
G1 X157.505 Y84.694 E145.63192
G1 X162.474 Y83.157 E146.25607
G1 X166.825 Y81.658 E146.80831
G1 X172.277 Y96.704 E148.72871
G1 X172.539 Y97.435 E148.82189
G1 X174.410 Y96.723 E149.06212
G1 X175.023 Y98.415 E149.27807
G1 X173.154 Y99.126 E149.51803
G0 F12000 X173.664 Y99.360
;TYPE:WALL-OUTER
G1 F1200 X183.282 Y125.904 E152.90597
G1 X177.140 Y128.020 E153.68552
G1 X170.740 Y130.000 E154.48943
G1 X164.274 Y131.777 E155.29412
G1 X157.767 Y133.347 E156.09737
G1 X151.201 Y134.709 E156.90206
G1 X145.524 Y135.702 E157.59365
G1 X145.560 Y136.072 E157.63826
G1 X156.225 Y135.786 E158.91852
G1 X156.476 Y136.350 E158.99259
G1 X152.016 Y137.277 E159.53923
G1 X145.445 Y138.436 E160.33992
G1 X138.731 Y139.404 E161.15394
G1 X131.983 Y140.160 E161.96876
G1 X131.144 Y140.239 E162.06989
G1 X124.805 Y140.734 E162.83288
G1 X123.235 Y140.807 E163.02149
G1 X122.260 Y138.170 E163.35886
G1 X119.241 Y138.309 E163.72153
G1 X120.315 Y141.901 E164.17142
G1 X119.403 Y141.899 E164.28086
G1 X117.989 Y140.349 E164.53263
G1 X117.769 Y139.615 E164.62458
G1 X104.719 Y139.596 E166.19058
G1 X104.497 Y140.330 E166.28260
G1 X103.078 Y141.875 E166.53433
G1 X102.164 Y141.873 E166.64402
G1 X103.250 Y138.286 E167.09375
G1 X100.232 Y138.137 E167.45635
G1 X99.248 Y140.772 E167.79388
G1 X97.679 Y140.695 E167.98239
G1 X91.342 Y140.182 E168.74531
G1 X90.503 Y140.100 E168.84647
G1 X84.175 Y139.385 E169.61067
G1 X77.462 Y138.410 E170.42468
G1 X71.199 Y137.297 E171.18801
G1 X70.476 Y137.159 E171.27634
G1 X66.021 Y136.217 E171.82276
G1 X66.273 Y135.654 E171.89678
G1 X76.937 Y135.971 E173.17702
G1 X76.975 Y135.601 E173.22166
G1 X71.301 Y134.592 E173.91322
G1 X64.738 Y133.209 E174.71808
G1 X58.236 Y131.621 E175.52125
G1 X51.775 Y129.825 E176.32597
G1 X45.381 Y127.826 E177.12987
G1 X39.719 Y125.857 E177.84922
G1 X49.210 Y99.899 E181.16586
G1 X51.288 Y100.622 E181.42989
G1 X52.593 Y97.053 E181.88590
G1 X50.515 Y96.330 E182.14992
G1 X56.064 Y81.153 E184.08907
G1 X60.304 Y82.627 E184.62774
G1 X65.256 Y84.175 E185.25034
G1 X70.255 Y85.565 E185.87298
G1 X75.297 Y86.796 E186.49579
G1 X80.374 Y87.866 E187.11841
G1 X85.482 Y88.774 E187.74098
G1 X90.617 Y89.520 E188.36365
G1 X95.773 Y90.103 E188.98631
G1 X100.945 Y90.522 E189.60899
G1 X106.127 Y90.777 E190.23158
G1 X111.316 Y90.866 E190.85435
G1 X116.503 Y90.792 E191.47685
G1 X121.686 Y90.553 E192.09947
G1 X126.860 Y90.149 E192.72224
G1 X132.017 Y89.581 E193.34483
G1 X137.154 Y88.851 E193.96746
G1 X142.266 Y87.956 E194.59023
G1 X147.346 Y86.901 E195.21284
G1 X152.390 Y85.686 E195.83543
G1 X157.393 Y84.310 E196.45808
G1 X162.350 Y82.777 E197.08072
G1 X167.067 Y81.152 E197.67941
G1 X172.778 Y96.916 E199.69140
G1 X174.647 Y96.205 E199.93136
G1 X175.533 Y98.649 E200.24332
G1 X173.664 Y99.360 E200.48328
G0 F12000 X173.558 Y99.080
G0 X168.736 Y103.693
G0 X168.514 Y103.894
G1 F1200 X168.250 Y103.605 E200.53025
G1 X167.919 Y103.394 E200.57735
G1 X167.546 Y103.275 E200.62434
G1 X167.155 Y103.258 E200.67130
G1 X166.771 Y103.342 E200.71847
G1 X166.423 Y103.523 E200.76554
G1 X166.135 Y103.787 E200.81242
G1 X165.923 Y104.117 E200.85949
G1 X165.804 Y104.491 E200.90659
G1 X165.787 Y104.888 E200.95427
G1 X165.936 Y105.441 E201.02300
G1 X166.275 Y106.374 E201.14212
G1 X166.492 Y106.833 E201.20305
G1 X166.759 Y107.125 E201.25053
G1 X167.090 Y107.337 E201.29769
G1 X167.464 Y107.455 E201.34475
G1 X167.855 Y107.473 E201.39172
G1 X168.238 Y107.389 E201.43878
G1 X168.586 Y107.207 E201.48590
G1 X168.875 Y106.943 E201.53287
G1 X169.087 Y106.612 E201.58004
G1 X169.205 Y106.239 E201.62699
G1 X169.222 Y105.848 E201.67395
G1 X169.141 Y105.478 E201.71941
G1 X168.724 Y104.323 E201.86676
G1 X168.689 Y104.230 E201.87869
G1 X168.514 Y103.894 E201.92415
G0 F12000 X169.330 Y103.427
;TYPE:SKIN
G1 F1200 X176.869 Y110.966 E203.20356
G0 F12000 X177.190 Y111.853
G1 F1200 X169.757 Y104.420 E204.46498
G0 F12000 X170.061 Y105.290
G1 F1200 X177.512 Y112.741 E205.72946
G0 F12000 X177.833 Y113.628
G1 F1200 X170.157 Y105.952 E207.03212
G0 F12000 X170.115 Y106.475
G1 F1200 X178.154 Y114.515 E208.39647
G0 F12000 X178.476 Y115.402
G1 F1200 X169.979 Y106.905 E209.83845
G0 F12000 X169.779 Y107.270
G1 F1200 X178.797 Y116.289 E211.36894
G0 F12000 X179.119 Y117.176
G1 F1200 X169.545 Y107.603 E212.99362
G0 F12000 X169.250 Y107.874
G1 F1200 X179.441 Y118.064 E214.72301
G0 F12000 X179.762 Y118.950
G1 F1200 X168.910 Y108.098 E216.56465
G0 F12000 X168.531 Y108.286
G1 F1200 X180.083 Y119.838 E218.52509
G0 F12000 X180.404 Y120.725
G1 F1200 X168.068 Y108.388 E220.61866
G0 F12000 X167.512 Y108.398
G1 F1200 X180.726 Y121.612 E222.86115
G0 F12000 X181.047 Y122.499
G1 F1200 X166.771 Y108.223 E225.28387
G0 F12000 X165.514 Y106.966
G1 F1200 X146.570 Y88.022 E228.49878
G0 F12000 X146.102 Y88.119
G1 F1200 X181.369 Y123.386 E234.48378
G0 F12000 X181.691 Y124.274
G1 F1200 X145.633 Y88.216 E240.60303
G0 F12000 X145.165 Y88.314
G1 F1200 X182.012 Y125.160 E246.85609
G0 F12000 X181.729 Y125.444
G1 F1200 X144.696 Y88.410 E253.14088
G0 F12000 X144.228 Y88.508
G1 F1200 X181.309 Y125.589 E259.43374
G0 F12000 X180.888 Y125.734
G1 F1200 X143.759 Y88.605 E265.73474
G0 F12000 X143.291 Y88.703
G1 F1200 X180.467 Y125.879 E272.04371
G0 F12000 X180.047 Y126.024
G1 F1200 X142.822 Y88.799 E278.36100
G0 F12000 X142.352 Y88.895
G1 F1200 X179.626 Y126.169 E284.68661
G0 F12000 X179.205 Y126.314
G1 F1200 X141.871 Y88.979 E291.02249
G0 F12000 X141.389 Y89.063
G1 F1200 X178.784 Y126.458 E297.36863
G0 F12000 X178.364 Y126.603
G1 F1200 X140.907 Y89.147 E303.72521
G0 F12000 X140.427 Y89.232
G1 F1200 X177.943 Y126.748 E310.09188
G0 F12000 X177.522 Y126.893
G1 F1200 X139.945 Y89.316 E316.46891
G0 F12000 X139.464 Y89.400
G1 F1200 X177.101 Y127.038 E322.85621
G0 F12000 X176.676 Y127.179
G1 F1200 X138.982 Y89.485 E329.25309
G0 F12000 X138.501 Y89.569
G1 F1200 X176.244 Y127.313 E335.65838
G0 F12000 X175.812 Y127.446
G1 F1200 X138.020 Y89.654 E342.07189
G0 F12000 X137.538 Y89.738
G1 F1200 X175.380 Y127.580 E348.49389
G0 F12000 X174.948 Y127.714
G1 F1200 X137.050 Y89.815 E354.92548
G0 F12000 X136.555 Y89.885
G1 F1200 X174.516 Y127.847 E361.36776
G0 F12000 X174.084 Y127.980
G1 F1200 X136.060 Y89.956 E367.82065
G0 F12000 X135.564 Y90.026
G1 F1200 X173.651 Y128.114 E374.28431
G0 F12000 X173.219 Y128.247
G1 F1200 X135.069 Y90.097 E380.75858
G0 F12000 X134.573 Y90.167
G1 F1200 X172.787 Y128.381 E387.24371
G0 F12000 X172.355 Y128.515
G1 F1200 X134.078 Y90.238 E393.73953
G0 F12000 X133.583 Y90.308
G1 F1200 X171.923 Y128.648 E400.24605
G0 F12000 X171.491 Y128.782
G1 F1200 X133.088 Y90.378 E406.76334
