;FLAVOR:UltiGCode
;TIME:4073
;MATERIAL:6782
;MATERIAL2:0
;NOZZLE_DIAMETER:0.400000
;NOZZLE_DIAMETER2:0.400000
;MTYPE:PLA

;Layer count: 38
;LAYER:0
M107
G0 F12000 X42.467 Y92.318 Z0.300
G0 X44.560 Y93.042
;TYPE:SKIRT
G1 F1200 X45.322 Y90.977 E0.26413
G1 X51.188 Y93.007 E1.00901
G1 X56.734 Y94.738 E1.70619
G1 X62.497 Y96.344 E2.42411
G1 X68.234 Y97.747 E3.13283
G1 X71.802 Y98.507 E3.57060
G1 X71.802 Y98.508 E3.57072
G1 X74.268 Y99.023 E3.87302
G1 X79.933 Y100.027 E4.56342
G1 X85.829 Y100.887 E5.27842
G1 X91.770 Y101.561 E5.99592
G1 X96.941 Y101.984 E6.61851
G1 X98.003 Y102.068 E6.74635
G1 X100.973 Y102.212 E7.10317
G1 X106.212 Y102.384 E7.73218
G1 X106.748 Y102.398 E7.79653
G1 X109.951 Y102.449 E8.18094
G1 X113.152 Y102.399 E8.56510
G1 X118.588 Y102.223 E9.21776
G1 X119.128 Y102.203 E9.28261
G1 X121.838 Y102.073 E9.60818
G1 X127.792 Y101.599 E10.32492
G1 X133.709 Y100.940 E11.03935
G1 X139.589 Y100.095 E11.75220
G1 X145.084 Y99.126 E12.42178
G1 X147.738 Y98.583 E12.74685
G1 X151.058 Y97.888 E13.15389
G1 X156.715 Y96.523 E13.85221
G1 X162.454 Y94.948 E14.56636
G1 X163.156 Y94.742 E14.65415
G1 X168.507 Y93.078 E15.32660
G1 X173.774 Y91.255 E15.99543
G1 X175.816 Y90.488 E16.25718
G1 X175.816 Y90.487 E16.25730
G1 X178.974 Y89.273 E16.66330
G1 X181.850 Y97.173 E17.67216
G1 X179.982 Y97.887 E17.91214
G1 X184.366 Y109.932 E19.45030
G1 X186.247 Y109.247 E19.69052
G1 X187.978 Y114.009 E20.29855
G1 X187.979 Y114.009 E20.29867
G1 X189.114 Y117.124 E20.69651
G1 X184.233 Y118.921 E21.32066
G1 X181.379 Y119.948 E21.68464
G1 X177.336 Y121.309 E22.19655
G1 X173.013 Y122.670 E22.74041
G1 X172.441 Y122.842 E22.81209
G1 X168.358 Y124.028 E23.32230
G1 X164.238 Y125.132 E23.83414
G1 X159.839 Y126.219 E24.37790
G1 X159.259 Y126.355 E24.44939
G1 X155.108 Y127.283 E24.95980
G1 X150.940 Y128.123 E25.47002
G1 X150.358 Y128.234 E25.54112
G1 X146.172 Y128.988 E26.05152
G1 X141.678 Y129.700 E26.59753
G1 X137.452 Y130.279 E27.10939
G1 X132.942 Y130.806 E27.65427
G1 X131.516 Y130.947 E27.82622
G1 X129.505 Y131.137 E28.06862
G1 X128.417 Y131.240 E28.19976
G1 X127.658 Y131.302 E28.29115
G1 X125.779 Y131.439 E28.51722
G1 X125.052 Y131.493 E28.60470
G1 X123.589 Y131.601 E28.78074
G1 X123.265 Y131.618 E28.81968
G1 X123.617 Y132.771 E28.96434
G1 X116.617 Y132.771 E29.80434
G1 X115.193 Y131.217 E30.05727
G1 X114.528 Y130.490 E30.17550
G1 X105.372 Y130.490 E31.27422
G1 X104.611 Y131.321 E31.40944
G1 X103.285 Y132.771 E31.64523
G1 X96.294 Y132.771 E32.48415
G1 X96.642 Y131.619 E32.62856
G1 X96.590 Y131.616 E32.63481
G1 X94.856 Y131.494 E32.84340
G1 X92.534 Y131.324 E33.12279
G1 X91.776 Y131.268 E33.21400
G1 X91.025 Y131.198 E33.30451
G1 X88.670 Y130.975 E33.58837
G1 X87.528 Y130.867 E33.72602
G1 X83.011 Y130.350 E34.27160
G1 X78.520 Y129.741 E34.81545
G1 X77.931 Y129.655 E34.88688
G1 X73.728 Y128.988 E35.39755
G1 X69.251 Y128.182 E35.94343
G1 X64.792 Y127.283 E36.48928
G1 X60.352 Y126.291 E37.03521
G1 X55.935 Y125.206 E37.58101
G1 X51.542 Y124.028 E38.12679
G1 X47.173 Y122.760 E38.67271
G1 X42.832 Y121.400 E39.21860
G1 X38.523 Y119.949 E39.76420
G1 X35.194 Y118.758 E40.18848
G1 X35.950 Y116.683 E40.45349
G1 X33.883 Y115.936 E40.71723
G1 X35.226 Y112.239 E41.18924
G1 X36.352 Y109.147 E41.58412
G1 X41.168 Y95.913 E43.27408
G1 X41.344 Y95.432 E43.33555
G1 X42.467 Y92.318 E43.73278
G1 X44.560 Y93.042 E43.99854
G10
G1 Z0.400
G0 F12000 X47.841 Y96.293
;TYPE:WALL-INNER
G1 Z0.300
G11
G1 F1200 X49.896 Y97.004 E44.25949
G1 X55.545 Y98.767 E44.96961
G1 X61.408 Y100.401 E45.69999
G1 X67.320 Y101.847 E46.43034
G1 X70.929 Y102.615 E46.87312
G1 X73.492 Y103.151 E47.18733
G1 X79.269 Y104.175 E47.89138
G1 X85.290 Y105.053 E48.62154
G1 X91.338 Y105.739 E49.35195
G1 X96.610 Y106.171 E49.98671
G1 X97.733 Y106.259 E50.12188
G1 X100.800 Y106.408 E50.49036
G1 X106.098 Y106.583 E51.12646
G1 X106.676 Y106.598 E51.19585
G1 X109.950 Y106.650 E51.58878
G1 X113.226 Y106.599 E51.98195
G1 X118.741 Y106.420 E52.64409
G1 X119.289 Y106.400 E52.70990
G1 X122.116 Y106.264 E53.04953
G1 X128.183 Y105.782 E53.77986
G1 X134.233 Y105.107 E54.51037
G1 X140.257 Y104.242 E55.24066
G1 X145.876 Y103.250 E55.92537
G1 X148.597 Y102.694 E56.25864
G1 X151.994 Y101.983 E56.67511
G1 X157.756 Y100.592 E57.38641
G1 X163.618 Y98.984 E58.11584
G1 X164.360 Y98.766 E58.20864
G1 X169.804 Y97.073 E58.89278
G1 X175.196 Y95.208 E59.57743
G1 X176.488 Y94.722 E59.74308
G1 X174.622 Y95.439 E59.98296
G1 X181.855 Y115.313 E62.52087
G1 X179.999 Y115.981 E62.75758
G1 X176.027 Y117.318 E63.26050
G1 X171.770 Y118.658 E63.79605
G1 X171.254 Y118.814 E63.86074
G1 X167.239 Y119.980 E64.36244
G1 X163.200 Y121.062 E64.86421
G1 X158.860 Y122.134 E65.40067
G1 X158.315 Y122.262 E65.46785
G1 X154.224 Y123.177 E65.97089
G1 X150.136 Y124.001 E66.47132
G1 X149.588 Y124.106 E66.53828
G1 X145.482 Y124.845 E67.03891
G1 X141.067 Y125.544 E67.57531
G1 X136.913 Y126.113 E68.07845
G1 X132.499 Y126.629 E68.61173
G1 X131.114 Y126.766 E68.77875
G1 X128.042 Y127.056 E69.14902
G1 X127.330 Y127.114 E69.23475
G1 X125.467 Y127.251 E69.45891
G1 X123.334 Y127.408 E69.71556
G1 X122.577 Y127.448 E69.80653
G1 X119.234 Y127.622 E70.20823
G1 X117.689 Y127.707 E70.39391
G1 X117.696 Y127.731 E70.39691
G1 X117.409 Y127.417 E70.44796
G1 X117.070 Y126.290 E70.58919
G1 X102.832 Y126.290 E72.29775
G1 X102.491 Y127.418 E72.43916
G1 X102.202 Y127.734 E72.49054
G1 X102.211 Y127.704 E72.49430
G1 X96.854 Y127.424 E73.13802
G1 X95.155 Y127.304 E73.34241
G1 X92.843 Y127.136 E73.62058
G1 X92.136 Y127.083 E73.70566
G1 X91.419 Y127.016 E73.79207
G1 X87.969 Y126.689 E74.20793
G1 X83.522 Y126.181 E74.74504
G1 X79.102 Y125.581 E75.28030
G1 X78.570 Y125.504 E75.34481
G1 X74.419 Y124.845 E75.84917
G1 X70.039 Y124.057 E76.38320
G1 X65.676 Y123.177 E76.91731
G1 X61.308 Y122.201 E77.45439
G1 X56.986 Y121.139 E77.98846
G1 X52.661 Y119.980 E78.52577
G1 X48.389 Y118.739 E79.05961
G1 X44.140 Y117.408 E79.59392
G1 X40.591 Y116.213 E80.04329
G1 X41.338 Y114.160 E80.30545
G1 X39.268 Y113.415 E80.56945
G1 X45.009 Y97.641 E82.58380
G1 X47.088 Y98.360 E82.84778
G1 X47.841 Y96.293 E83.11176
G0 F12000 X46.847 Y97.853
G1 F1200 X47.599 Y95.786 E83.37571
G1 X50.021 Y96.624 E83.68326
G1 X55.658 Y98.384 E84.39190
G1 X61.509 Y100.014 E85.12076
G1 X67.409 Y101.457 E85.84962
G1 X71.011 Y102.224 E86.29155
G1 X73.568 Y102.758 E86.60501
G1 X79.332 Y103.780 E87.30748
G1 X85.342 Y104.656 E88.03630
G1 X91.377 Y105.341 E88.76515
G1 X96.642 Y105.772 E89.39907
G1 X97.758 Y105.860 E89.53340
G1 X100.817 Y106.009 E89.90092
G1 X106.110 Y106.183 E90.53642
G1 X106.684 Y106.198 E90.60532
G1 X109.950 Y106.250 E90.99729
G1 X113.216 Y106.199 E91.38926
G1 X118.727 Y106.021 E92.05093
G1 X119.272 Y106.000 E92.11638
G1 X122.090 Y105.865 E92.45492
G1 X128.145 Y105.383 E93.18382
G1 X134.182 Y104.710 E93.91275
G1 X140.194 Y103.847 E94.64158
G1 X145.801 Y102.857 E95.32483
G1 X148.516 Y102.303 E95.65734
G1 X151.906 Y101.592 E96.07300
G1 X157.656 Y100.205 E96.78279
G1 X163.509 Y98.599 E97.51111
G1 X164.245 Y98.383 E97.60315
G1 X169.679 Y96.693 E98.28604
G1 X175.060 Y94.831 E98.96933
G1 X176.726 Y94.205 E99.18289
G1 X177.000 Y94.959 E99.27916
G1 X175.132 Y95.672 E99.51910
G1 X182.096 Y114.804 E101.96230
G1 X183.975 Y114.119 E102.20230
G1 X184.247 Y114.867 E102.29781
G1 X182.935 Y115.349 E102.46553
G1 X180.124 Y116.361 E102.82405
G1 X176.154 Y117.697 E103.32670
G1 X171.890 Y119.040 E103.86316
G1 X171.366 Y119.198 E103.92884
G1 X167.343 Y120.366 E104.43153
G1 X163.285 Y121.453 E104.93566
G1 X158.952 Y122.524 E105.47127
G1 X158.413 Y122.651 E105.53772
G1 X154.312 Y123.567 E106.04196
G1 X150.205 Y124.395 E106.54472
G1 X149.661 Y124.499 E106.61118
G1 X145.544 Y125.241 E107.11318
G1 X141.117 Y125.941 E107.65102
G1 X136.979 Y126.508 E108.15222
G1 X132.528 Y127.028 E108.68997
G1 X131.149 Y127.165 E108.85627
G1 X128.087 Y127.454 E109.22534
G1 X127.362 Y127.513 E109.31263
G1 X123.355 Y127.808 E109.79477
G1 X119.255 Y128.022 E110.28744
G1 X118.218 Y128.079 E110.41207
G1 X118.487 Y128.971 E110.52387
G1 X118.288 Y128.971 E110.54775
G1 X117.053 Y127.621 E110.76731
G1 X116.772 Y126.690 E110.88401
G1 X103.129 Y126.690 E112.52117
G1 X102.847 Y127.621 E112.63790
G1 X101.612 Y128.971 E112.85746
G1 X101.413 Y128.971 E112.88134
G1 X101.682 Y128.077 E112.99338
G1 X96.829 Y127.824 E113.57653
G1 X95.127 Y127.703 E113.78128
G1 X92.093 Y127.481 E114.14633
G1 X87.928 Y127.088 E114.64835
G1 X83.489 Y126.580 E115.18451
G1 X79.048 Y125.977 E115.72232
G1 X78.509 Y125.898 E115.78769
G1 X74.363 Y125.241 E116.29142
G1 X69.957 Y124.448 E116.82864
G1 X65.588 Y123.567 E117.36347
G1 X61.214 Y122.589 E117.90131
G1 X56.884 Y121.525 E118.43637
G1 X52.557 Y120.366 E118.97391
G1 X48.277 Y119.123 E119.50873
G1 X44.000 Y117.783 E120.04657
G1 X40.074 Y116.462 E120.54365
G1 X40.825 Y114.400 E120.80699
G1 X38.755 Y113.655 E121.07098
G1 X44.738 Y97.215 E123.17037
G1 X44.767 Y97.134 E123.18069
G1 X46.847 Y97.853 E123.44478
G0 F12000 X46.606 Y97.346
;TYPE:WALL-OUTER
G1 F1200 X47.359 Y95.279 E123.70877
G1 X50.146 Y96.244 E124.06269
G1 X55.771 Y98.000 E124.76982
G1 X61.610 Y99.627 E125.49719
G1 X67.498 Y101.067 E126.22457
G1 X73.644 Y102.365 E126.97836
G1 X79.396 Y103.385 E127.67937
G1 X85.393 Y104.259 E128.40661
G1 X91.416 Y104.943 E129.13402
G1 X97.783 Y105.461 E129.90058
G1 X100.833 Y105.609 E130.26701
G1 X106.122 Y105.783 E130.90204
G1 X106.693 Y105.798 E130.97058
G1 X109.950 Y105.850 E131.36147
G1 X113.207 Y105.799 E131.75236
G1 X119.254 Y105.601 E132.47839
G1 X122.065 Y105.466 E132.81609
G1 X128.107 Y104.985 E133.54343
G1 X134.131 Y104.313 E134.27079
G1 X140.131 Y103.452 E134.99817
G1 X145.726 Y102.464 E135.67996
G1 X151.817 Y101.202 E136.42640
G1 X157.556 Y99.818 E137.13482
G1 X163.400 Y98.214 E137.86204
G1 X164.129 Y98.000 E137.95321
G1 X169.554 Y96.313 E138.63496
G1 X174.924 Y94.455 E139.31684
G1 X176.964 Y93.688 E139.57837
G1 X177.511 Y95.191 E139.77030
G1 X175.643 Y95.905 E140.01028
G1 X182.335 Y114.291 E142.35820
G1 X184.214 Y113.606 E142.59820
G1 X184.759 Y115.104 E142.78948
G1 X183.069 Y115.726 E143.00558
G1 X180.263 Y116.736 E143.36345
G1 X176.281 Y118.076 E143.86762
G1 X172.010 Y119.421 E144.40495
G1 X171.477 Y119.582 E144.47177
G1 X167.442 Y120.754 E144.97598
G1 X163.392 Y121.839 E145.47912
G1 X159.043 Y122.913 E146.01668
G1 X158.498 Y123.041 E146.08386
G1 X154.403 Y123.957 E146.58740
G1 X150.284 Y124.787 E147.09161
G1 X149.739 Y124.891 E147.15819
G1 X145.607 Y125.635 E147.66201
G1 X141.180 Y126.336 E148.19987
G1 X137.026 Y126.905 E148.70300
G1 X132.575 Y127.425 E149.24075
G1 X128.116 Y127.853 E149.77829
G1 X127.395 Y127.912 E149.86510
G1 X123.376 Y128.208 E150.34869
G1 X118.748 Y128.450 E150.90481
G1 X119.026 Y129.371 E151.02025
G1 X118.112 Y129.371 E151.12993
G1 X116.696 Y127.824 E151.38160
G1 X116.474 Y127.090 E151.47362
G1 X103.426 Y127.090 E153.03938
G1 X103.204 Y127.824 E153.13140
G1 X101.788 Y129.371 E153.38306
G1 X100.874 Y129.371 E153.49274
G1 X101.152 Y128.450 E153.60819
G1 X96.801 Y128.222 E154.13102
G1 X92.057 Y127.879 E154.70179
G1 X87.883 Y127.485 E155.20490
G1 X83.431 Y126.976 E155.74262
G1 X78.996 Y126.374 E156.27970
G1 X78.444 Y126.293 E156.34665
G1 X74.293 Y125.635 E156.85099
G1 X69.886 Y124.842 E157.38832
G1 X65.497 Y123.957 E157.92560
G1 X61.127 Y122.980 E158.46295
G1 X56.779 Y121.912 E159.00022
G1 X52.458 Y120.754 E159.53703
G1 X48.158 Y119.505 E160.07436
G1 X43.885 Y118.166 E160.61171
G1 X39.637 Y116.736 E161.14957
G1 X39.559 Y116.709 E161.15948
G1 X40.312 Y114.641 E161.42358
G1 X38.241 Y113.896 E161.68769
G1 X44.527 Y96.627 E163.89299
G1 X46.606 Y97.346 E164.15697
G0 F12000 X47.519 Y97.582
;TYPE:SKIN
G1 F1200 X74.679 Y124.742 E168.76617
G0 F12000 X75.352 Y124.849
G1 F1200 X47.671 Y97.168 E173.46379
G0 F12000 X47.822 Y96.754
G1 F1200 X76.024 Y124.956 E178.24983
G0 F12000 X76.697 Y125.063
G1 F1200 X48.197 Y96.563 E183.08644
G0 F12000 X49.061 Y96.862
G1 F1200 X77.369 Y125.169 E187.89038
G0 F12000 X78.041 Y125.276
G1 F1200 X49.925 Y97.160 E192.66183
G0 F12000 X50.747 Y97.416
G1 F1200 X78.711 Y125.380 E197.40747
G0 F12000 X79.366 Y125.469
G1 F1200 X51.570 Y97.673 E202.12461
G0 F12000 X52.391 Y97.929
G1 F1200 X80.021 Y125.559 E206.81358
G0 F12000 X80.677 Y125.649
G1 F1200 X53.214 Y98.186 E211.47420
G0 F12000 X54.036 Y98.442
G1 F1200 X81.332 Y125.739 E216.10657
G0 F12000 X81.988 Y125.828
G1 F1200 X54.858 Y98.699 E220.71060
G0 F12000 X55.672 Y98.947
G1 F1200 X82.643 Y125.918 E225.28773
G0 F12000 X83.298 Y126.007
G1 F1200 X56.456 Y99.166 E229.84289
G0 F12000 X57.241 Y99.384
G1 F1200 X83.943 Y126.087 E234.37445
G0 F12000 X84.581 Y126.159
G1 F1200 X58.025 Y99.603 E238.88115
G0 F12000 X58.810 Y99.822
G1 F1200 X85.220 Y126.232 E243.36308
G0 F12000 X85.859 Y126.305
G1 F1200 X59.594 Y100.040 E247.82040
G0 F12000 X44.293 Y100.013
G1 F1200 X67.726 Y123.446 E251.79711
G0 F12000 X67.018 Y123.303
G1 F1200 X44.143 Y100.428 E255.67913
G0 F12000 X43.991 Y100.843
G1 F1200 X66.309 Y123.161 E259.46662
G0 F12000 X65.598 Y123.015
G1 F1200 X43.841 Y101.258 E263.15890
G0 F12000 X43.690 Y101.672
G1 F1200 X64.869 Y122.852 E266.75318
G0 F12000 X64.140 Y122.689
G1 F1200 X43.539 Y102.087 E270.24937
G0 F12000 X43.388 Y102.502
G1 F1200 X63.412 Y122.526 E273.64756
G0 F12000 X62.683 Y122.363
G1 F1200 X43.237 Y102.917 E276.94765
G0 F12000 X43.086 Y103.331
G1 F1200 X61.955 Y122.200 E280.14983
G0 F12000 X61.223 Y122.034
G1 F1200 X42.935 Y103.746 E283.25341
G0 F12000 X42.784 Y104.161
G1 F1200 X60.473 Y121.850 E286.25533
G0 F12000 X68.435 Y123.589
G1 F1200 X44.445 Y99.599 E290.32657
G0 F12000 X44.595 Y99.184
G1 F1200 X69.143 Y123.732 E294.49250
G0 F12000 X69.851 Y123.874
G1 F1200 X44.747 Y98.770 E298.75279
G0 F12000 X44.897 Y98.355
G1 F1200 X70.547 Y124.004 E303.10565
G0 F12000 X71.236 Y124.128
G1 F1200 X45.049 Y97.940 E307.54982
G0 F12000 X45.701 Y98.027
G1 F1200 X71.926 Y124.252 E312.00035
G0 F12000 X72.617 Y124.377
G1 F1200 X46.566 Y98.326 E316.42135
G0 F12000 X47.217 Y98.412
G1 F1200 X73.306 Y124.500 E320.84872
G0 F12000 X73.996 Y124.625
G1 F1200 X47.369 Y97.997 E325.36755
G0 F12000 X42.633 Y104.576
G1 F1200 X59.723 Y121.666 E328.26782
G0 F12000 X58.974 Y121.482
G1 F1200 X42.482 Y104.990 E331.06661
G0 F12000 X42.331 Y105.405
G1 F1200 X58.223 Y121.297 E333.76357
G0 F12000 X57.474 Y121.113
G1 F1200 X42.180 Y105.819 E336.35905
G0 F12000 X42.029 Y106.235
G1 F1200 X56.715 Y120.920 E338.85126
G0 F12000 X55.942 Y120.713
G1 F1200 X41.878 Y106.649 E341.23800
G0 F12000 X41.727 Y107.064
G1 F1200 X55.169 Y120.506 E343.51918
G0 F12000 X54.397 Y120.299
G1 F1200 X41.576 Y107.478 E345.69498
G0 F12000 X41.425 Y107.893
G1 F1200 X53.624 Y120.092 E347.76522
G0 F12000 X52.851 Y119.885
G1 F1200 X41.274 Y108.308 E349.72990
G0 F12000 X41.123 Y108.723
G1 F1200 X52.058 Y119.658 E351.58563
G0 F12000 X51.260 Y119.426
G1 F1200 X40.972 Y109.137 E353.33165
G0 F12000 X40.821 Y109.552
G1 F1200 X50.463 Y119.194 E354.96795
G0 F12000 X49.665 Y118.962
G1 F1200 X40.670 Y109.967 E356.49445
G0 F12000 X40.520 Y110.382
G1 F1200 X48.868 Y118.730 E357.91115
G0 F12000 X48.059 Y118.487
G1 F1200 X40.368 Y110.796 E359.21636
G0 F12000 X40.218 Y111.211
G1 F1200 X47.235 Y118.228 E360.40718
G0 F12000 X46.412 Y117.971
G1 F1200 X40.066 Y111.625 E361.48414
G0 F12000 X39.916 Y112.041
G1 F1200 X45.588 Y117.713 E362.44671
G0 F12000 X44.764 Y117.455
G1 F1200 X41.481 Y114.172 E363.00385
G0 F12000 X41.309 Y114.000
G1 F1200 X39.764 Y112.455 E363.26604
G0 F12000 X39.614 Y112.870
G1 F1200 X40.426 Y113.682 E363.40385
G0 F12000 X41.331 Y114.587
G1 F1200 X43.933 Y117.189 E363.84542
G0 F12000 X43.079 Y116.901
G1 F1200 X41.179 Y115.001 E364.16786
G0 F12000 X41.029 Y115.416
G1 F1200 X42.226 Y116.613 E364.37100
G0 F12000 X41.372 Y116.326
G1 F1200 X40.877 Y115.831 E364.45500
G0 F12000 X40.749 Y114.437
G0 X39.542 Y113.364
G1 F1200 X39.462 Y113.284 E364.46858
G0 F12000 X60.379 Y100.259
G1 F1200 X86.497 Y126.378 E368.90104
G0 F12000 X87.136 Y126.451
G1 F1200 X61.163 Y100.478 E373.30880
G0 F12000 X61.921 Y100.670
G1 F1200 X87.774 Y126.524 E377.69628
G0 F12000 X88.404 Y126.588
G1 F1200 X62.670 Y100.853 E382.06357
G0 F12000 X63.418 Y101.036
G1 F1200 X89.028 Y126.647 E386.40982
G0 F12000 X89.654 Y126.706
