;FLAVOR:UltiGCode
;TIME:9926
;MATERIAL:15118
;MATERIAL2:0
;NOZZLE_DIAMETER:0.400000
;NOZZLE_DIAMETER2:0.400000
;MTYPE:PLA

;Layer count: 38
;LAYER:0
M107
G0 F12000 X54.020 Y76.842 Z0.300
;TYPE:SKIRT
G1 F1200 X60.312 Y79.030 E0.79939
G1 X61.380 Y79.401 E0.93506
G1 X65.031 Y80.542 E1.39408
G1 X66.218 Y80.913 E1.54331
G1 X71.102 Y82.271 E2.15163
G1 X74.842 Y83.184 E2.61361
G1 X76.045 Y83.479 E2.76224
G1 X79.805 Y84.271 E3.22334
G1 X81.018 Y84.527 E3.37211
G1 X86.033 Y85.419 E3.98336
G1 X89.820 Y85.968 E4.44255
G1 X91.063 Y86.149 E4.59328
G1 X94.864 Y86.578 E5.05230
G1 X96.098 Y86.718 E5.20133
G1 X99.924 Y87.027 E5.66194
G1 X101.157 Y87.128 E5.81040
G1 X106.221 Y87.378 E6.41882
G1 X110.076 Y87.443 E6.88148
G1 X111.298 Y87.466 E7.02815
G1 X115.154 Y87.411 E7.49092
G1 X116.399 Y87.393 E7.64033
G1 X121.497 Y87.157 E8.25275
G1 X126.526 Y86.765 E8.85806
G1 X131.604 Y86.206 E9.47110
G1 X135.388 Y85.668 E9.92974
G1 X136.630 Y85.491 E10.08029
G1 X140.398 Y84.832 E10.53931
G1 X141.633 Y84.615 E10.68978
G1 X145.381 Y83.837 E11.14913
G1 X146.608 Y83.582 E11.29952
G1 X150.329 Y82.685 E11.75883
G1 X151.539 Y82.393 E11.90820
G1 X156.460 Y81.040 E12.52063
G1 X161.275 Y79.551 E13.12543
G1 X169.124 Y76.848 E14.12159
G1 X174.798 Y92.510 E16.12057
G1 X176.667 Y91.799 E16.36053
G1 X179.870 Y100.637 E17.48859
G1 X178.001 Y101.348 E17.72855
G1 X184.375 Y118.941 E19.97400
G1 X184.802 Y120.118 E20.12424
G1 X186.445 Y124.653 E20.70306
G1 X187.652 Y127.994 E21.12934
G1 X178.194 Y131.253 E22.32979
G1 X171.691 Y133.265 E23.14664
G1 X165.127 Y135.069 E23.96353
G1 X160.160 Y136.267 E24.57666
G1 X161.295 Y138.822 E24.91215
G1 X152.347 Y140.681 E26.00884
G1 X145.558 Y141.868 E26.83588
G1 X138.734 Y142.838 E27.66299
G1 X131.884 Y143.592 E28.48996
G1 X125.013 Y144.128 E29.31698
G1 X124.537 Y144.150 E29.37416
G1 X124.883 Y145.308 E29.51919
G1 X117.900 Y145.297 E30.35715
G1 X115.816 Y143.012 E30.72827
G1 X106.661 Y142.999 E31.82687
G1 X104.569 Y145.277 E32.19801
G1 X97.586 Y145.266 E33.03597
G1 X97.935 Y144.112 E33.18065
G1 X97.461 Y144.089 E33.23759
G1 X90.592 Y143.531 E34.06459
G1 X83.743 Y142.758 E34.89169
G1 X76.923 Y141.767 E35.71868
G1 X70.136 Y140.561 E36.54588
G1 X61.194 Y138.674 E37.64255
G1 X62.337 Y136.123 E37.97799
G1 X57.376 Y134.911 E38.59082
G1 X56.789 Y134.748 E38.66393
G1 X50.817 Y133.088 E39.40774
G1 X50.236 Y132.907 E39.48076
G1 X44.321 Y131.057 E40.22447
G1 X43.785 Y130.871 E40.29255
G1 X35.340 Y127.934 E41.36549
G1 X37.270 Y122.650 E42.04054
G1 X47.166 Y95.588 E45.49830
G1 X54.020 Y76.842 E47.89346
G10
G1 Z0.400
G0 F12000 X56.545 Y82.167
;TYPE:WALL-INNER
G1 Z0.300
G11
G1 F1200 X60.054 Y83.387 E48.33927
G1 X65.030 Y84.942 E48.96486
G1 X70.053 Y86.339 E49.59050
G1 X75.119 Y87.576 E50.21628
G1 X80.221 Y88.652 E50.84199
G1 X85.355 Y89.564 E51.46771
G1 X90.515 Y90.314 E52.09342
G1 X95.696 Y90.899 E52.71909
G1 X100.893 Y91.320 E53.34477
G1 X106.101 Y91.577 E53.97049
G1 X111.315 Y91.666 E54.59627
G1 X116.527 Y91.592 E55.22177
G1 X121.736 Y91.351 E55.84752
G1 X126.935 Y90.946 E56.47329
G1 X132.117 Y90.375 E57.09889
G1 X137.279 Y89.641 E57.72456
G1 X142.416 Y88.742 E58.35037
G1 X147.521 Y87.682 E58.97604
G1 X152.590 Y86.460 E59.60174
G1 X157.617 Y85.078 E60.22736
G1 X162.599 Y83.538 E60.85311
G1 X166.583 Y82.165 E61.35879
G1 X171.900 Y96.839 E63.23170
G1 X172.300 Y97.954 E63.37385
G1 X174.172 Y97.242 E63.61419
G1 X174.512 Y98.181 E63.73403
G1 X172.644 Y98.892 E63.97388
G1 X180.427 Y120.374 E66.71569
G1 X182.253 Y125.413 E67.35885
G1 X176.893 Y127.259 E68.03912
G1 X170.511 Y129.234 E68.84080
G1 X164.085 Y131.000 E69.64051
G1 X157.579 Y132.569 E70.44361
G1 X157.058 Y132.676 E70.50743
G1 X151.057 Y133.922 E71.24291
G1 X144.653 Y135.042 E72.02306
G1 X144.839 Y136.892 E72.24618
G1 X150.505 Y136.740 E72.92634
G1 X144.903 Y137.719 E73.60877
G1 X138.208 Y138.671 E74.42025
G1 X131.493 Y139.410 E75.23091
G1 X124.754 Y139.936 E76.04205
G1 X123.782 Y139.981 E76.15882
G1 X122.808 Y137.344 E76.49615
G1 X118.181 Y137.557 E77.05198
G1 X118.989 Y140.259 E77.39041
G1 X118.703 Y139.945 E77.44138
G1 X118.365 Y138.816 E77.58280
G1 X104.125 Y138.795 E79.29160
G1 X103.784 Y139.924 E79.43312
G1 X103.495 Y140.239 E79.48442
G1 X104.312 Y137.537 E79.82316
G1 X99.687 Y137.309 E80.37884
G1 X98.703 Y139.944 E80.71636
G1 X97.737 Y139.897 E80.83242
G1 X90.998 Y139.350 E81.64376
G1 X84.285 Y138.592 E82.45444
G1 X77.593 Y137.620 E83.26591
G1 X71.994 Y136.625 E83.94831
G1 X77.657 Y136.793 E84.62817
G1 X77.847 Y134.943 E84.85134
G1 X76.135 Y134.640 E85.05997
G1 X71.449 Y133.806 E85.63113
G1 X64.920 Y132.430 E86.43182
G1 X58.429 Y130.844 E87.23365
G1 X57.912 Y130.701 E87.29802
G1 X52.019 Y129.063 E88.03199
G1 X51.486 Y128.897 E88.09898
G1 X45.642 Y127.069 E88.83377
G1 X45.161 Y126.903 E88.89483
G1 X40.749 Y125.368 E89.45540
G1 X49.691 Y100.913 E92.58003
G1 X50.600 Y101.229 E92.69551
G1 X51.769 Y101.638 E92.84413
G1 X53.623 Y96.564 E93.49238
G1 X51.545 Y95.841 E93.75640
G1 X56.545 Y82.167 E95.50354
G0 F12000 X56.305 Y81.660
G1 F1200 X60.179 Y83.007 E95.99572
G1 X65.143 Y84.559 E96.61983
G1 X70.154 Y85.952 E97.24396
G1 X75.208 Y87.186 E97.86825
G1 X80.298 Y88.259 E98.49248
G1 X85.418 Y89.169 E99.11651
G1 X90.566 Y89.917 E99.74075
G1 X95.734 Y90.501 E100.36486
G1 X100.919 Y90.921 E100.98910
G1 X106.114 Y91.177 E101.61325
G1 X111.315 Y91.266 E102.23747
G1 X116.515 Y91.192 E102.86153
G1 X121.711 Y90.952 E103.48571
G1 X126.897 Y90.547 E104.10993
G1 X132.067 Y89.978 E104.73407
G1 X137.217 Y89.246 E105.35829
G1 X142.341 Y88.349 E105.98252
G1 X147.433 Y87.292 E106.60658
G1 X152.490 Y86.073 E107.23080
G1 X157.505 Y84.694 E107.85494
G1 X162.474 Y83.157 E108.47909
G1 X166.825 Y81.658 E109.03133
G1 X172.277 Y96.704 E110.95173
G1 X172.539 Y97.435 E111.04491
G1 X174.410 Y96.723 E111.28514
G1 X175.023 Y98.415 E111.50110
G1 X173.154 Y99.126 E111.74106
G1 X182.767 Y125.658 E115.12743
G1 X177.006 Y127.643 E115.85864
G1 X170.634 Y129.614 E116.65902
G1 X164.168 Y131.391 E117.46371
G1 X157.687 Y132.954 E118.26373
G1 X151.121 Y134.317 E119.06845
G1 X145.088 Y135.372 E119.80339
G1 X145.200 Y136.482 E119.93727
G1 X155.169 Y136.214 E121.13398
G1 X151.643 Y136.947 E121.56615
G1 X144.963 Y138.114 E122.37989
G1 X138.251 Y139.069 E123.19344
G1 X131.534 Y139.808 E124.00434
G1 X124.771 Y140.336 E124.81837
G1 X123.509 Y140.395 E124.96998
G1 X122.534 Y137.757 E125.30747
G1 X118.711 Y137.933 E125.76671
G1 X119.778 Y141.500 E126.21349
G1 X119.579 Y141.499 E126.23737
G1 X118.346 Y140.148 E126.45686
G1 X118.067 Y139.216 E126.57361
G1 X104.422 Y139.195 E128.21101
G1 X104.141 Y140.125 E128.32759
G1 X102.902 Y141.475 E128.54748
G1 X102.703 Y141.474 E128.57136
G1 X103.781 Y137.911 E129.01806
G1 X99.959 Y137.723 E129.47725
G1 X98.975 Y140.359 E129.81489
G1 X97.717 Y140.297 E129.96604
G1 X90.950 Y139.748 E130.78074
G1 X84.239 Y138.990 E131.59118
G1 X77.531 Y138.016 E132.40459
G1 X70.852 Y136.828 E133.21865
G1 X67.334 Y136.086 E133.65009
G1 X77.297 Y136.382 E134.84618
G1 X77.411 Y135.272 E134.98008
G1 X71.363 Y134.197 E135.71722
G1 X64.833 Y132.820 E136.51805
G1 X58.325 Y131.231 E137.32195
G1 X51.900 Y129.445 E138.12218
G1 X45.507 Y127.446 E138.92597
G1 X40.234 Y125.613 E139.59587
G1 X49.451 Y100.406 E142.81659
G1 X50.734 Y100.852 E142.97958
G1 X51.528 Y101.130 E143.08053
G1 X53.108 Y96.809 E143.63263
G1 X51.030 Y96.086 E143.89665
G1 X56.305 Y81.660 E145.73988
G0 F12000 X56.064 Y81.153
;TYPE:WALL-OUTER
G1 F1200 X60.304 Y82.627 E146.27854
G1 X65.256 Y84.175 E146.90114
G1 X70.255 Y85.565 E147.52378
G1 X75.297 Y86.796 E148.14659
G1 X80.374 Y87.866 E148.76922
G1 X85.482 Y88.774 E149.39178
G1 X90.617 Y89.520 E150.01445
G1 X95.773 Y90.103 E150.63712
G1 X100.945 Y90.522 E151.25979
G1 X106.127 Y90.777 E151.88238
G1 X111.316 Y90.866 E152.50515
G1 X116.503 Y90.792 E153.12766
G1 X121.686 Y90.553 E153.75028
G1 X126.860 Y90.149 E154.37305
G1 X132.017 Y89.581 E154.99563
G1 X137.154 Y88.851 E155.61826
G1 X142.266 Y87.956 E156.24103
G1 X147.346 Y86.901 E156.86364
G1 X152.390 Y85.686 E157.48623
G1 X157.393 Y84.310 E158.10889
G1 X162.350 Y82.777 E158.73152
G1 X167.067 Y81.152 E159.33021
G1 X172.778 Y96.916 E161.34220
G1 X174.647 Y96.205 E161.58216
G1 X175.533 Y98.649 E161.89412
G1 X173.664 Y99.360 E162.13408
G1 X183.282 Y125.904 E165.52201
G1 X177.140 Y128.020 E166.30157
G1 X170.740 Y130.000 E167.10548
G1 X164.274 Y131.777 E167.91017
G1 X157.768 Y133.346 E168.71327
G1 X151.201 Y134.709 E169.51811
G1 X145.523 Y135.702 E170.20981
G1 X145.561 Y136.072 E170.25444
G1 X156.225 Y135.786 E171.53458
G1 X156.476 Y136.350 E171.60866
G1 X151.705 Y137.342 E172.19343
G1 X145.029 Y138.509 E173.00669
G1 X138.312 Y139.464 E173.82084
G1 X131.562 Y140.207 E174.63573
G1 X124.805 Y140.734 E175.44903
G1 X123.235 Y140.807 E175.63764
G1 X122.260 Y138.170 E175.97501
G1 X119.241 Y138.309 E176.33768
G1 X120.315 Y141.901 E176.78757
G1 X119.403 Y141.899 E176.89701
G1 X117.989 Y140.349 E177.14878
G1 X117.769 Y139.615 E177.24073
G1 X104.719 Y139.596 E178.80674
G1 X104.497 Y140.330 E178.89876
G1 X103.078 Y141.875 E179.15049
G1 X102.164 Y141.873 E179.26017
G1 X103.250 Y138.286 E179.70990
G1 X100.232 Y138.137 E180.07250
G1 X99.248 Y140.772 E180.41003
G1 X97.679 Y140.695 E180.59854
G1 X90.923 Y140.147 E181.41192
G1 X84.175 Y139.385 E182.22683
G1 X77.462 Y138.410 E183.04084
G1 X70.790 Y137.223 E183.85405
G1 X66.021 Y136.217 E184.43893
G1 X66.273 Y135.654 E184.51294
G1 X76.937 Y135.971 E185.79319
G1 X76.975 Y135.601 E185.83782
G1 X71.301 Y134.592 E186.52939
G1 X64.738 Y133.209 E187.33424
G1 X58.236 Y131.621 E188.13741
G1 X51.775 Y129.825 E188.94213
G1 X45.381 Y127.826 E189.74604
G1 X39.719 Y125.857 E190.46539
G1 X49.210 Y99.899 E193.78203
G1 X51.288 Y100.622 E194.04605
G1 X52.593 Y97.053 E194.50206
G1 X50.515 Y96.330 E194.76609
G1 X56.064 Y81.153 E196.70524
G0 F12000 X56.622 Y82.360
;TYPE:SKIN
G1 F1200 X112.927 Y138.666 E206.26060
G0 F12000 X112.361 Y138.665
G1 F1200 X56.470 Y82.775 E215.74553
G0 F12000 X56.319 Y83.189
G1 F1200 X111.794 Y138.665 E225.16004
G0 F12000 X111.227 Y138.663
G1 F1200 X56.168 Y83.604 E234.50386
G0 F12000 X56.016 Y84.018
G1 F1200 X110.661 Y138.662 E243.77734
G0 F12000 X110.095 Y138.662
G1 F1200 X55.865 Y84.432 E252.98047
G0 F12000 X55.713 Y84.846
G1 F1200 X109.528 Y138.661 E262.11318
G0 F12000 X108.962 Y138.660
G1 F1200 X55.562 Y85.260 E271.17546
G0 F12000 X55.411 Y85.675
G1 F1200 X108.395 Y138.660 E280.16723
G0 F12000 X107.828 Y138.658
G1 F1200 X55.259 Y86.089 E289.08848
G0 F12000 X55.108 Y86.503
G1 F1200 X107.262 Y138.657 E297.93931
G0 F12000 X106.696 Y138.657
G1 F1200 X54.956 Y86.917 E306.71988
G0 F12000 X54.805 Y87.331
G1 F1200 X106.129 Y138.656 E315.42994
G0 F12000 X105.563 Y138.655
G1 F1200 X104.455 Y137.547 E315.61797
G0 F12000 X104.302 Y137.395
G1 F1200 X54.653 Y87.746 E324.04369
G0 F12000 X54.502 Y88.160
G1 F1200 X103.707 Y137.365 E332.39405
G0 F12000 X103.112 Y137.336
G1 F1200 X54.351 Y88.575 E340.66907
G0 F12000 X54.199 Y88.989
G1 F1200 X102.517 Y137.306 E348.86882
G0 F12000 X101.922 Y137.277
G1 F1200 X54.047 Y89.403 E356.99339
G0 F12000 X53.896 Y89.817
G1 F1200 X101.326 Y137.248 E365.04261
G0 F12000 X100.732 Y137.219
G1 F1200 X53.745 Y90.231 E373.01666
G0 F12000 X53.593 Y90.646
G1 F1200 X100.137 Y137.190 E380.91544
G0 F12000 X103.678 Y137.984
G0 X104.191 Y138.415
G1 F1200 X104.429 Y138.653 E380.95583
G0 F12000 X104.996 Y138.654
G1 F1200 X104.323 Y137.981 E381.07004
G0 F12000 X113.494 Y138.667
G1 F1200 X57.460 Y82.633 E390.57932
G0 F12000 X58.327 Y82.934
G1 F1200 X114.060 Y138.667 E400.03753
G0 F12000 X114.627 Y138.669
G1 F1200 X59.194 Y83.235 E409.44490
G0 F12000 X53.442 Y91.060
G1 F1200 X99.579 Y137.197 E417.27461
G0 F12000 X99.425 Y137.609
G1 F1200 X53.290 Y91.474 E425.10398
G0 F12000 X53.139 Y91.888
G1 F1200 X99.272 Y138.021 E432.93301
G0 F12000 X99.117 Y138.433
G1 F1200 X52.987 Y92.302 E440.76162
G0 F12000 X52.836 Y92.717
G1 F1200 X98.964 Y138.845 E448.58980
G0 F12000 X98.810 Y139.256
G1 F1200 X52.685 Y93.131 E456.41747
G0 F12000 X52.533 Y93.545
G1 F1200 X98.656 Y139.669 E464.24489
G0 F12000 X98.200 Y139.778
G1 F1200 X52.381 Y93.959 E472.02063
G0 F12000 X52.230 Y94.374
G1 F1200 X97.601 Y139.745 E479.72034
G0 F12000 X96.986 Y139.695
G1 F1200 X53.794 Y96.503 E487.05027
G0 F12000 X53.750 Y96.459
G1 F1200 X52.079 Y94.788 E487.33385
G0 F12000 X51.927 Y95.202
G1 F1200 X52.882 Y96.157 E487.49592
G0 F12000 X52.014 Y95.855
G1 F1200 X51.776 Y95.617 E487.53631
G0 F12000 X53.643 Y96.918
G1 F1200 X96.370 Y139.645 E494.78732
G0 F12000 X95.754 Y139.595
G1 F1200 X53.491 Y97.332 E501.95959
G0 F12000 X53.340 Y97.746
G1 F1200 X95.139 Y139.545 E509.05311
G0 F12000 X94.523 Y139.495
G1 F1200 X53.188 Y98.160 E516.06789
G0 F12000 X53.037 Y98.574
G1 F1200 X93.907 Y139.444 E523.00376
G0 F12000 X93.291 Y139.394
G1 F1200 X52.885 Y98.989 E529.86080
G0 F12000 X52.734 Y99.403
G1 F1200 X92.676 Y139.345 E536.63919
G0 F12000 X92.060 Y139.295
G1 F1200 X52.582 Y99.817 E543.33883
G0 F12000 X52.431 Y100.231
G1 F1200 X91.444 Y139.244 E549.95955
G0 F12000 X90.822 Y139.188
G1 F1200 X52.279 Y100.646 E556.50043
G0 F12000 X52.128 Y101.060
G1 F1200 X90.184 Y139.116 E562.95875
G0 F12000 X89.546 Y139.044
G1 F1200 X51.977 Y101.474 E569.33450
G0 F12000 X51.698 Y101.761
G1 F1200 X88.909 Y138.972 E575.64942
G0 F12000 X88.271 Y138.900
G1 F1200 X50.829 Y101.458 E582.00354
G0 F12000 X49.960 Y101.155
G1 F1200 X87.633 Y138.828 E588.39686
G0 F12000 X86.996 Y138.756
G1 F1200 X49.655 Y101.416 E594.73375
G0 F12000 X49.504 Y101.830
G1 F1200 X86.358 Y138.684 E600.98808
G0 F12000 X85.721 Y138.612
G1 F1200 X49.352 Y102.244 E607.16002
G0 F12000 X49.201 Y102.658
G1 F1200 X85.083 Y138.540 E613.24940
G0 F12000 X84.445 Y138.468
G1 F1200 X49.049 Y103.072 E619.25630
G0 F12000 X48.898 Y103.487
G1 F1200 X83.789 Y138.377 E625.17741
G0 F12000 X83.127 Y138.281
G1 F1200 X48.747 Y103.901 E631.01189
G0 F12000 X48.595 Y104.315
G1 F1200 X82.464 Y138.184 E636.75965
G0 F12000 X81.803 Y138.088
G1 F1200 X48.443 Y104.729 E642.42095
G0 F12000 X48.292 Y105.143
G1 F1200 X77.969 Y134.820 E647.45730
G0 F12000 X77.995 Y134.847
G1 F1200 X81.141 Y137.992 E647.99111
G0 F12000 X80.479 Y137.896
G1 F1200 X77.943 Y135.360 E648.42148
G0 F12000 X77.891 Y135.874
G1 F1200 X79.817 Y137.800 E648.74834
G0 F12000 X79.155 Y137.704
G1 F1200 X77.839 Y136.387 E648.97175
G0 F12000 X77.786 Y136.900
G1 F1200 X78.493 Y137.607 E649.09174
G0 F12000 X77.831 Y137.511
G1 F1200 X77.240 Y136.919 E649.19212
G0 F12000 X77.152 Y137.397
G1 F1200 X76.560 Y137.088 E649.27606
G1 X75.925 Y137.019 E649.34217
G1 X75.289 Y136.949 E649.39054
G1 X74.908 Y136.851 E649.43775
G0 F12000 X77.248 Y136.327
G0 X77.352 Y135.317
G0 X75.217 Y134.331
G1 F1200 X47.686 Y106.800 E654.10991
G0 F12000 X47.838 Y106.387
G1 F1200 X75.905 Y134.454 E658.87304
G0 F12000 X76.593 Y134.575
G1 F1200 X47.989 Y105.972 E663.72722
G0 F12000 X48.141 Y105.558
G1 F1200 X77.281 Y134.698 E668.67244
G0 F12000 X74.529 Y134.209
G1 F1200 X47.535 Y107.215 E673.25347
G0 F12000 X47.383 Y107.629
G1 F1200 X73.841 Y134.087 E677.74354
G0 F12000 X73.153 Y133.964
G1 F1200 X47.232 Y108.043 E682.14248
G0 F12000 X47.081 Y108.458
G1 F1200 X72.465 Y133.842 E686.45029
G0 F12000 X71.777 Y133.720
G1 F1200 X46.929 Y108.871 E690.66722
G0 F12000 X46.777 Y109.286
G1 F1200 X71.073 Y133.581 E694.79030
G0 F12000 X70.357 Y133.431
G1 F1200 X46.626 Y109.700 E698.81759
G0 F12000 X46.475 Y110.114
G1 F1200 X69.640 Y133.280 E702.74890
G0 F12000 X68.923 Y133.129
G1 F1200 X46.323 Y110.529 E706.58425
G0 F12000 X46.172 Y110.943
G1 F1200 X68.207 Y132.978 E710.32371
G0 F12000 X67.490 Y132.827
G1 F1200 X46.020 Y111.357 E713.96729
G0 F12000 X45.869 Y111.771
G1 F1200 X66.774 Y132.676 E717.51499
G0 F12000 X66.057 Y132.525
G1 F1200 X45.717 Y112.186 E720.96672
G0 F12000 X45.566 Y112.600
G1 F1200 X65.340 Y132.374 E724.32248
G0 F12000 X64.610 Y132.209
G1 F1200 X45.415 Y113.014 E727.57998
G0 F12000 X45.263 Y113.428
G1 F1200 X63.861 Y132.026 E730.73616
G0 F12000 X63.112 Y131.843
G1 F1200 X45.111 Y113.842 E733.79103
G0 F12000 X44.960 Y114.257
G1 F1200 X62.363 Y131.660 E736.74442
G0 F12000 X61.615 Y131.477
G1 F1200 X44.809 Y114.671 E739.59649
G0 F12000 X44.658 Y115.085
G1 F1200 X60.866 Y131.294 E742.34717
G0 F12000 X60.117 Y131.111
