;FLAVOR:UltiGCode
;TIME:1524
;MATERIAL:2392
;MATERIAL2:0
;NOZZLE_DIAMETER:0.400000
;NOZZLE_DIAMETER2:0.400000
;MTYPE:PLA

;Layer count: 48
;LAYER:0
M107
G0 F12000 X92.495 Y84.511 Z0.300
;TYPE:SKIRT
G1 F1200 X94.995 Y83.428 E0.32694
G1 X95.340 Y83.277 E0.37213
G1 X97.514 Y82.495 E0.64938
G1 X98.368 Y82.217 E0.75715
G1 X100.586 Y81.573 E1.03430
G1 X105.172 Y80.548 E1.59820
G1 X107.787 Y87.342 E2.47178
G1 X108.358 Y87.368 E2.54038
G1 X109.840 Y82.909 E3.10424
G1 X110.097 Y82.295 E3.18411
G1 X110.994 Y80.180 E3.45979
G1 X114.256 Y80.281 E3.85142
G1 X117.002 Y80.541 E4.18241
G1 X119.720 Y80.971 E4.51263
G1 X120.312 Y81.102 E4.58539
G1 X122.416 Y81.573 E4.84412
G1 X125.062 Y82.342 E5.17477
G1 X127.249 Y83.129 E5.45369
G1 X128.401 Y83.599 E5.60299
G1 X130.506 Y84.510 E5.87823
G1 X130.170 Y124.147 E10.63484
G1 X130.135 Y125.256 E10.76799
G1 X130.024 Y126.424 E10.90878
G1 X129.841 Y127.580 E11.04923
G1 X129.622 Y128.564 E11.17020
G1 X129.263 Y129.840 E11.32926
G1 X128.918 Y130.800 E11.45168
G1 X128.401 Y132.021 E11.61079
G1 X127.863 Y133.078 E11.75312
G1 X127.265 Y134.088 E11.89397
G1 X126.606 Y135.059 E12.03479
G1 X125.886 Y135.986 E12.17564
G1 X125.111 Y136.866 E12.31635
G1 X124.280 Y137.696 E12.45729
G1 X123.526 Y138.360 E12.57786
G1 X122.620 Y139.077 E12.71650
G1 X121.658 Y139.745 E12.85705
G1 X120.655 Y140.352 E12.99773
G1 X119.614 Y140.895 E13.13862
G1 X118.541 Y141.372 E13.27953
G1 X117.526 Y141.748 E13.40942
G1 X117.275 Y141.839 E13.44146
G1 X116.387 Y142.098 E13.55246
G1 X116.148 Y142.168 E13.58234
G1 X115.163 Y142.387 E13.70343
G1 X114.021 Y142.580 E13.84241
G1 X112.855 Y142.701 E13.98309
G1 X111.772 Y142.747 E14.11316
G1 X111.502 Y142.756 E14.14558
G1 X110.579 Y142.726 E14.25640
G1 X110.329 Y142.718 E14.28641
G1 X109.330 Y142.625 E14.40681
G1 X108.183 Y142.455 E14.54596
G1 X107.037 Y142.211 E14.68656
G1 X105.982 Y141.914 E14.81808
G1 X105.726 Y141.839 E14.85009
G1 X104.861 Y141.528 E14.96040
G1 X104.623 Y141.442 E14.99076
G1 X103.705 Y141.045 E15.11078
G1 X102.669 Y140.529 E15.24967
G1 X101.655 Y139.943 E15.39021
G1 X100.678 Y139.294 E15.53096
G1 X99.744 Y138.584 E15.67175
G1 X98.856 Y137.817 E15.81255
G1 X98.018 Y136.995 E15.95341
G1 X97.123 Y135.997 E16.11428
G1 X96.394 Y135.058 E16.25693
G1 X95.829 Y134.225 E16.37771
G1 X95.145 Y133.091 E16.53663
G1 X94.606 Y132.033 E16.67912
G1 X94.140 Y130.956 E16.81994
G1 X93.800 Y130.009 E16.94068
G1 X93.419 Y128.740 E17.09967
G1 X93.197 Y127.744 E17.22213
G1 X92.978 Y126.438 E17.38104
G1 X92.882 Y125.422 E17.50350
G1 X92.832 Y124.162 E17.65482
G1 X92.495 Y84.511 E22.41311
G10
G1 Z0.400
G0 F12000 X96.719 Y87.258
;TYPE:WALL-INNER
G1 Z0.300
G11
G1 F1200 X98.883 Y86.466 E22.68963
G1 X99.611 Y86.230 E22.78147
G1 X101.626 Y85.644 E23.03329
G1 X102.554 Y85.437 E23.14738
G1 X104.383 Y90.189 E23.75840
G1 X104.740 Y90.749 E23.83810
G1 X105.127 Y91.152 E23.90515
G1 X105.634 Y91.347 E23.97033
G1 X106.256 Y91.478 E24.04661
G1 X106.864 Y91.505 E24.11964
G1 X109.809 Y91.639 E24.47341
G1 X110.490 Y91.546 E24.55588
G1 X111.004 Y91.389 E24.62038
G1 X111.425 Y90.966 E24.69199
G1 X111.781 Y90.388 E24.77345
G1 X113.748 Y84.467 E25.52216
G1 X113.993 Y84.475 E25.55157
G1 X116.475 Y84.710 E25.85074
G1 X118.938 Y85.100 E26.14999
G1 X121.375 Y85.644 E26.44962
G1 X123.757 Y86.336 E26.74728
G1 X125.744 Y87.051 E27.00069
G1 X126.282 Y87.271 E27.07044
G1 X125.970 Y124.053 E31.48444
G1 X125.941 Y124.991 E31.59705
G1 X125.854 Y125.901 E31.70675
G1 X125.712 Y126.801 E31.81608
G1 X125.547 Y127.544 E31.90742
G1 X125.262 Y128.553 E32.03323
G1 X125.006 Y129.266 E32.12414
G1 X124.590 Y130.250 E32.25234
G1 X124.182 Y131.051 E32.36021
G1 X123.714 Y131.841 E32.47040
G1 X123.207 Y132.588 E32.57873
G1 X122.647 Y133.310 E32.68838
G1 X122.049 Y133.988 E32.79686
G1 X121.405 Y134.632 E32.90615
G1 X120.839 Y135.130 E32.99662
G1 X120.108 Y135.708 E33.10845
G1 X119.373 Y136.218 E33.21580
G1 X118.593 Y136.690 E33.32521
G1 X117.794 Y137.108 E33.43342
G1 X116.963 Y137.477 E33.54252
G1 X116.075 Y137.806 E33.65616
G1 X115.212 Y138.065 E33.76429
G1 X115.095 Y138.100 E33.77894
G1 X114.360 Y138.264 E33.86931
G1 X113.458 Y138.416 E33.97908
G1 X112.543 Y138.511 E34.08947
G1 X111.610 Y138.550 E34.20152
G1 X111.499 Y138.554 E34.21485
G1 X110.715 Y138.529 E34.30898
G1 X110.606 Y138.525 E34.32207
G1 X109.826 Y138.453 E34.41607
G1 X108.930 Y138.320 E34.52477
G1 X108.046 Y138.132 E34.63322
G1 X107.136 Y137.876 E34.74666
G1 X106.291 Y137.579 E34.85414
G1 X105.472 Y137.233 E34.96083
G1 X104.658 Y136.828 E35.06993
G1 X103.876 Y136.376 E35.17832
G1 X103.106 Y135.864 E35.28928
G1 X102.397 Y135.325 E35.39615
G1 X101.697 Y134.721 E35.50710
G1 X101.055 Y134.090 E35.61512
G1 X100.350 Y133.304 E35.74183
G1 X99.797 Y132.592 E35.85001
G1 X99.366 Y131.957 E35.94210
G1 X98.819 Y131.050 E36.06921
G1 X98.410 Y130.247 E36.17734
G1 X98.046 Y129.406 E36.28731
G1 X97.793 Y128.703 E36.37697
G1 X97.484 Y127.671 E36.50624
G1 X97.320 Y126.937 E36.59649
G1 X97.147 Y125.902 E36.72242
G1 X97.073 Y125.128 E36.81572
G1 X97.031 Y124.067 E36.94314
G1 X96.719 Y87.258 E41.36038
G0 F12000 X101.437 Y96.902
G1 F1200 X101.039 Y97.995 E41.49996
G1 X100.846 Y98.660 E41.58306
G1 X100.695 Y99.335 E41.66606
G1 X100.604 Y99.916 E41.73663
G1 X100.523 Y100.701 E41.83133
G1 X100.505 Y101.267 E41.89928
G1 X100.500 Y101.392 E41.91429
G1 X100.522 Y102.087 E41.99774
G1 X100.587 Y102.774 E42.08054
G1 X100.678 Y103.355 E42.15111
G1 X100.845 Y104.128 E42.24601
G1 X101.038 Y104.795 E42.32934
G1 X101.229 Y105.325 E42.39694
G1 X101.548 Y106.080 E42.49530
G1 X101.861 Y106.695 E42.57810
G1 X102.161 Y107.201 E42.64869
G1 X102.599 Y107.858 E42.74345
G1 X102.961 Y108.326 E42.81445
G1 X103.896 Y109.406 E42.98587
G1 X105.427 Y108.744 E43.18603
G1 X106.409 Y108.390 E43.31129
G1 X107.396 Y108.103 E43.43464
G1 X108.403 Y107.879 E43.55843
G1 X109.429 Y107.717 E43.68307
G1 X110.466 Y107.618 E43.80808
G1 X111.500 Y107.586 E43.93222
G1 X112.536 Y107.618 E44.05660
G1 X113.572 Y107.717 E44.18149
G1 X114.598 Y107.879 E44.30613
G1 X115.605 Y108.103 E44.42992
G1 X116.592 Y108.390 E44.55327
G1 X117.574 Y108.744 E44.67853
G1 X119.099 Y109.404 E44.87794
G1 X119.976 Y108.407 E45.03728
G1 X120.336 Y107.943 E45.10775
G1 X120.785 Y107.294 E45.20245
G1 X121.087 Y106.784 E45.27358
G1 X121.451 Y106.084 E45.36825
G1 X121.728 Y105.446 E45.45172
G1 X121.963 Y104.795 E45.53477
G1 X122.155 Y104.132 E45.61760
G1 X122.306 Y103.457 E45.70060
G1 X122.397 Y102.876 E45.77117
G1 X122.478 Y102.092 E45.86575
G1 X122.501 Y101.396 E45.94932
G1 X122.479 Y100.705 E46.03228
G1 X122.419 Y100.070 E46.10882
G1 X122.306 Y99.337 E46.19782
G1 X122.155 Y98.660 E46.28106
G1 X121.963 Y97.997 E46.36389
G1 X121.729 Y97.350 E46.44645
G1 X121.534 Y96.888 E46.50662
G1 X120.562 Y96.540 E46.63051
G1 X119.009 Y96.081 E46.82484
G1 X118.713 Y95.995 E46.86183
G1 X117.208 Y95.658 E47.04690
G1 X115.442 Y95.361 E47.26180
G1 X113.320 Y95.141 E47.51781
G1 X111.806 Y95.094 E47.69957
G1 X111.501 Y95.084 E47.73619
G1 X109.986 Y95.132 E47.91808
G1 X109.680 Y95.142 E47.95482
G1 X107.867 Y95.312 E48.17334
G1 X106.066 Y95.597 E48.39215
G1 X104.563 Y95.934 E48.57698
G1 X102.819 Y96.422 E48.79430
G1 X101.986 Y96.702 E48.89976
G1 X101.437 Y96.902 E48.96987
G0 F12000 X100.923 Y102.061
G0 X101.911 Y105.910
G0 X104.018 Y108.876
G0 X109.848 Y120.934
G1 F1200 X109.413 Y121.210 E49.03170
G1 X109.070 Y121.494 E49.08513
G1 X108.769 Y121.814 E49.13785
G1 X108.491 Y122.201 E49.19503
G1 X108.280 Y122.590 E49.24814
G1 X108.118 Y123.006 E49.30171
G1 X108.009 Y123.436 E49.35494
G1 X107.956 Y123.863 E49.40657
G1 X107.958 Y124.328 E49.46237
G1 X108.017 Y124.769 E49.51577
G1 X108.129 Y125.199 E49.56909
G1 X108.288 Y125.596 E49.62041
G1 X108.505 Y125.993 E49.67470
G1 X108.777 Y126.363 E49.72980
G1 X109.086 Y126.687 E49.78353
G1 X109.431 Y126.970 E49.83708
G1 X109.810 Y127.206 E49.89065
G1 X110.214 Y127.392 E49.94403
G1 X110.634 Y127.527 E49.99697
G1 X111.053 Y127.607 E50.04815
G1 X111.503 Y127.636 E50.10227
G1 X111.967 Y127.603 E50.15809
G1 X112.403 Y127.518 E50.21139
G1 X112.828 Y127.377 E50.26512
G1 X113.229 Y127.185 E50.31848
G1 X113.605 Y126.944 E50.37207
G1 X113.944 Y126.659 E50.42521
G1 X114.281 Y126.287 E50.48545
G1 X114.510 Y125.966 E50.53277
G1 X114.719 Y125.580 E50.58544
G1 X114.878 Y125.181 E50.63698
G1 X114.992 Y124.731 E50.69269
G1 X115.045 Y124.304 E50.74432
G1 X115.043 Y123.842 E50.79976
G1 X114.989 Y123.416 E50.85129
G1 X114.871 Y122.967 E50.90700
G1 X114.705 Y122.555 E50.96030
G1 X114.498 Y122.178 E51.01191
G1 X114.225 Y121.806 E51.06728
G1 X113.931 Y121.494 E51.11873
G1 X113.588 Y121.210 E51.17217
G1 X113.153 Y120.934 E51.23399
G1 X109.848 Y120.934 E51.63059
G0 F12000 X109.649 Y121.535
G1 F1200 X109.344 Y121.786 E51.67799
G1 X109.043 Y122.116 E51.73158
G1 X108.831 Y122.413 E51.77537
G1 X108.644 Y122.759 E51.82257
G1 X108.499 Y123.128 E51.87014
G1 X108.403 Y123.510 E51.91741
G1 X108.356 Y123.887 E51.96300
G1 X108.358 Y124.300 E52.01256
G1 X108.410 Y124.692 E52.06001
G1 X108.510 Y125.074 E52.10740
G1 X108.650 Y125.425 E52.15274
G1 X108.842 Y125.776 E52.20075
G1 X109.085 Y126.106 E52.24993
G1 X109.358 Y126.393 E52.29746
G1 X109.665 Y126.644 E52.34505
G1 X110.001 Y126.853 E52.39253
G1 X110.359 Y127.018 E52.43984
G1 X110.733 Y127.138 E52.48697
G1 X111.104 Y127.209 E52.53230
G1 X111.502 Y127.235 E52.58016
G1 X111.914 Y127.206 E52.62972
G1 X112.301 Y127.131 E52.67703
G1 X112.678 Y127.005 E52.72473
G1 X113.034 Y126.835 E52.77207
G1 X113.367 Y126.621 E52.81957
G1 X113.669 Y126.368 E52.86684
G1 X113.958 Y126.051 E52.91832
G1 X114.170 Y125.754 E52.96211
G1 X114.356 Y125.410 E53.00904
G1 X114.497 Y125.057 E53.05465
G1 X114.598 Y124.657 E53.10416
G1 X114.645 Y124.280 E53.14975
G1 X114.643 Y123.869 E53.19907
G1 X114.595 Y123.492 E53.24467
G1 X114.491 Y123.093 E53.29415
G1 X114.343 Y122.726 E53.34164
G1 X114.160 Y122.394 E53.38713
G1 X113.917 Y122.063 E53.43640
G1 X113.657 Y121.786 E53.48199
G1 X113.352 Y121.535 E53.52939
G1 X113.036 Y121.334 E53.57433
G1 X109.965 Y121.334 E53.94285
G1 X109.649 Y121.535 E53.98780
G0 F12000 X96.631 Y124.060
G1 F1200 X96.316 Y86.996 E58.43564
G1 X96.734 Y86.815 E58.49030
G1 X98.737 Y86.094 E58.74575
G1 X99.496 Y85.847 E58.84154
G1 X101.520 Y85.258 E59.09449
G1 X102.803 Y84.972 E59.25223
G1 X104.742 Y90.008 E59.89980
G1 X105.056 Y90.501 E59.96994
G1 X105.354 Y90.811 E60.02154
G1 X105.747 Y90.962 E60.07206
G1 X106.306 Y91.080 E60.14062
G1 X106.883 Y91.105 E60.20992
G1 X109.791 Y91.238 E60.55925
G1 X110.404 Y91.154 E60.63349
G1 X110.791 Y91.036 E60.68205
G1 X111.108 Y90.717 E60.73601
G1 X111.416 Y90.217 E60.80648
G1 X113.404 Y84.235 E61.56292
G1 X113.478 Y84.059 E61.58584
G1 X114.027 Y84.076 E61.65175
G1 X116.514 Y84.311 E61.95152
G1 X119.018 Y84.708 E62.25575
G1 X121.481 Y85.258 E62.55859
G1 X123.878 Y85.955 E62.85814
G1 X125.883 Y86.676 E63.11383
G1 X126.685 Y87.003 E63.21776
G1 X126.370 Y124.065 E67.66536
G1 X126.340 Y125.026 E67.78074
G1 X126.255 Y125.928 E67.88946
G1 X126.105 Y126.872 E68.00416
G1 X125.933 Y127.647 E68.09942
G1 X125.645 Y128.670 E68.22695
G1 X125.377 Y129.414 E68.32185
G1 X124.952 Y130.420 E68.45290
G1 X124.525 Y131.258 E68.56576
G1 X124.058 Y132.048 E68.67588
G1 X123.534 Y132.819 E68.78775
G1 X122.958 Y133.562 E68.90056
G1 X122.334 Y134.269 E69.01372
G1 X121.686 Y134.917 E69.12369
G1 X121.090 Y135.441 E69.21892
G1 X120.353 Y136.024 E69.33169
G1 X119.587 Y136.556 E69.44360
G1 X118.794 Y137.036 E69.55484
G1 X117.951 Y137.477 E69.66900
G1 X117.126 Y137.843 E69.77731
G1 X116.214 Y138.181 E69.89402
G1 X116.092 Y138.226 E69.90963
G1 X115.324 Y138.449 E70.00559
G1 X114.435 Y138.656 E70.11513
G1 X113.505 Y138.813 E70.22831
G1 X112.568 Y138.910 E70.34135
G1 X111.632 Y138.950 E70.45377
G1 X111.499 Y138.953 E70.46973
G1 X110.556 Y138.923 E70.58295
G1 X109.784 Y138.851 E70.67599
G1 X108.869 Y138.715 E70.78700
G1 X107.948 Y138.519 E70.89999
G1 X107.036 Y138.263 E71.01366
G1 X106.152 Y137.954 E71.12604
G1 X105.299 Y137.594 E71.23714
G1 X104.464 Y137.179 E71.34903
G1 X103.669 Y136.719 E71.45925
G1 X102.882 Y136.196 E71.57265
G1 X102.133 Y135.627 E71.68552
G1 X101.430 Y135.019 E71.79705
G1 X100.775 Y134.377 E71.90711
G1 X100.032 Y133.548 E72.04070
G1 X99.475 Y132.829 E72.14984
G1 X99.028 Y132.171 E72.24530
G1 X98.469 Y131.244 E72.37520
G1 X98.047 Y130.415 E72.48683
G1 X97.676 Y129.559 E72.59878
G1 X97.411 Y128.821 E72.69288
G1 X97.098 Y127.776 E72.82378
G1 X96.926 Y127.005 E72.91857
G1 X96.746 Y125.928 E73.04961
G1 X96.676 Y125.183 E73.13940
G1 X96.631 Y124.060 E73.27427
G0 F12000 X104.006 Y108.923
G1 F1200 X105.278 Y108.372 E73.44061
G1 X106.288 Y108.009 E73.56940
G1 X107.290 Y107.718 E73.69461
G1 X108.332 Y107.485 E73.82274
G1 X109.394 Y107.317 E73.95176
G1 X110.431 Y107.219 E74.07676
G1 X111.500 Y107.186 E74.20510
G1 X112.570 Y107.219 E74.33356
G1 X113.607 Y107.317 E74.45856
G1 X114.669 Y107.485 E74.58758
G1 X115.711 Y107.718 E74.71571
G1 X116.713 Y108.009 E74.84092
G1 X117.723 Y108.372 E74.96971
G1 X118.991 Y108.921 E75.13552
G1 X119.668 Y108.152 E75.25846
G1 X120.013 Y107.707 E75.32603
G1 X120.448 Y107.078 E75.41780
G1 X120.738 Y106.590 E75.48592
G1 X121.090 Y105.912 E75.57759
G1 X121.356 Y105.298 E75.65789
G1 X121.582 Y104.672 E75.73776
G1 X121.767 Y104.032 E75.81770
G1 X121.913 Y103.382 E75.89764
G1 X122.000 Y102.824 E75.96541
G1 X122.079 Y102.065 E76.05698
G1 X122.100 Y101.396 E76.13730
G1 X122.079 Y100.730 E76.21726
G1 X122.022 Y100.119 E76.29090
G1 X121.913 Y99.411 E76.37686
G1 X121.767 Y98.760 E76.45692
G1 X121.582 Y98.120 E76.53687
G1 X121.357 Y97.496 E76.61647
G1 X121.234 Y97.206 E76.65427
G1 X120.437 Y96.920 E76.75588
G1 X118.896 Y96.465 E76.94869
G1 X117.131 Y96.051 E77.16624
G1 X115.378 Y95.756 E77.37956
G1 X113.295 Y95.541 E77.63085
G1 X111.795 Y95.494 E77.81093
G1 X111.501 Y95.485 E77.84623
G1 X109.999 Y95.531 E78.02656
G1 X109.705 Y95.541 E78.06186
G1 X107.917 Y95.709 E78.27736
G1 X106.141 Y95.990 E78.49313
G1 X104.661 Y96.322 E78.67515
G1 X102.936 Y96.804 E78.89007
G1 X102.118 Y97.080 E78.99367
G1 X101.749 Y97.214 E79.04078
G1 X101.419 Y98.120 E79.15649
G1 X101.234 Y98.760 E79.23643
G1 X101.088 Y99.410 E79.31638
G1 X101.001 Y99.968 E79.38414
G1 X100.922 Y100.728 E79.47584
G1 X100.905 Y101.273 E79.54127
G1 X100.901 Y101.393 E79.55568
G1 X100.922 Y102.062 E79.63600
G1 X100.984 Y102.724 E79.71578
G1 X101.072 Y103.282 E79.78357
G1 X101.233 Y104.030 E79.87539
G1 X101.419 Y104.671 E79.95548
G1 X101.605 Y105.188 E80.02141
G1 X101.910 Y105.910 E80.11547
G1 X102.212 Y106.502 E80.19522
G1 X102.500 Y106.988 E80.26301
G1 X102.924 Y107.625 E80.35483
G1 X103.271 Y108.072 E80.42274
G1 X104.006 Y108.923 E80.55767
G0 F12000 X104.117 Y108.439
;TYPE:WALL-OUTER
G1 F1200 X105.138 Y107.997 E80.69118
G1 X106.154 Y107.632 E80.82073
G1 X107.205 Y107.326 E80.95209
G1 X108.253 Y107.093 E81.08092
G1 X109.339 Y106.921 E81.21286
G1 X110.412 Y106.819 E81.34220
G1 X111.500 Y106.785 E81.47283
G1 X112.589 Y106.819 E81.60357
G1 X113.662 Y106.921 E81.73291
G1 X114.748 Y107.093 E81.86485
G1 X115.796 Y107.326 E81.99368
G1 X116.847 Y107.632 E82.12504
G1 X117.863 Y107.997 E82.25459
G1 X118.883 Y108.438 E82.38794
G1 X119.359 Y107.897 E82.47441
G1 X119.690 Y107.470 E82.53924
G1 X120.111 Y106.862 E82.62799
G1 X120.388 Y106.395 E82.69314
G1 X120.729 Y105.740 E82.78176
G1 X120.984 Y105.151 E82.85878
G1 X121.201 Y104.548 E82.93568
G1 X121.380 Y103.933 E83.01254
G1 X121.520 Y103.307 E83.08952
G1 X121.603 Y102.773 E83.15437
G1 X121.680 Y102.038 E83.24305
G1 X121.700 Y101.396 E83.32013
G1 X121.680 Y100.755 E83.39709
G1 X121.625 Y100.168 E83.46783
G1 X121.520 Y99.485 E83.55076
G1 X121.380 Y98.859 E83.62773
G1 X121.201 Y98.244 E83.70460
G1 X120.984 Y97.642 E83.78139
G1 X120.934 Y97.523 E83.79687
G1 X120.313 Y97.301 E83.87601
G1 X118.513 Y96.770 E84.10122
G1 X117.054 Y96.444 E84.28061
G1 X115.313 Y96.151 E84.49247
G1 X113.270 Y95.940 E84.73894
G1 X111.500 Y95.885 E84.95144
G1 X109.731 Y95.940 E85.16382
G1 X107.967 Y96.106 E85.37644
G1 X106.216 Y96.383 E85.58917
G1 X104.758 Y96.710 E85.76847
G1 X103.054 Y97.187 E85.98082
G1 X102.250 Y97.457 E86.08259
G1 X102.061 Y97.526 E86.10673
G1 X101.800 Y98.244 E86.19841
G1 X101.621 Y98.859 E86.27527
