;FLAVOR:UltiGCode
;TIME:1724
;MATERIAL:2241
;MATERIAL2:0
;NOZZLE_DIAMETER:0.400000
;NOZZLE_DIAMETER2:0.400000
;MTYPE:PLA

;Layer count: 113
;LAYER:0
M107
G0 F12000 X69.551 Y97.043 Z0.300
;TYPE:SKIRT
G1 F1200 X78.951 Y97.043 E1.12800
G1 X78.951 Y104.528 E2.02620
G1 X119.376 Y111.189 E6.94261
G1 X144.049 Y104.769 E10.00196
G1 X144.049 Y97.043 E10.92908
G1 X153.449 Y97.043 E12.05708
G1 X153.449 Y112.035 E13.85612
G1 X150.449 Y112.816 E14.22812
G1 X150.449 Y117.847 E14.83184
G1 X147.032 Y118.674 E15.25372
G1 X136.274 Y121.281 E16.58204
G1 X136.274 Y116.505 E17.15516
G1 X126.877 Y118.953 E18.32044
G1 X126.873 Y119.070 E18.33449
G1 X126.829 Y119.533 E18.39030
G1 X126.749 Y120.032 E18.45094
G1 X126.536 Y120.868 E18.55447
G1 X126.197 Y121.730 E18.66562
G1 X125.751 Y122.541 E18.77668
G1 X125.211 Y123.287 E18.88720
G1 X124.606 Y123.933 E18.99340
G1 X124.182 Y124.306 E19.06117
G1 X123.517 Y124.790 E19.15987
G1 X123.032 Y125.075 E19.22737
G1 X122.243 Y125.446 E19.33200
G1 X121.414 Y125.716 E19.43662
G1 X120.915 Y125.827 E19.49797
G1 X120.462 Y125.900 E19.55303
G1 X119.998 Y125.944 E19.60896
G1 X119.530 Y125.958 E19.66514
G1 X119.064 Y125.944 E19.72109
G1 X118.608 Y125.899 E19.77607
G1 X118.157 Y125.828 E19.83086
G1 X117.705 Y125.726 E19.88646
G1 X117.219 Y125.586 E19.94715
G1 X116.412 Y125.267 E20.05129
G1 X115.646 Y124.847 E20.15612
G1 X115.172 Y124.526 E20.22481
G1 X114.550 Y124.010 E20.32179
G1 X114.179 Y123.643 E20.38441
G1 X113.835 Y123.251 E20.44700
G1 X113.325 Y122.547 E20.55132
G1 X112.905 Y121.785 E20.65573
G1 X112.681 Y121.268 E20.72334
G1 X112.426 Y120.485 E20.82216
G1 X112.315 Y119.986 E20.88350
G1 X112.243 Y119.539 E20.93783
G1 X73.767 Y113.200 E25.61719
G1 X69.551 Y112.504 E26.12996
G1 X69.551 Y97.043 E27.98528
G10
G1 Z0.400
G0 F12000 X73.751 Y101.243
;TYPE:WALL-INNER
G1 Z0.300
G11
G1 F1200 X74.751 Y101.243 E28.10528
G1 X74.751 Y108.092 E28.92716
G1 X119.574 Y115.478 E34.37846
G1 X148.249 Y108.016 E37.93406
G1 X148.249 Y101.243 E38.74682
G1 X149.249 Y101.243 E38.86682
G1 X149.249 Y108.788 E39.77222
G1 X146.249 Y109.569 E40.14422
G1 X141.652 Y110.765 E40.71422
G1 X140.474 Y111.073 E40.86033
G1 X121.755 Y115.945 E43.18145
G1 X122.391 Y117.297 E43.36074
G1 X122.192 Y116.902 E43.41382
G1 X121.717 Y116.328 E43.50323
G1 X121.397 Y116.064 E43.55301
G1 X121.087 Y115.857 E43.59774
G1 X117.932 Y115.858 E43.97634
G1 X117.394 Y116.295 E44.05951
G1 X117.220 Y116.469 E44.08904
G1 X116.882 Y116.904 E44.15515
G1 X116.701 Y117.233 E44.20021
G1 X117.195 Y116.099 E44.34864
G1 X73.751 Y108.940 E49.63223
G1 X73.751 Y101.243 E50.55587
G0 F12000 X73.303 Y109.320
G0 X116.512 Y116.471
G0 X116.614 Y117.432
G1 F1200 X116.652 Y117.346 E50.56715
G1 X116.550 Y117.629 E50.60325
G1 X116.614 Y117.432 E50.62810
G0 F12000 X116.393 Y118.809
G1 F1200 X116.389 Y118.687 E50.64275
G1 X116.429 Y119.115 E50.69434
G1 X116.393 Y118.809 E50.73131
G0 F12000 X118.201 Y121.458
G1 F1200 X117.996 Y121.345 E50.75940
G1 X120.711 Y121.356 E51.08520
G1 X121.058 Y121.362 E51.12685
G1 X120.692 Y121.534 E51.17538
G1 X120.133 Y121.699 E51.24532
G1 X119.746 Y121.750 E51.29216
G1 X119.532 Y121.756 E51.31785
G1 X118.944 Y121.700 E51.38873
G1 X118.745 Y121.655 E51.41321
G1 X118.577 Y121.606 E51.43421
G1 X118.201 Y121.458 E51.48270
G0 F12000 X120.979 Y120.948
G0 X122.201 Y120.282
G1 F1200 X121.917 Y120.660 E51.53944
G1 X122.229 Y120.230 E51.60319
G1 X122.201 Y120.282 E51.61028
G0 F12000 X122.679 Y118.400
G1 F1200 X122.682 Y118.520 E51.62468
G1 X122.647 Y118.154 E51.66880
G1 X122.679 Y118.400 E51.69857
G0 F12000 X123.078 Y118.379
G1 F1200 X123.085 Y118.607 E51.72594
G1 X123.022 Y119.273 E51.80622
G1 X122.914 Y119.697 E51.85872
G1 X122.751 Y120.110 E51.91200
G1 X122.535 Y120.504 E51.96592
G1 X122.273 Y120.865 E52.01945
G1 X121.961 Y121.199 E52.07430
G1 X121.433 Y121.606 E52.15429
G1 X121.251 Y121.714 E52.17969
G1 X120.846 Y121.904 E52.23337
G1 X120.409 Y122.046 E52.28851
G1 X119.767 Y122.149 E52.36654
G1 X119.531 Y122.156 E52.39487
G1 X119.101 Y122.130 E52.44656
G1 X118.856 Y122.091 E52.47633
G1 X118.454 Y121.988 E52.52613
G1 X118.027 Y121.819 E52.58124
G1 X117.630 Y121.602 E52.63553
G1 X117.460 Y121.487 E52.66016
G1 X117.105 Y121.192 E52.71555
G1 X116.807 Y120.876 E52.76767
G1 X116.540 Y120.508 E52.82223
G1 X116.239 Y119.921 E52.90139
G1 X116.096 Y119.480 E52.95702
G1 X115.994 Y118.842 E53.03456
G1 X115.987 Y118.602 E53.06337
G1 X116.012 Y118.173 E53.11494
G1 X116.097 Y117.728 E53.16930
G1 X116.239 Y117.291 E53.22444
G1 X116.623 Y116.410 E53.33977
G1 X73.351 Y109.280 E58.60242
G1 X73.351 Y100.843 E59.61486
G1 X75.151 Y100.843 E59.83086
G1 X75.151 Y107.752 E60.65994
G1 X119.555 Y115.070 E66.06030
G1 X147.849 Y107.707 E69.56866
G1 X147.849 Y100.843 E70.39234
G1 X149.649 Y100.843 E70.60834
G1 X149.649 Y109.097 E71.59882
G1 X146.649 Y109.878 E71.97082
G1 X146.649 Y114.857 E72.56830
G1 X140.074 Y116.450 E73.38013
G1 X140.074 Y111.589 E73.96345
G1 X122.322 Y116.211 E76.16471
G1 X122.834 Y117.300 E76.30911
G1 X122.971 Y117.717 E76.36178
G1 X123.078 Y118.379 E76.44226
G0 F12000 X122.288 Y118.595
G1 F1200 X122.242 Y118.109 E76.50084
G1 X122.091 Y117.591 E76.56558
G1 X121.855 Y117.122 E76.62859
G1 X121.433 Y116.613 E76.70793
G1 X121.158 Y116.385 E76.75080
G1 X120.966 Y116.257 E76.77849
G1 X118.074 Y116.258 E77.12553
G1 X117.662 Y116.593 E77.18925
G1 X117.520 Y116.734 E77.21326
G1 X117.217 Y117.124 E77.27253
G1 X117.041 Y117.443 E77.31625
G1 X116.869 Y117.922 E77.37732
G1 X116.791 Y118.416 E77.43733
G1 X116.785 Y118.626 E77.46254
G1 X116.832 Y119.123 E77.52245
G1 X116.977 Y119.619 E77.58446
G1 X117.211 Y120.081 E77.64661
G1 X117.518 Y120.478 E77.70683
G1 X118.055 Y120.945 E77.79223
G1 X120.718 Y120.956 E78.11179
G1 X120.984 Y120.961 E78.14372
G1 X121.295 Y120.720 E78.19093
G1 X121.556 Y120.476 E78.23380
G1 X121.939 Y119.950 E78.31188
G1 X122.091 Y119.626 E78.35483
G1 X122.199 Y119.292 E78.39695
G1 X122.266 Y118.941 E78.43983
G1 X122.288 Y118.595 E78.48144
G0 F12000 X122.425 Y116.260
G0 X139.996 Y111.690
G0 X140.818 Y115.505
G1 F1200 X145.898 Y114.272 E79.10874
G1 X145.898 Y110.074 E79.61250
G1 X140.818 Y111.396 E80.24240
G1 X140.818 Y115.505 E80.73548
G0 F12000 X141.218 Y114.996
;TYPE:WALL-OUTER
G1 F1200 X145.498 Y113.957 E81.26400
G1 X145.498 Y110.591 E81.66792
G1 X141.218 Y111.705 E82.19863
G1 X141.218 Y114.996 E82.59355
G0 F12000 X140.918 Y114.996
G0 X139.996 Y111.690
G0 X139.600 Y111.817
G0 X139.674 Y112.106
G1 F1200 X122.889 Y116.477 E84.67493
G1 X123.205 Y117.148 E84.76393
G1 X123.360 Y117.621 E84.82366
G1 X123.453 Y118.101 E84.88233
G1 X123.478 Y118.352 E84.91260
G1 X123.486 Y118.601 E84.94249
G1 X123.478 Y118.857 E84.97323
G1 X123.455 Y119.095 E85.00192
G1 X123.415 Y119.349 E85.03278
G1 X123.294 Y119.824 E85.09160
G1 X123.112 Y120.284 E85.15096
G1 X122.877 Y120.713 E85.20966
G1 X122.584 Y121.117 E85.26955
G1 X122.235 Y121.491 E85.33093
G1 X121.645 Y121.946 E85.42034
G1 X121.441 Y122.066 E85.44874
G1 X120.988 Y122.279 E85.50881
G1 X120.516 Y122.433 E85.56839
G1 X120.024 Y122.526 E85.62847
G1 X119.786 Y122.549 E85.65717
G1 X119.531 Y122.557 E85.68778
G1 X119.282 Y122.549 E85.71768
G1 X119.047 Y122.526 E85.74601
G1 X118.546 Y122.431 E85.80720
G1 X118.322 Y122.366 E85.83519
G1 X117.856 Y122.182 E85.89531
G1 X117.420 Y121.943 E85.95498
G1 X117.223 Y121.809 E85.98357
G1 X116.833 Y121.486 E86.04434
G1 X116.494 Y121.127 E86.10359
G1 X116.200 Y120.721 E86.16374
G1 X115.965 Y120.294 E86.22223
G1 X115.861 Y120.054 E86.25362
G1 X115.709 Y119.587 E86.31255
G1 X115.616 Y119.095 E86.37263
G1 X115.594 Y118.859 E86.40108
G1 X115.586 Y118.608 E86.43121
G1 X115.594 Y118.347 E86.46255
G1 X115.616 Y118.113 E86.49075
G1 X115.709 Y117.626 E86.55025
G1 X115.865 Y117.149 E86.61047
G1 X116.051 Y116.721 E86.66647
G1 X72.951 Y109.620 E91.90820
G1 X72.951 Y100.443 E93.00944
G1 X75.551 Y100.443 E93.32144
G1 X75.551 Y107.413 E94.15784
G1 X119.536 Y114.661 E99.50722
G1 X147.449 Y107.398 E102.96831
G1 X147.449 Y100.443 E103.80291
G1 X150.049 Y100.443 E104.11491
G1 X150.049 Y109.406 E105.19047
G1 X147.049 Y110.187 E105.56247
G1 X147.049 Y115.172 E106.16067
G1 X139.674 Y116.959 E107.07128
G1 X139.674 Y112.106 E107.65364
G0 F12000 X139.600 Y111.817
G0 X122.425 Y116.260
G0 X122.060 Y117.801
G0 X121.770 Y117.880
G1 F1200 X121.723 Y117.749 E107.67034
G1 X121.518 Y117.343 E107.72492
G1 X121.149 Y116.897 E107.79438
G1 X120.845 Y116.657 E107.84086
G1 X118.216 Y116.658 E108.15634
G1 X117.930 Y116.890 E108.20053
G1 X117.821 Y116.999 E108.21903
G1 X117.552 Y117.345 E108.27162
G1 X117.407 Y117.608 E108.30766
G1 X117.258 Y118.022 E108.36046
G1 X117.190 Y118.453 E108.41282
G1 X117.186 Y118.613 E108.43203
G1 X117.227 Y119.048 E108.48446
G1 X117.350 Y119.472 E108.53744
G1 X117.550 Y119.866 E108.59046
G1 X117.818 Y120.212 E108.64298
G1 X118.200 Y120.546 E108.70387
G1 X120.725 Y120.556 E109.00687
G1 X120.851 Y120.558 E109.02199
G1 X121.255 Y120.210 E109.08598
G1 X121.593 Y119.745 E109.15496
G1 X121.770 Y119.333 E109.20877
G1 X121.868 Y118.898 E109.26228
G1 X121.887 Y118.602 E109.29787
G1 X121.846 Y118.172 E109.34971
G1 X121.770 Y117.880 E109.38591
G0 F12000 X122.060 Y117.801
G0 X121.742 Y115.802
;TYPE:SKIN
G1 F1200 X121.151 Y115.211 E109.48621
G0 F12000 X121.599 Y115.094
G1 F1200 X122.190 Y115.685 E109.58651
G0 F12000 X122.639 Y115.568
G1 F1200 X122.048 Y114.977 E109.68680
G0 F12000 X122.497 Y114.861
G1 F1200 X123.088 Y115.452 E109.78710
G0 F12000 X123.537 Y115.335
G1 F1200 X122.946 Y114.744 E109.88739
G0 F12000 X123.395 Y114.627
G1 F1200 X123.986 Y115.218 E109.98769
G0 F12000 X124.435 Y115.101
G1 F1200 X123.844 Y114.510 E110.08799
G0 F12000 X124.293 Y114.393
G1 F1200 X124.884 Y114.984 E110.18828
G0 F12000 X125.333 Y114.868
G1 F1200 X124.742 Y114.276 E110.28866
G0 F12000 X125.191 Y114.160
G1 F1200 X125.781 Y114.750 E110.38879
G0 F12000 X126.230 Y114.634
G1 F1200 X125.640 Y114.043 E110.48900
G0 F12000 X126.089 Y113.926
G1 F1200 X126.679 Y114.517 E110.58921
G0 F12000 X127.128 Y114.400
G1 F1200 X126.538 Y113.810 E110.68934
G0 F12000 X126.987 Y113.693
G1 F1200 X127.576 Y114.283 E110.78938
G0 F12000 X128.025 Y114.166
G1 F1200 X127.435 Y113.576 E110.88951
G0 F12000 X127.884 Y113.459
G1 F1200 X128.474 Y114.049 E110.98963
G0 F12000 X128.923 Y113.933
G1 F1200 X128.333 Y113.342 E111.08984
G0 F12000 X128.782 Y113.226
G1 F1200 X129.372 Y113.815 E111.18988
G0 F12000 X129.821 Y113.699
G1 F1200 X129.231 Y113.109 E111.29001
G0 F12000 X129.680 Y112.992
G1 F1200 X130.270 Y113.582 E111.39014
G0 F12000 X130.719 Y113.465
G1 F1200 X130.128 Y112.875 E111.49035
G0 F12000 X130.577 Y112.758
G1 F1200 X131.167 Y113.348 E111.59048
G0 F12000 X131.616 Y113.231
G1 F1200 X131.026 Y112.642 E111.69052
G0 F12000 X131.475 Y112.525
G1 F1200 X132.065 Y113.115 E111.79064
G0 F12000 X132.514 Y112.998
G1 F1200 X131.924 Y112.408 E111.89077
G0 F12000 X132.373 Y112.292
G1 F1200 X132.962 Y112.881 E111.99073
G0 F12000 X133.411 Y112.764
G1 F1200 X132.822 Y112.174 E112.09077
G0 F12000 X133.271 Y112.058
G1 F1200 X133.860 Y112.647 E112.19072
G0 F12000 X134.309 Y112.531
G1 F1200 X133.720 Y111.941 E112.29077
G0 F12000 X134.169 Y111.824
G1 F1200 X134.758 Y112.413 E112.39072
G0 F12000 X135.207 Y112.297
G1 F1200 X134.618 Y111.708 E112.49068
G0 F12000 X135.067 Y111.591
G1 F1200 X135.656 Y112.180 E112.59064
G0 F12000 X136.105 Y112.063
G1 F1200 X135.515 Y111.473 E112.69076
G0 F12000 X135.964 Y111.357
G1 F1200 X136.553 Y111.946 E112.79072
G0 F12000 X137.002 Y111.829
G1 F1200 X136.413 Y111.240 E112.89067
G0 F12000 X136.862 Y111.123
G1 F1200 X137.451 Y111.712 E112.99063
G0 F12000 X137.900 Y111.596
G1 F1200 X137.311 Y111.007 E113.09059
G0 F12000 X137.760 Y110.890
G1 F1200 X138.348 Y111.478 E113.19037
G0 F12000 X138.797 Y111.362
G1 F1200 X138.209 Y110.773 E113.29025
G0 F12000 X138.657 Y110.656
G1 F1200 X139.247 Y111.245 E113.39029
G0 F12000 X139.696 Y111.128
G1 F1200 X139.106 Y110.539 E113.49033
G0 F12000 X139.556 Y110.423
G1 F1200 X140.144 Y111.011 E113.59012
G0 F12000 X140.593 Y110.894
G1 F1200 X140.005 Y110.306 E113.68990
G0 F12000 X140.454 Y110.189
G1 F1200 X141.042 Y110.778 E113.78978
G0 F12000 X141.491 Y110.661
G1 F1200 X140.903 Y110.073 E113.88956
G0 F12000 X141.351 Y109.955
G1 F1200 X141.939 Y110.544 E113.98943
G0 F12000 X142.388 Y110.427
G1 F1200 X141.800 Y109.839 E114.08922
G0 F12000 X142.249 Y109.722
G1 F1200 X142.837 Y110.310 E114.18901
G0 F12000 X143.286 Y110.194
G1 F1200 X142.698 Y109.605 E114.28888
G0 F12000 X143.147 Y109.489
G1 F1200 X143.735 Y110.076 E114.38858
G0 F12000 X144.184 Y109.960
G1 F1200 X143.596 Y109.372 E114.48837
G0 F12000 X144.044 Y109.255
G1 F1200 X144.633 Y109.843 E114.58824
G0 F12000 X145.082 Y109.726
G1 F1200 X144.493 Y109.138 E114.68811
G0 F12000 X144.942 Y109.021
G1 F1200 X145.531 Y109.610 E114.78807
G0 F12000 X145.979 Y109.492
G1 F1200 X145.391 Y108.905 E114.88777
G0 F12000 X145.840 Y108.788
G1 F1200 X146.428 Y109.375 E114.98747
G0 F12000 X146.877 Y109.259
G1 F1200 X146.289 Y108.671 E115.08726
G0 F12000 X146.738 Y108.554
G1 F1200 X147.326 Y109.142 E115.18705
G0 F12000 X147.774 Y109.025
G1 F1200 X147.187 Y108.437 E115.28675
G0 F12000 X147.636 Y108.320
G1 F1200 X148.223 Y108.908 E115.38645
G0 F12000 X148.672 Y108.791
G1 F1200 X148.085 Y108.204 E115.48607
G0 F12000 X148.387 Y107.941
G1 F1200 X149.108 Y108.661 E115.60834
G0 F12000 X149.108 Y108.096
G1 F1200 X148.387 Y107.375 E115.73070
G0 F12000 X148.387 Y106.809
G1 F1200 X149.108 Y107.530 E115.85306
G0 F12000 X149.108 Y106.964
G1 F1200 X148.387 Y106.244 E115.97533
G0 F12000 X148.387 Y105.678
G1 F1200 X149.108 Y106.399 E116.09769
G0 F12000 X149.108 Y105.833
G1 F1200 X148.387 Y105.112 E116.22005
G0 F12000 X148.387 Y104.547
G1 F1200 X149.108 Y105.267 E116.34232
G0 F12000 X149.108 Y104.702
G1 F1200 X148.387 Y103.981 E116.46468
G0 F12000 X148.387 Y103.415
G1 F1200 X149.108 Y104.136 E116.58703
G0 F12000 X149.108 Y103.570
G1 F1200 X148.387 Y102.850 E116.70931
G0 F12000 X148.387 Y102.284
G1 F1200 X149.108 Y103.004 E116.83158
G0 F12000 X149.108 Y102.439
G1 F1200 X148.387 Y101.718 E116.95394
G0 F12000 X148.617 Y101.382
G1 F1200 X149.108 Y101.873 E117.03726
G0 F12000 X147.807 Y107.674
G0 X121.091 Y115.717
G1 F1200 X120.613 Y115.522 E117.10324
G1 X120.106 Y115.581 E117.14933
G1 X119.599 Y115.639 E117.17551
G1 X119.036 Y115.642 E117.20118
G1 X118.414 Y115.586 E117.24577
G1 X117.889 Y115.343 E117.31519
G0 F12000 X117.779 Y115.800
G1 F1200 X117.212 Y115.232 E117.41150
G0 F12000 X116.534 Y115.120
G1 F1200 X117.467 Y116.053 E117.56984
G0 F12000 X116.727 Y115.878
G1 F1200 X115.857 Y115.008 E117.71748
G0 F12000 X115.179 Y114.897
G1 F1200 X116.049 Y115.766 E117.86504
G0 F12000 X115.372 Y115.655
G1 F1200 X114.502 Y114.785 E118.01268
G0 F12000 X113.825 Y114.673
G1 F1200 X114.695 Y115.544 E118.16041
G0 F12000 X114.018 Y115.432
G1 F1200 X113.147 Y114.561 E118.30823
G0 F12000 X112.470 Y114.450
G1 F1200 X113.340 Y115.320 E118.45587
G0 F12000 X112.663 Y115.208
G1 F1200 X111.793 Y114.339 E118.60343
G0 F12000 X111.116 Y114.227
G1 F1200 X111.985 Y115.097 E118.75099
G0 F12000 X111.309 Y114.986
G1 F1200 X110.438 Y114.115 E118.89880
G0 F12000 X109.761 Y114.003
G1 F1200 X110.631 Y114.874 E119.04653
G0 F12000 X109.954 Y114.762
G1 F1200 X109.083 Y113.892 E119.19426
G0 F12000 X108.406 Y113.780
G1 F1200 X109.276 Y114.651 E119.34199
G0 F12000 X108.599 Y114.539
G1 F1200 X107.729 Y113.668 E119.48972
G0 F12000 X107.051 Y113.557
G1 F1200 X107.922 Y114.427 E119.63745
G0 F12000 X107.245 Y114.316
G1 F1200 X106.374 Y113.445 E119.78526
G0 F12000 X105.697 Y113.334
G1 F1200 X106.568 Y114.204 E119.93299
G0 F12000 X105.890 Y114.093
G1 F1200 X105.020 Y113.222 E120.08072
G0 F12000 X104.342 Y113.110
G1 F1200 X105.213 Y113.981 E120.22853
G0 F12000 X104.535 Y113.869
G1 F1200 X103.665 Y112.999 E120.37617
G0 F12000 X102.987 Y112.887
G1 F1200 X103.859 Y113.758 E120.52407
G0 F12000 X103.181 Y113.646
G1 F1200 X102.310 Y112.775 E120.67189
G0 F12000 X101.633 Y112.664
G1 F1200 X102.504 Y113.535 E120.81970
G0 F12000 X101.826 Y113.423
G1 F1200 X100.955 Y112.552 E120.96751
G0 F12000 X100.279 Y112.441
G1 F1200 X101.149 Y113.311 E121.11516
G0 F12000 X100.472 Y113.200
G1 F1200 X99.601 Y112.329 E121.26297
G0 F12000 X98.924 Y112.217
