;FLAVOR:UltiGCode
;TIME:200
;MATERIAL:285
;MATERIAL2:0
;NOZZLE_DIAMETER:0.400000
;NOZZLE_DIAMETER2:0.400000
;MTYPE:PLA

;Layer count: 18
;LAYER:0
M107
G0 F12000 X96.709 Y105.630 Z0.300
;TYPE:SKIRT
G1 F1200 X97.678 Y105.012 E0.13792
G1 X98.862 Y104.634 E0.28706
G1 X123.529 Y104.622 E3.24710
G1 X127.411 Y104.622 E3.71294
G1 X128.474 Y104.903 E3.84488
G1 X129.420 Y105.390 E3.97256
G1 X130.281 Y106.180 E4.11278
G1 X130.907 Y107.159 E4.25223
G1 X131.253 Y108.265 E4.39129
G1 X131.310 Y109.472 E4.53629
G1 X131.020 Y110.630 E4.67954
G1 X130.629 Y111.382 E4.78125
G1 X130.089 Y112.155 E4.89440
G1 X127.239 Y116.229 E5.49103
G1 X126.920 Y116.686 E5.55791
G1 X126.295 Y117.367 E5.66883
G1 X125.316 Y117.993 E5.80828
G1 X124.173 Y118.351 E5.95201
G1 X123.116 Y118.378 E6.07889
G1 X95.581 Y118.378 E9.38309
G1 X94.520 Y118.093 E9.51492
G1 X93.580 Y117.609 E9.64180
G1 X92.719 Y116.819 E9.78202
G1 X92.093 Y115.840 E9.92146
G1 X91.747 Y114.734 E10.06052
G1 X91.693 Y113.579 E10.19928
G1 X91.945 Y112.434 E10.33996
G1 X92.374 Y111.615 E10.45091
G1 X96.084 Y106.308 E11.22794
G1 X96.709 Y105.630 E11.33859
G0 F12000 X96.968 Y105.940
G1 F1200 X97.849 Y105.377 E11.46405
G1 X98.925 Y105.034 E11.59958
G1 X123.529 Y105.022 E14.55206
G1 X127.359 Y105.022 E15.01166
G1 X128.330 Y105.278 E15.13216
G1 X129.189 Y105.721 E15.24814
G1 X129.972 Y106.439 E15.37562
G1 X130.541 Y107.330 E15.50248
G1 X130.856 Y108.335 E15.62887
G1 X130.907 Y109.432 E15.76065
G1 X130.644 Y110.487 E15.89113
G1 X130.286 Y111.174 E15.98409
G1 X129.761 Y111.925 E16.09405
G1 X126.911 Y116.000 E16.69077
G1 X126.608 Y116.435 E16.75439
G1 X126.036 Y117.058 E16.85588
G1 X125.145 Y117.627 E16.98274
G1 X124.107 Y117.952 E17.11327
G1 X123.111 Y117.978 E17.23283
G1 X95.634 Y117.978 E20.53007
G1 X94.665 Y117.718 E20.65046
G1 X93.811 Y117.278 E20.76574
G1 X93.028 Y116.560 E20.89322
G1 X92.459 Y115.669 E21.02009
G1 X92.144 Y114.664 E21.14647
G1 X92.095 Y113.613 E21.27273
G1 X92.324 Y112.572 E21.40064
G1 X92.716 Y111.823 E21.50208
G1 X96.396 Y106.560 E22.27272
G1 X96.968 Y105.940 E22.37394
G10
G1 Z0.400
G0 F12000 X99.651 Y109.234
;TYPE:WALL-INNER
G1 Z0.300
G11
G1 F1200 X126.525 Y109.222 E25.59882
G1 X123.345 Y113.770 E26.26476
G1 X96.475 Y113.778 E29.48916
G1 X99.651 Y109.234 E30.15443
G0 F12000 X99.364 Y108.947
G1 F1200 X99.427 Y108.879 E30.16555
G1 X99.476 Y108.847 E30.17258
G1 X99.517 Y108.834 E30.17774
G1 X126.867 Y108.822 E33.45974
G1 X126.959 Y108.846 E33.47115
G1 X127.036 Y108.903 E33.48264
G1 X127.084 Y109.003 E33.49595
G1 X127.086 Y109.051 E33.50172
G1 X127.066 Y109.131 E33.51162
G1 X127.032 Y109.196 E33.52042
G1 X123.636 Y114.052 E34.23150
G1 X123.572 Y114.122 E34.24288
G1 X123.523 Y114.153 E34.24984
G1 X123.480 Y114.167 E34.25526
G1 X96.134 Y114.178 E37.53678
G1 X96.043 Y114.154 E37.54808
G1 X96.006 Y114.134 E37.55313
G1 X95.964 Y114.096 E37.55992
G1 X95.916 Y113.996 E37.57323
G1 X95.914 Y113.940 E37.57996
G1 X95.926 Y113.883 E37.58695
G1 X99.364 Y108.947 E38.30878
G0 F12000 X99.051 Y108.697
;TYPE:WALL-OUTER
G1 F1200 X99.168 Y108.570 E38.32951
G1 X99.305 Y108.482 E38.34904
G1 X99.456 Y108.434 E38.36806
G1 X126.920 Y108.422 E41.66374
G1 X127.100 Y108.470 E41.68609
G1 X127.229 Y108.536 E41.70348
G1 X127.343 Y108.641 E41.72208
G1 X127.432 Y108.781 E41.74199
G1 X127.480 Y108.933 E41.76112
G1 X127.488 Y109.092 E41.78022
G1 X127.442 Y109.275 E41.80286
G1 X127.376 Y109.402 E41.82004
G1 X123.948 Y114.305 E42.53794
G1 X123.834 Y114.429 E42.55815
G1 X123.694 Y114.518 E42.57806
G1 X123.543 Y114.566 E42.59707
G1 X96.082 Y114.578 E45.89239
G1 X95.900 Y114.529 E45.91501
G1 X95.771 Y114.463 E45.93240
G1 X95.657 Y114.358 E45.95100
G1 X95.568 Y114.218 E45.97091
G1 X95.520 Y114.066 E45.99003
G1 X95.512 Y113.902 E46.00974
G1 X95.546 Y113.748 E46.02866
G1 X95.626 Y113.596 E46.04927
G1 X99.051 Y108.697 E46.76658
G0 F12000 X99.621 Y109.520
;TYPE:SKIN
G1 F1200 X103.736 Y113.635 E47.46492
G0 F12000 X104.301 Y113.634
G1 F1200 X100.039 Y109.373 E48.18812
G0 F12000 X100.605 Y109.373
G1 F1200 X104.866 Y113.634 E48.91123
G0 F12000 X105.432 Y113.634
G1 F1200 X101.170 Y109.373 E49.63443
G0 F12000 X101.735 Y109.372
G1 F1200 X105.998 Y113.634 E50.35780
G0 F12000 X106.563 Y113.634
G1 F1200 X102.301 Y109.372 E51.08109
G0 F12000 X102.867 Y109.372
G1 F1200 X107.128 Y113.634 E51.80429
G0 F12000 X107.694 Y113.634
G1 F1200 X103.432 Y109.371 E52.52766
G0 F12000 X103.997 Y109.371
G1 F1200 X108.260 Y113.634 E53.25112
G0 F12000 X108.825 Y113.634
G1 F1200 X104.563 Y109.371 E53.97449
G0 F12000 X105.128 Y109.371
G1 F1200 X109.390 Y113.633 E54.69777
G0 F12000 X109.956 Y113.633
G1 F1200 X105.694 Y109.371 E55.42106
G0 F12000 X106.259 Y109.371
G1 F1200 X110.522 Y113.633 E56.14443
G0 F12000 X111.087 Y113.633
G1 F1200 X106.824 Y109.370 E56.86788
G0 F12000 X107.390 Y109.370
G1 F1200 X111.652 Y113.632 E57.59117
G0 F12000 X112.218 Y113.632
G1 F1200 X107.956 Y109.370 E58.31445
G0 F12000 X108.521 Y109.369
G1 F1200 X112.784 Y113.632 E59.03791
G0 F12000 X113.349 Y113.632
G1 F1200 X109.086 Y109.369 E59.76136
G0 F12000 X109.651 Y109.368
G1 F1200 X113.914 Y113.632 E60.48490
G0 F12000 X114.480 Y113.632
G1 F1200 X110.217 Y109.368 E61.20844
G0 F12000 X110.783 Y109.368
G1 F1200 X115.046 Y113.632 E61.93198
G0 F12000 X115.611 Y113.632
G1 F1200 X111.348 Y109.368 E62.65552
G0 F12000 X111.913 Y109.368
G1 F1200 X116.176 Y113.631 E63.37898
G0 F12000 X116.742 Y113.631
G1 F1200 X112.479 Y109.368 E64.10243
G0 F12000 X113.044 Y109.367
G1 F1200 X117.308 Y113.631 E64.82606
G0 F12000 X117.873 Y113.631
G1 F1200 X113.610 Y109.367 E65.54960
G0 F12000 X114.175 Y109.367
G1 F1200 X118.439 Y113.631 E66.27322
G0 F12000 X119.004 Y113.630
G1 F1200 X114.740 Y109.366 E66.99685
G0 F12000 X115.306 Y109.366
G1 F1200 X119.570 Y113.630 E67.72047
G0 F12000 X120.136 Y113.630
G1 F1200 X115.872 Y109.366 E68.44410
G0 F12000 X116.437 Y109.366
G1 F1200 X120.701 Y113.630 E69.16772
G0 F12000 X121.266 Y113.629
G1 F1200 X117.002 Y109.366 E69.89126
G0 F12000 X117.568 Y109.366
G1 F1200 X121.832 Y113.629 E70.61480
G0 F12000 X122.398 Y113.629
G1 F1200 X118.133 Y109.365 E71.33851
G0 F12000 X118.699 Y109.365
G1 F1200 X122.963 Y113.629 E72.06214
G0 F12000 X123.377 Y113.477
G1 F1200 X119.264 Y109.365 E72.76005
G0 F12000 X119.829 Y109.364
G1 F1200 X123.610 Y113.144 E73.40162
G0 F12000 X123.843 Y112.812
G1 F1200 X120.395 Y109.364 E73.98677
G0 F12000 X120.961 Y109.364
G1 F1200 X124.076 Y112.479 E74.51540
G0 F12000 X124.308 Y112.146
G1 F1200 X121.526 Y109.363 E74.98761
G0 F12000 X122.091 Y109.363
G1 F1200 X124.542 Y111.814 E75.40355
G0 F12000 X124.774 Y111.481
G1 F1200 X122.657 Y109.363 E75.76291
G0 F12000 X123.222 Y109.363
G1 F1200 X125.007 Y111.147 E76.06575
G0 F12000 X125.239 Y110.814
G1 F1200 X123.788 Y109.363 E76.31199
G0 F12000 X124.353 Y109.363
G1 F1200 X125.473 Y110.482 E76.50197
G0 F12000 X125.705 Y110.149
G1 F1200 X124.918 Y109.362 E76.63553
G0 F12000 X125.484 Y109.362
G1 F1200 X126.054 Y109.650 E76.71255
G1 X126.050 Y109.362 E76.74711
G0 F12000 X103.170 Y113.635
G1 F1200 X99.388 Y109.853 E77.38894
G0 F12000 X99.156 Y110.187
G1 F1200 X102.604 Y113.635 E77.97409
G0 F12000 X102.039 Y113.635
G1 F1200 X98.922 Y110.519 E78.50297
G0 F12000 X98.690 Y110.852
G1 F1200 X101.474 Y113.636 E78.97543
G0 F12000 X100.908 Y113.636
G1 F1200 X98.457 Y111.185 E79.39138
G0 F12000 X98.224 Y111.518
G1 F1200 X100.342 Y113.636 E79.75082
G0 F12000 X99.777 Y113.636
G1 F1200 X97.992 Y111.851 E80.05374
G0 F12000 X97.758 Y112.183
G1 F1200 X99.212 Y113.637 E80.30050
G0 F12000 X98.646 Y113.637
G1 F1200 X97.526 Y112.516 E80.49065
G0 F12000 X97.293 Y112.849
G1 F1200 X98.080 Y113.637 E80.62429
G0 F12000 X97.514 Y113.637
G1 F1200 X96.944 Y113.349 E80.70112
G1 X96.949 Y113.637 E80.73569
;LAYER:1
M106 S5
G0 F12000 X96.468 Y113.781 Z0.400
;TYPE:WALL-INNER
G1 F1620 X99.649 Y109.231 E80.95720
G1 X126.532 Y109.219 E82.02983
G1 X123.480 Y113.584 E82.24234
G1 X123.344 Y113.773 E82.25163
G1 X96.468 Y113.781 E83.32399
G0 F12000 X96.125 Y114.180
G1 F1620 X96.057 Y114.164 E83.32677
G1 X96.005 Y114.137 E83.32911
G1 X95.962 Y114.097 E83.33145
G1 X95.932 Y114.051 E83.33365
G1 X95.914 Y113.993 E83.33607
G1 X95.912 Y113.940 E83.33819
G1 X95.924 Y113.884 E83.34047
G1 X99.362 Y108.946 E83.58055
G1 X99.426 Y108.877 E83.58430
G1 X99.474 Y108.846 E83.58658
G1 X99.517 Y108.832 E83.58839
G1 X126.875 Y108.820 E84.67997
G1 X126.945 Y108.836 E84.68284
G1 X126.995 Y108.862 E84.68508
G1 X127.038 Y108.902 E84.68743
G1 X127.068 Y108.948 E84.68962
G1 X127.086 Y109.006 E84.69204
G1 X127.088 Y109.059 E84.69416
G1 X127.076 Y109.117 E84.69652
G1 X127.034 Y109.197 E84.70013
G1 X123.799 Y113.823 E84.92536
G1 X123.573 Y114.124 E84.94038
G1 X123.527 Y114.154 E84.94257
G1 X123.478 Y114.169 E84.94461
G1 X96.125 Y114.180 E86.03600
G0 F12000 X95.625 Y113.595
;TYPE:WALL-OUTER
G1 F1620 X99.051 Y108.694 E86.27459
G1 X99.167 Y108.569 E86.28139
G1 X99.304 Y108.481 E86.28789
G1 X99.455 Y108.433 E86.29421
G1 X126.919 Y108.421 E87.39003
G1 X127.084 Y108.460 E87.39679
G1 X127.225 Y108.533 E87.40313
G1 X127.347 Y108.644 E87.40971
G1 X127.433 Y108.779 E87.41609
G1 X127.481 Y108.933 E87.42253
G1 X127.489 Y109.097 E87.42908
G1 X127.455 Y109.253 E87.43545
G1 X127.375 Y109.406 E87.44234
G1 X124.127 Y114.050 E87.66846
G1 X123.833 Y114.432 E87.68769
G1 X123.696 Y114.519 E87.69417
G1 X123.544 Y114.567 E87.70053
G1 X123.023 Y114.579 E87.72132
G1 X96.078 Y114.579 E88.79643
G1 X95.919 Y114.541 E88.80295
G1 X95.775 Y114.466 E88.80943
G1 X95.653 Y114.355 E88.81601
G1 X95.567 Y114.220 E88.82239
G1 X95.519 Y114.066 E88.82883
G1 X95.511 Y113.902 E88.83538
G1 X95.545 Y113.746 E88.84175
G1 X95.625 Y113.595 E88.84857
G0 F12000 X97.115 Y113.640
;TYPE:SKIN
G1 F1620 X101.387 Y109.368 E89.08963
G0 F12000 X101.951 Y109.368
G1 F1620 X97.679 Y113.640 E89.33068
G0 F12000 X98.244 Y113.640
G1 F1620 X102.515 Y109.368 E89.57171
G0 F12000 X103.080 Y109.368
G1 F1620 X98.808 Y113.640 E89.81277
G0 F12000 X99.373 Y113.639
G1 F1620 X103.644 Y109.368 E90.05377
G0 F12000 X104.209 Y109.368
G1 F1620 X99.937 Y113.639 E90.29480
G0 F12000 X97.169 Y113.022
G1 F1620 X100.822 Y109.369 E90.50093
G0 F12000 X100.257 Y109.369
G1 F1620 X98.480 Y111.146 E90.60120
G0 F12000 X100.501 Y113.639
G1 F1620 X104.774 Y109.367 E90.84228
G0 F12000 X105.338 Y109.367
G1 F1620 X101.066 Y113.639 E91.08334
G0 F12000 X101.631 Y113.639
G1 F1620 X105.902 Y109.367 E91.32437
G0 F12000 X106.467 Y109.366
G1 F1620 X102.195 Y113.639 E91.56545
G0 F12000 X102.759 Y113.639
G1 F1620 X107.031 Y109.366 E91.80654
G0 F12000 X107.596 Y109.366
G1 F1620 X103.323 Y113.639 E92.04765
G0 F12000 X103.888 Y113.639
G1 F1620 X108.161 Y109.366 E92.28876
G0 F12000 X108.725 Y109.366
G1 F1620 X104.453 Y113.638 E92.52982
G0 F12000 X105.017 Y113.638
G1 F1620 X109.289 Y109.366 E92.77088
G0 F12000 X109.854 Y109.365
G1 F1620 X105.581 Y113.638 E93.01199
G0 F12000 X106.145 Y113.638
G1 F1620 X110.418 Y109.365 E93.25310
G0 F12000 X110.983 Y109.365
G1 F1620 X106.710 Y113.637 E93.49419
G0 F12000 X107.275 Y113.637
G1 F1620 X111.548 Y109.364 E93.73530
G0 F12000 X112.112 Y109.364
G1 F1620 X107.839 Y113.637 E93.97641
G0 F12000 X108.403 Y113.637
G1 F1620 X112.676 Y109.364 E94.21753
G0 F12000 X113.241 Y109.363
G1 F1620 X108.968 Y113.637 E94.45867
G0 F12000 X109.532 Y113.637
G1 F1620 X113.806 Y109.363 E94.69984
G0 F12000 X114.370 Y109.363
G1 F1620 X110.097 Y113.637 E94.94098
G0 F12000 X110.661 Y113.637
G1 F1620 X114.935 Y109.363 E95.18215
G0 F12000 X115.499 Y109.363
G1 F1620 X111.225 Y113.637 E95.42332
G0 F12000 X111.790 Y113.636
G1 F1620 X116.063 Y109.363 E95.66443
G0 F12000 X116.628 Y109.362
G1 F1620 X112.355 Y113.636 E95.90557
G0 F12000 X112.919 Y113.636
G1 F1620 X117.193 Y109.362 E96.14674
G0 F12000 X117.757 Y109.362
G1 F1620 X113.483 Y113.636 E96.38791
G0 F12000 X114.048 Y113.635
G1 F1620 X118.322 Y109.361 E96.62908
G0 F12000 X118.886 Y109.361
G1 F1620 X114.612 Y113.635 E96.87025
G0 F12000 X115.177 Y113.635
G1 F1620 X119.450 Y109.361 E97.11139
G0 F12000 X120.015 Y109.361
G1 F1620 X115.741 Y113.635 E97.35256
G0 F12000 X116.306 Y113.634
G1 F1620 X120.580 Y109.361 E97.59370
G0 F12000 X121.144 Y109.361
G1 F1620 X116.870 Y113.634 E97.83484
G0 F12000 X117.434 Y113.634
G1 F1620 X121.709 Y109.360 E98.07604
G0 F12000 X122.273 Y109.360
G1 F1620 X117.999 Y113.634 E98.31721
G0 F12000 X118.564 Y113.634
G1 F1620 X122.837 Y109.360 E98.55835
G0 F12000 X123.402 Y109.359
G1 F1620 X119.128 Y113.634 E98.79955
G0 F12000 X119.692 Y113.634
G1 F1620 X123.967 Y109.359 E99.04078
G0 F12000 X124.531 Y109.359
G1 F1620 X120.256 Y113.634 E99.28200
G0 F12000 X120.821 Y113.634
G1 F1620 X125.096 Y109.359 E99.52323
G0 F12000 X125.660 Y109.359
G1 F1620 X121.386 Y113.633 E99.76440
G0 F12000 X121.950 Y113.633
G1 F1620 X126.198 Y109.385 E100.00410
G0 F12000 X125.034 Y111.113
G1 F1620 X122.514 Y113.633 E100.14630
G0 F12000 X123.079 Y113.633
G1 F1620 X123.719 Y112.992 E100.18244
;LAYER:2
M106 S10
G0 F12000 X123.482 Y113.581 Z0.500
;TYPE:WALL-INNER
G1 F2100 X123.342 Y113.773 E100.19192
G1 X96.468 Y113.781 E101.26419
G1 X99.649 Y109.231 E101.48570
G1 X126.532 Y109.219 E102.55834
G1 X123.482 Y113.581 E102.77071
G0 F12000 X123.805 Y113.815
G1 F2100 X123.574 Y114.124 E102.78610
G1 X123.527 Y114.154 E102.78832
G1 X123.478 Y114.169 E102.79037
G1 X96.125 Y114.180 E103.88175
G1 X96.057 Y114.164 E103.88454
G1 X96.005 Y114.137 E103.88688
G1 X95.962 Y114.097 E103.88922
G1 X95.932 Y114.051 E103.89141
G1 X95.914 Y113.993 E103.89384
G1 X95.912 Y113.940 E103.89595
G1 X95.924 Y113.884 E103.89824
G1 X99.362 Y108.946 E104.13831
G1 X99.426 Y108.877 E104.14207
G1 X99.474 Y108.846 E104.14435
G1 X99.517 Y108.832 E104.14615
G1 X126.875 Y108.820 E105.23774
G1 X126.945 Y108.836 E105.24060
G1 X126.995 Y108.862 E105.24285
G1 X127.038 Y108.902 E105.24519
G1 X127.068 Y108.948 E105.24739
G1 X127.086 Y109.006 E105.24981
G1 X127.088 Y109.059 E105.25192
G1 X127.076 Y109.117 E105.25429
G1 X127.034 Y109.197 E105.25789
G1 X123.805 Y113.815 E105.48273
G0 F12000 X124.128 Y114.049
;TYPE:WALL-OUTER
G1 F2100 X123.922 Y114.333 E105.49673
G1 X123.831 Y114.433 E105.50212
G1 X123.696 Y114.519 E105.50851
G1 X123.544 Y114.567 E105.51487
G1 X123.023 Y114.579 E105.53566
G1 X96.078 Y114.579 E106.61077
G1 X95.919 Y114.541 E106.61729
G1 X95.775 Y114.466 E106.62377
G1 X95.653 Y114.355 E106.63035
G1 X95.567 Y114.220 E106.63673
G1 X95.519 Y114.066 E106.64317
G1 X95.511 Y113.902 E106.64972
G1 X95.545 Y113.746 E106.65609
G1 X95.625 Y113.595 E106.66291
G1 X99.051 Y108.694 E106.90150
G1 X99.167 Y108.569 E106.90831
G1 X99.304 Y108.481 E106.91480
G1 X99.455 Y108.433 E106.92113
G1 X126.919 Y108.421 E108.01694
G1 X127.084 Y108.460 E108.02370
G1 X127.225 Y108.533 E108.03004
G1 X127.347 Y108.644 E108.03662
G1 X127.433 Y108.779 E108.04301
G1 X127.481 Y108.933 E108.04944
G1 X127.489 Y109.097 E108.05599
G1 X127.455 Y109.253 E108.06236
G1 X127.375 Y109.406 E108.06925
G1 X124.128 Y114.049 E108.29532
G0 F12000 X123.370 Y113.496
;TYPE:SKIN
G1 F2100 X119.236 Y109.362 E108.52859
G0 F12000 X118.672 Y109.362
G1 F2100 X122.942 Y113.632 E108.76953
G0 F12000 X122.378 Y113.632
G1 F2100 X118.108 Y109.362 E109.01047
G0 F12000 X117.544 Y109.363
G1 F2100 X121.813 Y113.632 E109.25136
G0 F12000 X121.249 Y113.632
G1 F2100 X116.980 Y109.363 E109.49225
G0 F12000 X116.415 Y109.363
G1 F2100 X120.686 Y113.633 E109.73322
G0 F12000 X120.121 Y113.633
G1 F2100 X115.852 Y109.363 E109.97414
G0 F12000 X115.288 Y109.363
G1 F2100 X119.557 Y113.633 E110.21505
G0 F12000 X118.993 Y113.633
G1 F2100 X114.723 Y109.363 E110.45600
G0 F12000 X114.160 Y109.364
G1 F2100 X118.429 Y113.634 E110.69691
G0 F12000 X117.865 Y113.634
G1 F2100 X113.595 Y109.364 E110.93785
G0 F12000 X113.031 Y109.364
G1 F2100 X117.301 Y113.634 E111.17880
G0 F12000 X116.736 Y113.634
G1 F2100 X112.468 Y109.365 E111.41966
G0 F12000 X111.903 Y109.365
G1 F2100 X116.172 Y113.634 E111.66055
G0 F12000 X115.609 Y113.634
G1 F2100 X111.339 Y109.365 E111.90146
G0 F12000 X110.776 Y109.366
G1 F2100 X115.044 Y113.634 E112.14229
G0 F12000 X114.480 Y113.634
G1 F2100 X110.211 Y109.366 E112.38315
G0 F12000 X109.647 Y109.366
G1 F2100 X113.916 Y113.634 E112.62401
G0 F12000 X113.352 Y113.635
G1 F2100 X109.083 Y109.366 E112.86490
G0 F12000 X108.519 Y109.366
