;FLAVOR:UltiGCode
;TIME:540
;MATERIAL:509
;MATERIAL2:0
;NOZZLE_DIAMETER:0.400000
;NOZZLE_DIAMETER2:0.400000
;MTYPE:PLA

;Layer count: 73
;LAYER:0
M107
G0 F12000 X96.725 Y105.613 Z0.300
;TYPE:SKIRT
G1 F1200 X97.708 Y105.003 E0.13883
G1 X98.861 Y104.634 E0.28410
G1 X125.577 Y104.622 E3.49002
G1 X127.362 Y104.622 E3.70422
G1 X128.433 Y104.874 E3.83625
G1 X129.443 Y105.412 E3.97357
G1 X130.296 Y106.192 E4.11227
G1 X130.916 Y107.191 E4.25337
G1 X131.253 Y108.264 E4.38833
G1 X131.308 Y109.436 E4.52912
G1 X131.036 Y110.621 E4.67502
G1 X130.587 Y111.442 E4.78731
G1 X127.992 Y115.153 E5.33071
G1 X127.421 Y115.968 E5.45012
G1 X126.921 Y116.685 E5.55502
G1 X126.280 Y117.384 E5.66883
G1 X125.284 Y118.002 E5.80948
G1 X124.142 Y118.361 E5.95314
G1 X121.692 Y118.378 E6.24714
G1 X95.615 Y118.378 E9.37638
G1 X94.557 Y118.115 E9.50721
G1 X93.575 Y117.605 E9.63999
G1 X92.719 Y116.819 E9.77945
G1 X92.093 Y115.840 E9.91889
G1 X91.747 Y114.734 E10.05795
G1 X91.693 Y113.579 E10.19670
G1 X91.951 Y112.403 E10.34118
G1 X92.412 Y111.560 E10.45648
G1 X96.084 Y106.308 E11.22548
G1 X96.725 Y105.613 E11.33894
G0 F12000 X96.982 Y105.924
G1 F1200 X97.877 Y105.369 E11.46531
G1 X98.923 Y105.034 E11.59711
G1 X125.577 Y105.022 E14.79559
G1 X127.316 Y105.022 E15.00427
G1 X128.290 Y105.252 E15.12437
G1 X129.210 Y105.742 E15.24945
G1 X129.985 Y106.450 E15.37541
G1 X130.549 Y107.359 E15.50378
G1 X130.856 Y108.334 E15.62645
G1 X130.906 Y109.400 E15.75451
G1 X130.659 Y110.478 E15.88722
G1 X130.247 Y111.231 E15.99022
G1 X127.664 Y114.924 E16.53102
G1 X127.090 Y115.744 E16.65113
G1 X126.608 Y116.434 E16.75214
G1 X126.022 Y117.073 E16.85618
G1 X125.116 Y117.635 E16.98412
G1 X124.079 Y117.962 E17.11460
G1 X121.691 Y117.978 E17.40116
G1 X95.664 Y117.978 E20.52440
G1 X94.700 Y117.738 E20.64361
G1 X93.807 Y117.274 E20.76438
G1 X93.028 Y116.560 E20.89118
G1 X92.459 Y115.669 E21.01804
G1 X92.144 Y114.664 E21.14443
G1 X92.095 Y113.613 E21.27069
G1 X92.330 Y112.545 E21.40191
G1 X92.752 Y111.771 E21.50770
G1 X96.396 Y106.559 E22.27084
G1 X96.982 Y105.924 E22.37453
G10
G1 Z0.400
G0 F12000 X95.933 Y114.047
;TYPE:WALL-INNER
G1 Z0.300
G11
G1 F1200 X95.925 Y114.022 E22.37768
G1 X95.960 Y114.090 E22.38686
G1 X95.933 Y114.047 E22.39295
G0 F12000 X127.070 Y108.959
G1 F1200 X127.076 Y108.980 E22.39557
G1 X127.042 Y108.915 E22.40438
G1 X127.070 Y108.959 E22.41064
G0 F12000 X127.357 Y109.429
;TYPE:WALL-OUTER
G1 F1200 X123.948 Y114.305 E23.12458
G1 X123.834 Y114.429 E23.14479
G1 X123.686 Y114.521 E23.16570
G1 X123.545 Y114.565 E23.18343
G1 X121.679 Y114.578 E23.40735
G1 X96.080 Y114.578 E26.47923
G1 X95.909 Y114.535 E26.50039
G1 X95.774 Y114.465 E26.51864
G1 X95.657 Y114.358 E26.53766
G1 X95.568 Y114.218 E26.55757
G1 X95.520 Y114.066 E26.57670
G1 X95.512 Y113.902 E26.59640
G1 X95.545 Y113.751 E26.61495
G1 X95.647 Y113.564 E26.64051
G1 X99.051 Y108.697 E27.35322
G1 X99.168 Y108.570 E27.37394
G1 X99.313 Y108.480 E27.39442
G1 X99.456 Y108.434 E27.41245
G1 X126.919 Y108.422 E30.70801
G1 X127.084 Y108.461 E30.72836
G1 X127.230 Y108.539 E30.74822
G1 X127.344 Y108.643 E30.76674
G1 X127.435 Y108.789 E30.78738
G1 X127.480 Y108.933 E30.80549
G1 X127.488 Y109.094 E30.82483
G1 X127.450 Y109.260 E30.84526
G1 X127.357 Y109.429 E30.86841
G0 F12000 X126.760 Y109.238
G1 F1200 X126.648 Y109.022 E30.89761
G1 X99.562 Y109.022 E34.14793
G1 X96.241 Y113.763 E34.84254
G1 X96.353 Y113.978 E34.87163
G1 X123.438 Y113.978 E38.12183
G1 X126.760 Y109.238 E38.81642
G0 F12000 X127.016 Y109.197
;TYPE:SKIN
G1 F1200 X127.052 Y109.515 E38.84205
G1 X126.675 Y109.704 E38.86634
G1 X126.586 Y110.181 E38.89095
G1 X126.209 Y110.370 E38.91524
G1 X126.121 Y110.847 E38.93983
G1 X125.742 Y111.034 E38.96455
G1 X125.655 Y111.513 E38.98923
G1 X125.276 Y111.700 E39.01396
G1 X125.189 Y112.178 E39.03859
G1 X124.810 Y112.365 E39.06331
G1 X124.724 Y112.844 E39.08813
G1 X124.344 Y113.030 E39.11288
G1 X124.258 Y113.510 E39.13775
G1 X123.878 Y113.695 E39.16286
G1 X123.776 Y114.160 E39.18771
G1 X123.321 Y114.270 E39.21018
G1 X122.756 Y114.270 E39.24171
G1 X122.190 Y114.270 E39.27329
G1 X121.625 Y114.271 E39.30482
G1 X121.059 Y114.271 E39.33657
G1 X120.494 Y114.271 E39.36826
G1 X120.117 Y114.177 E39.41489
G10
G1 Z0.400
G0 F12000 X120.418 Y108.821
G1 Z0.300
G11
G1 F1200 X120.504 Y108.625 E39.44809
G1 X121.167 Y108.723 E39.48126
G1 X121.733 Y108.722 E39.51437
G1 X122.299 Y108.722 E39.54782
G1 X122.864 Y108.722 E39.58105
G1 X123.430 Y108.722 E39.61433
G1 X123.995 Y108.722 E39.64789
G1 X124.561 Y108.722 E39.68134
G1 X125.126 Y108.721 E39.71490
G1 X125.692 Y108.721 E39.74852
G1 X126.258 Y108.721 E39.78214
G1 X126.640 Y108.821 E39.82952
G0 F12000 X119.852 Y108.821
G1 F1200 X119.470 Y108.723 E39.86277
G1 X118.905 Y108.723 E39.89599
G1 X118.340 Y108.723 E39.92921
G1 X117.774 Y108.723 E39.96232
G1 X117.209 Y108.723 E39.99521
G1 X116.643 Y108.723 E40.02832
G1 X116.077 Y108.723 E40.06126
G1 X115.512 Y108.724 E40.09397
G1 X114.946 Y108.724 E40.12674
G1 X114.380 Y108.724 E40.15969
G1 X113.815 Y108.724 E40.19240
G1 X113.250 Y108.724 E40.22511
G1 X112.684 Y108.724 E40.25788
G1 X112.118 Y108.724 E40.29066
G1 X111.553 Y108.724 E40.32320
G1 X110.987 Y108.724 E40.35580
G1 X110.421 Y108.724 E40.38840
G1 X109.856 Y108.725 E40.42078
G1 X109.290 Y108.725 E40.45338
G1 X108.725 Y108.725 E40.48575
G1 X108.160 Y108.725 E40.51813
G1 X107.594 Y108.725 E40.55056
G1 X107.028 Y108.725 E40.58299
G1 X106.463 Y108.725 E40.61537
G1 X105.897 Y108.725 E40.64763
G1 X105.331 Y108.725 E40.67989
G1 X104.766 Y108.726 E40.71193
G1 X104.200 Y108.726 E40.74402
G1 X103.635 Y108.726 E40.77605
G1 X103.069 Y108.726 E40.80815
G1 X102.504 Y108.726 E40.84018
G1 X101.938 Y108.726 E40.87210
G1 X101.372 Y108.726 E40.90403
G1 X100.807 Y108.726 E40.93589
G1 X100.241 Y108.726 E40.96781
G1 X99.675 Y108.726 E40.99974
G1 X99.221 Y108.838 E41.02232
G1 X99.120 Y109.303 E41.04745
G1 X98.739 Y109.487 E41.07258
G1 X98.654 Y109.968 E41.09764
G1 X98.274 Y110.153 E41.12249
G1 X98.188 Y110.633 E41.14736
G1 X97.808 Y110.819 E41.17211
G1 X97.722 Y111.298 E41.19678
G1 X97.343 Y111.485 E41.22163
G1 X97.255 Y111.963 E41.24613
G1 X96.877 Y112.151 E41.27070
G1 X96.789 Y112.629 E41.29519
G1 X96.411 Y112.816 E41.31974
G1 X96.323 Y113.293 E41.34419
G1 X95.946 Y113.482 E41.36848
G1 X96.170 Y113.989 E41.39408
G1 X96.740 Y114.276 E41.42778
G1 X97.306 Y114.276 E41.46140
G1 X97.871 Y114.276 E41.49496
G1 X98.437 Y114.276 E41.52841
G1 X99.003 Y114.276 E41.56186
G1 X99.568 Y114.276 E41.59525
G1 X100.134 Y114.276 E41.62870
G1 X100.699 Y114.276 E41.66210
G1 X101.265 Y114.275 E41.69521
G1 X101.830 Y114.275 E41.72843
G1 X102.396 Y114.275 E41.76154
G1 X102.962 Y114.275 E41.79465
G1 X103.527 Y114.275 E41.82770
G1 X104.092 Y114.275 E41.86076
G1 X104.658 Y114.275 E41.89387
G1 X105.224 Y114.275 E41.92698
G1 X105.789 Y114.274 E41.95986
G1 X106.355 Y114.274 E41.99280
G1 X106.920 Y114.274 E42.02569
G1 X107.486 Y114.274 E42.05846
G1 X108.052 Y114.274 E42.09123
G1 X108.617 Y114.273 E42.12377
G1 X109.182 Y114.273 E42.15632
G1 X109.748 Y114.273 E42.18892
G1 X110.313 Y114.273 E42.22146
G1 X110.879 Y114.273 E42.25406
G1 X111.445 Y114.273 E42.28666
G1 X112.010 Y114.273 E42.31904
G1 X112.576 Y114.273 E42.35130
G1 X113.141 Y114.272 E42.38368
G1 X113.707 Y114.272 E42.41594
G1 X114.273 Y114.272 E42.44820
G1 X114.838 Y114.272 E42.48057
G1 X115.404 Y114.272 E42.51284
G1 X115.969 Y114.272 E42.54504
G1 X116.535 Y114.272 E42.57713
G1 X117.101 Y114.272 E42.60923
G1 X117.666 Y114.271 E42.64126
G1 X118.231 Y114.271 E42.67330
G1 X118.797 Y114.271 E42.70522
G1 X119.362 Y114.271 E42.73709
G1 X119.740 Y114.366 E42.78386
;LAYER:1
M106 S5
G10
G1 Z0.400
G0 F12000 X127.067 Y108.946 Z0.400
;TYPE:WALL-INNER
G1 Z0.400
G11
G1 F1620 X127.082 Y108.995 E42.78590
G1 X127.033 Y108.900 E42.79017
G1 X127.067 Y108.946 E42.79245
G0 F12000 X95.932 Y114.051
G1 F1620 X95.918 Y114.005 E42.79437
G1 X95.970 Y114.104 E42.79883
G1 X95.932 Y114.051 E42.80143
G0 F12000 X95.704 Y113.481
;TYPE:WALL-OUTER
G1 F1620 X99.051 Y108.694 E43.03449
G1 X99.177 Y108.562 E43.04177
G1 X99.304 Y108.481 E43.04778
G1 X99.455 Y108.433 E43.05410
G1 X126.919 Y108.421 E44.14991
G1 X127.083 Y108.460 E44.15664
G1 X127.235 Y108.541 E44.16351
G1 X127.352 Y108.652 E44.16995
G1 X127.433 Y108.779 E44.17596
G1 X127.481 Y108.933 E44.18239
G1 X127.489 Y109.097 E44.18895
G1 X127.456 Y109.248 E44.19511
G1 X127.296 Y109.519 E44.20767
G1 X123.954 Y114.299 E44.44038
G1 X123.820 Y114.440 E44.44815
G1 X123.696 Y114.519 E44.45401
G1 X123.545 Y114.566 E44.46032
G1 X121.139 Y114.579 E44.55632
G1 X96.081 Y114.579 E45.55614
G1 X95.908 Y114.535 E45.56326
G1 X95.774 Y114.465 E45.56929
G1 X95.653 Y114.355 E45.57582
G1 X95.567 Y114.220 E45.58220
G1 X95.519 Y114.066 E45.58864
G1 X95.511 Y113.902 E45.59519
G1 X95.544 Y113.751 E45.60136
G1 X95.704 Y113.481 E45.61388
G0 F12000 X96.242 Y113.763
G1 F1620 X96.353 Y113.977 E45.62350
G1 X123.437 Y113.977 E46.70415
G1 X126.758 Y109.238 E46.93504
G1 X126.647 Y109.023 E46.94470
G1 X99.562 Y109.023 E48.02539
G1 X96.242 Y113.763 E48.25629
G0 F12000 X96.308 Y113.318
;TYPE:SKIN
G1 F1620 X95.791 Y113.836 E48.28549
G0 F12000 X96.377 Y114.378
G1 F1620 X96.760 Y114.276 E48.29695
G1 X97.325 Y114.276 E48.30836
G1 X97.889 Y114.276 E48.31981
G1 X98.454 Y114.276 E48.33122
G1 X99.018 Y114.276 E48.34262
G1 X99.583 Y114.276 E48.35403
G1 X99.966 Y114.175 E48.36983
G0 F12000 X99.966 Y114.277
G0 X96.129 Y114.347
G0 X95.809 Y113.735
G0 X97.628 Y111.434
G1 F1620 X96.789 Y112.273 E48.41718
G0 F12000 X96.872 Y112.333
G0 X98.182 Y110.458
G0 X98.099 Y110.399
G1 F1620 X98.948 Y109.550 E48.46508
G0 F12000 X99.675 Y108.823
G1 F1620 X100.053 Y108.726 E48.47593
G1 X100.617 Y108.726 E48.48676
G1 X101.181 Y108.726 E48.49759
G1 X101.746 Y108.726 E48.50849
G1 X102.311 Y108.726 E48.51940
G1 X102.875 Y108.726 E48.53028
G1 X103.440 Y108.726 E48.54124
G1 X104.004 Y108.726 E48.55213
G1 X104.568 Y108.726 E48.56302
G1 X105.132 Y108.725 E48.57396
G1 X105.697 Y108.725 E48.58492
G1 X106.261 Y108.725 E48.59586
G1 X106.826 Y108.725 E48.60688
G1 X107.390 Y108.725 E48.61787
G1 X107.954 Y108.725 E48.62887
G1 X108.519 Y108.725 E48.63989
G1 X109.083 Y108.725 E48.65089
G1 X109.648 Y108.725 E48.66191
G1 X110.212 Y108.724 E48.67296
G1 X110.776 Y108.724 E48.68401
G1 X111.340 Y108.724 E48.69507
G1 X111.905 Y108.724 E48.70620
G1 X112.470 Y108.724 E48.71733
G1 X113.034 Y108.724 E48.72850
G1 X113.598 Y108.724 E48.73966
G1 X114.163 Y108.724 E48.75079
G1 X114.727 Y108.724 E48.76196
G1 X115.291 Y108.723 E48.77313
G1 X115.856 Y108.723 E48.78437
G1 X116.420 Y108.723 E48.79554
G1 X116.985 Y108.723 E48.80678
G1 X117.549 Y108.723 E48.81801
G1 X118.113 Y108.723 E48.82923
G1 X118.678 Y108.722 E48.84047
G1 X119.242 Y108.722 E48.85175
G1 X119.806 Y108.722 E48.86303
G1 X120.371 Y108.722 E48.87433
G1 X120.935 Y108.722 E48.88561
G1 X121.500 Y108.722 E48.89691
G1 X122.064 Y108.722 E48.90825
G1 X122.629 Y108.722 E48.91961
G1 X123.193 Y108.722 E48.93094
G1 X123.757 Y108.721 E48.94239
G1 X124.322 Y108.721 E48.95381
G1 X124.886 Y108.721 E48.96525
G1 X125.451 Y108.721 E48.97667
G1 X126.015 Y108.721 E48.98812
G1 X126.579 Y108.721 E48.99957
G1 X126.951 Y108.632 E49.01483
G0 F12000 X126.726 Y109.986
G1 F1620 X125.890 Y110.822 E49.06200
G0 F12000 X125.414 Y111.862
G1 F1620 X124.570 Y112.706 E49.10963
G0 F12000 X124.102 Y113.738
G1 F1620 X123.473 Y114.367 E49.14512
G0 F12000 X123.101 Y114.175
G1 F1620 X122.723 Y114.271 E49.15592
G1 X122.159 Y114.271 E49.16669
G1 X121.594 Y114.271 E49.17754
G1 X121.029 Y114.271 E49.18839
G1 X120.465 Y114.271 E49.19922
G1 X119.901 Y114.271 E49.21010
G1 X119.336 Y114.271 E49.22095
G1 X118.772 Y114.271 E49.23184
G1 X118.208 Y114.272 E49.24272
G1 X117.643 Y114.272 E49.25368
G1 X117.079 Y114.272 E49.26457
G1 X116.514 Y114.272 E49.27553
G1 X115.950 Y114.272 E49.28647
G1 X115.385 Y114.272 E49.29743
G1 X114.821 Y114.272 E49.30843
G1 X114.257 Y114.272 E49.31943
G1 X113.693 Y114.272 E49.33043
G1 X113.128 Y114.273 E49.34144
G1 X112.564 Y114.273 E49.35244
G1 X111.999 Y114.273 E49.36352
G1 X111.434 Y114.273 E49.37465
G1 X110.870 Y114.273 E49.38570
G1 X110.306 Y114.274 E49.39687
G1 X109.742 Y114.274 E49.40803
G1 X109.177 Y114.274 E49.41917
G1 X108.613 Y114.274 E49.43033
G1 X108.048 Y114.274 E49.44146
G1 X107.484 Y114.274 E49.45263
G1 X106.919 Y114.274 E49.46387
G1 X106.355 Y114.274 E49.47504
G1 X105.791 Y114.274 E49.48621
G1 X105.226 Y114.275 E49.49745
G1 X104.662 Y114.275 E49.50868
G1 X104.098 Y114.275 E49.51990
G1 X103.533 Y114.275 E49.53114
G1 X102.969 Y114.275 E49.54242
G1 X102.405 Y114.275 E49.55365
G1 X101.840 Y114.275 E49.56495
G1 X101.276 Y114.275 E49.57623
G1 X100.711 Y114.276 E49.58758
G1 X100.328 Y114.377 E49.60339
;LAYER:2
M106 S10
G0 F12000 X96.129 Y114.347 Z0.500
G0 X95.932 Y114.051
;TYPE:WALL-INNER
G1 F2100 X95.918 Y114.005 E49.60531
G1 X95.970 Y114.104 E49.60977
G1 X95.932 Y114.051 E49.61237
G10
G1 Z0.600
G0 F12000 X127.068 Y108.948
G1 Z0.500
G11
G1 F2100 X127.082 Y108.995 E49.61433
G1 X127.034 Y108.903 E49.61847
G1 X127.068 Y108.948 E49.62072
G0 F12000 X127.373 Y109.408
;TYPE:WALL-OUTER
G1 F2100 X123.954 Y114.299 E49.85882
G1 X123.817 Y114.442 E49.86672
G1 X123.696 Y114.519 E49.87245
G1 X123.546 Y114.566 E49.87872
G1 X96.083 Y114.579 E50.97449
G1 X95.903 Y114.533 E50.98190
G1 X95.774 Y114.465 E50.98772
G1 X95.653 Y114.355 E50.99425
G1 X95.567 Y114.220 E51.00063
G1 X95.519 Y114.066 E51.00707
G1 X95.511 Y113.902 E51.01362
G1 X95.545 Y113.746 E51.01999
G1 X95.625 Y113.595 E51.02681
G1 X99.051 Y108.694 E51.26540
G1 X99.180 Y108.560 E51.27282
G1 X99.304 Y108.481 E51.27869
G1 X99.455 Y108.433 E51.28501
G1 X126.919 Y108.421 E52.38082
G1 X127.084 Y108.460 E52.38759
G1 X127.224 Y108.532 E52.39387
G1 X127.356 Y108.658 E52.40115
G1 X127.433 Y108.779 E52.40687
G1 X127.481 Y108.933 E52.41331
G1 X127.489 Y109.092 E52.41966
G1 X127.447 Y109.269 E52.42692
G1 X127.373 Y109.408 E52.43320
G0 F12000 X126.758 Y109.237
G1 F2100 X126.647 Y109.023 E52.44282
G1 X99.563 Y109.023 E53.52348
G1 X96.242 Y113.763 E53.75440
G1 X96.353 Y113.977 E53.76402
G1 X123.437 Y113.977 E54.84467
G1 X126.758 Y109.237 E55.07560
G0 F12000 X127.004 Y109.231
;TYPE:SKIN
G1 F2100 X127.035 Y109.543 E55.08384
G1 X126.655 Y109.728 E55.09209
G1 X126.571 Y110.208 E55.10042
G1 X126.190 Y110.391 E55.10879
G1 X126.106 Y110.872 E55.11709
G1 X125.725 Y111.055 E55.12546
G1 X125.642 Y111.536 E55.13380
G1 X125.261 Y111.719 E55.14226
G1 X125.178 Y112.201 E55.15067
G1 X124.795 Y112.382 E55.15910
G1 X124.714 Y112.865 E55.16757
G1 X124.331 Y113.046 E55.17604
G1 X124.250 Y113.529 E55.18457
G1 X123.866 Y113.710 E55.19310
G1 X123.766 Y114.175 E55.20161
G1 X123.298 Y114.270 E55.20987
G1 X122.734 Y114.270 E55.22065
G1 X122.170 Y114.271 E55.23136
G1 X121.606 Y114.271 E55.24213
G1 X121.041 Y114.271 E55.25293
G1 X120.478 Y114.271 E55.26368
G1 X120.099 Y114.175 E55.27928
G10
G1 Z0.600
G0 F12000 X120.390 Y108.823
G1 Z0.500
G11
G1 F2100 X120.471 Y108.622 E55.29063
G1 X121.136 Y108.722 E55.30193
G1 X121.700 Y108.722 E55.31321
G1 X122.264 Y108.722 E55.32449
G1 X122.828 Y108.722 E55.33577
G1 X123.392 Y108.722 E55.34705
G1 X123.957 Y108.722 E55.35841
G1 X124.521 Y108.722 E55.36975
G1 X125.085 Y108.721 E55.38108
G1 X125.649 Y108.721 E55.39253
G1 X126.213 Y108.721 E55.40398
G1 X126.597 Y108.823 E55.41983
G0 F12000 X119.826 Y108.823
G1 F2100 X119.444 Y108.723 E55.43109
G1 X118.879 Y108.723 E55.44233
G1 X118.315 Y108.723 E55.45355
G1 X117.751 Y108.723 E55.46472
G1 X117.186 Y108.723 E55.47596
G1 X116.622 Y108.723 E55.48713
G1 X116.058 Y108.724 E55.49830
G1 X115.494 Y108.724 E55.50947
G1 X114.930 Y108.724 E55.52063
G1 X114.366 Y108.724 E55.53180
G1 X113.802 Y108.724 E55.54297
G1 X113.238 Y108.724 E55.55414
G1 X112.673 Y108.724 E55.56527
G1 X112.109 Y108.724 E55.57632
G1 X111.545 Y108.724 E55.58737
G1 X110.981 Y108.725 E55.59837
G1 X110.417 Y108.725 E55.60937
G1 X109.853 Y108.725 E55.62037
G1 X109.289 Y108.725 E55.63137
G1 X108.724 Y108.725 E55.64238
G1 X108.160 Y108.725 E55.65338
G1 X107.596 Y108.725 E55.66432
G1 X107.032 Y108.725 E55.67527
G1 X106.467 Y108.725 E55.68623
G1 X105.904 Y108.726 E55.69715
G1 X105.340 Y108.726 E55.70803
G1 X104.775 Y108.726 E55.71899
G1 X104.211 Y108.726 E55.72988
