;FLAVOR:UltiGCode
;TIME:1707
;MATERIAL:2392
;MATERIAL2:0
;NOZZLE_DIAMETER:0.400000
;NOZZLE_DIAMETER2:0.400000
;MTYPE:PLA

;Layer count: 43
;LAYER:0
M107
G0 F12000 X51.034 Y93.549 Z0.300
G0 X50.636 Y93.860
;TYPE:SKIRT
G1 F1200 X51.034 Y93.549 E0.06061
G1 X51.930 Y93.173 E0.17722
G1 X52.397 Y92.974 E0.23813
G1 X53.598 Y92.806 E0.38365
G1 X65.412 Y92.755 E1.80135
G1 X66.553 Y92.749 E1.93827
G1 X69.452 Y91.812 E2.30387
G1 X72.118 Y90.949 E2.64013
G1 X73.434 Y92.720 E2.90490
G1 X73.783 Y92.718 E2.94678
G1 X75.355 Y90.449 E3.27803
G1 X79.304 Y92.694 E3.82313
G1 X98.029 Y92.612 E6.07015
G1 X100.927 Y91.675 E6.43564
G1 X103.593 Y90.812 E6.77190
G1 X104.908 Y92.582 E7.03651
G1 X105.257 Y92.580 E7.07839
G1 X106.828 Y90.311 E7.40956
G1 X110.779 Y92.556 E7.95487
G1 X119.091 Y92.520 E8.95232
G1 X120.466 Y92.839 E9.12170
G1 X121.319 Y93.276 E9.23672
G1 X121.490 Y93.364 E9.25979
G1 X121.646 Y93.242 E9.28356
G1 X123.019 Y92.663 E9.46237
G1 X124.214 Y92.498 E9.60713
G1 X136.027 Y92.447 E11.02470
G1 X137.168 Y92.441 E11.16162
G1 X140.067 Y91.504 E11.52722
G1 X142.733 Y90.641 E11.86349
G1 X144.048 Y92.411 E12.12809
G1 X144.398 Y92.409 E12.17009
G1 X145.970 Y90.140 E12.50133
G1 X149.919 Y92.385 E13.04644
G1 X168.644 Y92.303 E15.29346
G1 X171.542 Y91.366 E15.65895
G1 X174.208 Y90.503 E15.99521
G1 X175.524 Y92.274 E16.25998
G1 X175.874 Y92.272 E16.30198
G1 X177.441 Y90.002 E16.63298
G1 X181.394 Y92.247 E17.17850
G1 X189.706 Y92.211 E18.17595
G1 X191.081 Y92.530 E18.34533
G1 X191.934 Y92.967 E18.46034
G1 X192.385 Y93.199 E18.52121
G1 X193.100 Y93.850 E18.63724
G1 X193.476 Y94.189 E18.69799
G1 X194.285 Y95.442 E18.87697
G1 X194.582 Y96.368 E18.99366
G1 X194.739 Y96.853 E19.05484
G1 X194.786 Y97.849 E19.17449
G1 X194.819 Y98.299 E19.22864
G1 X194.602 Y99.301 E19.35166
G1 X194.498 Y99.788 E19.41142
G1 X193.916 Y100.922 E19.56438
G1 X176.357 Y126.267 E23.26436
G1 X172.062 Y126.287 E23.77977
G1 X169.745 Y126.293 E24.05781
G1 X167.941 Y122.860 E24.52319
G1 X173.442 Y114.918 E25.68251
G1 X116.810 Y114.918 E32.47835
G1 X112.238 Y121.518 E33.44182
G1 X111.823 Y126.547 E34.04735
G1 X107.581 Y126.570 E34.55640
G1 X107.387 Y126.569 E34.57968
G1 X106.742 Y126.572 E34.65708
G1 X106.217 Y126.575 E34.72008
G1 X102.345 Y126.592 E35.18473
G1 X101.809 Y126.594 E35.24905
G1 X97.508 Y126.615 E35.76517
G1 X96.628 Y119.556 E36.61881
G1 X99.843 Y119.537 E37.00462
G1 X102.764 Y115.321 E37.62010
G1 X46.194 Y115.230 E44.40851
G1 X41.133 Y122.536 E45.47503
G1 X43.094 Y126.849 E46.04358
G1 X36.701 Y126.879 E46.81075
G1 X36.689 Y126.878 E46.81219
G1 X36.318 Y126.880 E46.85671
G1 X34.037 Y126.890 E47.13044
G1 X31.438 Y126.898 E47.44232
G1 X29.634 Y123.461 E47.90812
G1 X32.143 Y119.846 E48.43616
G1 X32.220 Y119.845 E48.44540
G1 X49.178 Y95.366 E52.01890
G1 X49.559 Y94.863 E52.09462
G1 X49.858 Y94.466 E52.15426
G1 X50.636 Y93.860 E52.27260
G10
G1 Z0.400
G0 F12000 X53.176 Y97.205
;TYPE:WALL-INNER
G1 Z0.300
G11
G1 F1200 X53.532 Y97.055 E52.31896
G1 X53.895 Y97.005 E52.36293
G1 X67.225 Y96.946 E53.96254
G1 X69.142 Y96.327 E54.20428
G1 X69.463 Y96.937 E54.28699
G1 X75.990 Y96.909 E55.07024
G1 X76.620 Y95.999 E55.20306
G1 X78.203 Y96.899 E55.42157
G1 X98.700 Y96.809 E57.88124
G1 X100.617 Y96.190 E58.12297
G1 X100.938 Y96.800 E58.20569
G1 X107.466 Y96.771 E58.98906
G1 X108.095 Y95.861 E59.12180
G1 X109.678 Y96.761 E59.34032
G1 X118.620 Y96.722 E60.41337
G1 X119.011 Y96.813 E60.46154
G1 X119.355 Y96.989 E60.50791
G1 X119.636 Y97.243 E60.55336
G1 X119.841 Y97.562 E60.59887
G1 X119.955 Y97.920 E60.64395
G1 X119.974 Y98.303 E60.68997
G1 X119.895 Y98.668 E60.73478
G1 X119.232 Y99.956 E60.90862
G1 X120.838 Y100.921 E61.13345
G1 X123.195 Y97.519 E61.63010
G1 X123.491 Y97.128 E61.68895
G1 X123.795 Y96.893 E61.73506
G1 X124.137 Y96.749 E61.77959
G1 X124.514 Y96.697 E61.82526
G1 X137.840 Y96.638 E63.42439
G1 X139.756 Y96.019 E63.66601
G1 X140.078 Y96.629 E63.74879
G1 X146.605 Y96.600 E64.53203
G1 X147.235 Y95.690 E64.66485
G1 X148.818 Y96.590 E64.88336
G1 X169.315 Y96.500 E67.34303
G1 X171.232 Y95.881 E67.58476
G1 X171.553 Y96.491 E67.66748
G1 X178.080 Y96.463 E68.45073
G1 X178.710 Y95.553 E68.58354
G1 X180.293 Y96.452 E68.80200
G1 X189.235 Y96.413 E69.87505
G1 X189.626 Y96.504 E69.92322
G1 X189.971 Y96.681 E69.96975
G1 X190.250 Y96.935 E70.01503
G1 X190.455 Y97.253 E70.06043
G1 X190.570 Y97.614 E70.10590
G1 X190.589 Y97.994 E70.15155
G1 X190.509 Y98.359 E70.19639
G1 X190.302 Y98.763 E70.25087
G1 X174.151 Y122.077 E73.65429
G1 X173.591 Y122.080 E73.72149
G1 X180.719 Y111.790 E75.22362
G1 X180.157 Y110.718 E75.36886
G1 X114.609 Y110.718 E83.23462
G1 X106.537 Y122.373 E84.93590
G1 X102.977 Y122.389 E85.36311
G1 X110.032 Y112.204 E86.84988
G1 X109.472 Y111.132 E86.99502
G1 X43.997 Y111.026 E94.85203
G1 X35.922 Y122.682 E96.55361
G1 X35.361 Y122.684 E96.62093
G1 X52.576 Y97.836 E100.24838
G1 X52.878 Y97.438 E100.30834
G1 X53.176 Y97.205 E100.35373
G0 F12000 X53.391 Y97.465
G1 F1200 X45.062 Y109.488 E102.10887
G1 X45.622 Y110.560 E102.25400
G1 X77.424 Y110.612 E106.07025
G1 X85.884 Y98.400 E107.85298
G1 X85.319 Y97.327 E107.99850
G1 X76.597 Y97.365 E109.04515
G1 X75.968 Y97.567 E109.12443
G1 X74.679 Y97.984 E109.28700
G1 X74.358 Y97.374 E109.36972
G1 X68.377 Y97.400 E110.08745
G1 X67.832 Y97.400 E110.15285
G1 X67.201 Y98.312 E110.28593
G1 X65.620 Y97.412 E110.50423
G1 X53.391 Y97.465 E111.97173
G0 F12000 X45.562 Y109.520
G0 X45.883 Y110.132
G0 X77.202 Y110.188
G0 X78.735 Y109.542
G1 F1200 X79.295 Y110.614 E112.11686
G1 X111.098 Y110.666 E115.93323
G1 X119.160 Y99.026 E117.63234
G1 X118.191 Y97.182 E117.88231
G1 X108.069 Y97.227 E119.09697
G1 X107.440 Y97.429 E119.17624
G1 X106.151 Y97.846 E119.33882
G1 X105.829 Y97.236 E119.42159
G1 X99.306 Y97.265 E120.20436
G1 X98.676 Y98.175 E120.33717
G1 X97.093 Y97.275 E120.55569
G1 X87.204 Y97.318 E121.74238
G1 X78.735 Y109.542 E123.52691
G0 F12000 X79.556 Y110.186
G0 X110.876 Y110.242
G0 X115.675 Y109.180
G1 F1200 X116.237 Y110.252 E123.67216
G1 X148.075 Y110.252 E127.49272
G1 X156.499 Y98.091 E129.26796
G1 X155.934 Y97.018 E129.41348
G1 X147.212 Y97.056 E130.46013
G1 X146.583 Y97.258 E130.53941
G1 X145.295 Y97.675 E130.70187
G1 X144.974 Y97.065 E130.78458
G1 X138.447 Y97.094 E131.56783
G1 X137.816 Y98.004 E131.70072
G1 X136.235 Y97.104 E131.91902
G1 X124.004 Y97.157 E133.38676
G1 X115.675 Y109.180 E135.14190
G0 F12000 X116.497 Y109.823
G0 X147.853 Y109.829
G0 X149.384 Y109.180
G1 F1200 X149.946 Y110.252 E135.28714
G1 X181.785 Y110.252 E139.10782
G1 X189.921 Y98.507 E140.82235
G1 X189.059 Y96.873 E141.04404
G1 X178.687 Y96.919 E142.28869
G1 X178.058 Y97.121 E142.36797
G1 X176.769 Y97.538 E142.53054
G1 X176.449 Y96.929 E142.61310
G1 X175.167 Y96.933 E142.76694
G1 X169.921 Y96.956 E143.39647
G1 X169.291 Y97.866 E143.52928
G1 X167.708 Y96.966 E143.74780
G1 X157.816 Y97.009 E144.93485
G1 X149.384 Y109.180 E146.71162
G0 F12000 X149.851 Y109.209
G1 F1200 X150.188 Y109.852 E146.79874
G1 X181.575 Y109.852 E150.56518
G1 X189.454 Y98.479 E152.22545
G1 X188.818 Y97.274 E152.38896
G1 X178.750 Y97.318 E153.59713
G1 X176.495 Y98.047 E153.88152
G1 X176.546 Y97.974 E153.89220
G1 X176.208 Y97.330 E153.97948
G1 X170.131 Y97.355 E154.70873
G1 X169.412 Y98.394 E154.86035
G1 X167.603 Y97.366 E155.11003
G1 X158.026 Y97.408 E156.25928
G1 X149.851 Y109.209 E157.98200
G0 F12000 X147.865 Y109.852
G1 F1200 X156.032 Y98.062 E159.70309
G1 X155.693 Y97.419 E159.79031
G1 X147.276 Y97.455 E160.80036
G1 X145.023 Y98.184 E161.08452
G1 X145.073 Y98.111 E161.09514
G1 X144.733 Y97.466 E161.18264
G1 X138.657 Y97.493 E161.91176
G1 X137.937 Y98.532 E162.06345
G1 X136.130 Y97.504 E162.31293
G1 X124.214 Y97.556 E163.74286
G1 X116.142 Y109.209 E165.44394
G1 X116.479 Y109.852 E165.53106
G1 X147.865 Y109.852 E169.29738
G0 F12000 X155.998 Y98.060
G0 X155.676 Y97.448
G0 X148.923 Y96.190
G1 F1200 X169.251 Y96.101 E171.73676
G1 X171.506 Y95.372 E172.02115
G1 X171.455 Y95.446 E172.03193
G1 X171.794 Y96.090 E172.11927
G1 X177.870 Y96.064 E172.84839
G1 X178.590 Y95.025 E173.00009
G1 X180.398 Y96.052 E173.24960
G1 X189.278 Y96.013 E174.31521
G1 X189.766 Y96.126 E174.37532
G1 X190.199 Y96.348 E174.43372
G1 X190.556 Y96.674 E174.49173
G1 X190.820 Y97.081 E174.54994
G1 X190.968 Y97.542 E174.60804
G1 X190.990 Y98.028 E174.66642
G1 X190.889 Y98.496 E174.72388
G1 X190.648 Y98.965 E174.78715
G1 X174.361 Y122.476 E178.21931
G1 X172.825 Y122.483 E178.40363
G1 X180.252 Y111.761 E179.96880
G1 X179.915 Y111.118 E180.05591
G1 X114.819 Y111.118 E187.86743
G1 X106.824 Y122.661 E189.55240
G1 X106.882 Y122.771 E189.56732
G1 X102.211 Y122.792 E190.12785
G1 X109.566 Y112.175 E191.67774
G1 X109.230 Y111.532 E191.76480
G1 X44.206 Y111.426 E199.56769
G1 X36.211 Y122.967 E201.25246
G1 X36.270 Y123.080 E201.26776
G1 X34.596 Y123.087 E201.46864
G1 X52.263 Y97.586 E205.19139
G1 X52.589 Y97.157 E205.25605
G1 X52.973 Y96.856 E205.31460
G1 X53.425 Y96.667 E205.37339
G1 X53.868 Y96.605 E205.42707
G1 X67.161 Y96.547 E207.02224
G1 X69.416 Y95.818 E207.30663
G1 X69.365 Y95.892 E207.31742
G1 X69.704 Y96.536 E207.40475
G1 X75.780 Y96.510 E208.13388
G1 X76.499 Y95.471 E208.28550
G1 X78.308 Y96.499 E208.53518
G1 X98.636 Y96.410 E210.97457
G1 X100.891 Y95.681 E211.25895
G1 X100.840 Y95.755 E211.26974
G1 X101.179 Y96.399 E211.35707
G1 X107.255 Y96.372 E212.08620
G1 X107.974 Y95.333 E212.23782
G1 X109.783 Y96.361 E212.48750
G1 X118.663 Y96.322 E213.55312
G1 X119.151 Y96.435 E213.61322
G1 X119.584 Y96.658 E213.67167
G1 X119.943 Y96.982 E213.72970
G1 X120.206 Y97.390 E213.78795
G1 X120.353 Y97.850 E213.84590
G1 X120.377 Y98.334 E213.90405
G1 X120.275 Y98.804 E213.96177
G1 X119.759 Y99.806 E214.09701
G1 X120.723 Y100.385 E214.23195
G1 X122.876 Y97.277 E214.68566
G1 X123.202 Y96.848 E214.75032
G1 X123.587 Y96.547 E214.80896
G1 X124.036 Y96.358 E214.86742
G1 X124.480 Y96.297 E214.92120
G1 X137.776 Y96.239 E216.51674
G1 X140.031 Y95.510 E216.80113
G1 X139.980 Y95.584 E216.81191
G1 X140.319 Y96.228 E216.89924
G1 X146.395 Y96.201 E217.62837
G1 X147.114 Y95.162 E217.77999
G1 X148.923 Y96.190 E218.02968
G0 F12000 X124.226 Y97.580
G0 X120.707 Y100.312
G0 X119.831 Y99.785
G0 X118.693 Y98.998
G1 F1200 X117.950 Y97.583 E218.22146
G1 X108.132 Y97.626 E219.39963
G1 X105.876 Y98.356 E219.68417
G1 X105.928 Y98.280 E219.69522
G1 X105.589 Y97.637 E219.78245
G1 X99.516 Y97.664 E220.51122
G1 X98.797 Y98.703 E220.66284
G1 X96.988 Y97.675 E220.91252
G1 X87.414 Y97.717 E222.06141
G1 X79.201 Y109.571 E223.79195
G1 X79.537 Y110.214 E223.87901
G1 X110.889 Y110.266 E227.64126
G1 X118.693 Y98.998 E229.28605
G0 F12000 X110.876 Y110.242
G0 X79.556 Y110.186
G0 X79.235 Y109.574
G0 X85.417 Y98.372
G1 F1200 X85.078 Y97.728 E229.37338
G1 X76.661 Y97.764 E230.38343
G1 X74.404 Y98.494 E230.66809
G1 X74.456 Y98.419 E230.67904
G1 X74.117 Y97.775 E230.76637
G1 X68.378 Y97.800 E231.45506
G1 X68.042 Y97.800 E231.49538
G1 X67.322 Y98.840 E231.64717
G1 X65.515 Y97.812 E231.89664
G1 X53.601 Y97.864 E233.32633
G1 X45.528 Y109.517 E235.02748
G1 X45.864 Y110.160 E235.11454
G1 X77.215 Y110.212 E238.87667
G1 X85.417 Y98.372 E240.60508
G0 F12000 X84.950 Y98.343
;TYPE:WALL-OUTER
G1 F1200 X84.837 Y98.129 E240.63412
G1 X76.724 Y98.164 E241.60769
G1 X73.402 Y99.238 E242.02664
G1 X73.989 Y98.391 E242.15030
G1 X73.876 Y98.176 E242.17945
G1 X68.251 Y98.200 E242.85446
G1 X67.442 Y99.369 E243.02505
G1 X65.410 Y98.213 E243.30559
G1 X53.811 Y98.263 E244.69748
G1 X45.995 Y109.546 E246.34457
G1 X46.107 Y109.761 E246.37366
G1 X77.006 Y109.811 E250.08155
G1 X84.950 Y98.343 E251.75563
G0 F12000 X85.197 Y98.513
G0 X87.379 Y97.945
G0 X87.624 Y98.116
G1 F1200 X79.668 Y109.600 E253.43212
G1 X79.780 Y109.815 E253.46121
G1 X110.680 Y109.865 E257.16921
G1 X118.226 Y98.969 E258.75967
G1 X117.709 Y97.984 E258.89317
G1 X108.196 Y98.026 E260.03474
G1 X104.875 Y99.100 E260.45358
G1 X105.462 Y98.253 E260.57724
G1 X105.348 Y98.038 E260.60645
G1 X99.726 Y98.063 E261.28109
G1 X98.917 Y99.232 E261.45169
G1 X96.883 Y98.076 E261.73243
G1 X87.624 Y98.116 E262.84352
G0 F12000 X87.379 Y97.945
G0 X78.264 Y96.357
G0 X78.413 Y96.098
G1 F1200 X98.572 Y96.010 E265.26263
G1 X101.894 Y94.936 E265.68158
G1 X101.307 Y95.783 E265.80525
G1 X101.420 Y95.998 E265.83439
G1 X107.045 Y95.973 E266.50940
G1 X107.853 Y94.804 E266.67993
G1 X109.888 Y95.960 E266.96078
G1 X118.709 Y95.922 E268.01931
G1 X119.290 Y96.057 E268.09088
G1 X119.815 Y96.326 E268.16167
G1 X120.251 Y96.721 E268.23227
G1 X120.570 Y97.217 E268.30304
G1 X120.749 Y97.775 E268.37336
G1 X120.779 Y98.369 E268.44473
G1 X120.655 Y98.939 E268.51473
G1 X120.286 Y99.656 E268.61150
G1 X120.608 Y99.849 E268.65654
G1 X122.542 Y97.056 E269.06421
G1 X122.914 Y96.564 E269.13823
G1 X123.384 Y96.198 E269.20971
G1 X123.927 Y95.969 E269.28043
G1 X124.453 Y95.897 E269.34414
G1 X137.712 Y95.839 E270.93523
G1 X141.034 Y94.765 E271.35419
G1 X140.447 Y95.612 E271.47785
G1 X140.560 Y95.827 E271.50700
G1 X146.185 Y95.802 E272.18201
G1 X146.994 Y94.633 E272.35260
G1 X149.028 Y95.789 E272.63335
G1 X169.187 Y95.701 E275.05245
G1 X172.509 Y94.627 E275.47141
G1 X171.922 Y95.474 E275.59507
G1 X172.035 Y95.689 E275.62422
G1 X177.660 Y95.665 E276.29922
G1 X178.469 Y94.496 E276.46982
G1 X180.503 Y95.651 E276.75050
G1 X189.324 Y95.613 E277.80903
G1 X189.905 Y95.748 E277.88061
G1 X190.428 Y96.016 E277.95113
G1 X190.825 Y96.377 E278.01552
G1 X190.867 Y96.415 E278.02232
G1 X191.185 Y96.909 E278.09282
G1 X191.364 Y97.466 E278.16303
G1 X191.392 Y98.059 E278.23427
G1 X191.269 Y98.633 E278.30471
G1 X190.993 Y99.171 E278.37727
G1 X174.571 Y122.875 E281.83769
G1 X172.059 Y122.886 E282.13913
G1 X179.785 Y111.732 E283.76734
G1 X179.673 Y111.518 E283.79633
G1 X115.028 Y111.518 E291.55373
G1 X107.291 Y122.689 E293.18437
G1 X107.405 Y122.904 E293.21357
G1 X108.713 Y122.897 E293.37054
G1 X108.691 Y123.164 E293.40268
G1 X107.581 Y123.170 E293.53589
G1 X107.389 Y123.169 E293.55893
G1 X100.508 Y123.200 E294.38465
G1 X100.475 Y122.934 E294.41682
G1 X101.283 Y122.929 E294.51378
G1 X101.630 Y122.929 E294.55542
G1 X109.099 Y112.146 E296.12948
G1 X108.987 Y111.931 E296.15857
G1 X44.415 Y111.827 E303.90722
G1 X36.678 Y122.996 E305.53766
G1 X36.790 Y123.210 E305.56665
G1 X37.703 Y123.207 E305.67621
G1 X37.824 Y123.473 E305.71127
G1 X36.847 Y123.478 E305.82852
G1 X36.837 Y123.477 E305.82972
G1 X33.752 Y123.490 E306.19993
G1 X33.937 Y123.224 E306.23881
G1 X34.016 Y123.223 E306.24829
G1 X51.929 Y97.365 E310.02307
G1 X52.302 Y96.873 E310.09716
G1 X52.771 Y96.507 E310.16855
G1 X53.264 Y96.300 E310.23271
G1 X53.315 Y96.278 E310.23937
G1 X53.841 Y96.205 E310.30310
G1 X67.097 Y96.147 E311.89383
G1 X70.419 Y95.073 E312.31279
G1 X69.832 Y95.920 E312.43645
G1 X69.945 Y96.135 E312.46560
G1 X75.570 Y96.111 E313.14061
G1 X76.379 Y94.942 E313.31120
G1 X78.413 Y96.098 E313.59195
G0 F12000 X78.264 Y96.357
G0 X85.061 Y97.757
G0 X85.383 Y98.369
G0 X79.235 Y109.574
G0 X79.556 Y110.186
G0 X110.876 Y110.242
G0 X116.362 Y109.068
G0 X116.609 Y109.238
G1 F1200 X116.721 Y109.452 E313.62093
G1 X147.656 Y109.452 E317.33313
G1 X155.565 Y98.034 E318.99989
G1 X155.452 Y97.820 E319.02893
G1 X147.339 Y97.855 E320.00250
G1 X144.018 Y98.929 E320.42134
G1 X144.606 Y98.082 E320.54507
G1 X144.492 Y97.867 E320.57428
G1 X138.867 Y97.892 E321.24928
G1 X138.057 Y99.061 E321.41995
G1 X136.025 Y97.905 E321.70049
G1 X124.424 Y97.955 E323.09262
G1 X116.609 Y109.238 E324.73964
G0 F12000 X116.362 Y109.068
G0 X116.176 Y109.211
G0 X116.497 Y109.823
G0 X147.853 Y109.829
G0 X150.052 Y109.377
G0 X150.318 Y109.238
G1 F1200 X150.430 Y109.452 E324.76862
G1 X181.366 Y109.452 E328.48094
G1 X188.987 Y98.451 E330.08689
G1 X188.577 Y97.675 E330.19221
G1 X178.814 Y97.718 E331.36378
G1 X175.492 Y98.792 E331.78274
G1 X176.079 Y97.945 E331.90640
G1 X175.967 Y97.731 E331.93538
G1 X170.341 Y97.754 E332.61051
G1 X169.532 Y98.923 E332.78110
G1 X167.498 Y97.767 E333.06185
G1 X158.236 Y97.807 E334.17330
G1 X150.318 Y109.238 E335.84196
G0 F12000 X149.614 Y108.602
;TYPE:SKIN
G1 F1200 X149.364 Y108.635 E335.86465
G1 X149.200 Y109.036 E335.88727
G1 X149.407 Y109.526 E335.95110
G0 F12000 X148.785 Y109.470
G1 F1200 X149.892 Y110.577 E336.13896
G0 F12000 X150.272 Y110.392
