;FLAVOR:UltiGCode
;TIME:1702
;MATERIAL:2392
;MATERIAL2:0
;NOZZLE_DIAMETER:0.400000
;NOZZLE_DIAMETER2:0.400000
;MTYPE:PLA

;Layer count: 43
;LAYER:0
M107
G0 F12000 X31.836 Y92.767 Z0.300
;TYPE:SKIRT
G1 F1200 X32.769 Y92.546 E0.11506
G1 X32.769 Y92.547 E0.11518
G1 X33.204 Y92.442 E0.16888
G1 X41.522 Y92.442 E1.16704
G1 X42.654 Y91.792 E1.32368
G1 X45.461 Y90.179 E1.71217
G1 X47.043 Y92.442 E2.04351
G1 X47.393 Y92.442 E2.08551
G1 X48.700 Y90.667 E2.35002
G1 X54.263 Y92.439 E3.05063
G1 X54.272 Y92.442 E3.05177
G1 X72.997 Y92.442 E5.29877
G1 X74.129 Y91.792 E5.45541
G1 X76.937 Y90.179 E5.84401
G1 X78.518 Y92.442 E6.17528
G1 X78.868 Y92.442 E6.21728
G1 X80.175 Y90.667 E6.48179
G1 X85.738 Y92.439 E7.18240
G1 X85.747 Y92.442 E7.18354
G1 X98.704 Y92.442 E8.73838
G1 X99.899 Y92.603 E8.88307
G1 X100.798 Y92.978 E8.99996
G1 X101.267 Y93.171 E9.06082
G1 X101.429 Y93.296 E9.08537
G1 X102.034 Y92.983 E9.16712
G1 X102.458 Y92.765 E9.22433
G1 X103.385 Y92.546 E9.33863
G1 X103.385 Y92.547 E9.33875
G1 X103.820 Y92.442 E9.39245
G1 X112.137 Y92.442 E10.39049
G1 X116.074 Y90.182 E10.93523
G1 X117.657 Y92.442 E11.26634
G1 X118.008 Y92.442 E11.30846
G1 X119.313 Y90.667 E11.57284
G1 X124.879 Y92.439 E12.27379
G1 X124.888 Y92.442 E12.27493
G1 X143.613 Y92.442 E14.52193
G1 X144.745 Y91.792 E14.67857
G1 X147.552 Y90.179 E15.06706
G1 X149.134 Y92.442 E15.39840
G1 X149.485 Y92.442 E15.44052
G1 X150.788 Y90.669 E15.70455
G1 X153.459 Y91.517 E16.04084
G1 X156.363 Y92.442 E16.40657
G1 X169.319 Y92.442 E17.96129
G1 X170.515 Y92.603 E18.10611
G1 X171.882 Y93.174 E18.28388
G1 X172.671 Y93.779 E18.40319
G1 X173.070 Y94.090 E18.46390
G1 X173.751 Y94.982 E18.59857
G1 X190.820 Y119.394 E22.17307
G1 X190.897 Y119.395 E22.18231
G1 X193.417 Y122.992 E22.70934
G1 X191.629 Y126.435 E23.17489
G1 X189.130 Y126.440 E23.47477
G1 X188.874 Y126.439 E23.50549
G1 X188.533 Y126.440 E23.54641
G1 X188.417 Y126.439 E23.56033
G1 X186.408 Y126.441 E23.80141
G1 X186.186 Y126.439 E23.82805
G1 X185.310 Y126.440 E23.93317
G1 X179.976 Y126.426 E24.57325
G1 X181.914 Y122.116 E25.14033
G1 X176.821 Y114.833 E26.20679
G1 X120.252 Y115.172 E32.99519
G1 X123.190 Y119.373 E33.61036
G1 X126.408 Y119.370 E33.99652
G1 X125.559 Y126.436 E34.85054
G1 X121.675 Y126.440 E35.31662
G1 X121.085 Y126.439 E35.38742
G1 X120.487 Y126.440 E35.45918
G1 X120.313 Y126.439 E35.48006
G1 X120.209 Y126.440 E35.49254
G1 X116.326 Y126.440 E35.95850
G1 X115.660 Y126.439 E36.03842
G1 X111.249 Y126.442 E36.56774
G1 X110.803 Y121.407 E37.17431
G1 X106.205 Y114.830 E38.13729
G1 X49.573 Y115.077 E44.93320
G1 X55.110 Y122.996 E46.09273
G1 X53.317 Y126.438 E46.55845
G1 X46.708 Y126.441 E47.35153
G1 X29.040 Y101.172 E51.05150
G1 X28.681 Y100.483 E51.14473
G1 X28.451 Y100.036 E51.20506
G1 X28.131 Y98.592 E51.38254
G1 X28.198 Y97.109 E51.56068
G1 X28.644 Y95.697 E51.73837
G1 X29.177 Y94.859 E51.85755
G1 X29.450 Y94.436 E51.91796
G1 X30.539 Y93.439 E52.09514
G1 X31.836 Y92.767 E52.27043
G10
G1 Z0.400
G0 F12000 X33.308 Y96.735
;TYPE:WALL-INNER
G1 Z0.300
G11
G1 F1200 X33.702 Y96.642 E52.31901
G1 X42.642 Y96.642 E53.39181
G1 X44.220 Y95.736 E53.61016
G1 X44.854 Y96.642 E53.74286
G1 X51.382 Y96.642 E54.52622
G1 X51.700 Y96.031 E54.60887
G1 X53.620 Y96.642 E54.85066
G1 X74.117 Y96.642 E57.31030
G1 X75.695 Y95.736 E57.52865
G1 X76.330 Y96.642 E57.66141
G1 X82.857 Y96.642 E58.44465
G1 X83.175 Y96.031 E58.52731
G1 X85.095 Y96.642 E58.76909
G1 X98.424 Y96.642 E60.36857
G1 X98.791 Y96.691 E60.41300
G1 X99.148 Y96.841 E60.45947
G1 X99.445 Y97.069 E60.50440
G1 X99.757 Y97.478 E60.56613
G1 X102.115 Y100.850 E61.05989
G1 X103.717 Y99.878 E61.28475
G1 X103.050 Y98.598 E61.45795
G1 X102.968 Y98.223 E61.50402
G1 X102.984 Y97.849 E61.54894
G1 X103.097 Y97.489 E61.59422
G1 X103.301 Y97.169 E61.63976
G1 X103.581 Y96.912 E61.68536
G1 X103.923 Y96.735 E61.73157
G1 X104.318 Y96.642 E61.78027
G1 X113.258 Y96.642 E62.85307
G1 X114.836 Y95.735 E63.07148
G1 X115.472 Y96.642 E63.20441
G1 X121.998 Y96.642 E63.98753
G1 X122.316 Y96.031 E64.07019
G1 X124.236 Y96.642 E64.31197
G1 X144.733 Y96.642 E66.77161
G1 X146.311 Y95.736 E66.98997
G1 X146.945 Y96.642 E67.12266
G1 X153.473 Y96.642 E67.90602
G1 X153.791 Y96.031 E67.98868
G1 X155.711 Y96.642 E68.23046
G1 X169.039 Y96.642 E69.82982
G1 X169.407 Y96.691 E69.87437
G1 X169.760 Y96.839 E69.92031
G1 X170.059 Y97.068 E69.96550
G1 X187.685 Y122.240 E73.65305
G1 X187.126 Y122.240 E73.72013
G1 X179.000 Y110.620 E75.42166
G1 X113.526 Y111.012 E83.27868
G1 X112.970 Y112.085 E83.42370
G1 X120.069 Y122.240 E84.91054
G1 X116.510 Y122.240 E85.33762
G1 X108.387 Y110.621 E87.03884
G1 X42.840 Y110.907 E94.90456
G1 X42.283 Y111.981 E95.04974
G1 X49.456 Y122.240 E96.55189
G1 X48.896 Y122.240 E96.61909
G1 X32.638 Y98.987 E100.02385
G1 X32.433 Y98.595 E100.07693
G1 X32.352 Y98.227 E100.12215
G1 X32.369 Y97.849 E100.16755
G1 X32.484 Y97.486 E100.21325
G1 X32.686 Y97.168 E100.25846
G1 X32.966 Y96.912 E100.30398
G1 X33.308 Y96.735 E100.35019
G0 F12000 X33.878 Y97.100
G1 F1200 X33.022 Y98.738 E100.57198
G1 X41.211 Y110.448 E102.28669
G1 X73.048 Y110.308 E106.10717
G1 X73.605 Y109.234 E106.25235
G1 X65.121 Y97.100 E108.02905
G1 X55.227 Y97.100 E109.21633
G1 X53.650 Y98.007 E109.43463
G1 X53.014 Y97.100 E109.56757
G1 X46.487 Y97.100 E110.35081
G1 X46.169 Y97.712 E110.43357
G1 X44.249 Y97.100 E110.67539
G1 X33.878 Y97.100 E111.91991
G0 F12000 X52.794 Y97.523
G0 X64.900 Y97.523
G0 X66.442 Y98.176
G1 F1200 X74.920 Y110.300 E113.69521
G1 X106.757 Y110.161 E117.51569
G1 X107.314 Y109.087 E117.66087
G1 X98.933 Y97.100 E119.41603
G1 X86.702 Y97.100 E120.88375
G1 X85.125 Y98.007 E121.10205
G1 X84.489 Y97.100 E121.23499
G1 X77.962 Y97.100 E122.01823
G1 X77.644 Y97.712 E122.10099
G1 X75.724 Y97.100 E122.34281
G1 X67.002 Y97.100 E123.38945
G1 X66.442 Y98.176 E123.53501
G0 F12000 X75.139 Y109.876
G0 X106.496 Y109.733
G0 X106.814 Y109.120
G0 X103.784 Y98.947
G1 F1200 X111.898 Y110.553 E125.23434
G1 X143.700 Y110.362 E129.05065
G1 X144.255 Y109.288 E129.19572
G1 X135.733 Y97.100 E130.98034
G1 X125.843 Y97.100 E132.16714
G1 X124.266 Y98.007 E132.38545
G1 X123.630 Y97.100 E132.51838
G1 X117.107 Y97.100 E133.30114
G1 X116.788 Y97.712 E133.38396
G1 X114.869 Y97.100 E133.62567
G1 X104.747 Y97.100 E134.84031
G1 X103.784 Y98.947 E135.09026
G0 F12000 X112.119 Y110.128
G0 X143.437 Y109.935
G0 X143.754 Y109.322
G0 X137.058 Y98.176
G1 F1200 X145.570 Y110.351 E136.87292
G1 X177.373 Y110.160 E140.68935
G1 X177.928 Y109.086 E140.83442
G1 X169.547 Y97.100 E142.58948
G1 X157.318 Y97.100 E144.05696
G1 X155.741 Y98.007 E144.27527
G1 X155.105 Y97.100 E144.40820
G1 X148.578 Y97.100 E145.19144
G1 X148.260 Y97.712 E145.27420
G1 X146.341 Y97.100 E145.51591
G1 X137.618 Y97.100 E146.56267
G1 X137.058 Y98.176 E146.70823
G0 F12000 X137.525 Y98.146
G1 F1200 X145.778 Y109.950 E148.43659
G1 X177.128 Y109.762 E152.19865
G1 X177.462 Y109.117 E152.28582
G1 X169.339 Y97.500 E153.98685
G1 X157.425 Y97.500 E155.41653
G1 X155.622 Y98.536 E155.66606
G1 X154.898 Y97.500 E155.81773
G1 X148.821 Y97.500 E156.54697
G1 X148.485 Y98.145 E156.63424
G1 X148.537 Y98.220 E156.64519
G1 X146.278 Y97.500 E156.92971
G1 X137.861 Y97.500 E157.93975
G1 X137.525 Y98.146 E158.02713
G0 F12000 X135.525 Y97.500
G1 F1200 X125.950 Y97.500 E159.17613
G1 X124.147 Y98.536 E159.42566
G1 X123.423 Y97.500 E159.57733
G1 X117.349 Y97.500 E160.30621
G1 X117.013 Y98.145 E160.39348
G1 X117.065 Y98.220 E160.40444
G1 X114.806 Y97.500 E160.68895
G1 X104.989 Y97.500 E161.86699
G1 X104.251 Y98.916 E162.05861
G1 X112.106 Y110.152 E163.70374
G1 X143.455 Y109.964 E167.46569
G1 X143.789 Y109.319 E167.55285
G1 X135.525 Y97.500 E169.28344
G0 F12000 X144.626 Y96.242
G1 F1200 X146.429 Y95.207 E169.53291
G1 X147.153 Y96.242 E169.68448
G1 X153.230 Y96.242 E170.41372
G1 X153.566 Y95.597 E170.50100
G1 X153.514 Y95.523 E170.51185
G1 X155.773 Y96.242 E170.79633
G1 X169.062 Y96.242 E172.39101
G1 X169.513 Y96.303 E172.44562
G1 X169.963 Y96.490 E172.50410
G1 X170.346 Y96.784 E172.56204
G1 X170.675 Y97.215 E172.62710
G1 X188.452 Y122.639 E176.34982
G1 X186.779 Y122.641 E176.55058
G1 X186.838 Y122.527 E176.56598
G1 X178.792 Y111.021 E178.25080
G1 X113.770 Y111.410 E186.05358
G1 X113.436 Y112.054 E186.14063
G1 X120.837 Y122.639 E187.69053
G1 X120.495 Y122.640 E187.73157
G1 X120.300 Y122.639 E187.75497
G1 X116.164 Y122.640 E188.25129
G1 X116.223 Y122.527 E188.26658
G1 X108.179 Y111.022 E189.95117
G1 X43.083 Y111.306 E197.76276
G1 X42.749 Y111.950 E197.84982
G1 X50.223 Y122.639 E199.41496
G1 X48.688 Y122.640 E199.59916
G1 X32.294 Y99.194 E203.03224
G1 X32.055 Y98.735 E203.09434
G1 X31.950 Y98.258 E203.15295
G1 X31.971 Y97.778 E203.21061
G1 X32.117 Y97.316 E203.26875
G1 X32.374 Y96.913 E203.32611
G1 X32.735 Y96.581 E203.38496
G1 X33.168 Y96.357 E203.44346
G1 X33.655 Y96.242 E203.50351
G1 X42.535 Y96.242 E204.56911
G1 X44.338 Y95.207 E204.81858
G1 X45.062 Y96.242 E204.97016
G1 X51.139 Y96.242 E205.69940
G1 X51.475 Y95.597 E205.78667
G1 X51.423 Y95.523 E205.79752
G1 X53.682 Y96.242 E206.08200
G1 X74.010 Y96.242 E208.52136
G1 X75.813 Y95.207 E208.77083
G1 X76.250 Y95.832 E208.86235
G1 X76.538 Y96.242 E208.92247
G1 X82.614 Y96.242 E209.65159
G1 X82.950 Y95.597 E209.73887
G1 X82.898 Y95.523 E209.74972
G1 X85.157 Y96.242 E210.03420
G1 X98.447 Y96.242 E211.62900
G1 X98.898 Y96.303 E211.68361
G1 X99.349 Y96.490 E211.74220
G1 X99.731 Y96.785 E211.80012
G1 X100.060 Y97.215 E211.86509
G1 X102.228 Y100.314 E212.31894
G1 X103.189 Y99.730 E212.45388
G1 X102.670 Y98.735 E212.58855
G1 X102.566 Y98.255 E212.64748
G1 X102.586 Y97.779 E212.70465
G1 X102.729 Y97.322 E212.76212
G1 X102.992 Y96.909 E212.82087
G1 X103.350 Y96.581 E212.87914
G1 X103.782 Y96.357 E212.93753
G1 X104.271 Y96.242 E212.99781
G1 X113.151 Y96.242 E214.06341
G1 X114.955 Y95.206 E214.31305
G1 X115.680 Y96.242 E214.46479
G1 X121.755 Y96.242 E215.19379
G1 X122.091 Y95.596 E215.28117
G1 X122.040 Y95.523 E215.29185
G1 X124.298 Y96.242 E215.57622
G1 X144.626 Y96.242 E218.01558
G0 F12000 X137.879 Y97.530
G0 X137.559 Y98.142
G0 X143.754 Y109.322
G0 X143.437 Y109.935
G0 X112.119 Y110.128
G0 X106.848 Y109.118
G1 F1200 X98.725 Y97.500 E219.71671
G1 X86.809 Y97.500 E221.14663
G1 X85.006 Y98.536 E221.39616
G1 X84.282 Y97.500 E221.54783
G1 X78.205 Y97.500 E222.27707
G1 X77.869 Y98.145 E222.36434
G1 X77.921 Y98.220 E222.37529
G1 X75.662 Y97.500 E222.65981
G1 X67.245 Y97.500 E223.66985
G1 X66.909 Y98.145 E223.75712
G1 X75.127 Y109.899 E225.47816
G1 X106.514 Y109.762 E229.24463
G1 X106.848 Y109.118 E229.33169
G0 F12000 X106.496 Y109.733
G0 X75.139 Y109.876
G0 X73.139 Y109.265
G1 F1200 X64.913 Y97.500 E231.05436
G1 X55.334 Y97.500 E232.20384
G1 X53.531 Y98.536 E232.45337
G1 X52.807 Y97.500 E232.60504
G1 X46.730 Y97.500 E233.33428
G1 X46.394 Y98.146 E233.42166
G1 X46.445 Y98.219 E233.43235
G1 X44.187 Y97.500 E233.71671
G1 X34.120 Y97.500 E234.92475
G1 X33.489 Y98.708 E235.08830
G1 X41.418 Y110.047 E236.74865
G1 X72.805 Y109.909 E240.51512
G1 X73.139 Y109.265 E240.60218
G0 F12000 X72.672 Y109.296
;TYPE:WALL-OUTER
G1 F1200 X64.704 Y97.900 E242.27082
G1 X55.441 Y97.900 E243.38238
G1 X53.413 Y99.065 E243.66303
G1 X52.598 Y97.900 E243.83365
G1 X46.973 Y97.900 E244.50865
G1 X46.861 Y98.115 E244.53774
G1 X47.451 Y98.959 E244.66131
G1 X44.125 Y97.900 E245.08017
G1 X34.363 Y97.900 E246.25161
G1 X33.956 Y98.678 E246.35698
G1 X41.626 Y109.646 E247.96303
G1 X72.561 Y109.510 E251.67527
G1 X72.672 Y109.296 E251.70420
G0 F12000 X72.937 Y109.435
G0 X75.089 Y109.669
G0 X75.335 Y109.498
G1 F1200 X106.270 Y109.363 E255.41643
G1 X106.381 Y109.149 E255.44536
G1 X98.516 Y97.900 E257.09246
G1 X86.916 Y97.900 E258.48446
G1 X84.888 Y99.065 E258.76512
G1 X84.073 Y97.900 E258.93573
G1 X78.448 Y97.900 E259.61073
G1 X78.336 Y98.115 E259.63982
G1 X78.926 Y98.959 E259.76339
G1 X75.600 Y97.900 E260.18226
G1 X67.488 Y97.900 E261.15570
G1 X67.376 Y98.115 E261.18479
G1 X75.335 Y109.498 E262.85153
G0 F12000 X75.089 Y109.669
G0 X66.943 Y98.142
G0 X67.263 Y97.530
G0 X75.661 Y97.503
G0 X76.746 Y96.142
G0 X76.746 Y95.842
G1 F1200 X82.371 Y95.842 E263.52653
G1 X82.483 Y95.627 E263.55562
G1 X81.894 Y94.784 E263.67902
G1 X85.219 Y95.842 E264.09774
G1 X98.478 Y95.842 E265.68882
G1 X99.001 Y95.912 E265.75214
G1 X99.552 Y96.142 E265.82378
G1 X100.018 Y96.501 E265.89437
G1 X100.388 Y96.986 E265.96758
G1 X102.341 Y99.777 E266.37635
G1 X102.661 Y99.583 E266.42126
G1 X102.315 Y98.920 E266.51100
G1 X102.290 Y98.871 E266.51760
G1 X102.176 Y98.348 E266.58183
G1 X102.164 Y98.296 E266.58824
G1 X102.188 Y97.737 E266.65538
G1 X102.190 Y97.708 E266.65887
G1 X102.349 Y97.199 E266.72286
G1 X102.365 Y97.149 E266.72916
G1 X102.654 Y96.696 E266.79364
G1 X102.686 Y96.647 E266.80066
G1 X103.116 Y96.252 E266.87073
G1 X103.643 Y95.979 E266.94195
G1 X104.224 Y95.842 E267.01358
G1 X113.044 Y95.842 E268.07198
G1 X115.072 Y94.677 E268.35264
G1 X115.888 Y95.842 E268.52332
G1 X121.512 Y95.842 E269.19820
G1 X121.624 Y95.627 E269.22729
G1 X121.034 Y94.784 E269.35077
G1 X124.360 Y95.842 E269.76959
G1 X144.519 Y95.842 E272.18867
G1 X146.548 Y94.678 E272.46937
G1 X147.362 Y95.842 E272.63982
G1 X152.987 Y95.842 E273.31482
G1 X153.099 Y95.627 E273.34391
G1 X152.510 Y94.784 E273.46732
G1 X155.835 Y95.842 E273.88603
G1 X169.093 Y95.842 E275.47699
G1 X169.616 Y95.912 E275.54031
G1 X170.164 Y96.141 E275.61158
G1 X170.589 Y96.467 E275.67585
G1 X170.634 Y96.502 E275.68270
G1 X171.003 Y96.986 E275.75573
G1 X189.033 Y122.772 E279.53144
G1 X189.112 Y122.773 E279.54092
G1 X189.299 Y123.040 E279.58004
G1 X188.877 Y123.039 E279.63068
G1 X188.545 Y123.040 E279.67052
G1 X188.446 Y123.039 E279.68240
G1 X186.424 Y123.041 E279.92504
G1 X185.227 Y123.039 E280.06868
G1 X185.346 Y122.774 E280.10354
G1 X186.259 Y122.773 E280.21310
G1 X186.371 Y122.558 E280.24219
G1 X178.585 Y111.422 E281.87274
G1 X114.014 Y111.809 E289.62140
G1 X113.903 Y112.023 E289.65033
G1 X121.418 Y122.773 E291.22429
G1 X121.766 Y122.774 E291.26605
G1 X122.574 Y122.773 E291.36301
G1 X122.542 Y123.039 E291.39516
G1 X120.494 Y123.040 E291.64092
G1 X120.301 Y123.039 E291.66408
G1 X114.361 Y123.040 E292.37688
G1 X114.337 Y122.774 E292.40893
G1 X115.644 Y122.773 E292.56577
G1 X115.756 Y122.558 E292.59486
G1 X107.971 Y111.423 E294.22524
G1 X43.327 Y111.705 E301.98260
G1 X43.216 Y111.919 E302.01153
G1 X50.991 Y123.039 E303.63975
G1 X48.480 Y123.040 E303.94107
G1 X31.950 Y99.400 E307.40259
G1 X31.700 Y98.920 E307.46753
G1 X31.675 Y98.871 E307.47413
G1 X31.548 Y98.298 E307.54456
G1 X31.575 Y97.707 E307.61556
G1 X31.752 Y97.145 E307.68626
G1 X32.038 Y96.696 E307.75014
G1 X32.068 Y96.650 E307.75673
G1 X32.504 Y96.251 E307.82766
G1 X33.027 Y95.979 E307.89840
G1 X33.608 Y95.842 E307.97003
G1 X42.428 Y95.842 E309.02843
G1 X44.457 Y94.678 E309.30913
G1 X45.271 Y95.842 E309.47958
G1 X50.896 Y95.842 E310.15458
G1 X51.008 Y95.627 E310.18367
G1 X50.419 Y94.784 E310.30707
G1 X53.744 Y95.842 E310.72578
G1 X73.903 Y95.842 E313.14486
G1 X75.932 Y94.678 E313.42557
G1 X76.746 Y95.842 E313.59601
G0 F12000 X76.746 Y96.142
G0 X98.712 Y97.523
G0 X102.243 Y100.240
G0 X103.117 Y99.710
G0 X104.472 Y99.057
G0 X104.718 Y98.886
G1 F1200 X112.313 Y109.751 E315.18678
G1 X143.211 Y109.565 E318.89461
G1 X143.322 Y109.350 E318.92364
G1 X135.316 Y97.900 E320.60020
G1 X126.057 Y97.900 E321.71128
G1 X124.029 Y99.065 E321.99194
G1 X123.214 Y97.900 E322.16255
G1 X117.592 Y97.900 E322.83719
G1 X117.480 Y98.115 E322.86628
G1 X118.069 Y98.959 E322.98979
G1 X114.744 Y97.900 E323.40854
G1 X105.232 Y97.900 E324.54998
G1 X104.718 Y98.886 E324.68341
G0 F12000 X104.472 Y99.057
G0 X112.119 Y110.128
G0 X143.437 Y109.935
G0 X143.754 Y109.322
G0 X135.859 Y98.036
G0 X137.726 Y97.977
G0 X137.992 Y98.115
G1 F1200 X145.985 Y109.549 E326.35750
G1 X176.884 Y109.363 E330.06545
G1 X176.995 Y109.148 E330.09449
G1 X169.130 Y97.900 E331.74149
G1 X157.532 Y97.900 E333.13325
G1 X155.504 Y99.065 E333.41390
G1 X154.689 Y97.900 E333.58452
G1 X149.064 Y97.900 E334.25952
G1 X148.952 Y98.115 E334.28861
G1 X149.542 Y98.959 E334.41218
G1 X146.216 Y97.900 E334.83104
G1 X138.104 Y97.900 E335.80448
G1 X137.992 Y98.115 E335.83357
G0 F12000 X137.103 Y97.787
;TYPE:SKIN
