;FLAVOR:UltiGCode
;TIME:200
;MATERIAL:285
;MATERIAL2:0
;NOZZLE_DIAMETER:0.400000
;NOZZLE_DIAMETER2:0.400000
;MTYPE:PLA

;Layer count: 18
;LAYER:0
M107
G0 F12000 X93.579 Y105.391 Z0.300
;TYPE:SKIRT
G1 F1200 X94.591 Y104.868 E0.13670
G1 X95.638 Y104.622 E0.26576
G1 X123.067 Y104.622 E3.55724
G1 X124.175 Y104.646 E3.69023
G1 X125.322 Y105.012 E3.83471
G1 X126.291 Y105.630 E3.97262
G1 X126.917 Y106.308 E4.08336
G1 X130.626 Y111.615 E4.86032
G1 X131.055 Y112.434 E4.97126
G1 X131.307 Y113.579 E5.11195
G1 X131.253 Y114.734 E5.25070
G1 X130.907 Y115.840 E5.38977
G1 X130.281 Y116.819 E5.52921
G1 X129.421 Y117.608 E5.66926
G1 X128.416 Y118.127 E5.80499
G1 X127.371 Y118.378 E5.93396
G1 X99.528 Y118.378 E9.27512
G1 X98.765 Y118.332 E9.36685
G1 X97.684 Y117.993 E9.50280
G1 X96.705 Y117.367 E9.64224
G1 X96.080 Y116.686 E9.75316
G1 X95.514 Y115.876 E9.87174
G1 X92.372 Y111.382 E10.52975
G1 X91.944 Y110.561 E10.64086
G1 X91.693 Y109.420 E10.78105
G1 X91.747 Y108.265 E10.91980
G1 X92.093 Y107.159 E11.05886
G1 X92.719 Y106.180 E11.19831
G1 X93.579 Y105.391 E11.33836
G0 F12000 X93.810 Y105.722
G1 F1200 X94.731 Y105.247 E11.46271
G1 X95.684 Y105.022 E11.58022
G1 X123.063 Y105.022 E14.86570
G1 X124.109 Y105.045 E14.99125
G1 X125.151 Y105.377 E15.12248
G1 X126.032 Y105.940 E15.24794
G1 X126.604 Y106.560 E15.34917
G1 X130.284 Y111.823 E16.11981
G1 X130.676 Y112.572 E16.22125
G1 X130.905 Y113.613 E16.34916
G1 X130.856 Y114.664 E16.47541
G1 X130.541 Y115.669 E16.60180
G1 X129.972 Y116.560 E16.72866
G1 X129.190 Y117.277 E16.85598
G1 X128.276 Y117.749 E16.97942
G1 X127.323 Y117.978 E17.09703
G1 X99.540 Y117.978 E20.43099
G1 X98.838 Y117.935 E20.51539
G1 X97.855 Y117.627 E20.63901
G1 X96.964 Y117.058 E20.76587
G1 X96.393 Y116.435 E20.86728
G1 X95.842 Y115.647 E20.98266
G1 X92.714 Y111.174 E21.63765
G1 X92.323 Y110.423 E21.73925
G1 X92.095 Y109.386 E21.86666
G1 X92.144 Y108.335 E21.99292
G1 X92.459 Y107.330 E22.11930
G1 X93.028 Y106.439 E22.24617
G1 X93.810 Y105.722 E22.37348
G10
G1 Z0.400
G0 F12000 X96.475 Y109.222
;TYPE:WALL-INNER
G1 Z0.300
G11
G1 F1200 X123.006 Y109.222 E25.55720
G1 X123.346 Y109.229 E25.59801
G1 X126.525 Y113.778 E26.26398
G1 X99.660 Y113.778 E29.48778
G1 X96.475 Y109.222 E30.15484
G0 F12000 X95.968 Y109.196
G1 F1200 X95.926 Y109.115 E30.16579
G1 X95.914 Y109.059 E30.17267
G1 X95.916 Y109.003 E30.17939
G1 X95.964 Y108.903 E30.19270
G1 X96.006 Y108.865 E30.19950
G1 X96.056 Y108.838 E30.20632
G1 X96.126 Y108.822 E30.21493
G1 X123.015 Y108.822 E33.44161
G1 X123.477 Y108.832 E33.49707
G1 X123.524 Y108.847 E33.50299
G1 X123.573 Y108.879 E33.51001
G1 X123.636 Y108.947 E33.52113
G1 X127.034 Y113.807 E34.23274
G1 X127.074 Y113.883 E34.24305
G1 X127.086 Y113.940 E34.25004
G1 X127.084 Y113.996 E34.25676
G1 X127.036 Y114.096 E34.27008
G1 X126.994 Y114.134 E34.27687
G1 X126.941 Y114.162 E34.28407
G1 X126.875 Y114.178 E34.29221
G1 X99.657 Y114.178 E37.55837
G1 X99.531 Y114.170 E37.57352
G1 X99.477 Y114.153 E37.58032
G1 X99.428 Y114.122 E37.58728
G1 X95.968 Y109.196 E38.30964
G0 F12000 X95.624 Y109.402
;TYPE:WALL-OUTER
G1 F1200 X95.546 Y109.253 E38.32982
G1 X95.512 Y109.097 E38.34898
G1 X95.520 Y108.933 E38.36869
G1 X95.568 Y108.781 E38.38782
G1 X95.657 Y108.641 E38.40772
G1 X95.771 Y108.536 E38.42632
G1 X95.918 Y108.460 E38.44618
G1 X96.081 Y108.422 E38.46626
G1 X123.024 Y108.422 E41.69942
G1 X123.542 Y108.433 E41.76160
G1 X123.695 Y108.482 E41.78088
G1 X123.832 Y108.570 E41.80042
G1 X123.949 Y108.697 E41.82114
G1 X127.374 Y113.596 E42.53844
G1 X127.454 Y113.748 E42.55905
G1 X127.488 Y113.902 E42.57798
G1 X127.480 Y114.066 E42.59768
G1 X127.432 Y114.218 E42.61681
G1 X127.343 Y114.358 E42.63672
G1 X127.229 Y114.463 E42.65531
G1 X127.079 Y114.540 E42.67555
G1 X126.922 Y114.578 E42.69493
G1 X99.649 Y114.578 E45.96769
G1 X99.459 Y114.566 E45.99054
G1 X99.306 Y114.518 E46.00978
G1 X99.166 Y114.429 E46.02969
G1 X99.052 Y114.305 E46.04990
G1 X95.624 Y109.402 E46.76780
G0 F12000 X96.998 Y109.726
;TYPE:SKIN
G1 F1200 X100.909 Y113.637 E47.43152
G0 F12000 X101.474 Y113.637
G1 F1200 X97.199 Y109.361 E48.15710
G0 F12000 X97.765 Y109.361
G1 F1200 X102.040 Y113.637 E48.88267
G0 F12000 X102.606 Y113.637
G1 F1200 X98.330 Y109.361 E49.60834
G0 F12000 X98.896 Y109.361
G1 F1200 X103.171 Y113.637 E50.33391
G0 F12000 X103.737 Y113.637
G1 F1200 X99.462 Y109.361 E51.05949
G0 F12000 X98.315 Y111.609
G1 F1200 X100.343 Y113.637 E51.40365
G0 F12000 X104.303 Y113.637
G1 F1200 X100.028 Y109.361 E52.12923
G0 F12000 X100.593 Y109.361
G1 F1200 X104.868 Y113.637 E52.85480
G0 F12000 X105.434 Y113.637
G1 F1200 X101.159 Y109.361 E53.58038
G0 F12000 X101.725 Y109.361
G1 F1200 X106.000 Y113.637 E54.30596
G0 F12000 X106.565 Y113.637
G1 F1200 X102.290 Y109.361 E55.03153
G0 F12000 X102.856 Y109.361
G1 F1200 X107.131 Y113.637 E55.75711
G0 F12000 X107.697 Y113.637
G1 F1200 X103.422 Y109.361 E56.48269
G0 F12000 X103.987 Y109.361
G1 F1200 X108.262 Y113.637 E57.20826
G0 F12000 X108.828 Y113.637
G1 F1200 X104.553 Y109.361 E57.93384
G0 F12000 X105.119 Y109.361
G1 F1200 X109.394 Y113.637 E58.65942
G0 F12000 X109.960 Y113.637
G1 F1200 X105.684 Y109.361 E59.38508
G0 F12000 X106.250 Y109.361
G1 F1200 X110.525 Y113.637 E60.11065
G0 F12000 X111.091 Y113.637
G1 F1200 X106.816 Y109.361 E60.83623
G0 F12000 X107.381 Y109.361
G1 F1200 X111.657 Y113.637 E61.56189
G0 F12000 X112.222 Y113.637
G1 F1200 X107.947 Y109.361 E62.28747
G0 F12000 X108.513 Y109.361
G1 F1200 X112.788 Y113.637 E63.01304
G0 F12000 X113.354 Y113.637
G1 F1200 X109.078 Y109.361 E63.73871
G0 F12000 X109.644 Y109.361
G1 F1200 X113.919 Y113.637 E64.46428
G0 F12000 X114.485 Y113.637
G1 F1200 X110.210 Y109.361 E65.18986
G0 F12000 X110.776 Y109.361
G1 F1200 X115.051 Y113.637 E65.91543
G0 F12000 X115.616 Y113.637
G1 F1200 X111.341 Y109.361 E66.64101
G0 F12000 X111.907 Y109.361
G1 F1200 X116.182 Y113.637 E67.36659
G0 F12000 X116.748 Y113.637
G1 F1200 X112.473 Y109.361 E68.09216
G0 F12000 X113.038 Y109.361
G1 F1200 X117.313 Y113.637 E68.81774
G0 F12000 X117.879 Y113.637
G1 F1200 X113.604 Y109.361 E69.54332
G0 F12000 X114.170 Y109.361
G1 F1200 X118.445 Y113.637 E70.26889
G0 F12000 X119.011 Y113.637
G1 F1200 X114.735 Y109.361 E70.99455
G0 F12000 X115.301 Y109.361
G1 F1200 X119.576 Y113.637 E71.72013
G0 F12000 X120.142 Y113.637
G1 F1200 X115.867 Y109.361 E72.44571
G0 F12000 X116.432 Y109.361
G1 F1200 X120.708 Y113.637 E73.17137
G0 F12000 X121.273 Y113.637
G1 F1200 X116.998 Y109.361 E73.89694
G0 F12000 X117.564 Y109.361
G1 F1200 X121.839 Y113.637 E74.62252
G0 F12000 X122.405 Y113.637
G1 F1200 X118.129 Y109.361 E75.34818
G0 F12000 X118.695 Y109.361
G1 F1200 X122.970 Y113.637 E76.07376
G0 F12000 X123.536 Y113.637
G1 F1200 X119.261 Y109.361 E76.79934
G0 F12000 X119.827 Y109.361
G1 F1200 X124.102 Y113.637 E77.52491
G0 F12000 X124.667 Y113.637
G1 F1200 X120.392 Y109.361 E78.25049
G0 F12000 X120.958 Y109.361
G1 F1200 X125.233 Y113.637 E78.97606
G0 F12000 X125.799 Y113.637
G1 F1200 X121.524 Y109.361 E79.70164
G0 F12000 X122.089 Y109.361
G1 F1200 X126.000 Y113.272 E80.36536
G0 F12000 X124.686 Y111.393
G1 F1200 X122.655 Y109.361 E80.71012
G0 F12000 X123.226 Y109.367
G1 F1200 X123.373 Y109.513 E80.73498
G0 F12000 X99.777 Y113.637
G1 F1200 X99.631 Y113.490 E80.75984
;LAYER:1
M106 S5
G0 F12000 X99.658 Y113.781 Z0.400
;TYPE:WALL-INNER
G1 F1620 X96.468 Y109.219 E80.98195
G1 X123.006 Y109.219 E82.04082
G1 X123.348 Y109.226 E82.05447
G1 X126.532 Y113.781 E82.27621
G1 X99.658 Y113.781 E83.34848
G0 F12000 X99.657 Y114.180
G1 F1620 X99.534 Y114.173 E83.35340
G1 X99.473 Y114.154 E83.35595
G1 X99.427 Y114.124 E83.35814
G1 X99.362 Y114.053 E83.36198
G1 X95.966 Y109.197 E83.59841
G1 X95.924 Y109.117 E83.60202
G1 X95.912 Y109.059 E83.60438
G1 X95.914 Y109.006 E83.60650
G1 X95.932 Y108.948 E83.60892
G1 X95.962 Y108.902 E83.61111
G1 X96.005 Y108.862 E83.61346
G1 X96.055 Y108.836 E83.61570
G1 X96.125 Y108.820 E83.61857
G1 X123.015 Y108.820 E84.69148
G1 X123.477 Y108.830 E84.70992
G1 X123.526 Y108.846 E84.71198
G1 X123.574 Y108.877 E84.71426
G1 X123.638 Y108.946 E84.71801
G1 X127.032 Y113.801 E84.95437
G1 X127.076 Y113.884 E84.95811
G1 X127.088 Y113.940 E84.96040
G1 X127.086 Y113.993 E84.96252
G1 X127.068 Y114.051 E84.96494
G1 X127.038 Y114.097 E84.96713
G1 X126.995 Y114.137 E84.96947
G1 X126.943 Y114.164 E84.97181
G1 X126.875 Y114.180 E84.97460
G1 X99.657 Y114.180 E86.06060
G0 F12000 X99.649 Y114.579
;TYPE:WALL-OUTER
G1 F1620 X99.459 Y114.567 E86.06819
G1 X99.304 Y114.519 E86.07467
G1 X99.169 Y114.433 E86.08105
G1 X99.047 Y114.299 E86.08828
G1 X95.625 Y109.406 E86.32652
G1 X95.545 Y109.253 E86.33341
G1 X95.511 Y109.097 E86.33978
G1 X95.519 Y108.933 E86.34633
G1 X95.567 Y108.779 E86.35277
G1 X95.653 Y108.644 E86.35916
G1 X95.775 Y108.533 E86.36574
G1 X95.916 Y108.460 E86.37207
G1 X96.081 Y108.421 E86.37884
G1 X123.024 Y108.421 E87.45386
G1 X123.543 Y108.432 E87.47458
G1 X123.696 Y108.481 E87.48099
G1 X123.833 Y108.569 E87.48748
G1 X123.949 Y108.694 E87.49429
G1 X127.375 Y113.595 E87.73288
G1 X127.455 Y113.746 E87.73970
G1 X127.489 Y113.902 E87.74607
G1 X127.481 Y114.066 E87.75262
G1 X127.433 Y114.220 E87.75906
G1 X127.347 Y114.355 E87.76544
G1 X127.225 Y114.466 E87.77202
G1 X127.081 Y114.541 E87.77850
G1 X126.922 Y114.579 E87.78502
G1 X99.649 Y114.579 E88.87322
G0 F12000 X99.936 Y113.640
;TYPE:SKIN
G1 F1620 X104.219 Y109.358 E89.11487
G0 F12000 X104.783 Y109.358
G1 F1620 X100.501 Y113.640 E89.35649
G0 F12000 X101.065 Y113.640
G1 F1620 X105.347 Y109.358 E89.59811
G0 F12000 X105.911 Y109.358
G1 F1620 X101.629 Y113.640 E89.83973
G0 F12000 X102.193 Y113.640
G1 F1620 X106.476 Y109.358 E90.08138
G0 F12000 X107.040 Y109.358
G1 F1620 X102.758 Y113.640 E90.32300
G0 F12000 X103.322 Y113.640
G1 F1620 X107.604 Y109.358 E90.56462
G0 F12000 X108.168 Y109.358
G1 F1620 X103.886 Y113.640 E90.80624
G0 F12000 X104.450 Y113.640
G1 F1620 X108.733 Y109.358 E91.04789
G0 F12000 X109.297 Y109.358
G1 F1620 X105.015 Y113.640 E91.28951
G0 F12000 X105.579 Y113.640
G1 F1620 X109.861 Y109.358 E91.53113
G0 F12000 X110.426 Y109.358
G1 F1620 X106.143 Y113.640 E91.77278
G0 F12000 X106.708 Y113.640
G1 F1620 X110.990 Y109.358 E92.01440
G0 F12000 X111.554 Y109.358
G1 F1620 X107.272 Y113.640 E92.25602
G0 F12000 X107.836 Y113.640
G1 F1620 X112.118 Y109.358 E92.49764
G0 F12000 X112.683 Y109.358
G1 F1620 X108.400 Y113.640 E92.73929
G0 F12000 X108.965 Y113.640
G1 F1620 X113.247 Y109.358 E92.98091
G0 F12000 X113.811 Y109.358
G1 F1620 X109.529 Y113.640 E93.22253
G0 F12000 X110.093 Y113.640
G1 F1620 X114.375 Y109.358 E93.46416
G0 F12000 X114.940 Y109.358
G1 F1620 X110.657 Y113.640 E93.70580
G0 F12000 X111.222 Y113.640
G1 F1620 X115.504 Y109.358 E93.94743
G0 F12000 X116.068 Y109.358
G1 F1620 X111.786 Y113.640 E94.18905
G0 F12000 X112.350 Y113.640
G1 F1620 X116.633 Y109.358 E94.43070
G0 F12000 X117.197 Y109.358
G1 F1620 X112.915 Y113.640 E94.67232
G0 F12000 X113.478 Y113.641
G1 F1620 X117.761 Y109.358 E94.91399
G0 F12000 X118.325 Y109.358
G1 F1620 X114.042 Y113.641 E95.15567
G0 F12000 X114.607 Y113.641
G1 F1620 X118.890 Y109.358 E95.39735
G0 F12000 X119.454 Y109.358
G1 F1620 X115.171 Y113.641 E95.63903
G0 F12000 X115.735 Y113.641
G1 F1620 X120.018 Y109.358 E95.88070
G0 F12000 X120.582 Y109.358
G1 F1620 X116.299 Y113.641 E96.12238
G0 F12000 X116.864 Y113.641
G1 F1620 X121.147 Y109.358 E96.36406
G0 F12000 X121.711 Y109.358
G1 F1620 X117.428 Y113.641 E96.60574
G0 F12000 X117.992 Y113.641
G1 F1620 X122.275 Y109.358 E96.84741
G0 F12000 X122.840 Y109.358
G1 F1620 X118.557 Y113.641 E97.08909
G0 F12000 X119.121 Y113.641
G1 F1620 X123.324 Y109.438 E97.32625
G0 F12000 X123.556 Y109.770
G1 F1620 X119.685 Y113.641 E97.54468
G0 F12000 X103.654 Y109.358
G1 F1620 X99.583 Y113.429 E97.77440
G0 F12000 X99.352 Y113.096
G1 F1620 X103.090 Y109.358 E97.98532
G0 F12000 X102.526 Y109.358
G1 F1620 X99.119 Y112.765 E98.17757
G0 F12000 X98.887 Y112.432
G1 F1620 X101.961 Y109.358 E98.35103
G0 F12000 X101.397 Y109.358
G1 F1620 X98.655 Y112.100 E98.50575
G0 F12000 X98.422 Y111.768
G1 F1620 X100.833 Y109.358 E98.64177
G0 F12000 X100.269 Y109.358
G1 F1620 X98.190 Y111.436 E98.75905
G0 F12000 X97.959 Y111.104
G1 F1620 X99.704 Y109.358 E98.85754
G0 F12000 X99.140 Y109.358
G1 F1620 X97.726 Y110.772 E98.93733
G0 F12000 X97.494 Y110.440
G1 F1620 X98.576 Y109.358 E98.99839
G0 F12000 X98.012 Y109.358
G1 F1620 X97.261 Y110.108 E99.04073
G0 F12000 X97.029 Y109.776
G1 F1620 X97.165 Y109.358 E99.06434
G1 X96.797 Y109.443 E99.07941
G0 F12000 X120.249 Y113.641
G1 F1620 X123.788 Y110.102 E99.27911
G0 F12000 X124.020 Y110.434
G1 F1620 X120.814 Y113.641 E99.46004
G0 F12000 X121.378 Y113.641
G1 F1620 X124.252 Y110.766 E99.62224
G0 F12000 X124.484 Y111.099
G1 F1620 X121.942 Y113.641 E99.76568
G0 F12000 X122.506 Y113.641
G1 F1620 X124.717 Y111.430 E99.89044
G0 F12000 X124.949 Y111.763
G1 F1620 X123.071 Y113.641 E99.99641
G0 F12000 X123.635 Y113.641
G1 F1620 X125.181 Y112.095 E100.08364
G0 F12000 X125.413 Y112.427
G1 F1620 X124.199 Y113.641 E100.15215
G0 F12000 X124.764 Y113.641
G1 F1620 X125.645 Y112.759 E100.20189
G0 F12000 X125.877 Y113.091
G1 F1620 X125.610 Y113.641 E100.23288
G1 X126.109 Y113.424 E100.25459
;LAYER:2
M106 S10
G0 F12000 X126.532 Y113.781 Z0.500
;TYPE:WALL-INNER
G1 F2100 X99.658 Y113.781 E101.32687
G1 X96.468 Y109.219 E101.54898
G1 X123.006 Y109.219 E102.60784
G1 X123.348 Y109.226 E102.62149
G1 X126.532 Y113.781 E102.84324
G0 F12000 X127.032 Y113.801
G1 F2100 X127.076 Y113.884 E102.84699
G1 X127.088 Y113.940 E102.84927
G1 X127.086 Y113.993 E102.85139
G1 X127.068 Y114.051 E102.85381
G1 X127.038 Y114.097 E102.85600
G1 X126.995 Y114.137 E102.85834
G1 X126.943 Y114.164 E102.86068
G1 X126.875 Y114.180 E102.86347
G1 X99.657 Y114.180 E103.94947
G1 X99.534 Y114.173 E103.95438
G1 X99.473 Y114.154 E103.95693
G1 X99.427 Y114.124 E103.95912
G1 X99.362 Y114.053 E103.96296
G1 X95.966 Y109.197 E104.19940
G1 X95.924 Y109.117 E104.20300
G1 X95.912 Y109.059 E104.20537
G1 X95.914 Y109.006 E104.20748
G1 X95.932 Y108.948 E104.20991
G1 X95.962 Y108.902 E104.21210
G1 X96.005 Y108.862 E104.21444
G1 X96.055 Y108.836 E104.21669
G1 X96.125 Y108.820 E104.21955
G1 X123.015 Y108.820 E105.29247
G1 X123.477 Y108.830 E105.31090
G1 X123.526 Y108.846 E105.31296
G1 X123.574 Y108.877 E105.31524
G1 X123.638 Y108.946 E105.31899
G1 X127.032 Y113.801 E105.55535
G0 F12000 X127.375 Y113.595
;TYPE:WALL-OUTER
G1 F2100 X127.455 Y113.746 E105.56217
G1 X127.489 Y113.902 E105.56854
G1 X127.481 Y114.066 E105.57509
G1 X127.433 Y114.220 E105.58153
G1 X127.347 Y114.355 E105.58791
G1 X127.225 Y114.466 E105.59449
G1 X127.081 Y114.541 E105.60097
G1 X126.922 Y114.579 E105.60750
G1 X99.649 Y114.579 E106.69569
G1 X99.459 Y114.567 E106.70328
G1 X99.304 Y114.519 E106.70976
G1 X99.169 Y114.433 E106.71615
G1 X99.047 Y114.299 E106.72338
G1 X95.625 Y109.406 E106.96161
G1 X95.545 Y109.253 E106.96850
G1 X95.511 Y109.097 E106.97487
G1 X95.519 Y108.933 E106.98143
G1 X95.567 Y108.779 E106.98786
G1 X95.653 Y108.644 E106.99425
G1 X95.775 Y108.533 E107.00083
G1 X95.916 Y108.460 E107.00716
G1 X96.081 Y108.421 E107.01393
G1 X123.024 Y108.421 E108.08895
G1 X123.543 Y108.432 E108.10967
G1 X123.696 Y108.481 E108.11608
G1 X123.833 Y108.569 E108.12257
G1 X123.949 Y108.694 E108.12938
G1 X127.375 Y113.595 E108.36797
G0 F12000 X126.090 Y113.395
;TYPE:SKIN
G1 F2100 X122.054 Y109.359 E108.59571
G0 F12000 X121.490 Y109.359
G1 F2100 X125.771 Y113.640 E108.83727
G0 F12000 X125.207 Y113.640
G1 F2100 X120.925 Y109.359 E109.07887
G0 F12000 X120.361 Y109.359
G1 F2100 X124.643 Y113.640 E109.32046
G0 F12000 X124.078 Y113.640
G1 F2100 X119.797 Y109.359 E109.56202
G0 F12000 X119.233 Y109.359
G1 F2100 X123.514 Y113.640 E109.80359
G0 F12000 X122.950 Y113.640
G1 F2100 X118.668 Y109.359 E110.04518
G0 F12000 X118.104 Y109.359
G1 F2100 X122.386 Y113.640 E110.28677
G0 F12000 X121.821 Y113.640
G1 F2100 X117.540 Y109.359 E110.52834
G0 F12000 X116.975 Y109.359
G1 F2100 X121.257 Y113.640 E110.76993
G0 F12000 X120.693 Y113.640
G1 F2100 X116.411 Y109.359 E111.01152
G0 F12000 X115.847 Y109.359
G1 F2100 X120.128 Y113.640 E111.25309
G0 F12000 X122.618 Y109.359
G1 F2100 X124.781 Y111.521 E111.37511
G0 F12000 X123.470 Y109.646
