;FLAVOR:UltiGCode
;TIME:1336
;MATERIAL:1833
;MATERIAL2:0
;NOZZLE_DIAMETER:0.400000
;NOZZLE_DIAMETER2:0.400000
;MTYPE:PLA

;Layer count: 18
;LAYER:0
M107
G0 F12000 X37.216 Y103.455 Z0.300
;TYPE:SKIRT
G1 F1200 X185.784 Y103.455 E17.82816
G1 X185.784 Y114.700 E19.17756
G1 X183.284 Y114.700 E19.47756
G1 X183.284 Y119.546 E20.05908
G1 X39.716 Y119.546 E37.28724
G1 X39.716 Y114.700 E37.86876
G1 X37.216 Y114.700 E38.16876
G1 X37.216 Y103.455 E39.51816
G10
G1 Z0.400
G0 F12000 X41.416 Y107.655
;TYPE:WALL-INNER
G1 Z0.300
G11
G1 F1200 X44.500 Y107.655 E39.88824
G1 X44.500 Y115.346 E40.81116
G1 X43.916 Y115.346 E40.88124
G1 X43.916 Y110.500 E41.46276
G1 X41.416 Y110.500 E41.76276
G1 X41.416 Y107.655 E42.10416
G0 F12000 X178.500 Y107.655
G1 F1200 X181.584 Y107.655 E42.47424
G1 X181.584 Y110.500 E42.81564
G1 X179.084 Y110.500 E43.11564
G1 X179.084 Y115.346 E43.69716
G1 X178.500 Y115.346 E43.76724
G1 X178.500 Y107.655 E44.69016
G0 F12000 X178.100 Y107.555
G1 F1200 X174.900 Y107.555 E45.07416
G1 X174.900 Y115.446 E46.02108
G1 X178.100 Y115.446 E46.40508
G1 X178.100 Y107.555 E47.35200
G0 F12000 X179.484 Y110.900
G1 F1200 X179.484 Y115.746 E47.93352
G1 X43.516 Y115.746 E64.24968
G1 X43.516 Y110.900 E64.83120
G1 X41.016 Y110.900 E65.13120
G1 X41.016 Y107.255 E65.56860
G1 X181.984 Y107.255 E82.48476
G1 X181.984 Y110.900 E82.92216
G1 X179.484 Y110.900 E83.22216
G0 F12000 X178.041 Y110.196
G0 X174.959 Y110.196
G0 X174.100 Y107.555
G1 F1200 X167.900 Y107.555 E83.96616
G1 X167.900 Y115.446 E84.91308
G1 X174.100 Y115.446 E85.65708
G1 X174.100 Y107.555 E86.60400
G0 F12000 X167.100 Y107.555
G1 F1200 X160.900 Y107.555 E87.34800
G1 X160.900 Y115.446 E88.29492
G1 X167.100 Y115.446 E89.03892
G1 X167.100 Y107.555 E89.98584
G0 F12000 X160.100 Y107.555
G1 F1200 X153.900 Y107.555 E90.72984
G1 X153.900 Y115.446 E91.67676
G1 X160.100 Y115.446 E92.42076
G1 X160.100 Y107.555 E93.36768
G0 F12000 X153.100 Y107.555
G1 F1200 X146.900 Y107.555 E94.11168
G1 X146.900 Y115.446 E95.05860
G1 X153.100 Y115.446 E95.80260
G1 X153.100 Y107.555 E96.74952
G0 F12000 X146.100 Y107.555
G1 F1200 X139.900 Y107.555 E97.49352
G1 X139.900 Y115.446 E98.44044
G1 X146.100 Y115.446 E99.18444
G1 X146.100 Y107.555 E100.13136
G0 F12000 X139.100 Y107.555
G1 F1200 X132.900 Y107.555 E100.87536
G1 X132.900 Y115.446 E101.82228
G1 X139.100 Y115.446 E102.56628
G1 X139.100 Y107.555 E103.51320
G0 F12000 X132.100 Y107.555
G1 F1200 X125.900 Y107.555 E104.25720
G1 X125.900 Y115.446 E105.20412
G1 X132.100 Y115.446 E105.94812
G1 X132.100 Y107.555 E106.89504
G0 F12000 X125.100 Y107.555
G1 F1200 X118.900 Y107.555 E107.63904
G1 X118.900 Y115.446 E108.58596
G1 X125.100 Y115.446 E109.32996
G1 X125.100 Y107.555 E110.27688
G0 F12000 X118.100 Y107.555
G1 F1200 X111.900 Y107.555 E111.02088
G1 X111.900 Y115.446 E111.96780
G1 X118.100 Y115.446 E112.71180
G1 X118.100 Y107.555 E113.65872
G0 F12000 X111.100 Y107.555
G1 F1200 X104.900 Y107.555 E114.40272
G1 X104.900 Y115.446 E115.34964
G1 X111.100 Y115.446 E116.09364
G1 X111.100 Y107.555 E117.04056
G0 F12000 X104.100 Y107.555
G1 F1200 X97.900 Y107.555 E117.78456
G1 X97.900 Y115.446 E118.73148
G1 X104.100 Y115.446 E119.47548
G1 X104.100 Y107.555 E120.42240
G0 F12000 X97.100 Y107.555
G1 F1200 X90.900 Y107.555 E121.16640
G1 X90.900 Y115.446 E122.11332
G1 X97.100 Y115.446 E122.85732
G1 X97.100 Y107.555 E123.80424
G0 F12000 X90.100 Y107.555
G1 F1200 X83.900 Y107.555 E124.54824
G1 X83.900 Y115.446 E125.49516
G1 X90.100 Y115.446 E126.23916
G1 X90.100 Y107.555 E127.18608
G0 F12000 X83.100 Y107.555
G1 F1200 X76.900 Y107.555 E127.93008
G1 X76.900 Y115.446 E128.87700
G1 X83.100 Y115.446 E129.62100
G1 X83.100 Y107.555 E130.56792
G0 F12000 X76.100 Y107.555
G1 F1200 X69.900 Y107.555 E131.31192
G1 X69.900 Y115.446 E132.25884
G1 X76.100 Y115.446 E133.00284
G1 X76.100 Y107.555 E133.94976
G0 F12000 X69.100 Y107.555
G1 F1200 X62.900 Y107.555 E134.69376
G1 X62.900 Y115.446 E135.64068
G1 X69.100 Y115.446 E136.38468
G1 X69.100 Y107.555 E137.33160
G0 F12000 X62.100 Y107.555
G1 F1200 X55.900 Y107.555 E138.07560
G1 X55.900 Y115.446 E139.02252
G1 X62.100 Y115.446 E139.76652
G1 X62.100 Y107.555 E140.71344
G0 F12000 X55.100 Y107.555
G1 F1200 X48.900 Y107.555 E141.45744
G1 X48.900 Y115.446 E142.40436
G1 X55.100 Y115.446 E143.14836
G1 X55.100 Y107.555 E144.09528
G0 F12000 X48.100 Y107.555
G1 F1200 X44.900 Y107.555 E144.47928
G1 X44.900 Y115.446 E145.42620
G1 X48.100 Y115.446 E145.81020
G1 X48.100 Y107.555 E146.75712
G0 F12000 X47.700 Y107.955
;TYPE:WALL-OUTER
G1 F1200 X45.300 Y107.955 E147.04512
G1 X45.300 Y109.855 E147.27312
G1 X47.700 Y109.855 E147.56112
G1 X47.700 Y107.955 E147.78912
G0 F12000 X47.700 Y107.655
G0 X49.300 Y107.655
G0 X49.300 Y107.955
G1 F1200 X49.300 Y109.855 E148.01712
G1 X54.700 Y109.855 E148.66512
G1 X54.700 Y107.955 E148.89312
G1 X49.300 Y107.955 E149.54112
G0 F12000 X49.300 Y107.655
G0 X55.041 Y107.614
G0 X55.041 Y110.196
G0 X49.300 Y110.254
G0 X49.300 Y110.554
G1 F1200 X49.300 Y112.446 E149.76816
G1 X54.700 Y112.446 E150.41616
G1 X54.700 Y110.554 E150.64320
G1 X49.300 Y110.554 E151.29120
G0 F12000 X49.300 Y110.254
G0 X47.700 Y110.254
G0 X47.700 Y110.554
G1 F1200 X45.300 Y110.554 E151.57920
G1 X45.300 Y112.446 E151.80624
G1 X47.700 Y112.446 E152.09424
G1 X47.700 Y110.554 E152.32128
G0 F12000 X47.700 Y110.254
G0 X48.041 Y110.213
G0 X48.041 Y112.787
G0 X47.700 Y112.846
G0 X47.700 Y113.146
G1 F1200 X45.300 Y113.146 E152.60928
G1 X45.300 Y115.046 E152.83728
G1 X47.700 Y115.046 E153.12528
G1 X47.700 Y113.146 E153.35328
G0 F12000 X47.700 Y112.846
G0 X49.300 Y112.846
G0 X49.300 Y113.146
G1 F1200 X49.300 Y115.046 E153.58128
G1 X54.700 Y115.046 E154.22928
G1 X54.700 Y113.146 E154.45728
G1 X49.300 Y113.146 E155.10528
G0 F12000 X49.300 Y112.846
G0 X44.959 Y112.787
G0 X43.416 Y111.300
G0 X43.116 Y111.300
G1 F1200 X40.616 Y111.300 E155.40528
G1 X40.616 Y106.855 E155.93868
G1 X182.384 Y106.855 E172.95084
G1 X182.384 Y111.300 E173.48424
G1 X179.884 Y111.300 E173.78424
G1 X179.884 Y116.146 E174.36576
G1 X43.116 Y116.146 E190.77792
G1 X43.116 Y111.300 E191.35944
G0 F12000 X43.416 Y111.300
G0 X44.959 Y110.213
G0 X48.041 Y110.213
G0 X56.300 Y110.254
G0 X56.300 Y110.554
G1 F1200 X56.300 Y112.446 E191.58648
G1 X61.700 Y112.446 E192.23448
G1 X61.700 Y110.554 E192.46152
G1 X56.300 Y110.554 E193.10952
G0 F12000 X56.300 Y110.254
G0 X62.041 Y110.213
G0 X62.041 Y112.787
G0 X56.300 Y112.846
G0 X56.300 Y113.146
G1 F1200 X56.300 Y115.046 E193.33752
G1 X61.700 Y115.046 E193.98552
G1 X61.700 Y113.146 E194.21352
G1 X56.300 Y113.146 E194.86152
G0 F12000 X56.300 Y112.846
G0 X55.959 Y112.787
G0 X56.000 Y109.855
G0 X56.300 Y109.855
G1 F1200 X61.700 Y109.855 E195.50952
G1 X61.700 Y107.955 E195.73752
G1 X56.300 Y107.955 E196.38552
G1 X56.300 Y109.855 E196.61352
G0 F12000 X56.000 Y109.855
G0 X55.959 Y107.614
G0 X62.041 Y107.614
G0 X63.000 Y109.855
G0 X63.300 Y109.855
G1 F1200 X68.700 Y109.855 E197.26152
G1 X68.700 Y107.955 E197.48952
G1 X63.300 Y107.955 E198.13752
G1 X63.300 Y109.855 E198.36552
G0 F12000 X63.300 Y110.554
G1 F1200 X63.300 Y112.446 E198.59256
G1 X68.700 Y112.446 E199.24056
G1 X68.700 Y110.554 E199.46760
G1 X63.300 Y110.554 E200.11560
G0 F12000 X63.300 Y110.254
G0 X69.041 Y110.213
G0 X69.041 Y112.787
G0 X63.300 Y112.846
G0 X63.300 Y113.146
G1 F1200 X63.300 Y115.046 E200.34360
G1 X68.700 Y115.046 E200.99160
G1 X68.700 Y113.146 E201.21960
G1 X63.300 Y113.146 E201.86760
G0 F12000 X63.300 Y112.846
G0 X70.300 Y112.846
G0 X70.300 Y113.146
G1 F1200 X70.300 Y115.046 E202.09560
G1 X75.700 Y115.046 E202.74360
G1 X75.700 Y113.146 E202.97160
G1 X70.300 Y113.146 E203.61960
G0 F12000 X70.300 Y112.446
G1 F1200 X75.700 Y112.446 E204.26760
G1 X75.700 Y110.554 E204.49464
G1 X70.300 Y110.554 E205.14264
G1 X70.300 Y112.446 E205.36968
G0 F12000 X70.000 Y112.446
G0 X70.000 Y109.855
G0 X70.300 Y109.855
G1 F1200 X75.700 Y109.855 E206.01768
G1 X75.700 Y107.955 E206.24568
G1 X70.300 Y107.955 E206.89368
G1 X70.300 Y109.855 E207.12168
G0 F12000 X70.000 Y109.855
G0 X69.959 Y107.614
G0 X76.041 Y107.614
G0 X77.000 Y109.855
G0 X77.300 Y109.855
G1 F1200 X82.700 Y109.855 E207.76968
G1 X82.700 Y107.955 E207.99768
G1 X77.300 Y107.955 E208.64568
G1 X77.300 Y109.855 E208.87368
G0 F12000 X77.300 Y110.554
G1 F1200 X77.300 Y112.446 E209.10072
G1 X82.700 Y112.446 E209.74872
G1 X82.700 Y110.554 E209.97576
G1 X77.300 Y110.554 E210.62376
G0 F12000 X77.300 Y110.254
G0 X83.041 Y110.213
G0 X83.041 Y112.787
G0 X77.300 Y112.846
G0 X77.300 Y113.146
G1 F1200 X77.300 Y115.046 E210.85176
G1 X82.700 Y115.046 E211.49976
G1 X82.700 Y113.146 E211.72776
G1 X77.300 Y113.146 E212.37576
G0 F12000 X77.300 Y112.846
G0 X84.300 Y112.846
G0 X84.300 Y113.146
G1 F1200 X84.300 Y115.046 E212.60376
G1 X89.700 Y115.046 E213.25176
G1 X89.700 Y113.146 E213.47976
G1 X84.300 Y113.146 E214.12776
G0 F12000 X84.300 Y112.446
G1 F1200 X89.700 Y112.446 E214.77576
G1 X89.700 Y110.554 E215.00280
G1 X84.300 Y110.554 E215.65080
G1 X84.300 Y112.446 E215.87784
G0 F12000 X84.000 Y112.446
G0 X84.000 Y109.855
G0 X84.300 Y109.855
G1 F1200 X89.700 Y109.855 E216.52584
G1 X89.700 Y107.955 E216.75384
G1 X84.300 Y107.955 E217.40184
G1 X84.300 Y109.855 E217.62984
G0 F12000 X84.000 Y109.855
G0 X83.959 Y107.614
G0 X90.041 Y107.614
G0 X91.000 Y109.855
G0 X91.300 Y109.855
G1 F1200 X96.700 Y109.855 E218.27784
G1 X96.700 Y107.955 E218.50584
G1 X91.300 Y107.955 E219.15384
G1 X91.300 Y109.855 E219.38184
G0 F12000 X91.300 Y110.554
G1 F1200 X91.300 Y112.446 E219.60888
G1 X96.700 Y112.446 E220.25688
G1 X96.700 Y110.554 E220.48392
G1 X91.300 Y110.554 E221.13192
G0 F12000 X91.300 Y110.254
G0 X97.041 Y110.213
G0 X97.041 Y112.787
G0 X91.300 Y112.846
G0 X91.300 Y113.146
G1 F1200 X91.300 Y115.046 E221.35992
G1 X96.700 Y115.046 E222.00792
G1 X96.700 Y113.146 E222.23592
G1 X91.300 Y113.146 E222.88392
G0 F12000 X91.300 Y112.846
G0 X98.300 Y112.846
G0 X98.300 Y113.146
G1 F1200 X98.300 Y115.046 E223.11192
G1 X103.700 Y115.046 E223.75992
G1 X103.700 Y113.146 E223.98792
G1 X98.300 Y113.146 E224.63592
G0 F12000 X98.300 Y112.446
G1 F1200 X103.700 Y112.446 E225.28392
G1 X103.700 Y110.554 E225.51096
G1 X98.300 Y110.554 E226.15896
G1 X98.300 Y112.446 E226.38600
G0 F12000 X98.000 Y112.446
G0 X98.000 Y109.855
G0 X98.300 Y109.855
G1 F1200 X103.700 Y109.855 E227.03400
G1 X103.700 Y107.955 E227.26200
G1 X98.300 Y107.955 E227.91000
G1 X98.300 Y109.855 E228.13800
G0 F12000 X98.000 Y109.855
G0 X97.959 Y107.614
G0 X104.041 Y107.614
G0 X105.000 Y109.855
G0 X105.300 Y109.855
G1 F1200 X110.700 Y109.855 E228.78600
G1 X110.700 Y107.955 E229.01400
G1 X105.300 Y107.955 E229.66200
G1 X105.300 Y109.855 E229.89000
G0 F12000 X105.300 Y110.554
G1 F1200 X105.300 Y112.446 E230.11704
G1 X110.700 Y112.446 E230.76504
G1 X110.700 Y110.554 E230.99208
G1 X105.300 Y110.554 E231.64008
G0 F12000 X105.300 Y110.254
G0 X111.041 Y110.213
G0 X111.041 Y112.787
G0 X105.300 Y112.846
G0 X105.300 Y113.146
G1 F1200 X105.300 Y115.046 E231.86808
G1 X110.700 Y115.046 E232.51608
G1 X110.700 Y113.146 E232.74408
G1 X105.300 Y113.146 E233.39208
G0 F12000 X105.300 Y112.846
G0 X112.300 Y112.846
G0 X112.300 Y113.146
G1 F1200 X112.300 Y115.046 E233.62008
G1 X117.700 Y115.046 E234.26808
G1 X117.700 Y113.146 E234.49608
G1 X112.300 Y113.146 E235.14408
G0 F12000 X112.300 Y112.446
G1 F1200 X117.700 Y112.446 E235.79208
G1 X117.700 Y110.554 E236.01912
G1 X112.300 Y110.554 E236.66712
G1 X112.300 Y112.446 E236.89416
G0 F12000 X112.000 Y112.446
G0 X112.000 Y109.855
G0 X112.300 Y109.855
G1 F1200 X117.700 Y109.855 E237.54216
G1 X117.700 Y107.955 E237.77016
G1 X112.300 Y107.955 E238.41816
G1 X112.300 Y109.855 E238.64616
G0 F12000 X112.000 Y109.855
G0 X111.959 Y107.614
G0 X118.041 Y107.614
G0 X119.000 Y109.855
G0 X119.300 Y109.855
G1 F1200 X124.700 Y109.855 E239.29416
G1 X124.700 Y107.955 E239.52216
G1 X119.300 Y107.955 E240.17016
G1 X119.300 Y109.855 E240.39816
G0 F12000 X119.300 Y110.554
G1 F1200 X119.300 Y112.446 E240.62520
G1 X124.700 Y112.446 E241.27320
G1 X124.700 Y110.554 E241.50024
G1 X119.300 Y110.554 E242.14824
G0 F12000 X119.300 Y110.254
G0 X125.041 Y110.213
G0 X125.041 Y112.787
G0 X119.300 Y112.846
G0 X119.300 Y113.146
G1 F1200 X119.300 Y115.046 E242.37624
G1 X124.700 Y115.046 E243.02424
G1 X124.700 Y113.146 E243.25224
G1 X119.300 Y113.146 E243.90024
G0 F12000 X119.300 Y112.846
G0 X126.300 Y112.846
G0 X126.300 Y113.146
G1 F1200 X126.300 Y115.046 E244.12824
G1 X131.700 Y115.046 E244.77624
G1 X131.700 Y113.146 E245.00424
G1 X126.300 Y113.146 E245.65224
G0 F12000 X126.300 Y112.446
G1 F1200 X131.700 Y112.446 E246.30024
G1 X131.700 Y110.554 E246.52728
G1 X126.300 Y110.554 E247.17528
G1 X126.300 Y112.446 E247.40232
G0 F12000 X126.000 Y112.446
G0 X126.000 Y109.855
G0 X126.300 Y109.855
G1 F1200 X131.700 Y109.855 E248.05032
G1 X131.700 Y107.955 E248.27832
G1 X126.300 Y107.955 E248.92632
G1 X126.300 Y109.855 E249.15432
G0 F12000 X126.000 Y109.855
G0 X125.959 Y107.614
G0 X132.041 Y107.614
G0 X133.000 Y109.855
G0 X133.300 Y109.855
G1 F1200 X138.700 Y109.855 E249.80232
G1 X138.700 Y107.955 E250.03032
G1 X133.300 Y107.955 E250.67832
G1 X133.300 Y109.855 E250.90632
G0 F12000 X133.300 Y110.554
G1 F1200 X133.300 Y112.446 E251.13336
G1 X138.700 Y112.446 E251.78136
G1 X138.700 Y110.554 E252.00840
G1 X133.300 Y110.554 E252.65640
G0 F12000 X133.300 Y110.254
G0 X139.041 Y110.213
G0 X139.041 Y112.787
G0 X133.300 Y112.846
G0 X133.300 Y113.146
G1 F1200 X133.300 Y115.046 E252.88440
G1 X138.700 Y115.046 E253.53240
G1 X138.700 Y113.146 E253.76040
G1 X133.300 Y113.146 E254.40840
G0 F12000 X133.300 Y112.846
G0 X140.300 Y112.846
G0 X140.300 Y113.146
G1 F1200 X140.300 Y115.046 E254.63640
G1 X145.700 Y115.046 E255.28440
G1 X145.700 Y113.146 E255.51240
G1 X140.300 Y113.146 E256.16040
G0 F12000 X140.300 Y112.446
G1 F1200 X145.700 Y112.446 E256.80840
G1 X145.700 Y110.554 E257.03544
G1 X140.300 Y110.554 E257.68344
G1 X140.300 Y112.446 E257.91048
G0 F12000 X140.000 Y112.446
G0 X140.000 Y109.855
G0 X140.300 Y109.855
G1 F1200 X145.700 Y109.855 E258.55848
G1 X145.700 Y107.955 E258.78648
G1 X140.300 Y107.955 E259.43448
G1 X140.300 Y109.855 E259.66248
G0 F12000 X140.000 Y109.855
G0 X139.959 Y107.614
G0 X146.041 Y107.614
G0 X147.000 Y109.855
G0 X147.300 Y109.855
G1 F1200 X152.700 Y109.855 E260.31048
G1 X152.700 Y107.955 E260.53848
G1 X147.300 Y107.955 E261.18648
G1 X147.300 Y109.855 E261.41448
G0 F12000 X147.300 Y110.554
G1 F1200 X147.300 Y112.446 E261.64152
G1 X152.700 Y112.446 E262.28952
G1 X152.700 Y110.554 E262.51656
G1 X147.300 Y110.554 E263.16456
G0 F12000 X147.300 Y110.254
G0 X153.041 Y110.213
G0 X153.041 Y112.787
G0 X147.300 Y112.846
G0 X147.300 Y113.146
G1 F1200 X147.300 Y115.046 E263.39256
G1 X152.700 Y115.046 E264.04056
G1 X152.700 Y113.146 E264.26856
G1 X147.300 Y113.146 E264.91656
G0 F12000 X147.300 Y112.846
G0 X154.300 Y112.846
G0 X154.300 Y113.146
G1 F1200 X154.300 Y115.046 E265.14456
G1 X159.700 Y115.046 E265.79256
G1 X159.700 Y113.146 E266.02056
G1 X154.300 Y113.146 E266.66856
G0 F12000 X154.300 Y112.446
G1 F1200 X159.700 Y112.446 E267.31656
G1 X159.700 Y110.554 E267.54360
G1 X154.300 Y110.554 E268.19160
G1 X154.300 Y112.446 E268.41864
G0 F12000 X154.000 Y112.446
G0 X154.000 Y109.855
G0 X154.300 Y109.855
G1 F1200 X159.700 Y109.855 E269.06664
G1 X159.700 Y107.955 E269.29464
G1 X154.300 Y107.955 E269.94264
G1 X154.300 Y109.855 E270.17064
G0 F12000 X154.000 Y109.855
G0 X153.959 Y107.614
G0 X160.041 Y107.614
G0 X161.000 Y109.855
G0 X161.300 Y109.855
G1 F1200 X166.700 Y109.855 E270.81864
G1 X166.700 Y107.955 E271.04664
G1 X161.300 Y107.955 E271.69464
G1 X161.300 Y109.855 E271.92264
G0 F12000 X161.300 Y110.554
G1 F1200 X161.300 Y112.446 E272.14968
G1 X166.700 Y112.446 E272.79768
G1 X166.700 Y110.554 E273.02472
G1 X161.300 Y110.554 E273.67272
G0 F12000 X161.300 Y110.254
G0 X167.041 Y110.213
G0 X167.041 Y112.787
G0 X161.300 Y112.846
G0 X161.300 Y113.146
G1 F1200 X161.300 Y115.046 E273.90072
G1 X166.700 Y115.046 E274.54872
G1 X166.700 Y113.146 E274.77672
G1 X161.300 Y113.146 E275.42472
G0 F12000 X161.300 Y112.846
G0 X168.300 Y112.846
G0 X168.300 Y113.146
G1 F1200 X168.300 Y115.046 E275.65272
G1 X173.700 Y115.046 E276.30072
G1 X173.700 Y113.146 E276.52872
