;FLAVOR:UltiGCode
;TIME:1284
;MATERIAL:1796
;MATERIAL2:0
;NOZZLE_DIAMETER:0.400000
;NOZZLE_DIAMETER2:0.400000
;MTYPE:PLA

;Layer count: 18
;LAYER:0
M107
G0 F12000 X41.592 Y103.455 Z0.300
;TYPE:SKIRT
G1 F1200 X181.403 Y103.455 E16.77732
G1 X181.402 Y108.300 E17.35872
G1 X183.897 Y108.300 E17.65812
G1 X183.903 Y112.103 E18.11448
G1 X183.901 Y119.546 E19.00764
G1 X39.098 Y119.546 E36.38400
G1 X39.098 Y112.106 E37.27680
G1 X39.092 Y108.300 E37.73352
G1 X41.598 Y108.300 E38.03424
G1 X41.598 Y107.260 E38.15904
G1 X41.592 Y103.455 E38.61564
G10
G1 Z0.400
G0 F12000 X45.798 Y107.655
;TYPE:WALL-INNER
G1 Z0.300
G11
G1 F1200 X48.500 Y107.655 E38.93988
G1 X48.500 Y115.346 E39.86280
G1 X43.298 Y115.346 E40.48704
G1 X43.298 Y112.500 E40.82856
G1 X45.797 Y112.500 E41.12844
G1 X45.798 Y107.655 E41.70984
G0 F12000 X174.500 Y107.655
G1 F1200 X177.203 Y107.655 E42.03420
G1 X177.202 Y112.500 E42.61560
G1 X179.703 Y112.500 E42.91572
G1 X179.702 Y115.346 E43.25724
G1 X174.500 Y115.346 E43.88148
G1 X174.500 Y107.655 E44.80440
G0 F12000 X174.100 Y107.555
G1 F1200 X167.900 Y107.555 E45.54840
G1 X167.900 Y115.446 E46.49532
G1 X174.100 Y115.446 E47.23932
G1 X174.100 Y107.555 E48.18624
G0 F12000 X177.603 Y107.255
G1 F1200 X177.602 Y112.100 E48.76764
G1 X180.103 Y112.100 E49.06776
G1 X180.102 Y115.746 E49.50528
G1 X42.898 Y115.746 E65.96976
G1 X42.897 Y112.100 E66.40728
G1 X45.397 Y112.100 E66.70728
G1 X45.398 Y107.261 E67.28796
G1 X177.603 Y107.255 E83.15256
G0 F12000 X167.100 Y107.555
G1 F1200 X160.900 Y107.555 E83.89656
G1 X160.900 Y115.446 E84.84348
G1 X167.100 Y115.446 E85.58748
G1 X167.100 Y107.555 E86.53440
G0 F12000 X160.100 Y107.555
G1 F1200 X153.900 Y107.555 E87.27840
G1 X153.900 Y115.446 E88.22532
G1 X160.100 Y115.446 E88.96932
G1 X160.100 Y107.555 E89.91624
G0 F12000 X153.100 Y107.555
G1 F1200 X146.900 Y107.555 E90.66024
G1 X146.900 Y115.446 E91.60716
G1 X153.100 Y115.446 E92.35116
G1 X153.100 Y107.555 E93.29808
G0 F12000 X146.100 Y107.555
G1 F1200 X139.900 Y107.555 E94.04208
G1 X139.900 Y115.446 E94.98900
G1 X146.100 Y115.446 E95.73300
G1 X146.100 Y107.555 E96.67992
G0 F12000 X139.100 Y107.555
G1 F1200 X132.900 Y107.555 E97.42392
G1 X132.900 Y115.446 E98.37084
G1 X139.100 Y115.446 E99.11484
G1 X139.100 Y107.555 E100.06176
G0 F12000 X132.100 Y107.555
G1 F1200 X125.900 Y107.555 E100.80576
G1 X125.900 Y115.446 E101.75268
G1 X132.100 Y115.446 E102.49668
G1 X132.100 Y107.555 E103.44360
G0 F12000 X125.100 Y107.555
G1 F1200 X118.900 Y107.555 E104.18760
G1 X118.900 Y115.446 E105.13452
G1 X125.100 Y115.446 E105.87852
G1 X125.100 Y107.555 E106.82544
G0 F12000 X118.100 Y107.555
G1 F1200 X111.900 Y107.555 E107.56944
G1 X111.900 Y115.446 E108.51636
G1 X118.100 Y115.446 E109.26036
G1 X118.100 Y107.555 E110.20728
G0 F12000 X111.100 Y107.555
G1 F1200 X104.900 Y107.555 E110.95128
G1 X104.900 Y115.446 E111.89820
G1 X111.100 Y115.446 E112.64220
G1 X111.100 Y107.555 E113.58912
G0 F12000 X104.100 Y107.555
G1 F1200 X97.900 Y107.555 E114.33312
G1 X97.900 Y115.446 E115.28004
G1 X104.100 Y115.446 E116.02404
G1 X104.100 Y107.555 E116.97096
G0 F12000 X97.100 Y107.555
G1 F1200 X90.900 Y107.555 E117.71496
G1 X90.900 Y115.446 E118.66188
G1 X97.100 Y115.446 E119.40588
G1 X97.100 Y107.555 E120.35280
G0 F12000 X90.100 Y107.555
G1 F1200 X83.900 Y107.555 E121.09680
G1 X83.900 Y115.446 E122.04372
G1 X90.100 Y115.446 E122.78772
G1 X90.100 Y107.555 E123.73464
G0 F12000 X83.100 Y107.555
G1 F1200 X76.900 Y107.555 E124.47864
G1 X76.900 Y115.446 E125.42556
G1 X83.100 Y115.446 E126.16956
G1 X83.100 Y107.555 E127.11648
G0 F12000 X76.100 Y107.555
G1 F1200 X69.900 Y107.555 E127.86048
G1 X69.900 Y115.446 E128.80740
G1 X76.100 Y115.446 E129.55140
G1 X76.100 Y107.555 E130.49832
G0 F12000 X69.100 Y107.555
G1 F1200 X62.900 Y107.555 E131.24232
G1 X62.900 Y115.446 E132.18924
G1 X69.100 Y115.446 E132.93324
G1 X69.100 Y107.555 E133.88016
G0 F12000 X62.100 Y107.555
G1 F1200 X55.900 Y107.555 E134.62416
G1 X55.900 Y115.446 E135.57108
G1 X62.100 Y115.446 E136.31508
G1 X62.100 Y107.555 E137.26200
G0 F12000 X55.100 Y107.555
G1 F1200 X48.900 Y107.555 E138.00600
G1 X48.900 Y115.446 E138.95292
G1 X55.100 Y115.446 E139.69692
G1 X55.100 Y107.555 E140.64384
G0 F12000 X54.700 Y107.955
;TYPE:WALL-OUTER
G1 F1200 X49.300 Y107.955 E141.29184
G1 X49.300 Y109.855 E141.51984
G1 X54.700 Y109.855 E142.16784
G1 X54.700 Y107.955 E142.39584
G0 F12000 X54.700 Y107.655
G0 X56.300 Y107.655
G0 X56.300 Y107.955
G1 F1200 X56.300 Y109.855 E142.62384
G1 X61.700 Y109.855 E143.27184
G1 X61.700 Y107.955 E143.49984
G1 X56.300 Y107.955 E144.14784
G0 F12000 X56.300 Y107.655
G0 X62.041 Y107.614
G0 X62.041 Y110.196
G0 X56.300 Y110.254
G0 X56.300 Y110.554
G1 F1200 X56.300 Y112.446 E144.37488
G1 X61.700 Y112.446 E145.02288
G1 X61.700 Y110.554 E145.24992
G1 X56.300 Y110.554 E145.89792
G0 F12000 X56.300 Y110.254
G0 X54.700 Y110.254
G0 X54.700 Y110.554
G1 F1200 X49.300 Y110.554 E146.54592
G1 X49.300 Y112.446 E146.77296
G1 X54.700 Y112.446 E147.42096
G1 X54.700 Y110.554 E147.64800
G0 F12000 X54.700 Y110.254
G0 X55.041 Y110.213
G0 X55.041 Y112.787
G0 X54.700 Y112.846
G0 X54.700 Y113.146
G1 F1200 X49.300 Y113.146 E148.29600
G1 X49.300 Y115.046 E148.52400
G1 X54.700 Y115.046 E149.17200
G1 X54.700 Y113.146 E149.40000
G0 F12000 X54.700 Y112.846
G0 X56.300 Y112.846
G0 X56.300 Y113.146
G1 F1200 X56.300 Y115.046 E149.62800
G1 X61.700 Y115.046 E150.27600
G1 X61.700 Y113.146 E150.50400
G1 X56.300 Y113.146 E151.15200
G0 F12000 X56.300 Y112.846
G0 X63.300 Y112.846
G0 X63.300 Y113.146
G1 F1200 X63.300 Y115.046 E151.38000
G1 X68.700 Y115.046 E152.02800
G1 X68.700 Y113.146 E152.25600
G1 X63.300 Y113.146 E152.90400
G0 F12000 X63.300 Y112.446
G1 F1200 X68.700 Y112.446 E153.55200
G1 X68.700 Y110.554 E153.77904
G1 X63.300 Y110.554 E154.42704
G1 X63.300 Y112.446 E154.65408
G0 F12000 X63.000 Y112.446
G0 X63.000 Y109.855
G0 X63.300 Y109.855
G1 F1200 X68.700 Y109.855 E155.30208
G1 X68.700 Y107.955 E155.53008
G1 X63.300 Y107.955 E156.17808
G1 X63.300 Y109.855 E156.40608
G0 F12000 X63.000 Y109.855
G0 X62.959 Y107.614
G0 X69.041 Y107.614
G0 X70.000 Y109.855
G0 X70.300 Y109.855
G1 F1200 X75.700 Y109.855 E157.05408
G1 X75.700 Y107.955 E157.28208
G1 X70.300 Y107.955 E157.93008
G1 X70.300 Y109.855 E158.15808
G0 F12000 X70.300 Y110.554
G1 F1200 X70.300 Y112.446 E158.38512
G1 X75.700 Y112.446 E159.03312
G1 X75.700 Y110.554 E159.26016
G1 X70.300 Y110.554 E159.90816
G0 F12000 X70.300 Y110.254
G0 X76.041 Y110.213
G0 X76.041 Y112.787
G0 X70.300 Y112.846
G0 X70.300 Y113.146
G1 F1200 X70.300 Y115.046 E160.13616
G1 X75.700 Y115.046 E160.78416
G1 X75.700 Y113.146 E161.01216
G1 X70.300 Y113.146 E161.66016
G0 F12000 X70.300 Y112.846
G0 X77.300 Y112.846
G0 X77.300 Y113.146
G1 F1200 X77.300 Y115.046 E161.88816
G1 X82.700 Y115.046 E162.53616
G1 X82.700 Y113.146 E162.76416
G1 X77.300 Y113.146 E163.41216
G0 F12000 X77.300 Y112.446
G1 F1200 X82.700 Y112.446 E164.06016
G1 X82.700 Y110.554 E164.28720
G1 X77.300 Y110.554 E164.93520
G1 X77.300 Y112.446 E165.16224
G0 F12000 X77.000 Y112.446
G0 X77.000 Y109.855
G0 X77.300 Y109.855
G1 F1200 X82.700 Y109.855 E165.81024
G1 X82.700 Y107.955 E166.03824
G1 X77.300 Y107.955 E166.68624
G1 X77.300 Y109.855 E166.91424
G0 F12000 X77.000 Y109.855
G0 X76.959 Y107.614
G0 X83.041 Y107.614
G0 X84.000 Y109.855
G0 X84.300 Y109.855
G1 F1200 X89.700 Y109.855 E167.56224
G1 X89.700 Y107.955 E167.79024
G1 X84.300 Y107.955 E168.43824
G1 X84.300 Y109.855 E168.66624
G0 F12000 X84.300 Y110.554
G1 F1200 X84.300 Y112.446 E168.89328
G1 X89.700 Y112.446 E169.54128
G1 X89.700 Y110.554 E169.76832
G1 X84.300 Y110.554 E170.41632
G0 F12000 X84.300 Y110.254
G0 X90.041 Y110.213
G0 X90.041 Y112.787
G0 X84.300 Y112.846
G0 X84.300 Y113.146
G1 F1200 X84.300 Y115.046 E170.64432
G1 X89.700 Y115.046 E171.29232
G1 X89.700 Y113.146 E171.52032
G1 X84.300 Y113.146 E172.16832
G0 F12000 X84.300 Y112.846
G0 X91.300 Y112.846
G0 X91.300 Y113.146
G1 F1200 X91.300 Y115.046 E172.39632
G1 X96.700 Y115.046 E173.04432
G1 X96.700 Y113.146 E173.27232
G1 X91.300 Y113.146 E173.92032
G0 F12000 X91.300 Y112.446
G1 F1200 X96.700 Y112.446 E174.56832
G1 X96.700 Y110.554 E174.79536
G1 X91.300 Y110.554 E175.44336
G1 X91.300 Y112.446 E175.67040
G0 F12000 X91.000 Y112.446
G0 X91.000 Y109.855
G0 X91.300 Y109.855
G1 F1200 X96.700 Y109.855 E176.31840
G1 X96.700 Y107.955 E176.54640
G1 X91.300 Y107.955 E177.19440
G1 X91.300 Y109.855 E177.42240
G0 F12000 X91.000 Y109.855
G0 X90.959 Y107.614
G0 X97.041 Y107.614
G0 X98.000 Y109.855
G0 X98.300 Y109.855
G1 F1200 X103.700 Y109.855 E178.07040
G1 X103.700 Y107.955 E178.29840
G1 X98.300 Y107.955 E178.94640
G1 X98.300 Y109.855 E179.17440
G0 F12000 X98.300 Y110.554
G1 F1200 X98.300 Y112.446 E179.40144
G1 X103.700 Y112.446 E180.04944
G1 X103.700 Y110.554 E180.27648
G1 X98.300 Y110.554 E180.92448
G0 F12000 X98.300 Y110.254
G0 X104.041 Y110.213
G0 X104.041 Y112.787
G0 X98.300 Y112.846
G0 X98.300 Y113.146
G1 F1200 X98.300 Y115.046 E181.15248
G1 X103.700 Y115.046 E181.80048
G1 X103.700 Y113.146 E182.02848
G1 X98.300 Y113.146 E182.67648
G0 F12000 X98.300 Y112.846
G0 X105.300 Y112.846
G0 X105.300 Y113.146
G1 F1200 X105.300 Y115.046 E182.90448
G1 X110.700 Y115.046 E183.55248
G1 X110.700 Y113.146 E183.78048
G1 X105.300 Y113.146 E184.42848
G0 F12000 X105.300 Y112.446
G1 F1200 X110.700 Y112.446 E185.07648
G1 X110.700 Y110.554 E185.30352
G1 X105.300 Y110.554 E185.95152
G1 X105.300 Y112.446 E186.17856
G0 F12000 X105.000 Y112.446
G0 X105.000 Y109.855
G0 X105.300 Y109.855
G1 F1200 X110.700 Y109.855 E186.82656
G1 X110.700 Y107.955 E187.05456
G1 X105.300 Y107.955 E187.70256
G1 X105.300 Y109.855 E187.93056
G0 F12000 X105.000 Y109.855
G0 X104.959 Y107.614
G0 X111.041 Y107.614
G0 X112.000 Y109.855
G0 X112.300 Y109.855
G1 F1200 X117.700 Y109.855 E188.57856
G1 X117.700 Y107.955 E188.80656
G1 X112.300 Y107.955 E189.45456
G1 X112.300 Y109.855 E189.68256
G0 F12000 X112.300 Y110.554
G1 F1200 X112.300 Y112.446 E189.90960
G1 X117.700 Y112.446 E190.55760
G1 X117.700 Y110.554 E190.78464
G1 X112.300 Y110.554 E191.43264
G0 F12000 X112.300 Y110.254
G0 X118.041 Y110.213
G0 X118.041 Y112.787
G0 X112.300 Y112.846
G0 X112.300 Y113.146
G1 F1200 X112.300 Y115.046 E191.66064
G1 X117.700 Y115.046 E192.30864
G1 X117.700 Y113.146 E192.53664
G1 X112.300 Y113.146 E193.18464
G0 F12000 X112.300 Y112.846
G0 X119.300 Y112.846
G0 X119.300 Y113.146
G1 F1200 X119.300 Y115.046 E193.41264
G1 X124.700 Y115.046 E194.06064
G1 X124.700 Y113.146 E194.28864
G1 X119.300 Y113.146 E194.93664
G0 F12000 X119.300 Y112.446
G1 F1200 X124.700 Y112.446 E195.58464
G1 X124.700 Y110.554 E195.81168
G1 X119.300 Y110.554 E196.45968
G1 X119.300 Y112.446 E196.68672
G0 F12000 X119.000 Y112.446
G0 X119.000 Y109.855
G0 X119.300 Y109.855
G1 F1200 X124.700 Y109.855 E197.33472
G1 X124.700 Y107.955 E197.56272
G1 X119.300 Y107.955 E198.21072
G1 X119.300 Y109.855 E198.43872
G0 F12000 X119.000 Y109.855
G0 X118.959 Y107.614
G0 X125.041 Y107.614
G0 X126.000 Y109.855
G0 X126.300 Y109.855
G1 F1200 X131.700 Y109.855 E199.08672
G1 X131.700 Y107.955 E199.31472
G1 X126.300 Y107.955 E199.96272
G1 X126.300 Y109.855 E200.19072
G0 F12000 X126.300 Y110.554
G1 F1200 X126.300 Y112.446 E200.41776
G1 X131.700 Y112.446 E201.06576
G1 X131.700 Y110.554 E201.29280
G1 X126.300 Y110.554 E201.94080
G0 F12000 X126.300 Y110.254
G0 X132.041 Y110.213
G0 X132.041 Y112.787
G0 X126.300 Y112.846
G0 X126.300 Y113.146
G1 F1200 X126.300 Y115.046 E202.16880
G1 X131.700 Y115.046 E202.81680
G1 X131.700 Y113.146 E203.04480
G1 X126.300 Y113.146 E203.69280
G0 F12000 X126.300 Y112.846
G0 X133.300 Y112.846
G0 X133.300 Y113.146
G1 F1200 X133.300 Y115.046 E203.92080
G1 X138.700 Y115.046 E204.56880
G1 X138.700 Y113.146 E204.79680
G1 X133.300 Y113.146 E205.44480
G0 F12000 X133.300 Y112.446
G1 F1200 X138.700 Y112.446 E206.09280
G1 X138.700 Y110.554 E206.31984
G1 X133.300 Y110.554 E206.96784
G1 X133.300 Y112.446 E207.19488
G0 F12000 X133.000 Y112.446
G0 X133.000 Y109.855
G0 X133.300 Y109.855
G1 F1200 X138.700 Y109.855 E207.84288
G1 X138.700 Y107.955 E208.07088
G1 X133.300 Y107.955 E208.71888
G1 X133.300 Y109.855 E208.94688
G0 F12000 X133.000 Y109.855
G0 X132.959 Y107.614
G0 X139.041 Y107.614
G0 X140.000 Y109.855
G0 X140.300 Y109.855
G1 F1200 X145.700 Y109.855 E209.59488
G1 X145.700 Y107.955 E209.82288
G1 X140.300 Y107.955 E210.47088
G1 X140.300 Y109.855 E210.69888
G0 F12000 X140.300 Y110.554
G1 F1200 X140.300 Y112.446 E210.92592
G1 X145.700 Y112.446 E211.57392
G1 X145.700 Y110.554 E211.80096
G1 X140.300 Y110.554 E212.44896
G0 F12000 X140.300 Y110.254
G0 X146.041 Y110.213
G0 X146.041 Y112.787
G0 X140.300 Y112.846
G0 X140.300 Y113.146
G1 F1200 X140.300 Y115.046 E212.67696
G1 X145.700 Y115.046 E213.32496
G1 X145.700 Y113.146 E213.55296
G1 X140.300 Y113.146 E214.20096
G0 F12000 X140.300 Y112.846
G0 X147.300 Y112.846
G0 X147.300 Y113.146
G1 F1200 X147.300 Y115.046 E214.42896
G1 X152.700 Y115.046 E215.07696
G1 X152.700 Y113.146 E215.30496
G1 X147.300 Y113.146 E215.95296
G0 F12000 X147.300 Y112.446
G1 F1200 X152.700 Y112.446 E216.60096
G1 X152.700 Y110.554 E216.82800
G1 X147.300 Y110.554 E217.47600
G1 X147.300 Y112.446 E217.70304
G0 F12000 X147.000 Y112.446
G0 X147.000 Y109.855
G0 X147.300 Y109.855
G1 F1200 X152.700 Y109.855 E218.35104
G1 X152.700 Y107.955 E218.57904
G1 X147.300 Y107.955 E219.22704
G1 X147.300 Y109.855 E219.45504
G0 F12000 X147.000 Y109.855
G0 X146.959 Y107.614
G0 X153.041 Y107.614
G0 X154.000 Y109.855
G0 X154.300 Y109.855
G1 F1200 X159.700 Y109.855 E220.10304
G1 X159.700 Y107.955 E220.33104
G1 X154.300 Y107.955 E220.97904
G1 X154.300 Y109.855 E221.20704
G0 F12000 X154.300 Y110.554
G1 F1200 X154.300 Y112.446 E221.43408
G1 X159.700 Y112.446 E222.08208
G1 X159.700 Y110.554 E222.30912
G1 X154.300 Y110.554 E222.95712
G0 F12000 X154.300 Y110.254
G0 X160.041 Y110.213
G0 X160.041 Y112.787
G0 X154.300 Y112.846
G0 X154.300 Y113.146
G1 F1200 X154.300 Y115.046 E223.18512
G1 X159.700 Y115.046 E223.83312
G1 X159.700 Y113.146 E224.06112
G1 X154.300 Y113.146 E224.70912
G0 F12000 X154.300 Y112.846
G0 X161.300 Y112.846
G0 X161.300 Y113.146
G1 F1200 X161.300 Y115.046 E224.93712
G1 X166.700 Y115.046 E225.58512
G1 X166.700 Y113.146 E225.81312
G1 X161.300 Y113.146 E226.46112
G0 F12000 X161.300 Y112.446
G1 F1200 X166.700 Y112.446 E227.10912
G1 X166.700 Y110.554 E227.33616
G1 X161.300 Y110.554 E227.98416
G1 X161.300 Y112.446 E228.21120
G0 F12000 X161.000 Y112.446
G0 X161.000 Y109.855
G0 X161.300 Y109.855
G1 F1200 X166.700 Y109.855 E228.85920
G1 X166.700 Y107.955 E229.08720
G1 X161.300 Y107.955 E229.73520
G1 X161.300 Y109.855 E229.96320
G0 F12000 X161.000 Y109.855
G0 X160.959 Y107.614
G0 X167.041 Y107.614
G0 X168.000 Y109.855
G0 X168.300 Y109.855
G1 F1200 X173.700 Y109.855 E230.61120
G1 X173.700 Y107.955 E230.83920
G1 X168.300 Y107.955 E231.48720
G1 X168.300 Y109.855 E231.71520
G0 F12000 X168.300 Y110.554
G1 F1200 X168.300 Y112.446 E231.94224
G1 X173.700 Y112.446 E232.59024
G1 X173.700 Y110.554 E232.81728
G1 X168.300 Y110.554 E233.46528
G0 F12000 X168.300 Y110.254
G0 X174.041 Y110.213
G0 X174.041 Y112.787
G0 X168.300 Y112.846
G0 X168.300 Y113.146
G1 F1200 X168.300 Y115.046 E233.69328
G1 X173.700 Y115.046 E234.34128
G1 X173.700 Y113.146 E234.56928
G1 X168.300 Y113.146 E235.21728
G0 F12000 X168.300 Y112.846
G0 X174.041 Y112.787
G0 X177.703 Y111.699
G0 X178.002 Y111.700
G1 F1200 X180.502 Y111.700 E235.51728
G1 X180.502 Y116.146 E236.05080
G1 X42.498 Y116.146 E252.61128
G1 X42.497 Y111.700 E253.14480
G1 X44.997 Y111.700 E253.44480
G1 X44.997 Y106.855 E254.02620
G1 X178.003 Y106.855 E269.98692
G1 X178.002 Y111.700 E270.56832
G0 F12000 X177.976 Y112.639
;TYPE:SKIN
G1 F1200 X179.561 Y114.225 E270.83739
G0 F12000 X179.561 Y114.791
G1 F1200 X177.410 Y112.639 E271.20251
G0 F12000 X177.062 Y112.291
G1 F1200 X174.639 Y109.868 E271.61371
G0 F12000 X174.639 Y110.433
G1 F1200 X179.411 Y115.206 E272.42363
G0 F12000 X178.845 Y115.206
G1 F1200 X174.639 Y110.999 E273.13750
G0 F12000 X174.639 Y111.565
G1 F1200 X178.280 Y115.206 E273.75539
G0 F12000 X177.714 Y115.206
G1 F1200 X174.639 Y112.130 E274.27732
G0 F12000 X174.639 Y112.696
G1 F1200 X177.148 Y115.206 E274.70320
G0 F12000 X176.582 Y115.206
