;FLAVOR:UltiGCode
;TIME:4675
;MATERIAL:5935
;MATERIAL2:0
;NOZZLE_DIAMETER:0.400000
;NOZZLE_DIAMETER2:0.400000
;MTYPE:PLA

;Layer count: 18
;LAYER:0
M107
G0 F12000 X78.193 Y72.650 Z0.300
;TYPE:SKIRT
G1 F1200 X144.807 Y72.650 E7.99368
G1 X144.808 Y149.811 E17.25300
G1 X78.192 Y149.811 E25.24692
G1 X78.193 Y72.650 E34.50624
G10
G1 Z0.400
G0 F12000 X82.393 Y76.850
;TYPE:WALL-INNER
G1 Z0.300
G11
G1 F1200 X140.607 Y76.850 E41.49192
G1 X140.608 Y145.611 E49.74324
G1 X82.392 Y145.611 E56.72916
G1 X82.393 Y76.850 E64.98048
G0 F12000 X83.827 Y78.279
G1 F1200 X83.578 Y78.884 E65.05899
G1 X83.491 Y79.533 E65.13757
G1 X83.578 Y80.183 E65.21626
G1 X83.827 Y80.787 E65.29466
G1 X84.227 Y81.307 E65.37338
G1 X84.746 Y81.705 E65.45187
G1 X85.351 Y81.956 E65.53047
G1 X86.000 Y82.042 E65.60903
G1 X86.650 Y81.956 E65.68771
G1 X87.254 Y81.705 E65.76620
G1 X87.774 Y81.308 E65.84471
G1 X88.174 Y80.787 E65.92353
G1 X88.423 Y80.182 E66.00203
G1 X88.509 Y79.533 E66.08060
G1 X88.423 Y78.885 E66.15904
G1 X88.174 Y78.279 E66.23766
G1 X87.774 Y77.759 E66.31638
G1 X87.255 Y77.361 E66.39487
G1 X86.650 Y77.110 E66.47347
G1 X86.000 Y77.024 E66.55215
G1 X85.351 Y77.110 E66.63071
G1 X84.745 Y77.361 E66.70942
G1 X84.227 Y77.760 E66.78788
G1 X83.827 Y78.279 E66.86651
G0 F12000 X83.020 Y86.356
G1 F1200 X83.020 Y113.255 E70.09439
G1 X139.980 Y113.255 E76.92959
G1 X139.980 Y86.356 E80.15747
G1 X129.000 Y86.356 E81.47507
G1 X129.000 Y78.556 E82.41107
G1 X94.000 Y78.556 E86.61107
G1 X94.000 Y86.356 E87.54707
G1 X83.020 Y86.356 E88.86467
G0 F12000 X83.020 Y115.578
G1 F1200 X83.020 Y145.078 E92.40467
G1 X139.980 Y145.078 E99.23987
G1 X139.980 Y115.578 E102.77987
G1 X83.020 Y115.578 E109.61507
G0 F12000 X87.433 Y112.612
G0 X87.459 Y110.215
G0 X93.541 Y110.197
G0 X94.459 Y107.615
G0 X94.459 Y105.015
G0 X100.541 Y104.997
G0 X101.459 Y102.415
G0 X101.459 Y99.815
G0 X107.541 Y99.797
G0 X108.459 Y97.215
G0 X108.459 Y94.615
G0 X114.190 Y94.644
G0 X115.433 Y93.809
G0 X115.459 Y92.015
G0 X121.541 Y91.997
G0 X122.459 Y86.815
G0 X128.541 Y86.797
G0 X134.826 Y80.787
G1 F1200 X135.226 Y81.308 E109.69389
G1 X135.746 Y81.705 E109.77240
G1 X136.350 Y81.956 E109.85089
G1 X137.000 Y82.042 E109.92957
G1 X137.649 Y81.956 E110.00813
G1 X138.254 Y81.705 E110.08673
G1 X138.773 Y81.307 E110.16521
G1 X139.173 Y80.787 E110.24394
G1 X139.422 Y80.183 E110.32234
G1 X139.509 Y79.533 E110.40103
G1 X139.422 Y78.884 E110.47961
G1 X139.173 Y78.279 E110.55812
G1 X138.773 Y77.760 E110.63675
G1 X138.255 Y77.361 E110.71521
G1 X137.649 Y77.110 E110.79392
G1 X137.000 Y77.024 E110.87248
G1 X136.350 Y77.110 E110.95116
G1 X135.745 Y77.361 E111.02976
G1 X135.226 Y77.759 E111.10825
G1 X134.826 Y78.279 E111.18697
G1 X134.577 Y78.885 E111.26559
G1 X134.491 Y79.533 E111.34403
G1 X134.577 Y80.182 E111.42260
G1 X134.826 Y80.787 E111.50110
G0 F12000 X135.176 Y80.585
G1 F1200 X135.511 Y81.022 E111.56718
G1 X135.948 Y81.356 E111.63318
G1 X136.454 Y81.567 E111.69897
G1 X137.000 Y81.638 E111.76504
G1 X137.545 Y81.567 E111.83099
G1 X138.053 Y81.356 E111.89700
G1 X138.488 Y81.022 E111.96282
G1 X138.823 Y80.585 E112.02889
G1 X139.032 Y80.079 E112.09459
G1 X139.105 Y79.533 E112.16069
G1 X139.032 Y78.988 E112.22667
G1 X138.823 Y78.480 E112.29259
G1 X138.488 Y78.045 E112.35848
G1 X138.053 Y77.710 E112.42436
G1 X137.545 Y77.499 E112.49037
G1 X137.000 Y77.428 E112.55632
G1 X136.454 Y77.499 E112.62240
G1 X135.947 Y77.710 E112.68829
G1 X135.511 Y78.045 E112.75427
G1 X135.176 Y78.480 E112.82016
G1 X134.966 Y78.989 E112.88623
G1 X134.895 Y79.533 E112.95207
G1 X134.966 Y80.078 E113.01802
G1 X135.176 Y80.585 E113.08387
G0 F12000 X135.600 Y86.756
G1 F1200 X129.400 Y86.756 E113.82787
G1 X129.400 Y112.855 E116.95975
G1 X135.600 Y112.855 E117.70375
G1 X135.600 Y86.756 E120.83563
G0 F12000 X136.380 Y86.756
G1 F1200 X136.380 Y112.855 E123.96751
G1 X139.580 Y112.855 E124.35151
G1 X139.580 Y86.756 E127.48339
G1 X136.380 Y86.756 E127.86739
G0 F12000 X128.600 Y78.956
G1 F1200 X122.400 Y78.956 E128.61139
G1 X122.400 Y112.855 E132.67927
G1 X128.600 Y112.855 E133.42327
G1 X128.600 Y78.956 E137.49115
G0 F12000 X121.600 Y78.956
G1 F1200 X115.400 Y78.956 E138.23515
G1 X115.400 Y112.855 E142.30303
G1 X121.600 Y112.855 E143.04703
G1 X121.600 Y78.956 E147.11491
G0 F12000 X114.600 Y78.956
G1 F1200 X108.400 Y78.956 E147.85891
G1 X108.400 Y112.855 E151.92679
G1 X114.600 Y112.855 E152.67079
G1 X114.600 Y78.956 E156.73867
G0 F12000 X107.600 Y78.956
G1 F1200 X101.400 Y78.956 E157.48267
G1 X101.400 Y112.855 E161.55055
G1 X107.600 Y112.855 E162.29455
G1 X107.600 Y78.956 E166.36243
G0 F12000 X100.600 Y78.956
G1 F1200 X94.400 Y78.956 E167.10643
G1 X94.400 Y112.855 E171.17431
G1 X100.600 Y112.855 E171.91831
G1 X100.600 Y78.956 E175.98619
G0 F12000 X100.541 Y81.597
G0 X100.541 Y84.197
G0 X94.459 Y84.215
G0 X93.600 Y86.756
G1 F1200 X87.400 Y86.756 E176.73019
G1 X87.400 Y112.855 E179.86207
G1 X93.600 Y112.855 E180.60607
G1 X93.600 Y86.756 E183.73795
G0 F12000 X86.620 Y86.756
G1 F1200 X83.420 Y86.756 E184.12195
G1 X83.420 Y112.855 E187.25383
G1 X86.620 Y112.855 E187.63783
G1 X86.620 Y86.756 E190.76971
G0 F12000 X86.000 Y81.638
G1 F1200 X86.546 Y81.567 E190.83578
G1 X87.052 Y81.356 E190.90157
G1 X87.489 Y81.022 E190.96758
G1 X87.824 Y80.585 E191.03365
G1 X88.034 Y80.078 E191.09950
G1 X88.105 Y79.533 E191.16546
G1 X88.034 Y78.989 E191.23129
G1 X87.824 Y78.480 E191.29736
G1 X87.489 Y78.045 E191.36325
G1 X87.053 Y77.710 E191.42923
G1 X86.546 Y77.499 E191.49513
G1 X86.000 Y77.428 E191.56120
G1 X85.455 Y77.499 E191.62715
G1 X84.947 Y77.710 E191.69316
G1 X84.512 Y78.045 E191.75905
G1 X84.177 Y78.480 E191.82493
G1 X83.968 Y78.988 E191.89085
G1 X83.895 Y79.533 E191.95683
G1 X83.968 Y80.079 E192.02294
G1 X84.177 Y80.585 E192.08863
G1 X84.512 Y81.022 E192.15471
G1 X84.947 Y81.356 E192.22052
G1 X85.455 Y81.567 E192.28653
G1 X86.000 Y81.638 E192.35248
G0 F12000 X86.561 Y86.815
G0 X86.561 Y89.397
G0 X86.561 Y91.997
G0 X86.561 Y94.597
G0 X86.561 Y97.197
G0 X86.561 Y99.797
G0 X86.561 Y102.397
G0 X86.620 Y115.978
G1 F1200 X83.420 Y115.978 E192.73648
G1 X83.420 Y144.678 E196.18048
G1 X86.620 Y144.678 E196.56448
G1 X86.620 Y115.978 E200.00848
G0 F12000 X87.400 Y115.978
G1 F1200 X87.400 Y144.678 E203.45248
G1 X93.600 Y144.678 E204.19648
G1 X93.600 Y115.978 E207.64048
G1 X87.400 Y115.978 E208.38448
G0 F12000 X94.400 Y115.978
G1 F1200 X94.400 Y144.678 E211.82848
G1 X100.600 Y144.678 E212.57248
G1 X100.600 Y115.978 E216.01648
G1 X94.400 Y115.978 E216.76048
G0 F12000 X101.400 Y115.978
G1 F1200 X101.400 Y144.678 E220.20448
G1 X107.600 Y144.678 E220.94848
G1 X107.600 Y115.978 E224.39248
G1 X101.400 Y115.978 E225.13648
G0 F12000 X108.400 Y115.978
G1 F1200 X108.400 Y144.678 E228.58048
G1 X114.600 Y144.678 E229.32448
G1 X114.600 Y115.978 E232.76848
G1 X108.400 Y115.978 E233.51248
G0 F12000 X115.400 Y115.978
G1 F1200 X115.400 Y144.678 E236.95648
G1 X121.600 Y144.678 E237.70048
G1 X121.600 Y115.978 E241.14448
G1 X115.400 Y115.978 E241.88848
G0 F12000 X122.400 Y115.978
G1 F1200 X122.400 Y144.678 E245.33248
G1 X128.600 Y144.678 E246.07648
G1 X128.600 Y115.978 E249.52048
G1 X122.400 Y115.978 E250.26448
G0 F12000 X129.400 Y115.978
G1 F1200 X129.400 Y144.678 E253.70848
G1 X135.600 Y144.678 E254.45248
G1 X135.600 Y115.978 E257.89648
G1 X129.400 Y115.978 E258.64048
G0 F12000 X136.380 Y115.978
G1 F1200 X136.380 Y144.678 E262.08448
G1 X139.580 Y144.678 E262.46848
G1 X139.580 Y115.978 E265.91248
G1 X136.380 Y115.978 E266.29648
G0 F12000 X136.439 Y118.619
G0 X139.521 Y118.637
G0 X139.521 Y121.219
G0 X139.521 Y123.819
G0 X139.521 Y126.419
G0 X139.521 Y129.019
G0 X139.521 Y131.619
G0 X139.521 Y134.219
G0 X141.008 Y146.011
G1 F1200 X81.992 Y146.011 E273.37840
G1 X81.993 Y76.450 E281.72572
G1 X141.007 Y76.450 E288.80740
G1 X141.008 Y146.011 E297.15472
G0 F12000 X141.408 Y146.411
;TYPE:WALL-OUTER
G1 F1200 X81.592 Y146.411 E304.33264
G1 X81.593 Y76.050 E312.77596
G1 X141.407 Y76.050 E319.95364
G1 X141.408 Y146.411 E328.39696
G0 F12000 X141.198 Y146.111
G0 X139.180 Y144.578
G0 X139.180 Y144.278
G1 F1200 X139.180 Y142.378 E328.62496
G1 X136.780 Y142.378 E328.91296
G1 X136.780 Y144.278 E329.14096
G1 X139.180 Y144.278 E329.42896
G0 F12000 X139.180 Y144.578
G0 X136.439 Y144.619
G0 X136.439 Y142.037
G0 X139.180 Y141.978
G0 X139.180 Y141.678
G1 F1200 X139.180 Y139.778 E329.65696
G1 X136.780 Y139.778 E329.94496
G1 X136.780 Y141.678 E330.17296
G1 X139.180 Y141.678 E330.46096
G0 F12000 X139.180 Y141.978
G0 X136.439 Y142.019
G0 X136.439 Y139.437
G0 X139.180 Y139.378
G0 X139.180 Y139.078
G1 F1200 X139.180 Y137.178 E330.68896
G1 X136.780 Y137.178 E330.97696
G1 X136.780 Y139.078 E331.20496
G1 X139.180 Y139.078 E331.49296
G0 F12000 X139.180 Y139.378
G0 X136.439 Y139.419
G0 X136.439 Y136.837
G0 X139.180 Y136.778
G0 X139.180 Y136.478
G1 F1200 X139.180 Y134.578 E331.72096
G1 X136.780 Y134.578 E332.00896
G1 X136.780 Y136.478 E332.23696
G1 X139.180 Y136.478 E332.52496
G0 F12000 X139.180 Y136.778
G0 X136.439 Y136.819
G0 X136.439 Y134.237
G0 X139.180 Y134.178
G0 X139.180 Y133.878
G1 F1200 X139.180 Y131.978 E332.75296
G1 X136.780 Y131.978 E333.04096
G1 X136.780 Y133.878 E333.26896
G1 X139.180 Y133.878 E333.55696
G0 F12000 X139.180 Y134.178
G0 X136.439 Y134.219
G0 X136.439 Y131.637
G0 X139.180 Y131.578
G0 X139.180 Y131.278
G1 F1200 X139.180 Y129.378 E333.78496
G1 X136.780 Y129.378 E334.07296
G1 X136.780 Y131.278 E334.30096
G1 X139.180 Y131.278 E334.58896
G0 F12000 X139.180 Y131.578
G0 X136.439 Y131.619
G0 X136.439 Y129.037
G0 X139.180 Y128.978
G0 X139.180 Y128.678
G1 F1200 X139.180 Y126.778 E334.81696
G1 X136.780 Y126.778 E335.10496
G1 X136.780 Y128.678 E335.33296
G1 X139.180 Y128.678 E335.62096
G0 F12000 X139.180 Y128.978
G0 X136.439 Y129.019
G0 X136.439 Y126.437
G0 X139.180 Y126.378
G0 X139.180 Y126.078
G1 F1200 X139.180 Y124.178 E335.84896
G1 X136.780 Y124.178 E336.13696
G1 X136.780 Y126.078 E336.36496
G1 X139.180 Y126.078 E336.65296
G0 F12000 X139.180 Y126.378
G0 X136.439 Y126.419
G0 X136.439 Y123.837
G0 X139.180 Y123.778
G0 X139.180 Y123.478
G1 F1200 X139.180 Y121.578 E336.88096
G1 X136.780 Y121.578 E337.16896
G1 X136.780 Y123.478 E337.39696
G1 X139.180 Y123.478 E337.68496
G0 F12000 X139.180 Y123.778
G0 X136.439 Y123.819
G0 X136.439 Y121.237
G0 X139.180 Y121.178
G0 X139.180 Y120.878
G1 F1200 X139.180 Y118.978 E337.91296
G1 X136.780 Y118.978 E338.20096
G1 X136.780 Y120.878 E338.42896
G1 X139.180 Y120.878 E338.71696
G0 F12000 X139.180 Y121.178
G0 X136.439 Y121.219
G0 X136.439 Y118.637
G0 X139.180 Y118.578
G0 X139.180 Y118.278
G1 F1200 X139.180 Y116.378 E338.94496
G1 X136.780 Y116.378 E339.23296
G1 X136.780 Y118.278 E339.46096
G1 X139.180 Y118.278 E339.74896
G0 F12000 X139.180 Y118.578
G0 X135.200 Y118.578
G0 X135.200 Y118.278
G1 F1200 X135.200 Y116.378 E339.97696
G1 X129.800 Y116.378 E340.62496
G1 X129.800 Y118.278 E340.85296
G1 X135.200 Y118.278 E341.50096
G0 F12000 X135.200 Y118.978
G1 F1200 X129.800 Y118.978 E342.14896
G1 X129.800 Y120.878 E342.37696
G1 X135.200 Y120.878 E343.02496
G1 X135.200 Y118.978 E343.25296
G0 F12000 X135.200 Y118.678
G0 X135.541 Y118.637
G0 X135.541 Y121.219
G0 X135.200 Y121.278
G0 X135.200 Y121.578
G1 F1200 X129.800 Y121.578 E343.90096
G1 X129.800 Y123.478 E344.12896
G1 X135.200 Y123.478 E344.77696
G1 X135.200 Y121.578 E345.00496
G0 F12000 X135.200 Y121.278
G0 X135.541 Y121.237
G0 X135.541 Y123.819
G0 X135.200 Y123.878
G0 X135.200 Y124.178
G1 F1200 X129.800 Y124.178 E345.65296
G1 X129.800 Y126.078 E345.88096
G1 X135.200 Y126.078 E346.52896
G1 X135.200 Y124.178 E346.75696
G0 F12000 X135.200 Y123.878
G0 X135.541 Y123.837
G0 X135.541 Y126.419
G0 X135.200 Y126.478
G0 X135.200 Y126.778
G1 F1200 X129.800 Y126.778 E347.40496
G1 X129.800 Y128.678 E347.63296
G1 X135.200 Y128.678 E348.28096
G1 X135.200 Y126.778 E348.50896
G0 F12000 X135.200 Y126.478
G0 X135.541 Y126.437
G0 X135.541 Y129.019
G0 X135.200 Y129.078
G0 X135.200 Y129.378
G1 F1200 X129.800 Y129.378 E349.15696
G1 X129.800 Y131.278 E349.38496
G1 X135.200 Y131.278 E350.03296
G1 X135.200 Y129.378 E350.26096
G0 F12000 X135.200 Y129.078
G0 X135.541 Y129.037
G0 X135.541 Y131.619
G0 X135.200 Y131.678
G0 X135.200 Y131.978
G1 F1200 X129.800 Y131.978 E350.90896
G1 X129.800 Y133.878 E351.13696
G1 X135.200 Y133.878 E351.78496
G1 X135.200 Y131.978 E352.01296
G0 F12000 X135.200 Y131.678
G0 X135.541 Y131.637
G0 X135.541 Y134.219
G0 X135.200 Y134.278
G0 X135.200 Y134.578
G1 F1200 X129.800 Y134.578 E352.66096
G1 X129.800 Y136.478 E352.88896
G1 X135.200 Y136.478 E353.53696
G1 X135.200 Y134.578 E353.76496
G0 F12000 X135.200 Y134.278
G0 X135.541 Y134.237
G0 X135.541 Y136.819
G0 X135.200 Y136.878
G0 X135.200 Y137.178
G1 F1200 X129.800 Y137.178 E354.41296
G1 X129.800 Y139.078 E354.64096
G1 X135.200 Y139.078 E355.28896
G1 X135.200 Y137.178 E355.51696
G0 F12000 X135.200 Y136.878
G0 X135.541 Y136.837
G0 X135.541 Y139.419
G0 X135.200 Y139.478
G0 X135.200 Y139.778
G1 F1200 X129.800 Y139.778 E356.16496
G1 X129.800 Y141.678 E356.39296
G1 X135.200 Y141.678 E357.04096
G1 X135.200 Y139.778 E357.26896
G0 F12000 X135.200 Y139.478
G0 X135.541 Y139.437
G0 X135.541 Y142.019
G0 X135.200 Y142.078
G0 X135.200 Y142.378
G1 F1200 X129.800 Y142.378 E357.91696
G1 X129.800 Y144.278 E358.14496
G1 X135.200 Y144.278 E358.79296
G1 X135.200 Y142.378 E359.02096
G0 F12000 X135.200 Y142.078
G0 X128.200 Y142.078
G0 X128.200 Y142.378
G1 F1200 X122.800 Y142.378 E359.66896
G1 X122.800 Y144.278 E359.89696
G1 X128.200 Y144.278 E360.54496
G1 X128.200 Y142.378 E360.77296
G0 F12000 X128.200 Y141.678
G1 F1200 X128.200 Y139.778 E361.00096
G1 X122.800 Y139.778 E361.64896
G1 X122.800 Y141.678 E361.87696
G1 X128.200 Y141.678 E362.52496
G0 F12000 X128.200 Y141.978
G0 X122.459 Y142.019
G0 X122.459 Y139.437
G0 X128.200 Y139.378
G0 X128.200 Y139.078
G1 F1200 X128.200 Y137.178 E362.75296
G1 X122.800 Y137.178 E363.40096
G1 X122.800 Y139.078 E363.62896
G1 X128.200 Y139.078 E364.27696
G0 F12000 X128.200 Y139.378
G0 X122.459 Y139.419
G0 X122.459 Y136.837
G0 X128.200 Y136.778
G0 X128.200 Y136.478
G1 F1200 X128.200 Y134.578 E364.50496
G1 X122.800 Y134.578 E365.15296
G1 X122.800 Y136.478 E365.38096
G1 X128.200 Y136.478 E366.02896
G0 F12000 X128.200 Y136.778
G0 X122.459 Y136.819
G0 X122.459 Y134.237
G0 X128.200 Y134.178
G0 X128.200 Y133.878
G1 F1200 X128.200 Y131.978 E366.25696
G1 X122.800 Y131.978 E366.90496
G1 X122.800 Y133.878 E367.13296
G1 X128.200 Y133.878 E367.78096
G0 F12000 X128.200 Y134.178
G0 X122.459 Y134.219
G0 X122.459 Y131.637
G0 X128.200 Y131.578
G0 X128.200 Y131.278
G1 F1200 X128.200 Y129.378 E368.00896
G1 X122.800 Y129.378 E368.65696
G1 X122.800 Y131.278 E368.88496
G1 X128.200 Y131.278 E369.53296
G0 F12000 X128.200 Y131.578
G0 X122.459 Y131.619
G0 X122.459 Y129.037
G0 X128.200 Y128.978
G0 X128.200 Y128.678
G1 F1200 X128.200 Y126.778 E369.76096
G1 X122.800 Y126.778 E370.40896
G1 X122.800 Y128.678 E370.63696
G1 X128.200 Y128.678 E371.28496
G0 F12000 X128.200 Y128.978
G0 X122.459 Y129.019
G0 X122.459 Y126.437
G0 X128.200 Y126.378
G0 X128.200 Y126.078
G1 F1200 X128.200 Y124.178 E371.51296
G1 X122.800 Y124.178 E372.16096
G1 X122.800 Y126.078 E372.38896
G1 X128.200 Y126.078 E373.03696
G0 F12000 X128.200 Y126.378
G0 X122.459 Y126.419
G0 X122.459 Y123.837
G0 X128.200 Y123.778
G0 X128.200 Y123.478
G1 F1200 X128.200 Y121.578 E373.26496
G1 X122.800 Y121.578 E373.91296
G1 X122.800 Y123.478 E374.14096
G1 X128.200 Y123.478 E374.78896
G0 F12000 X128.200 Y123.778
G0 X122.459 Y123.819
G0 X122.459 Y121.237
G0 X128.200 Y121.178
G0 X128.200 Y120.878
G1 F1200 X128.200 Y118.978 E375.01696
G1 X122.800 Y118.978 E375.66496
G1 X122.800 Y120.878 E375.89296
G1 X128.200 Y120.878 E376.54096
G0 F12000 X128.200 Y121.178
G0 X122.459 Y121.219
G0 X122.459 Y118.637
G0 X128.200 Y118.578
G0 X128.200 Y118.278
G1 F1200 X128.200 Y116.378 E376.76896
G1 X122.800 Y116.378 E377.41696
G1 X122.800 Y118.278 E377.64496
G1 X128.200 Y118.278 E378.29296
G0 F12000 X128.200 Y118.578
G0 X122.459 Y118.619
G0 X122.459 Y116.037
G0 X128.200 Y112.755
G0 X128.200 Y112.455
G1 F1200 X128.200 Y110.556 E378.52084
G1 X122.800 Y110.556 E379.16884
G1 X122.800 Y112.455 E379.39672
G1 X128.200 Y112.455 E380.04472
G0 F12000 X128.200 Y112.755
G0 X122.459 Y112.796
