;FLAVOR:UltiGCode
;TIME:431
;MATERIAL:576
;MATERIAL2:0
;NOZZLE_DIAMETER:0.400000
;NOZZLE_DIAMETER2:0.400000
;MTYPE:PLA

;Layer count: 41
;LAYER:0
M107
G0 F12000 X87.316 Y109.855 Z0.300
;TYPE:SKIRT
G1 F1200 X103.586 Y103.829 E2.08201
G1 X109.418 Y103.829 E2.78185
G1 X109.735 Y104.896 E2.91542
G1 X111.294 Y103.806 E3.14369
G1 X119.961 Y103.981 E4.18394
G1 X130.591 Y102.865 E5.46656
G1 X131.066 Y104.083 E5.62344
G1 X132.917 Y102.619 E5.90663
G1 X135.587 Y102.340 E6.22878
G1 X136.716 Y102.221 E6.36501
G1 X138.385 Y102.406 E6.56652
G1 X140.133 Y104.155 E6.86325
G1 X140.448 Y106.253 E7.11783
G1 X136.944 Y116.206 E8.38404
G1 X136.680 Y116.955 E8.47934
G1 X135.842 Y119.357 E8.78462
G1 X128.968 Y120.011 E9.61322
G1 X124.512 Y120.339 E10.14939
G1 X120.055 Y120.572 E10.68496
G1 X116.924 Y120.674 E11.06088
G1 X116.612 Y119.721 E11.18121
G1 X115.239 Y120.717 E11.38476
G1 X111.123 Y120.759 E11.87871
G1 X107.005 Y120.717 E12.37289
G1 X106.310 Y120.702 E12.45631
G1 X102.193 Y120.572 E12.95060
G1 X97.731 Y120.339 E13.48677
G1 X94.614 Y120.107 E13.86184
G1 X94.392 Y119.136 E13.98137
G1 X92.930 Y119.979 E14.18388
G1 X88.833 Y119.591 E14.67772
G1 X86.050 Y119.270 E15.01390
G1 X83.518 Y118.975 E15.31979
G1 X82.106 Y114.548 E15.87740
G1 X87.316 Y109.855 E16.71884
G0 F12000 X87.527 Y110.203
G1 F1200 X103.658 Y104.229 E18.78304
G1 X109.119 Y104.229 E19.43836
G1 X109.510 Y105.542 E19.60276
G1 X111.417 Y104.209 E19.88196
G1 X119.971 Y104.382 E20.90865
G1 X130.330 Y103.295 E22.15856
G1 X130.891 Y104.732 E22.34367
G1 X133.074 Y103.005 E22.67770
G1 X135.630 Y102.737 E22.98610
G1 X135.630 Y102.738 E22.98622
G1 X136.715 Y102.623 E23.11715
G1 X138.201 Y102.789 E23.29658
G1 X139.757 Y104.345 E23.56064
G1 X140.038 Y106.214 E23.78744
G1 X136.567 Y116.073 E25.04170
G1 X136.303 Y116.822 E25.13700
G1 X136.302 Y116.822 E25.13712
G1 X135.548 Y118.983 E25.41177
G1 X128.934 Y119.613 E26.20904
G1 X124.487 Y119.940 E26.74412
G1 X120.038 Y120.172 E27.27873
G1 X117.211 Y120.265 E27.61815
G1 X116.821 Y119.074 E27.76854
G1 X115.107 Y120.318 E28.02268
G1 X111.123 Y120.359 E28.50079
G1 X107.011 Y120.317 E28.99426
G1 X106.321 Y120.302 E29.07707
G1 X102.210 Y120.172 E29.57064
G1 X97.757 Y119.940 E30.10573
G1 X94.938 Y119.730 E30.44494
G1 X94.661 Y118.519 E30.59402
G1 X92.841 Y119.569 E30.84616
G1 X88.875 Y119.194 E31.32420
G1 X86.096 Y118.873 E31.65990
G1 X83.820 Y118.607 E31.93488
G1 X82.566 Y114.673 E32.43036
G1 X87.527 Y110.203 E33.23169
G10
G1 Z0.400
G0 F12000 X89.739 Y113.863
;TYPE:WALL-INNER
G1 Z0.300
G11
G1 F1200 X102.011 Y109.318 E34.80208
G1 X100.468 Y110.325 E35.02318
G1 X91.904 Y115.261 E36.20934
G1 X89.303 Y115.015 E36.52285
G1 X88.556 Y114.929 E36.61309
G1 X89.739 Y113.863 E36.80418
G0 F12000 X89.530 Y113.514
G1 F1200 X104.339 Y108.029 E38.69924
G1 X104.717 Y108.029 E38.74460
G1 X100.698 Y110.653 E39.32057
G1 X91.991 Y115.672 E40.52657
G1 X89.278 Y115.415 E40.85358
G1 X87.631 Y115.225 E41.05253
G1 X89.530 Y113.514 E41.35927
G0 F12000 X89.319 Y113.165
;TYPE:WALL-OUTER
G1 F1200 X104.268 Y107.629 E43.27220
G1 X106.062 Y107.629 E43.48748
G1 X100.898 Y111.000 E44.22751
G1 X92.082 Y116.082 E45.44862
G1 X89.232 Y115.812 E45.79215
G1 X86.706 Y115.520 E46.09729
G1 X89.319 Y113.165 E46.51940
G0 F12000 X89.907 Y113.949
;TYPE:SKIN
G1 F1200 X90.991 Y115.032 E46.70328
G0 F12000 X90.366 Y114.974
G1 F1200 X89.584 Y114.191 E46.83607
G0 F12000 X89.286 Y114.459
G1 F1200 X89.426 Y114.882 E46.91320
G1 X88.988 Y114.727 E46.96896
G0 F12000 X90.320 Y113.796
G1 F1200 X91.616 Y115.092 E47.18889
G0 F12000 X92.084 Y114.994
G1 F1200 X90.733 Y113.643 E47.41817
G0 F12000 X91.146 Y113.490
G1 F1200 X92.442 Y114.787 E47.63819
G0 F12000 X92.802 Y114.580
G1 F1200 X91.559 Y113.337 E47.84913
G0 F12000 X91.971 Y113.185
G1 F1200 X93.160 Y114.373 E48.05083
G0 F12000 X93.519 Y114.167
G1 F1200 X92.384 Y113.032 E48.24344
G0 F12000 X92.797 Y112.878
G1 F1200 X93.878 Y113.960 E48.42698
G0 F12000 X94.237 Y113.753
G1 F1200 X93.210 Y112.726 E48.60127
G0 F12000 X93.623 Y112.573
G1 F1200 X94.596 Y113.546 E48.76639
G0 F12000 X94.955 Y113.340
G1 F1200 X94.036 Y112.420 E48.92244
G0 F12000 X94.448 Y112.268
G1 F1200 X95.313 Y113.132 E49.06915
G0 F12000 X95.672 Y112.926
G1 F1200 X94.861 Y112.114 E49.20686
G0 F12000 X95.274 Y111.961
G1 F1200 X96.031 Y112.719 E49.33542
G0 F12000 X96.390 Y112.512
G1 F1200 X95.687 Y111.809 E49.45472
G0 F12000 X96.100 Y111.656
G1 F1200 X96.749 Y112.305 E49.56486
G0 F12000 X97.108 Y112.099
G1 F1200 X96.513 Y111.503 E49.66592
G0 F12000 X96.925 Y111.350
G1 F1200 X97.646 Y111.788 E49.75753
G1 X97.544 Y111.120 E49.84024
G1 X98.363 Y111.374 E49.91382
G1 X98.370 Y110.815 E49.97788
G1 X99.081 Y110.961 E50.03297
G1 X99.195 Y110.509 E50.07912
G1 X99.799 Y110.547 E50.11580
G1 X100.021 Y110.203 E50.14343
G1 X100.337 Y110.237 E50.18157
G10
G1 Z0.400
G0 F12000 X102.378 Y115.975
;TYPE:WALL-INNER
G1 Z0.300
G11
G1 F1200 X100.931 Y115.899 E50.35545
G1 X107.295 Y112.214 E51.23792
G1 X112.701 Y108.436 E52.02936
G1 X120.155 Y108.586 E52.92402
G1 X124.710 Y108.108 E53.47362
G1 X121.754 Y110.306 E53.91565
G1 X113.724 Y116.132 E55.10616
G1 X111.123 Y116.159 E55.41829
G1 X107.083 Y116.117 E55.90312
G1 X106.437 Y116.103 E55.98066
G1 X102.378 Y115.975 E56.46798
G0 F12000 X102.363 Y116.375
G1 F1200 X99.564 Y116.229 E56.80432
G1 X107.080 Y111.876 E57.84658
G1 X112.579 Y108.033 E58.65164
G1 X120.138 Y108.186 E59.55890
G1 X126.121 Y107.558 E60.28081
G1 X121.989 Y110.630 E60.89867
G1 X113.856 Y116.531 E62.10446
G1 X111.123 Y116.559 E62.43244
G1 X107.075 Y116.517 E62.91822
G1 X106.424 Y116.503 E62.99636
G1 X102.363 Y116.375 E63.48392
G0 F12000 X102.354 Y116.775
;TYPE:WALL-OUTER
G1 F1200 X98.198 Y116.558 E63.98332
G1 X106.865 Y111.539 E65.18516
G1 X112.457 Y107.630 E66.00390
G1 X120.121 Y107.785 E66.92377
G1 X127.532 Y107.007 E67.81798
G1 X122.224 Y110.954 E68.61173
G1 X113.988 Y116.930 E69.83281
G1 X111.123 Y116.959 E70.17663
G1 X107.066 Y116.917 E70.66350
G1 X106.411 Y116.903 E70.74212
G1 X102.354 Y116.775 E71.22920
G0 F12000 X102.545 Y115.838
;TYPE:SKIN
G1 F1200 X102.093 Y115.387 E71.30582
G0 F12000 X102.451 Y115.179
G1 F1200 X103.129 Y115.857 E71.42088
G0 F12000 X103.713 Y115.875
G1 F1200 X102.809 Y114.972 E71.57421
G0 F12000 X103.168 Y114.764
G1 F1200 X104.297 Y115.894 E71.76589
G0 F12000 X104.882 Y115.913
G1 F1200 X103.526 Y114.556 E71.99610
G0 F12000 X103.884 Y114.349
G1 F1200 X105.466 Y115.931 E72.26457
G0 F12000 X106.050 Y115.949
G1 F1200 X104.243 Y114.142 E72.57123
G0 F12000 X104.601 Y113.935
G1 F1200 X106.630 Y115.964 E72.91556
G0 F12000 X107.203 Y115.971
G1 F1200 X104.959 Y113.727 E73.29638
G0 F12000 X105.317 Y113.520
G1 F1200 X107.775 Y115.978 E73.71352
G0 F12000 X108.347 Y115.984
G1 F1200 X105.676 Y113.313 E74.16680
G0 F12000 X106.034 Y113.105
G1 F1200 X108.920 Y115.991 E74.65657
G0 F12000 X109.492 Y115.998
G1 F1200 X106.392 Y112.898 E75.18266
G0 F12000 X106.751 Y112.690
G1 F1200 X110.065 Y116.005 E75.74515
G0 F12000 X110.637 Y116.011
G1 F1200 X107.109 Y112.483 E76.34387
G0 F12000 X107.461 Y112.269
G1 F1200 X111.208 Y116.016 E76.97976
G0 F12000 X111.768 Y116.010
G1 F1200 X107.794 Y112.036 E77.65417
G0 F12000 X108.127 Y111.804
G1 F1200 X112.328 Y116.005 E78.36710
G0 F12000 X112.888 Y115.999
G1 F1200 X108.460 Y111.571 E79.11856
G0 F12000 X108.793 Y111.338
G1 F1200 X113.448 Y115.993 E79.90854
G0 F12000 X113.871 Y115.850
G1 F1200 X109.126 Y111.106 E80.71371
G0 F12000 X109.459 Y110.873
G1 F1200 X114.199 Y115.613 E81.51811
G0 F12000 X114.526 Y115.375
G1 F1200 X109.792 Y110.640 E82.32158
G0 F12000 X110.125 Y110.408
G1 F1200 X114.855 Y115.138 E83.12429
G0 F12000 X115.182 Y114.899
G1 F1200 X110.457 Y110.175 E83.92606
G0 F12000 X110.790 Y109.942
G1 F1200 X115.509 Y114.660 E84.72682
G0 F12000 X115.836 Y114.421
G1 F1200 X111.123 Y109.709 E85.52656
G0 F12000 X111.456 Y109.477
G1 F1200 X116.162 Y114.182 E86.32511
G0 F12000 X116.490 Y113.944
G1 F1200 X111.790 Y109.244 E87.12272
G0 F12000 X112.123 Y109.011
G1 F1200 X116.816 Y113.705 E87.91924
G0 F12000 X117.144 Y113.467
G1 F1200 X112.456 Y108.779 E88.71482
G0 F12000 X112.821 Y108.579
G1 F1200 X117.470 Y113.228 E89.50378
G0 F12000 X117.797 Y112.989
G1 F1200 X113.398 Y108.590 E90.25031
G0 F12000 X113.976 Y108.602
G1 F1200 X118.125 Y112.751 E90.95442
G0 F12000 X118.451 Y112.512
G1 F1200 X114.553 Y108.613 E91.61602
G0 F12000 X115.130 Y108.625
G1 F1200 X118.778 Y112.273 E92.23511
G0 F12000 X119.105 Y112.034
G1 F1200 X115.708 Y108.637 E92.81160
G0 F12000 X116.285 Y108.648
G1 F1200 X119.432 Y111.795 E93.34566
G0 F12000 X119.759 Y111.557
G1 F1200 X116.862 Y108.660 E93.83730
G0 F12000 X117.439 Y108.671
G1 F1200 X120.086 Y111.318 E94.28651
G0 F12000 X120.413 Y111.079
G1 F1200 X118.017 Y108.683 E94.69312
G0 F12000 X118.594 Y108.695
G1 F1200 X120.740 Y110.841 E95.05731
G0 F12000 X121.067 Y110.602
G1 F1200 X119.171 Y108.706 E95.37907
G0 F12000 X119.749 Y108.718
G1 F1200 X121.394 Y110.363 E95.65824
G0 F12000 X121.721 Y110.124
G1 F1200 X120.307 Y108.710 E95.89820
G0 F12000 X120.819 Y108.657
G1 F1200 X122.048 Y109.885 E96.10669
G0 F12000 X122.375 Y109.647
G1 F1200 X121.331 Y108.603 E96.28386
G0 F12000 X121.843 Y108.550
G1 F1200 X122.702 Y109.408 E96.42955
G0 F12000 X123.028 Y109.169
G1 F1200 X122.355 Y108.496 E96.54376
G0 F12000 X122.868 Y108.443
G1 F1200 X123.519 Y108.811 E96.62655
G1 X123.636 Y108.362 E96.67777
G1 X124.010 Y108.453 E96.72396
G0 F12000 X101.952 Y115.811
G1 F1200 X101.734 Y115.594 E96.76087
G10
G1 Z0.400
G0 F12000 X122.991 Y115.812
;TYPE:WALL-INNER
G1 Z0.300
G11
G1 F1200 X127.934 Y112.426 E97.47985
G1 X134.722 Y107.056 E98.51849
G1 X135.310 Y106.994 E98.58944
G1 X132.471 Y115.058 E99.61534
G1 X128.588 Y115.427 E100.08339
G1 X124.234 Y115.747 E100.60728
G1 X122.991 Y115.812 E100.75665
G0 F12000 X124.255 Y116.147
G1 F1200 X121.591 Y116.286 E101.07676
G1 X127.697 Y112.103 E101.96493
G1 X134.567 Y106.670 E103.01597
G1 X135.898 Y106.530 E103.17657
G1 X132.764 Y115.431 E104.30897
G1 X128.610 Y115.827 E104.80971
G1 X124.255 Y116.147 E105.33372
G0 F12000 X124.276 Y116.547
;TYPE:WALL-OUTER
G1 F1200 X120.193 Y116.759 E105.82434
G1 X127.460 Y111.781 E106.88136
G1 X134.410 Y106.284 E107.94469
G1 X136.485 Y106.066 E108.19506
G1 X133.057 Y115.805 E109.43402
G1 X128.646 Y116.225 E109.96574
G1 X124.276 Y116.547 E110.49156
G0 F12000 X124.365 Y115.597
;TYPE:SKIN
G1 F1200 X124.202 Y115.151 E110.54769
G1 X124.892 Y115.558 E110.64382
G0 F12000 X125.419 Y115.520
G1 F1200 X124.706 Y114.806 E110.76490
G0 F12000 X125.041 Y114.576
G1 F1200 X125.946 Y115.481 E110.91849
G0 F12000 X126.473 Y115.442
G1 F1200 X125.377 Y114.346 E111.10449
G0 F12000 X125.712 Y114.116
G1 F1200 X126.999 Y115.403 E111.32290
G0 F12000 X127.526 Y115.364
G1 F1200 X126.048 Y113.886 E111.57372
G0 F12000 X126.384 Y113.656
G1 F1200 X128.054 Y115.326 E111.85713
G0 F12000 X128.580 Y115.286
G1 F1200 X126.720 Y113.426 E112.17278
G0 F12000 X127.055 Y113.196
G1 F1200 X129.097 Y115.237 E112.51924
G0 F12000 X129.613 Y115.188
G1 F1200 X127.391 Y112.966 E112.89632
G0 F12000 X127.727 Y112.736
G1 F1200 X130.130 Y115.139 E113.30412
G0 F12000 X130.646 Y115.090
G1 F1200 X128.060 Y112.504 E113.74298
G0 F12000 X128.375 Y112.253
G1 F1200 X131.163 Y115.041 E114.21612
G0 F12000 X131.679 Y114.991
G1 F1200 X128.692 Y112.004 E114.72303
G0 F12000 X129.008 Y111.754
G1 F1200 X132.196 Y114.943 E115.26414
G0 F12000 X132.467 Y114.648
G1 F1200 X129.323 Y111.504 E115.79769
G0 F12000 X129.639 Y111.254
G1 F1200 X132.614 Y114.229 E116.30257
G0 F12000 X132.761 Y113.810
G1 F1200 X129.955 Y111.005 E116.77868
G0 F12000 X130.270 Y110.754
G1 F1200 X132.908 Y113.392 E117.22636
G0 F12000 X133.056 Y112.974
G1 F1200 X130.587 Y110.505 E117.64536
G0 F12000 X130.903 Y110.255
G1 F1200 X133.203 Y112.555 E118.03569
G0 F12000 X133.350 Y112.137
G1 F1200 X131.219 Y110.006 E118.39733
G0 F12000 X131.534 Y109.755
G1 F1200 X133.497 Y111.718 E118.73046
G0 F12000 X133.645 Y111.300
G1 F1200 X131.850 Y109.506 E119.03500
G0 F12000 X132.166 Y109.256
G1 F1200 X133.792 Y110.882 E119.31094
G0 F12000 X133.939 Y110.463
G1 F1200 X132.482 Y109.006 E119.55820
G0 F12000 X132.798 Y108.756
G1 F1200 X134.086 Y110.044 E119.77678
G0 F12000 X134.234 Y109.627
G1 F1200 X133.114 Y108.506 E119.96694
G0 F12000 X133.429 Y108.256
G1 F1200 X134.381 Y109.208 E120.12850
G0 F12000 X134.528 Y108.789
G1 F1200 X133.745 Y108.007 E120.26129
G0 F12000 X134.061 Y107.757
G1 F1200 X134.675 Y108.371 E120.36549
G0 F12000 X134.823 Y107.953
G1 F1200 X134.535 Y107.382 E120.44108
G1 X134.970 Y107.534 E120.49638
G0 F12000 X123.829 Y115.626
G1 F1200 X123.699 Y115.496 E120.51844
;LAYER:1
M106 S5
G10
G1 Z0.400
G0 F12000 X102.034 Y109.306 Z0.400
;TYPE:WALL-INNER
G1 Z0.400
G11
G1 F1620 X100.478 Y110.322 E120.59259
G1 X91.904 Y115.264 E120.98745
G1 X89.303 Y115.018 E121.09169
G1 X88.549 Y114.931 E121.12198
G1 X89.738 Y113.860 E121.18583
G1 X102.034 Y109.306 E121.70900
G0 F12000 X100.682 Y110.665
G1 F1620 X91.992 Y115.674 E122.10921
G1 X89.278 Y115.417 E122.21798
G1 X87.625 Y115.226 E122.28438
G1 X89.527 Y113.513 E122.38651
G1 X104.339 Y108.027 E123.01674
G1 X104.723 Y108.027 E123.03206
G1 X100.682 Y110.665 E123.22461
G0 F12000 X100.889 Y111.006
;TYPE:WALL-OUTER
G1 F1620 X92.082 Y116.083 E123.63022
G1 X89.232 Y115.813 E123.74445
G1 X86.703 Y115.521 E123.84602
G1 X89.317 Y113.165 E123.98643
G1 X104.268 Y107.628 E124.62257
G1 X106.063 Y107.628 E124.69419
G1 X100.889 Y111.006 E124.94074
G0 F12000 X99.974 Y110.216
;TYPE:SKIN
G1 F1620 X99.423 Y110.768 E124.97186
G0 F12000 X99.078 Y110.549
G1 F1620 X98.091 Y111.536 E125.02755
G0 F12000 X98.181 Y110.881
G1 F1620 X96.759 Y112.303 E125.10779
G0 F12000 X96.389 Y111.545
G1 F1620 X94.095 Y113.839 E125.23724
G0 F12000 X93.700 Y112.541
G1 F1620 X91.186 Y115.055 E125.37909
G0 F12000 X91.701 Y115.104
G1 F1620 X94.596 Y112.209 E125.54245
G0 F12000 X95.492 Y111.877
G1 F1620 X92.763 Y114.606 E125.69644
G0 F12000 X91.907 Y113.205
G1 F1620 X90.156 Y114.957 E125.79527
G0 F12000 X90.670 Y115.006
G1 F1620 X92.803 Y112.874 E125.91560
G0 F12000 X91.011 Y113.538
G1 F1620 X89.640 Y114.908 E125.99294
G0 F12000 X89.128 Y114.856
G1 F1620 X90.114 Y113.870 E126.04857
G0 F12000 X95.427 Y113.071
G1 F1620 X97.285 Y111.213 E126.15341
G10
G1 Z0.500
G0 F12000 X100.922 Y115.902
;TYPE:WALL-INNER
G1 Z0.400
G11
G1 F1620 X107.293 Y112.212 E126.44718
G1 X112.699 Y108.433 E126.71035
G1 X120.155 Y108.583 E127.00791
G1 X124.721 Y108.104 E127.19109
G1 X121.746 Y110.316 E127.33901
G1 X113.726 Y116.135 E127.73436
G1 X111.123 Y116.162 E127.83823
G1 X107.215 Y116.121 E127.99417
G1 X106.304 Y116.102 E128.03052
G1 X102.380 Y115.978 E128.18717
G1 X100.922 Y115.902 E128.24542
G0 F12000 X102.363 Y116.377
G1 F1620 X99.557 Y116.231 E128.35753
G1 X107.079 Y111.875 E128.70435
G1 X112.578 Y108.031 E128.97206
G1 X120.138 Y108.184 E129.27376
G1 X126.127 Y107.555 E129.51404
G1 X121.984 Y110.636 E129.72004
G1 X113.857 Y116.533 E130.12068
G1 X111.123 Y116.561 E130.22977
G1 X107.206 Y116.520 E130.38607
G1 X106.292 Y116.501 E130.42255
G1 X102.363 Y116.377 E130.57939
G0 F12000 X102.354 Y116.776
;TYPE:WALL-OUTER
G1 F1620 X98.195 Y116.559 E130.74556
G1 X106.864 Y111.538 E131.14528
G1 X112.456 Y107.629 E131.41751
G1 X120.121 Y107.784 E131.72341
G1 X127.533 Y107.006 E132.02077
G1 X122.222 Y110.956 E132.28487
G1 X113.988 Y116.931 E132.69079
G1 X111.123 Y116.960 E132.80511
G1 X107.198 Y116.919 E132.96172
G1 X106.279 Y116.900 E132.99840
G1 X102.354 Y116.776 E133.15508
G0 F12000 X102.260 Y115.831
;TYPE:SKIN
G1 F1620 X103.552 Y114.538 E133.22802
G0 F12000 X103.351 Y115.868
G1 F1620 X106.234 Y112.985 E133.39070
G0 F12000 X104.893 Y113.762
G1 F1620 X102.804 Y115.850 E133.50854
G0 F12000 X102.212 Y115.314
G1 F1620 X101.723 Y115.803 E133.53614
G0 F12000 X103.898 Y115.885
G1 F1620 X107.657 Y112.127 E133.74822
G0 F12000 X109.530 Y110.818
G1 F1620 X104.446 Y115.902 E134.03509
G0 F12000 X104.992 Y115.920
G1 F1620 X111.403 Y109.508 E134.39688
G0 F12000 X112.900 Y108.576
G1 F1620 X105.539 Y115.937 E134.81224
G0 F12000 X106.086 Y115.954
G1 F1620 X113.453 Y108.588 E135.22791
G0 F12000 X114.006 Y108.598
G1 F1620 X106.640 Y115.965 E135.64358
G0 F12000 X107.197 Y115.972
G1 F1620 X114.559 Y108.610 E136.05899
G0 F12000 X115.112 Y108.621
