;FLAVOR:UltiGCode
;TIME:480
;MATERIAL:589
;MATERIAL2:0
;NOZZLE_DIAMETER:0.400000
;NOZZLE_DIAMETER2:0.400000
;MTYPE:PLA

;Layer count: 30
;LAYER:0
M107
G0 F12000 X70.029 Y98.852 Z0.300
;TYPE:SKIRT
G1 F1200 X73.247 Y99.534 E0.39474
G1 X73.477 Y99.583 E0.42296
G1 X75.071 Y99.887 E0.61768
G1 X75.356 Y99.942 E0.65252
G1 X77.329 Y100.318 E0.89354
G1 X77.681 Y100.385 E0.93653
G1 X81.844 Y101.089 E1.44319
G1 X85.442 Y101.620 E1.87962
G1 X86.086 Y101.715 E1.95774
G1 X90.293 Y102.247 E2.46660
G1 X93.904 Y102.627 E2.90231
G1 X94.521 Y102.692 E2.97676
G1 X98.149 Y102.996 E3.41365
G1 X98.793 Y103.050 E3.49120
G1 X102.401 Y103.277 E3.92502
G1 X103.073 Y103.320 E4.00582
G1 X106.657 Y103.469 E4.43627
G1 X107.311 Y103.497 E4.51482
G1 X110.916 Y103.571 E4.94752
G1 X111.550 Y103.585 E5.02361
G1 X115.835 Y103.585 E5.53781
G1 X119.431 Y103.511 E5.96943
G1 X120.078 Y103.497 E6.04708
G1 X123.690 Y103.346 E6.48090
G1 X124.315 Y103.319 E6.55597
G1 X127.945 Y103.091 E6.99243
G1 X128.602 Y103.049 E7.07143
G1 X132.191 Y102.748 E7.50362
G1 X132.830 Y102.694 E7.58058
G1 X136.433 Y102.316 E8.01531
G1 X136.433 Y102.317 E8.01543
G1 X137.046 Y102.252 E8.08940
G1 X141.298 Y101.714 E8.60371
G1 X144.878 Y101.186 E9.03796
G1 X145.539 Y101.088 E9.11814
G1 X149.082 Y100.489 E9.54934
G1 X149.607 Y100.399 E9.61326
G1 X152.694 Y99.814 E9.99029
G1 X156.128 Y99.149 E10.41003
G1 X157.891 Y108.392 E11.53918
G1 X151.620 Y109.587 E12.30524
G1 X147.653 Y110.263 E12.78814
G1 X146.985 Y110.376 E12.86944
G1 X142.575 Y111.027 E13.40438
G1 X138.867 Y111.495 E13.85287
G1 X138.153 Y111.586 E13.93924
G1 X137.434 Y111.661 E14.02599
G1 X137.434 Y111.660 E14.02611
G1 X133.719 Y112.052 E14.47438
G1 X133.003 Y112.112 E14.56061
G1 X129.276 Y112.425 E15.00942
G1 X124.826 Y112.705 E15.54448
G1 X124.110 Y112.734 E15.63047
G1 X120.373 Y112.892 E16.07931
G1 X119.655 Y112.906 E16.16548
G1 X118.315 Y112.934 E16.32632
G1 X118.369 Y113.388 E16.38118
G1 X118.312 Y114.286 E16.48916
G1 X118.289 Y114.591 E16.52586
G1 X118.003 Y116.111 E16.71146
G1 X117.527 Y117.620 E16.90134
G1 X117.390 Y118.052 E16.95572
G1 X116.570 Y119.849 E17.19275
G1 X116.358 Y120.311 E17.25375
G1 X114.241 Y123.854 E17.74903
G1 X111.891 Y123.831 E18.03104
G1 X107.292 Y123.776 E18.58296
G1 X105.255 Y120.179 E19.07901
G1 X104.483 Y118.377 E19.31426
G1 X104.277 Y117.894 E19.37727
G1 X103.709 Y115.944 E19.62099
G1 X103.458 Y114.405 E19.80811
G1 X103.425 Y113.620 E19.90240
G1 X103.407 Y113.220 E19.95045
G1 X103.475 Y112.744 E20.00815
G1 X102.549 Y112.705 E20.11936
G1 X98.102 Y112.425 E20.65406
G1 X97.385 Y112.365 E20.74040
G1 X93.659 Y112.052 E21.18910
G1 X92.944 Y111.978 E21.27535
G1 X89.224 Y111.586 E21.72423
G1 X84.802 Y111.027 E22.25909
G1 X80.393 Y110.376 E22.79391
G1 X75.998 Y109.634 E23.32877
G1 X75.317 Y109.505 E23.41194
G1 X71.780 Y108.830 E23.84404
G1 X69.991 Y108.453 E24.06344
G1 X66.380 Y107.685 E24.50645
G1 X65.238 Y104.171 E24.94984
G1 X70.029 Y98.852 E25.80887
G10
G1 Z0.400
G0 F12000 X72.372 Y103.642
;TYPE:WALL-INNER
G1 Z0.300
G11
G1 F1200 X74.278 Y104.011 E26.04184
G1 X76.541 Y104.443 E26.31830
G1 X81.206 Y105.241 E26.88623
G1 X85.507 Y105.876 E27.40795
G1 X89.822 Y106.421 E27.92986
G1 X94.148 Y106.876 E28.45184
G1 X98.481 Y107.239 E28.97362
G1 X102.822 Y107.513 E29.49558
G1 X106.479 Y107.665 E29.93480
G1 X107.166 Y107.695 E30.01732
G1 X110.826 Y107.770 E30.45661
G1 X111.513 Y107.785 E30.53907
G1 X115.862 Y107.785 E31.06095
G1 X119.523 Y107.710 E31.50036
G1 X120.211 Y107.695 E31.58294
G1 X123.869 Y107.542 E32.02229
G1 X124.556 Y107.513 E32.10480
G1 X128.896 Y107.239 E32.62664
G1 X133.229 Y106.876 E33.14842
G1 X137.555 Y106.421 E33.67040
G1 X141.870 Y105.876 E34.19232
G1 X146.171 Y105.241 E34.71403
G1 X149.784 Y104.630 E35.15375
G1 X150.366 Y104.530 E35.22461
G1 X152.791 Y104.070 E35.52080
G1 X152.979 Y105.053 E35.64090
G1 X150.884 Y105.452 E35.89682
G1 X146.950 Y106.122 E36.37569
G1 X146.318 Y106.229 E36.45261
G1 X142.011 Y106.865 E36.97506
G1 X138.340 Y107.328 E37.41907
G1 X137.681 Y107.412 E37.49879
G1 X136.999 Y107.483 E37.58107
G1 X133.320 Y107.870 E38.02498
G1 X128.959 Y108.236 E38.55014
G1 X124.602 Y108.511 E39.07402
G1 X123.934 Y108.538 E39.15425
G1 X120.253 Y108.693 E39.59636
G1 X115.863 Y108.785 E40.12328
G1 X113.594 Y108.785 E40.39556
G1 X114.153 Y113.501 E40.96544
G1 X114.118 Y114.044 E41.03073
G1 X113.922 Y115.086 E41.15797
G1 X113.524 Y116.350 E41.31699
G1 X113.465 Y116.535 E41.34029
G1 X112.751 Y118.101 E41.54682
G1 X112.634 Y118.356 E41.58049
G1 X111.873 Y119.630 E41.75857
G1 X109.757 Y119.605 E42.01250
G1 X109.024 Y118.311 E42.19097
G1 X108.237 Y116.475 E42.43067
G1 X107.814 Y115.019 E42.61262
G1 X107.643 Y113.976 E42.73945
G1 X107.621 Y113.441 E42.80370
G1 X107.620 Y113.423 E42.80587
G1 X108.050 Y110.413 E43.17073
G1 X108.291 Y108.739 E43.37368
G1 X106.461 Y108.666 E43.59346
G1 X102.774 Y108.511 E44.03629
G1 X98.418 Y108.236 E44.56005
G1 X94.051 Y107.870 E45.08593
G1 X93.382 Y107.800 E45.16665
G1 X89.697 Y107.412 E45.61129
G1 X85.366 Y106.865 E46.13514
G1 X81.057 Y106.229 E46.65782
G1 X76.729 Y105.498 E47.18454
G1 X76.102 Y105.379 E47.26112
G1 X72.616 Y104.714 E47.68698
G1 X70.860 Y104.343 E47.90236
G1 X70.754 Y104.321 E47.91535
G1 X71.528 Y103.463 E48.05401
G1 X72.372 Y103.642 E48.15754
G0 F12000 X72.725 Y103.308
G1 F1200 X74.354 Y103.619 E48.35655
G1 X76.988 Y104.122 E48.67834
G1 X81.268 Y104.846 E49.19924
G1 X85.562 Y105.479 E49.72009
G1 X89.868 Y106.024 E50.24093
G1 X94.186 Y106.477 E50.76194
G1 X98.510 Y106.840 E51.28264
G1 X102.843 Y107.113 E51.80363
G1 X107.179 Y107.295 E52.32441
G1 X111.518 Y107.385 E52.84520
G1 X115.858 Y107.385 E53.36600
G1 X120.198 Y107.295 E53.88691
G1 X124.534 Y107.113 E54.40769
G1 X128.867 Y106.840 E54.92868
G1 X133.191 Y106.477 E55.44939
G1 X137.509 Y106.024 E55.97039
G1 X141.815 Y105.479 E56.49123
G1 X146.109 Y104.846 E57.01208
G1 X149.717 Y104.236 E57.45119
G1 X150.295 Y104.137 E57.52156
G1 X153.110 Y103.603 E57.86538
G1 X153.447 Y105.371 E58.08136
G1 X150.946 Y105.848 E58.38689
G1 X146.397 Y106.622 E58.94062
G1 X142.053 Y107.262 E59.46752
G1 X137.723 Y107.810 E59.99127
G1 X133.356 Y108.269 E60.51820
G1 X129.004 Y108.634 E61.04227
G1 X124.622 Y108.910 E61.56915
G1 X120.261 Y109.093 E62.09293
G1 X115.871 Y109.185 E62.61985
G1 X114.044 Y109.185 E62.83909
G1 X114.555 Y113.491 E63.35943
G1 X114.520 Y114.030 E63.42425
G1 X114.516 Y114.094 E63.43194
G1 X114.310 Y115.190 E63.56577
G1 X113.906 Y116.471 E63.72695
G1 X113.838 Y116.683 E63.75367
G1 X113.114 Y118.269 E63.96288
G1 X112.992 Y118.535 E63.99800
G1 X112.098 Y120.033 E64.20734
G1 X109.522 Y120.002 E64.51648
G1 X108.663 Y118.484 E64.72578
G1 X107.862 Y116.616 E64.96968
G1 X107.422 Y115.104 E65.15865
G1 X107.244 Y114.015 E65.29106
G1 X107.221 Y113.459 E65.35784
G1 X107.219 Y113.407 E65.36408
G1 X107.831 Y109.121 E65.88362
G1 X106.443 Y109.065 E66.05031
G1 X102.755 Y108.911 E66.49326
G1 X98.373 Y108.634 E67.02015
G1 X94.021 Y108.269 E67.54422
G1 X89.654 Y107.810 E68.07115
G1 X85.324 Y107.263 E68.59488
G1 X80.981 Y106.621 E69.12170
G1 X76.663 Y105.892 E69.64720
G1 X72.534 Y105.105 E70.15160
G1 X70.779 Y104.735 E70.36682
G1 X69.994 Y104.568 E70.46313
G1 X71.386 Y103.024 E70.71259
G1 X72.725 Y103.308 E70.87685
G0 F12000 X72.804 Y102.916
;TYPE:WALL-OUTER
G1 F1200 X77.059 Y103.728 E71.39666
G1 X81.331 Y104.451 E71.91659
G1 X85.616 Y105.083 E72.43636
G1 X89.914 Y105.627 E72.95623
G1 X94.223 Y106.079 E73.47615
G1 X98.539 Y106.441 E73.99589
G1 X102.864 Y106.714 E74.51592
G1 X107.192 Y106.895 E75.03573
G1 X111.522 Y106.985 E75.55545
G1 X115.854 Y106.985 E76.07529
G1 X120.185 Y106.895 E76.59512
G1 X124.513 Y106.714 E77.11493
G1 X128.838 Y106.441 E77.63496
G1 X133.154 Y106.079 E78.15470
G1 X137.463 Y105.627 E78.67462
G1 X141.761 Y105.083 E79.19449
G1 X146.046 Y104.451 E79.71426
G1 X150.224 Y103.743 E80.22277
G1 X153.428 Y103.135 E80.61411
G1 X153.915 Y105.689 E80.92611
G1 X151.018 Y106.241 E81.28000
G1 X146.456 Y107.017 E81.83531
G1 X142.112 Y107.658 E82.36223
G1 X137.764 Y108.208 E82.88815
G1 X133.397 Y108.667 E83.41508
G1 X129.029 Y109.034 E83.94108
G1 X124.647 Y109.309 E84.46796
G1 X120.265 Y109.493 E84.99426
G1 X115.879 Y109.585 E85.52070
G1 X114.494 Y109.585 E85.68690
G1 X114.956 Y113.480 E86.15757
G1 X114.919 Y114.055 E86.22672
G1 X114.914 Y114.141 E86.23705
G1 X114.699 Y115.284 E86.37662
G1 X114.211 Y116.827 E86.57082
G1 X113.346 Y118.722 E86.82079
G1 X112.323 Y120.435 E87.06021
G1 X109.288 Y120.399 E87.42444
G1 X108.307 Y118.667 E87.66330
G1 X107.483 Y116.745 E87.91425
G1 X107.030 Y115.189 E88.10872
G1 X106.847 Y114.063 E88.24561
G1 X106.818 Y113.384 E88.32716
G1 X107.372 Y109.503 E88.79761
G1 X102.730 Y109.309 E89.35513
G1 X98.348 Y109.033 E89.88201
G1 X93.980 Y108.667 E90.40801
G1 X89.613 Y108.208 E90.93494
G1 X85.265 Y107.658 E91.46085
G1 X80.922 Y107.017 E91.98766
G1 X76.596 Y106.287 E92.51412
G1 X72.451 Y105.497 E93.02047
G1 X69.233 Y104.815 E93.41521
G1 X71.243 Y102.585 E93.77547
G1 X72.804 Y102.916 E93.96696
G0 F12000 X72.391 Y103.787
;TYPE:SKIN
G1 F1200 X73.307 Y104.703 E94.12241
G0 F12000 X72.609 Y104.570
G1 F1200 X71.675 Y103.637 E94.28083
G0 F12000 X71.346 Y103.873
G1 F1200 X71.530 Y104.340 E94.37298
G1 X71.078 Y104.170 E94.43093
G0 F12000 X73.092 Y103.922
G1 F1200 X74.006 Y104.836 E94.58604
G0 F12000 X74.705 Y104.969
G1 F1200 X73.792 Y104.056 E94.74098
G0 F12000 X74.492 Y104.190
G1 F1200 X75.403 Y105.102 E94.89567
G0 F12000 X76.102 Y105.235
G1 F1200 X75.193 Y104.325 E95.05002
G0 F12000 X75.893 Y104.460
G1 F1200 X76.799 Y105.366 E95.20377
G0 F12000 X77.480 Y105.481
G1 F1200 X76.591 Y104.593 E95.35455
G0 F12000 X77.274 Y104.709
G1 F1200 X78.160 Y105.596 E95.50500
G0 F12000 X78.841 Y105.711
G1 F1200 X77.956 Y104.826 E95.65519
G0 F12000 X78.639 Y104.943
G1 F1200 X79.521 Y105.826 E95.80495
G0 F12000 X80.202 Y105.941
G1 F1200 X79.321 Y105.060 E95.95446
G0 F12000 X80.004 Y105.177
G1 F1200 X80.883 Y106.056 E96.10364
G0 F12000 X81.551 Y106.158
G1 F1200 X80.687 Y105.294 E96.25026
G0 F12000 X81.364 Y105.406
G1 F1200 X82.215 Y106.256 E96.39460
G0 F12000 X82.878 Y106.354
G1 F1200 X82.027 Y105.503 E96.53902
G0 F12000 X82.691 Y105.602
G1 F1200 X83.542 Y106.452 E96.68335
G0 F12000 X84.205 Y106.550
G1 F1200 X83.355 Y105.699 E96.82768
G0 F12000 X84.019 Y105.798
G1 F1200 X84.869 Y106.648 E96.97193
G0 F12000 X85.529 Y106.742
G1 F1200 X84.682 Y105.895 E97.11567
G0 F12000 X85.346 Y105.993
G1 F1200 X86.177 Y106.824 E97.25670
G0 F12000 X86.824 Y106.906
G1 F1200 X85.996 Y106.078 E97.39722
G0 F12000 X86.643 Y106.160
G1 F1200 X87.472 Y106.988 E97.53782
G0 F12000 X88.120 Y107.070
G1 F1200 X87.291 Y106.242 E97.67842
G0 F12000 X87.939 Y106.324
G1 F1200 X88.768 Y107.152 E97.81902
G0 F12000 X89.415 Y107.234
G1 F1200 X88.586 Y106.405 E97.95971
G0 F12000 X89.234 Y106.487
G1 F1200 X90.054 Y107.308 E98.09895
G0 F12000 X90.687 Y107.374
G1 F1200 X89.879 Y106.567 E98.23599
G0 F12000 X90.511 Y106.633
G1 F1200 X91.319 Y107.441 E98.37311
G0 F12000 X91.951 Y107.507
G1 F1200 X91.143 Y106.700 E98.51015
G0 F12000 X91.776 Y106.766
G1 F1200 X92.583 Y107.574 E98.64718
G0 F12000 X93.215 Y107.640
G1 F1200 X92.408 Y106.833 E98.78414
G0 F12000 X93.040 Y106.899
G1 F1200 X93.847 Y107.707 E98.92117
G0 F12000 X94.470 Y107.763
G1 F1200 X93.672 Y106.966 E99.05651
G0 F12000 X94.300 Y107.028
G1 F1200 X95.088 Y107.816 E99.19024
G0 F12000 X95.705 Y107.867
G1 F1200 X94.917 Y107.080 E99.32388
G0 F12000 X95.535 Y107.131
G1 F1200 X96.322 Y107.919 E99.45753
G0 F12000 X96.940 Y107.971
G1 F1200 X96.153 Y107.183 E99.59117
G0 F12000 X96.770 Y107.235
G1 F1200 X97.558 Y108.023 E99.72490
G0 F12000 X98.175 Y108.074
G1 F1200 X97.387 Y107.287 E99.85854
G0 F12000 X98.004 Y107.338
G1 F1200 X98.783 Y108.117 E99.99074
G0 F12000 X99.387 Y108.155
G1 F1200 X98.619 Y107.387 E100.12108
G0 F12000 X99.223 Y107.425
G1 F1200 X99.991 Y108.193 E100.25141
G0 F12000 X100.595 Y108.231
G1 F1200 X99.827 Y107.463 E100.38174
G0 F12000 X100.431 Y107.502
G1 F1200 X101.199 Y108.270 E100.51208
G0 F12000 X101.802 Y108.308
G1 F1200 X101.034 Y107.540 E100.64241
G0 F12000 X101.638 Y107.578
G1 F1200 X102.406 Y108.346 E100.77275
G0 F12000 X103.004 Y108.378
G1 F1200 X102.242 Y107.616 E100.90206
G0 F12000 X102.845 Y107.654
G1 F1200 X103.595 Y108.403 E101.02926
G0 F12000 X104.185 Y108.427
G1 F1200 X103.436 Y107.678 E101.15637
G0 F12000 X104.026 Y107.703
G1 F1200 X104.775 Y108.452 E101.28348
G0 F12000 X105.365 Y108.476
G1 F1200 X104.617 Y107.728 E101.41042
G0 F12000 X105.207 Y107.753
G1 F1200 X105.955 Y108.501 E101.53736
G0 F12000 X106.545 Y108.525
G1 F1200 X105.798 Y107.777 E101.66421
G0 F12000 X106.388 Y107.802
G1 F1200 X107.135 Y108.550 E101.79107
G0 F12000 X107.725 Y108.574
G1 F1200 X106.978 Y107.827 E101.91784
G0 F12000 X107.560 Y107.842
G1 F1200 X108.316 Y108.598 E102.04613
G0 F12000 X108.434 Y108.717
G1 F1200 X113.941 Y114.224 E102.98070
G0 F12000 X113.851 Y114.700
G1 F1200 X108.364 Y109.212 E103.91196
G0 F12000 X108.293 Y109.707
G1 F1200 X113.750 Y115.164 E104.83805
G0 F12000 X113.614 Y115.594
G1 F1200 X108.222 Y110.202 E105.75310
G0 F12000 X108.151 Y110.696
G1 F1200 X113.478 Y116.024 E106.65720
G0 F12000 X113.342 Y116.454
G1 F1200 X108.080 Y111.191 E107.55028
G0 F12000 X108.009 Y111.686
G1 F1200 X113.168 Y116.845 E108.42579
G0 F12000 X112.991 Y117.234
G1 F1200 X107.938 Y112.181 E109.28331
G0 F12000 X107.867 Y112.676
G1 F1200 X112.813 Y117.622 E110.12268
G0 F12000 X112.637 Y118.011
G1 F1200 X107.797 Y113.171 E110.94405
G0 F12000 X107.772 Y113.711
G1 F1200 X112.449 Y118.389 E111.73785
G0 F12000 X112.238 Y118.743
G1 F1200 X107.845 Y114.351 E112.48328
G0 F12000 X107.963 Y115.034
G1 F1200 X112.026 Y119.097 E113.17280
G0 F12000 X111.815 Y119.452
G1 F1200 X108.195 Y115.832 E113.78713
G0 F12000 X108.477 Y116.679
G1 F1200 X111.279 Y119.481 E114.26265
G0 F12000 X110.706 Y119.474
G1 F1200 X108.902 Y117.670 E114.56880
G0 F12000 X109.458 Y118.792
G1 F1200 X110.134 Y119.467 E114.68343
G0 F12000 X113.999 Y113.716
G1 F1200 X108.137 Y107.854 E115.67825
G0 F12000 X108.715 Y107.867
G1 F1200 X113.966 Y113.117 E116.56929
G0 F12000 X113.890 Y112.475
G1 F1200 X109.293 Y107.879 E117.34934
G0 F12000 X109.870 Y107.891
G1 F1200 X113.814 Y111.834 E118.01857
G0 F12000 X113.738 Y111.192
G1 F1200 X110.448 Y107.903 E118.57682
G0 F12000 X111.026 Y107.915
G1 F1200 X113.662 Y110.551 E119.02416
G0 F12000 X113.586 Y109.909
G1 F1200 X111.601 Y107.925 E119.36094
G0 F12000 X112.167 Y107.925
G1 F1200 X113.510 Y109.267 E119.58877
G0 F12000 X113.453 Y108.644
G1 F1200 X112.733 Y107.925 E119.71088
G0 F12000 X113.299 Y107.925
G1 F1200 X114.018 Y108.644 E119.83289
G0 F12000 X114.584 Y108.644
G1 F1200 X113.864 Y107.925 E119.95500
G0 F12000 X114.430 Y107.925
G1 F1200 X115.150 Y108.644 E120.07710
G0 F12000 X115.715 Y108.644
G1 F1200 X114.996 Y107.925 E120.19912
G0 F12000 X115.561 Y107.925
G1 F1200 X116.273 Y108.636 E120.31987
G0 F12000 X116.827 Y108.625
G1 F1200 X116.122 Y107.920 E120.43951
G0 F12000 X116.676 Y107.908
G1 F1200 X117.381 Y108.613 E120.55915
G0 F12000 X117.935 Y108.601
G1 F1200 X117.230 Y107.896 E120.67879
G0 F12000 X117.784 Y107.885
G1 F1200 X118.489 Y108.590 E120.79844
G0 F12000 X119.043 Y108.578
G1 F1200 X118.339 Y107.874 E120.91791
G0 F12000 X118.892 Y107.862
G1 F1200 X119.597 Y108.567 E121.03755
G0 F12000 X120.151 Y108.555
G1 F1200 X119.447 Y107.850 E121.15711
G0 F12000 X120.001 Y107.839
G1 F1200 X120.696 Y108.534 E121.27505
G0 F12000 X121.239 Y108.511
G1 F1200 X120.548 Y107.821 E121.39224
G0 F12000 X121.092 Y107.798
G1 F1200 X121.782 Y108.488 E121.50933
G0 F12000 X122.325 Y108.465
G1 F1200 X121.634 Y107.775 E121.62651
G0 F12000 X122.177 Y107.752
G1 F1200 X122.868 Y108.443 E121.74378
G0 F12000 X123.411 Y108.420
G1 F1200 X122.720 Y107.729 E121.86105
G0 F12000 X123.263 Y107.707
G1 F1200 X123.953 Y108.397 E121.97814
G0 F12000 X124.496 Y108.374
G1 F1200 X123.806 Y107.684 E122.09524
G0 F12000 X124.349 Y107.661
G1 F1200 X125.030 Y108.342 E122.21081
G0 F12000 X125.563 Y108.309
G1 F1200 X124.886 Y107.632 E122.32570
G0 F12000 X125.418 Y107.599
G1 F1200 X126.094 Y108.275 E122.44042
G0 F12000 X126.627 Y108.242
G1 F1200 X125.949 Y107.565 E122.55540
G0 F12000 X126.482 Y107.531
G1 F1200 X127.159 Y108.208 E122.67029
