;FLAVOR:UltiGCode
;TIME:601
;MATERIAL:726
;MATERIAL2:0
;NOZZLE_DIAMETER:0.400000
;NOZZLE_DIAMETER2:0.400000
;MTYPE:PLA

;Layer count: 34
;LAYER:0
M107
G0 F12000 X55.827 Y102.523 Z0.300
;TYPE:SKIRT
G1 F1200 X59.691 Y103.583 E0.48081
G1 X63.966 Y104.665 E1.00999
G1 X65.019 Y104.921 E1.14003
G1 X65.547 Y105.040 E1.20498
G1 X69.188 Y105.857 E1.65276
G1 X69.707 Y105.962 E1.71630
G1 X73.371 Y106.705 E2.16493
G1 X77.081 Y107.375 E2.61733
G1 X77.580 Y107.466 E2.67820
G1 X81.778 Y108.134 E3.18830
G1 X85.986 Y108.714 E3.69803
G1 X89.737 Y109.152 E4.15121
G1 X90.210 Y109.207 E4.20835
G1 X93.978 Y109.567 E4.66257
G1 X94.482 Y109.615 E4.72333
G1 X98.707 Y109.930 E5.23173
G1 X99.237 Y109.957 E5.29542
G1 X102.984 Y110.158 E5.74570
G1 X106.739 Y110.278 E6.19653
G1 X107.227 Y110.294 E6.25512
G1 X111.509 Y110.342 E6.76900
G1 X115.751 Y110.301 E7.27806
G1 X119.519 Y110.187 E7.73043
G1 X119.519 Y110.188 E7.73055
G1 X119.991 Y110.173 E7.78722
G1 X124.277 Y109.952 E8.30222
G1 X128.024 Y109.681 E8.75303
G1 X128.024 Y109.682 E8.75315
G1 X128.528 Y109.644 E8.81381
G1 X129.034 Y109.597 E8.87479
G1 X132.778 Y109.246 E9.32604
G1 X136.500 Y108.818 E9.77562
G1 X136.991 Y108.761 E9.83494
G1 X141.251 Y108.181 E10.35085
G1 X144.936 Y107.602 E10.79848
G1 X145.411 Y107.527 E10.85618
G1 X149.131 Y106.861 E11.30968
G1 X149.630 Y106.772 E11.37051
G1 X153.308 Y106.033 E11.82069
G1 X153.824 Y105.929 E11.88385
G1 X154.307 Y105.822 E11.94322
G1 X157.958 Y105.008 E12.39209
G1 X161.912 Y104.041 E12.88056
G1 X164.246 Y103.422 E13.17032
G1 X167.931 Y102.431 E13.62823
G1 X169.282 Y111.807 E14.76497
G1 X164.484 Y113.086 E15.36084
G1 X160.454 Y114.074 E15.85876
G1 X159.553 Y114.283 E15.96975
G1 X155.756 Y115.129 E16.43656
G1 X151.383 Y116.006 E16.97177
G1 X150.808 Y116.109 E17.04187
G1 X146.996 Y116.791 E17.50657
G1 X146.422 Y116.881 E17.57629
G1 X142.594 Y117.484 E18.04132
G1 X138.175 Y118.086 E18.57650
G1 X137.599 Y118.152 E18.64607
G1 X133.748 Y118.595 E19.11124
G1 X129.307 Y119.010 E19.64648
G1 X128.729 Y119.052 E19.71602
G1 X124.863 Y119.333 E20.18116
G1 X124.282 Y119.363 E20.25098
G1 X120.409 Y119.563 E20.71636
G1 X119.825 Y119.580 E20.78647
G1 X119.825 Y119.579 E20.78659
G1 X115.956 Y119.700 E21.25109
G1 X112.085 Y119.736 E21.71563
G1 X111.501 Y119.742 E21.78572
G1 X107.044 Y119.692 E22.32059
G1 X106.461 Y119.674 E22.39058
G1 X102.585 Y119.548 E22.85595
G1 X98.137 Y119.312 E23.39046
G1 X97.555 Y119.269 E23.46049
G1 X93.688 Y118.981 E23.92582
G1 X89.251 Y118.558 E24.46067
G1 X85.401 Y118.109 E24.92580
G1 X84.825 Y118.042 E24.99539
G1 X84.249 Y117.963 E25.06515
G1 X80.408 Y117.434 E25.53042
G1 X79.833 Y117.342 E25.60030
G1 X76.007 Y116.733 E26.06520
G1 X75.433 Y116.630 E26.13518
G1 X71.620 Y115.940 E26.60017
G1 X71.049 Y115.826 E26.67005
G1 X67.248 Y115.056 E27.13543
G1 X62.898 Y114.080 E27.67041
G1 X61.929 Y113.841 E27.79017
G1 X61.929 Y113.840 E27.79029
G1 X61.173 Y113.655 E27.88369
G1 X57.403 Y112.703 E28.35029
G1 X53.368 Y111.591 E28.85254
G1 X55.827 Y102.523 E29.98000
G10
G1 Z0.400
G0 F12000 X58.779 Y107.684
;TYPE:WALL-INNER
G1 Z0.300
G11
G1 F1200 X62.940 Y108.738 E30.49509
G1 X64.093 Y109.018 E30.63747
G1 X68.335 Y109.970 E31.15917
G1 X72.597 Y110.833 E31.68099
G1 X76.331 Y111.508 E32.13634
G1 X76.875 Y111.607 E32.20269
G1 X81.171 Y112.290 E32.72468
G1 X85.479 Y112.884 E33.24653
G1 X89.799 Y113.387 E33.76844
G1 X93.577 Y113.747 E34.22385
G1 X94.127 Y113.800 E34.29016
G1 X98.466 Y114.123 E34.81228
G1 X99.016 Y114.152 E34.87837
G1 X102.807 Y114.354 E35.33393
G1 X106.602 Y114.475 E35.78956
G1 X107.154 Y114.494 E35.85584
G1 X111.503 Y114.542 E36.37776
G1 X115.851 Y114.501 E36.89954
G1 X119.647 Y114.386 E37.35527
G1 X120.198 Y114.368 E37.42142
G1 X124.541 Y114.144 E37.94328
G1 X128.328 Y113.870 E38.39890
G1 X128.878 Y113.830 E38.46508
G1 X133.208 Y113.424 E38.98696
G1 X137.529 Y112.927 E39.50890
G1 X141.838 Y112.340 E40.03075
G1 X145.589 Y111.751 E40.48639
G1 X146.135 Y111.664 E40.55273
G1 X149.872 Y110.995 E41.00830
G1 X150.415 Y110.897 E41.07452
G1 X154.678 Y110.041 E41.59629
G1 X155.216 Y109.922 E41.66241
G1 X158.924 Y109.096 E42.11827
G1 X162.951 Y108.110 E42.61579
G1 X164.448 Y107.713 E42.80164
G1 X164.592 Y108.711 E42.92264
G1 X163.441 Y109.018 E43.06559
G1 X159.479 Y109.989 E43.55510
G1 X158.626 Y110.186 E43.66015
G1 X154.875 Y111.022 E44.12131
G1 X150.613 Y111.878 E44.64297
G1 X150.072 Y111.974 E44.70890
G1 X146.311 Y112.647 E45.16739
G1 X141.987 Y113.328 E45.69267
G1 X137.665 Y113.917 E46.21610
G1 X137.119 Y113.979 E46.28204
G1 X133.323 Y114.417 E46.74058
G1 X128.951 Y114.825 E47.26750
G1 X128.425 Y114.863 E47.33079
G1 X124.614 Y115.140 E47.78931
G1 X120.245 Y115.365 E48.31429
G1 X119.702 Y115.381 E48.37948
G1 X115.860 Y115.500 E48.84074
G1 X112.040 Y115.536 E49.29916
G1 X111.501 Y115.542 E49.36384
G1 X107.142 Y115.493 E49.88696
G1 X106.594 Y115.476 E49.95275
G1 X102.775 Y115.353 E50.41127
G1 X98.391 Y115.119 E50.93809
G1 X97.865 Y115.081 E51.00138
G1 X94.033 Y114.795 E51.46250
G1 X89.704 Y114.383 E51.98432
G1 X85.362 Y113.876 E52.50890
G1 X84.821 Y113.802 E52.57443
G1 X81.023 Y113.278 E53.03451
G1 X76.698 Y112.590 E53.56003
G1 X76.179 Y112.497 E53.62330
G1 X72.398 Y111.813 E54.08439
G1 X71.881 Y111.709 E54.14767
G1 X68.135 Y110.950 E54.60633
G1 X63.859 Y109.991 E55.13219
G1 X62.936 Y109.763 E55.24628
G1 X62.190 Y109.581 E55.33843
G1 X58.517 Y108.652 E55.79307
G1 X58.779 Y107.684 E55.91341
G0 F12000 X58.367 Y109.027
G1 F1200 X58.026 Y108.934 E55.95582
G1 X58.498 Y107.196 E56.17194
G1 X63.036 Y108.349 E56.73380
G1 X64.184 Y108.628 E56.87557
G1 X68.418 Y109.579 E57.39631
G1 X72.672 Y110.440 E57.91714
G1 X76.943 Y111.213 E58.43798
G1 X81.230 Y111.895 E58.95889
G1 X85.529 Y112.487 E59.47964
G1 X89.841 Y112.990 E60.00059
G1 X94.161 Y113.402 E60.52134
G1 X98.491 Y113.724 E61.04238
G1 X102.825 Y113.955 E61.56319
G1 X107.163 Y114.094 E62.08402
G1 X111.503 Y114.142 E62.60485
G1 X115.843 Y114.101 E63.12568
G1 X120.182 Y113.969 E63.64660
G1 X124.516 Y113.745 E64.16737
G1 X128.299 Y113.471 E64.62252
G1 X128.845 Y113.431 E64.68822
G1 X133.167 Y113.026 E65.20913
G1 X137.479 Y112.530 E65.72998
G1 X141.780 Y111.945 E66.25085
G1 X146.067 Y111.270 E66.77163
G1 X150.340 Y110.505 E67.29254
G1 X154.595 Y109.650 E67.81335
G1 X158.832 Y108.706 E68.33426
G1 X162.852 Y107.722 E68.83090
G1 X164.780 Y107.212 E69.07022
G1 X165.039 Y109.005 E69.28761
G1 X163.539 Y109.405 E69.47390
G1 X159.578 Y110.376 E69.96329
G1 X158.713 Y110.576 E70.06983
G1 X154.962 Y111.412 E70.53099
G1 X150.683 Y112.271 E71.05472
G1 X146.366 Y113.043 E71.58098
G1 X142.048 Y113.723 E72.10552
G1 X137.697 Y114.316 E72.63247
G1 X133.348 Y114.816 E73.15779
G1 X128.991 Y115.224 E73.68291
G1 X124.634 Y115.540 E74.20713
G1 X120.262 Y115.765 E74.73246
G1 X119.714 Y115.781 E74.79825
G1 X115.872 Y115.900 E75.25951
G1 X111.502 Y115.942 E75.78394
G1 X107.130 Y115.893 E76.30861
G1 X102.741 Y115.751 E76.83556
G1 X98.370 Y115.519 E77.36082
G1 X94.014 Y115.195 E77.88499
G1 X89.658 Y114.780 E78.41007
G1 X85.308 Y114.272 E78.93562
G1 X80.958 Y113.673 E79.46255
G1 X76.643 Y112.986 E79.98687
G1 X72.326 Y112.206 E80.51330
G1 X71.801 Y112.101 E80.57754
G1 X68.035 Y111.338 E81.03865
G1 X63.772 Y110.382 E81.56291
G1 X62.840 Y110.151 E81.67814
G1 X62.088 Y109.967 E81.77104
G1 X58.367 Y109.027 E82.23158
G0 F12000 X58.269 Y109.415
;TYPE:WALL-OUTER
G1 F1200 X57.536 Y109.213 E82.32282
G1 X58.216 Y106.704 E82.63477
G1 X58.820 Y106.869 E82.70990
G1 X63.133 Y107.961 E83.24379
G1 X64.275 Y108.239 E83.38483
G1 X68.501 Y109.188 E83.90458
G1 X72.747 Y110.047 E84.42443
G1 X77.010 Y110.818 E84.94429
G1 X81.289 Y111.499 E85.46423
G1 X85.580 Y112.090 E85.98401
G1 X89.883 Y112.592 E86.50387
G1 X94.195 Y113.003 E87.02366
G1 X98.516 Y113.325 E87.54361
G1 X102.842 Y113.555 E88.06347
G1 X107.172 Y113.694 E88.58333
G1 X111.504 Y113.742 E89.10321
G1 X115.835 Y113.701 E89.62295
G1 X120.165 Y113.569 E90.14279
G1 X124.491 Y113.346 E90.66260
G1 X128.811 Y113.032 E91.18237
G1 X133.126 Y112.628 E91.70243
G1 X137.429 Y112.133 E92.22220
G1 X141.722 Y111.549 E92.74210
G1 X146.001 Y110.875 E93.26191
G1 X150.265 Y110.112 E93.78172
G1 X154.512 Y109.259 E94.30154
G1 X158.741 Y108.317 E94.82146
G1 X162.753 Y107.335 E95.31711
G1 X165.112 Y106.709 E95.60999
G1 X165.486 Y109.301 E95.92425
G1 X163.643 Y109.792 E96.15312
G1 X159.668 Y110.766 E96.64423
G1 X158.799 Y110.967 E96.75126
G1 X155.049 Y111.803 E97.21231
G1 X150.753 Y112.665 E97.73811
G1 X146.435 Y113.437 E98.26448
G1 X142.098 Y114.120 E98.79134
G1 X137.755 Y114.712 E99.31732
G1 X133.393 Y115.213 E99.84420
G1 X129.025 Y115.622 E100.37065
G1 X124.655 Y115.940 E100.89644
G1 X120.270 Y116.165 E101.42333
G1 X115.885 Y116.300 E101.94978
G1 X111.501 Y116.342 E102.47588
G1 X107.117 Y116.293 E103.00200
G1 X102.733 Y116.151 E103.52835
G1 X98.349 Y115.918 E104.05517
G1 X93.978 Y115.593 E104.58114
G1 X89.611 Y115.177 E105.10755
G1 X85.250 Y114.668 E105.63443
G1 X80.908 Y114.071 E106.16037
G1 X76.572 Y113.380 E106.68725
G1 X72.255 Y112.600 E107.21368
G1 X67.961 Y111.731 E107.73941
G1 X63.676 Y110.770 E108.26638
G1 X61.994 Y110.356 E108.47425
G1 X58.269 Y109.415 E108.93529
G0 F12000 X59.175 Y108.673
;TYPE:SKIN
G1 F1200 X58.766 Y108.264 E109.00470
G0 F12000 X58.934 Y107.866
G1 F1200 X59.930 Y108.861 E109.17364
G0 F12000 X60.684 Y109.050
G1 F1200 X59.689 Y108.055 E109.34250
G0 F12000 X60.444 Y108.245
G1 F1200 X61.439 Y109.239 E109.51127
G0 F12000 X62.194 Y109.429
G1 F1200 X61.200 Y108.435 E109.67996
G0 F12000 X61.955 Y108.625
G1 F1200 X62.948 Y109.617 E109.84839
G0 F12000 X63.703 Y109.806
G1 F1200 X62.711 Y108.814 E110.01674
G0 F12000 X63.466 Y109.004
G1 F1200 X64.438 Y109.976 E110.18169
G0 F12000 X65.167 Y110.139
G1 F1200 X64.216 Y109.188 E110.34308
G0 F12000 X64.945 Y109.351
G1 F1200 X65.897 Y110.303 E110.50464
G0 F12000 X66.626 Y110.467
G1 F1200 X65.675 Y109.515 E110.66612
G0 F12000 X66.405 Y109.680
G1 F1200 X67.355 Y110.630 E110.82734
G0 F12000 X68.084 Y110.793
G1 F1200 X67.134 Y109.843 E110.98856
G0 F12000 X67.863 Y110.007
G1 F1200 X68.796 Y110.940 E111.14689
G0 F12000 X69.505 Y111.083
G1 F1200 X68.585 Y110.162 E111.30311
G0 F12000 X69.294 Y110.306
G1 F1200 X70.214 Y111.227 E111.45932
G0 F12000 X70.924 Y111.371
G1 F1200 X70.003 Y110.450 E111.61562
G0 F12000 X70.712 Y110.593
G1 F1200 X71.634 Y111.514 E111.77200
G0 F12000 X72.343 Y111.658
G1 F1200 X71.422 Y110.737 E111.92830
G0 F12000 X72.131 Y110.881
G1 F1200 X73.035 Y111.785 E112.08171
G0 F12000 X73.726 Y111.910
G1 F1200 X72.834 Y111.017 E112.23318
G0 F12000 X73.524 Y111.142
G1 F1200 X74.416 Y112.034 E112.38455
G0 F12000 X75.106 Y112.159
G1 F1200 X74.215 Y111.267 E112.53585
G0 F12000 X74.905 Y111.391
G1 F1200 X75.796 Y112.283 E112.68714
G0 F12000 X76.487 Y112.408
G1 F1200 X75.596 Y111.517 E112.83835
G0 F12000 X76.286 Y111.642
G1 F1200 X77.165 Y112.521 E112.98752
G0 F12000 X77.839 Y112.628
G1 F1200 X76.974 Y111.763 E113.13431
G0 F12000 X77.646 Y111.870
G1 F1200 X78.511 Y112.735 E113.28111
G0 F12000 X79.183 Y112.842
G1 F1200 X78.319 Y111.977 E113.42782
G0 F12000 X78.992 Y112.084
G1 F1200 X79.857 Y112.949 E113.57462
G0 F12000 X80.529 Y113.056
G1 F1200 X79.664 Y112.191 E113.72141
G0 F12000 X80.337 Y112.298
G1 F1200 X81.198 Y113.159 E113.86753
G0 F12000 X81.854 Y113.250
G1 F1200 X81.010 Y112.405 E114.01084
G0 F12000 X81.670 Y112.499
G1 F1200 X82.510 Y113.340 E114.15348
G0 F12000 X83.167 Y113.431
G1 F1200 X82.326 Y112.590 E114.29620
G0 F12000 X82.982 Y112.681
G1 F1200 X83.823 Y113.521 E114.43884
G0 F12000 X84.479 Y113.612
G1 F1200 X83.638 Y112.771 E114.58156
G0 F12000 X84.294 Y112.862
G1 F1200 X85.135 Y113.702 E114.72420
G0 F12000 X85.781 Y113.782
G1 F1200 X84.951 Y112.952 E114.86506
G0 F12000 X85.602 Y113.038
G1 F1200 X86.421 Y113.857 E115.00405
G0 F12000 X87.062 Y113.932
G1 F1200 X86.242 Y113.112 E115.14320
G0 F12000 X86.882 Y113.187
G1 F1200 X87.703 Y114.007 E115.28245
G0 F12000 X88.343 Y114.082
G1 F1200 X87.523 Y113.262 E115.42161
G0 F12000 X88.163 Y113.336
G1 F1200 X88.984 Y114.157 E115.56093
G0 F12000 X89.625 Y114.232
G1 F1200 X88.804 Y113.411 E115.70026
G0 F12000 X89.444 Y113.485
G1 F1200 X90.252 Y114.293 E115.83739
G0 F12000 X90.877 Y114.353
G1 F1200 X90.077 Y113.553 E115.97315
G0 F12000 X90.702 Y113.612
G1 F1200 X91.502 Y114.412 E116.10891
G0 F12000 X92.127 Y114.472
G1 F1200 X91.328 Y113.673 E116.24451
G0 F12000 X91.953 Y113.732
G1 F1200 X92.752 Y114.531 E116.38010
G0 F12000 X93.378 Y114.591
G1 F1200 X92.578 Y113.791 E116.51587
G0 F12000 X93.203 Y113.851
G1 F1200 X94.003 Y114.651 E116.65163
G0 F12000 X94.615 Y114.696
G1 F1200 X93.829 Y113.911 E116.78494
G0 F12000 X94.446 Y113.962
G1 F1200 X95.226 Y114.742 E116.91731
G0 F12000 X95.837 Y114.788
G1 F1200 X95.058 Y114.008 E117.04959
G0 F12000 X95.669 Y114.054
G1 F1200 X96.449 Y114.834 E117.18196
G0 F12000 X97.060 Y114.879
G1 F1200 X96.281 Y114.100 E117.31416
G0 F12000 X96.892 Y114.145
G1 F1200 X97.671 Y114.924 E117.44636
G0 F12000 X98.282 Y114.970
G1 F1200 X97.503 Y114.191 E117.57857
G0 F12000 X98.114 Y114.236
G1 F1200 X98.881 Y115.003 E117.70873
G0 F12000 X99.479 Y115.035
G1 F1200 X98.719 Y114.276 E117.83762
G0 F12000 X99.317 Y114.308
G1 F1200 X100.076 Y115.067 E117.96643
G0 F12000 X100.674 Y115.099
G1 F1200 X99.914 Y114.339 E118.09540
G0 F12000 X100.512 Y114.371
G1 F1200 X101.271 Y115.131 E118.22429
G0 F12000 X101.869 Y115.162
G1 F1200 X101.109 Y114.403 E118.35319
G0 F12000 X101.707 Y114.435
G1 F1200 X102.467 Y115.195 E118.48216
G0 F12000 X103.058 Y115.220
G1 F1200 X102.304 Y114.467 E118.61004
G0 F12000 X102.900 Y114.496
G1 F1200 X103.643 Y115.240 E118.73621
G0 F12000 X104.227 Y115.258
G1 F1200 X103.485 Y114.515 E118.86222
G0 F12000 X104.069 Y114.534
G1 F1200 X104.812 Y115.277 E118.98831
G0 F12000 X105.396 Y115.295
G1 F1200 X104.653 Y114.553 E119.11432
G0 F12000 X105.237 Y114.571
G1 F1200 X105.981 Y115.314 E119.24049
G0 F12000 X106.565 Y115.333
G1 F1200 X105.822 Y114.590 E119.36658
G0 F12000 X106.407 Y114.609
G1 F1200 X107.150 Y115.352 E119.49267
G0 F12000 X107.722 Y115.358
G1 F1200 X106.991 Y114.628 E119.61664
G0 F12000 X107.567 Y114.638
G1 F1200 X108.294 Y115.365 E119.74002
G0 F12000 X108.866 Y115.371
G1 F1200 X108.139 Y114.644 E119.86340
G0 F12000 X108.710 Y114.650
G1 F1200 X109.438 Y115.377 E119.98686
G0 F12000 X110.010 Y115.384
G1 F1200 X109.282 Y114.656 E120.11040
G0 F12000 X109.854 Y114.663
G1 F1200 X110.582 Y115.390 E120.23386
G0 F12000 X111.154 Y115.396
G1 F1200 X110.426 Y114.669 E120.35733
G0 F12000 X110.998 Y114.675
G1 F1200 X111.722 Y115.399 E120.48019
G0 F12000 X112.282 Y115.393
G1 F1200 X111.569 Y114.680 E120.60119
G0 F12000 X112.129 Y114.675
G1 F1200 X112.842 Y115.387 E120.72211
G0 F12000 X113.402 Y115.382
G1 F1200 X112.690 Y114.670 E120.84294
G0 F12000 X113.250 Y114.665
G1 F1200 X113.962 Y115.377 E120.96377
G0 F12000 X114.523 Y115.372
G1 F1200 X113.810 Y114.659 E121.08477
G0 F12000 X114.371 Y114.654
G1 F1200 X115.083 Y115.366 E121.20560
G0 F12000 X115.643 Y115.360
G1 F1200 X114.932 Y114.649 E121.32626
G0 F12000 X115.492 Y114.643
G1 F1200 X116.197 Y115.348 E121.44590
G0 F12000 X116.746 Y115.331
G1 F1200 X116.048 Y114.634 E121.56427
G0 F12000 X116.597 Y114.617
G1 F1200 X117.294 Y115.314 E121.68256
G0 F12000 X117.843 Y115.298
G1 F1200 X117.147 Y114.601 E121.80076
G0 F12000 X117.695 Y114.584
G1 F1200 X118.392 Y115.281 E121.91904
G0 F12000 X118.941 Y115.264
G1 F1200 X118.245 Y114.568 E122.03716
G0 F12000 X118.793 Y114.551
G1 F1200 X119.489 Y115.247 E122.15527
G0 F12000 X120.038 Y115.230
G1 F1200 X119.342 Y114.534 E122.27339
G0 F12000 X119.892 Y114.518
G1 F1200 X120.580 Y115.206 E122.39014
G0 F12000 X121.118 Y115.178
G1 F1200 X120.435 Y114.496 E122.50597
G0 F12000 X120.973 Y114.468
G1 F1200 X121.656 Y115.150 E122.62179
G0 F12000 X122.194 Y115.123
G1 F1200 X121.512 Y114.440 E122.73762
G0 F12000 X122.050 Y114.413
G1 F1200 X122.732 Y115.095 E122.85336
G0 F12000 X123.270 Y115.068
G1 F1200 X122.588 Y114.385 E122.96918
G0 F12000 X123.125 Y114.357
G1 F1200 X123.808 Y115.040 E123.08509
G0 F12000 X124.346 Y115.013
G1 F1200 X123.663 Y114.329 E123.20108
G0 F12000 X124.201 Y114.302
G1 F1200 X124.880 Y114.981 E123.31631
G0 F12000 X125.408 Y114.943
G1 F1200 X124.735 Y114.270 E123.43052
