;FLAVOR:UltiGCode
;TIME:656
;MATERIAL:941
;MATERIAL2:0
;NOZZLE_DIAMETER:0.400000
;NOZZLE_DIAMETER2:0.400000
;MTYPE:PLA

;Layer count: 18
;LAYER:0
M107
G0 F12000 X39.137 Y99.719 Z0.300
;TYPE:SKIRT
G1 F1200 X44.475 Y101.633 E0.68049
G1 X45.327 Y101.926 E0.78861
G1 X48.850 Y103.107 E1.23449
G1 X52.953 Y104.388 E1.75029
G1 X57.013 Y105.562 E2.25745
G1 X60.651 Y106.531 E2.70923
G1 X61.128 Y106.659 E2.76850
G1 X61.632 Y106.782 E2.83075
G1 X65.272 Y107.673 E3.28045
G1 X65.774 Y107.784 E3.34214
G1 X69.446 Y108.600 E3.79353
G1 X69.936 Y108.698 E3.85349
G1 X73.640 Y109.440 E4.30680
G1 X77.811 Y110.185 E4.81525
G1 X81.990 Y110.842 E5.32289
G1 X82.521 Y110.914 E5.38719
G1 X86.262 Y111.422 E5.84023
G1 X89.973 Y111.847 E6.28846
G1 X90.489 Y111.906 E6.35078
G1 X90.981 Y111.952 E6.41008
G1 X94.694 Y112.299 E6.85758
G1 X98.978 Y112.608 E7.37300
G1 X102.717 Y112.799 E7.82226
G1 X103.217 Y112.825 E7.88234
G1 X103.730 Y112.840 E7.94393
G1 X107.499 Y112.954 E8.39642
G1 X111.741 Y112.993 E8.90548
G1 X112.251 Y112.987 E8.96668
G1 X116.038 Y112.943 E9.42115
G1 X116.510 Y112.928 E9.47782
G1 X120.266 Y112.805 E9.92878
G1 X124.510 Y112.577 E10.43880
G1 X125.023 Y112.539 E10.50053
G1 X128.747 Y112.261 E10.94865
G1 X129.274 Y112.211 E11.01217
G1 X129.274 Y112.212 E11.01229
G1 X132.982 Y111.857 E11.45929
G1 X133.516 Y111.795 E11.52380
G1 X137.225 Y111.360 E11.97193
G1 X141.462 Y110.775 E12.48519
G1 X145.166 Y110.184 E12.93530
G1 X145.166 Y110.185 E12.93542
G1 X145.656 Y110.106 E12.99497
G1 X146.168 Y110.013 E13.05742
G1 X149.860 Y109.344 E13.50767
G1 X150.362 Y109.243 E13.56912
G1 X154.026 Y108.499 E14.01777
G1 X154.534 Y108.385 E14.08025
G1 X158.180 Y107.566 E14.52867
G1 X161.837 Y106.663 E14.98069
G1 X162.346 Y106.537 E15.04362
G1 X162.824 Y106.409 E15.10300
G1 X166.435 Y105.437 E15.55174
G1 X170.048 Y104.382 E16.00341
G1 X170.048 Y104.383 E16.00353
G1 X170.514 Y104.247 E16.06178
G1 X171.022 Y104.087 E16.12569
G1 X174.576 Y102.969 E16.57278
G1 X178.653 Y101.590 E17.08925
G1 X180.570 Y100.899 E17.33377
G1 X183.847 Y99.709 E17.75214
G1 X187.073 Y108.542 E18.88058
G1 X181.738 Y110.470 E19.56130
G1 X181.186 Y110.656 E19.63120
G1 X177.517 Y111.897 E20.09598
G1 X173.262 Y113.236 E20.63127
G1 X172.703 Y113.399 E20.70114
G1 X168.985 Y114.484 E21.16591
G1 X165.244 Y115.491 E21.63081
G1 X165.244 Y115.492 E21.63093
G1 X164.680 Y115.644 E21.70103
G1 X160.918 Y116.572 E22.16600
G1 X160.353 Y116.712 E22.23585
G1 X159.785 Y116.839 E22.30569
G1 X156.003 Y117.689 E22.77085
G1 X152.205 Y118.459 E23.23589
G1 X151.636 Y118.575 E23.30557
G1 X147.247 Y119.370 E23.84082
G1 X143.423 Y119.980 E24.30550
G1 X142.847 Y120.072 E24.37550
G1 X138.430 Y120.682 E24.91057
G1 X134.002 Y121.200 E25.44555
G1 X130.144 Y121.569 E25.91063
G1 X130.144 Y121.568 E25.91075
G1 X129.564 Y121.625 E25.98068
G1 X128.985 Y121.667 E26.05034
G1 X125.118 Y121.957 E26.51569
G1 X124.535 Y121.988 E26.58575
G1 X124.535 Y121.987 E26.58587
G1 X120.668 Y122.195 E27.05058
G1 X116.212 Y122.341 E27.58558
G1 X112.341 Y122.386 E28.05013
G1 X111.757 Y122.393 E28.12022
G1 X107.878 Y122.358 E28.58572
G1 X107.297 Y122.351 E28.65544
G1 X106.718 Y122.335 E28.72495
G1 X102.842 Y122.217 E29.19029
G1 X98.392 Y121.989 E29.72499
G1 X97.811 Y121.948 E29.79488
G1 X93.944 Y121.668 E30.26013
G1 X89.506 Y121.254 E30.79501
G1 X88.928 Y121.188 E30.86482
G1 X85.076 Y120.746 E31.33009
G1 X81.236 Y120.226 E31.79510
G1 X80.659 Y120.147 E31.86498
G1 X80.085 Y120.057 E31.93470
G1 X76.256 Y119.455 E32.39983
G1 X72.441 Y118.775 E32.86484
G1 X71.868 Y118.672 E32.93471
G1 X71.298 Y118.559 E33.00444
G1 X67.495 Y117.796 E33.46989
G1 X63.144 Y116.828 E34.00478
G1 X59.379 Y115.909 E34.46984
G1 X58.813 Y115.770 E34.53978
G1 X55.069 Y114.773 E35.00472
G1 X54.505 Y114.622 E35.07478
G1 X50.783 Y113.546 E35.53971
G1 X50.224 Y113.384 E35.60955
G1 X49.669 Y113.211 E35.67931
G1 X45.969 Y112.056 E36.14444
G1 X42.294 Y110.824 E36.60956
G1 X41.741 Y110.638 E36.67957
G1 X35.931 Y108.555 E37.42023
G1 X39.137 Y99.719 E38.54818
G10
G1 Z0.400
G0 F12000 X41.658 Y105.085
;TYPE:WALL-INNER
G1 Z0.300
G11
G1 F1200 X43.103 Y105.603 E38.73239
G1 X43.964 Y105.899 E38.84164
G1 X47.569 Y107.107 E39.29789
G1 X51.721 Y108.404 E39.81987
G1 X55.899 Y109.612 E40.34177
G1 X59.566 Y110.589 E40.79716
G1 X60.100 Y110.732 E40.86349
G1 X64.326 Y111.765 E41.38554
G1 X68.572 Y112.709 E41.90750
G1 X72.835 Y113.563 E42.42923
G1 X77.116 Y114.327 E42.95107
G1 X81.413 Y115.003 E43.47305
G1 X81.958 Y115.076 E43.53903
G1 X85.722 Y115.587 E43.99485
G1 X90.043 Y116.083 E44.51678
G1 X94.373 Y116.487 E45.03864
G1 X98.710 Y116.800 E45.56043
G1 X103.054 Y117.022 E46.08239
G1 X107.401 Y117.154 E46.60427
G1 X111.748 Y117.193 E47.12593
G1 X116.096 Y117.143 E47.64773
G1 X116.647 Y117.125 E47.71388
G1 X120.443 Y117.001 E48.16964
G1 X124.786 Y116.768 E48.69155
G1 X129.122 Y116.445 E49.21332
G1 X133.451 Y116.031 E49.73517
G1 X133.999 Y115.967 E49.80137
G1 X137.772 Y115.525 E50.25723
G1 X142.079 Y114.930 E50.77898
G1 X145.829 Y114.331 E51.23468
G1 X146.374 Y114.244 E51.30091
G1 X150.653 Y113.469 E51.82274
G1 X151.194 Y113.360 E51.88897
G1 X154.915 Y112.604 E52.34461
G1 X159.158 Y111.650 E52.86648
G1 X163.380 Y110.608 E53.38832
G1 X163.913 Y110.466 E53.45452
G1 X167.580 Y109.478 E53.91025
G1 X171.755 Y108.259 E54.43217
G1 X175.903 Y106.954 E54.95398
G1 X180.023 Y105.561 E55.47587
G1 X181.340 Y105.086 E55.64388
G1 X181.683 Y106.025 E55.76384
G1 X180.363 Y106.502 E55.93227
G1 X176.204 Y107.907 E56.45905
G1 X172.035 Y109.219 E56.98352
G1 X167.860 Y110.437 E57.50541
G1 X163.623 Y111.578 E58.03196
G1 X159.391 Y112.623 E58.55505
G1 X155.115 Y113.584 E59.08097
G1 X151.370 Y114.343 E59.53951
G1 X150.832 Y114.453 E59.60541
G1 X146.553 Y115.227 E60.12722
G1 X142.758 Y115.833 E60.58839
G1 X142.237 Y115.917 E60.65172
G1 X137.888 Y116.517 E61.17854
G1 X133.548 Y117.025 E61.70289
G1 X129.744 Y117.388 E62.16145
G1 X129.210 Y117.440 E62.22583
G1 X128.672 Y117.479 E62.29056
G1 X124.861 Y117.764 E62.74916
G1 X120.477 Y117.999 E63.27599
G1 X116.130 Y118.142 E63.79791
G1 X112.288 Y118.186 E64.25899
G1 X111.747 Y118.193 E64.32391
G1 X107.921 Y118.158 E64.78305
G1 X107.390 Y118.152 E64.84677
G1 X106.843 Y118.136 E64.91244
G1 X103.006 Y118.019 E65.37310
G1 X98.638 Y117.796 E65.89794
G1 X94.301 Y117.484 E66.41972
G1 X89.943 Y117.076 E66.94497
G1 X85.586 Y116.577 E67.47123
G1 X81.271 Y115.992 E67.99377
G1 X76.940 Y115.311 E68.51987
G1 X73.180 Y114.641 E68.97818
G1 X72.658 Y114.547 E69.04183
G1 X72.120 Y114.440 E69.10765
G1 X68.375 Y113.689 E69.56600
G1 X64.088 Y112.736 E70.09299
G1 X60.378 Y111.830 E70.55128
G1 X59.844 Y111.699 E70.61726
G1 X55.641 Y110.579 E71.13922
G1 X51.434 Y109.361 E71.66479
G1 X47.252 Y108.056 E72.19050
G1 X43.109 Y106.667 E72.71485
G1 X41.317 Y106.025 E72.94328
G1 X41.658 Y105.085 E73.06327
G0 F12000 X43.235 Y105.225
G1 F1200 X44.093 Y105.520 E73.17215
G1 X47.692 Y106.727 E73.62767
G1 X51.836 Y108.021 E74.14863
G1 X56.006 Y109.226 E74.66950
G1 X60.200 Y110.344 E75.19035
G1 X64.417 Y111.375 E75.71130
G1 X68.654 Y112.317 E76.23215
G1 X72.909 Y113.170 E76.75291
G1 X77.183 Y113.933 E77.27390
G1 X81.470 Y114.607 E77.79466
G1 X85.772 Y115.190 E78.31562
G1 X90.084 Y115.685 E78.83646
G1 X94.406 Y116.088 E79.35735
G1 X98.735 Y116.401 E79.87818
G1 X103.070 Y116.623 E80.39906
G1 X107.408 Y116.754 E80.91986
G1 X111.748 Y116.793 E81.44068
G1 X116.088 Y116.743 E81.96152
G1 X120.426 Y116.601 E82.48236
G1 X124.760 Y116.369 E83.00318
G1 X129.089 Y116.046 E83.52410
G1 X133.409 Y115.633 E84.04487
G1 X133.952 Y115.570 E84.11047
G1 X137.721 Y115.128 E84.56584
G1 X142.020 Y114.534 E85.08663
G1 X146.307 Y113.850 E85.60757
G1 X150.578 Y113.076 E86.12844
G1 X154.831 Y112.213 E86.64920
G1 X159.066 Y111.261 E87.17008
G1 X163.281 Y110.221 E87.69105
G1 X167.472 Y109.093 E88.21187
G1 X171.639 Y107.876 E88.73280
G1 X175.779 Y106.574 E89.25359
G1 X179.891 Y105.183 E89.77450
G1 X181.578 Y104.575 E89.98968
G1 X182.196 Y106.265 E90.20562
G1 X180.491 Y106.881 E90.42316
G1 X176.332 Y108.286 E90.94995
G1 X172.167 Y109.597 E91.47393
G1 X167.952 Y110.827 E92.00082
G1 X163.736 Y111.963 E92.52479
G1 X159.474 Y113.014 E93.05155
G1 X155.215 Y113.972 E93.57540
G1 X151.449 Y114.735 E94.03650
G1 X150.911 Y114.845 E94.10239
G1 X146.616 Y115.623 E94.62618
G1 X142.280 Y116.314 E95.15307
G1 X137.955 Y116.912 E95.67700
G1 X133.594 Y117.422 E96.20389
G1 X129.238 Y117.839 E96.72900
G1 X128.702 Y117.878 E96.79349
G1 X124.882 Y118.164 E97.25317
G1 X120.510 Y118.398 E97.77856
G1 X116.121 Y118.542 E98.30553
G1 X111.749 Y118.593 E98.83020
G1 X107.917 Y118.558 E99.29006
G1 X107.379 Y118.552 E99.35463
G1 X102.990 Y118.419 E99.88155
G1 X98.618 Y118.196 E100.40687
G1 X94.261 Y117.882 E100.93107
G1 X89.904 Y117.475 E101.45618
G1 X85.554 Y116.976 E101.98161
G1 X81.204 Y116.386 E102.50839
G1 X76.885 Y115.707 E103.03303
G1 X72.568 Y114.937 E103.55925
G1 X72.043 Y114.833 E103.62347
G1 X68.287 Y114.079 E104.08318
G1 X64.001 Y113.126 E104.61006
G1 X59.757 Y112.089 E105.13433
G1 X55.517 Y110.959 E105.66089
G1 X51.324 Y109.746 E106.18468
G1 X47.133 Y108.438 E106.71152
G1 X42.982 Y107.046 E107.23690
G1 X40.805 Y106.265 E107.51445
G1 X41.418 Y104.574 E107.73029
G1 X43.235 Y105.225 E107.96190
G0 F12000 X43.368 Y104.848
;TYPE:WALL-OUTER
G1 F1200 X44.222 Y105.141 E108.07024
G1 X47.815 Y106.346 E108.52501
G1 X51.951 Y107.638 E109.04498
G1 X56.113 Y108.841 E109.56486
G1 X60.299 Y109.957 E110.08473
G1 X64.508 Y110.986 E110.60468
G1 X68.737 Y111.926 E111.12455
G1 X72.984 Y112.777 E111.64432
G1 X77.249 Y113.538 E112.16420
G1 X81.528 Y114.211 E112.68399
G1 X85.821 Y114.793 E113.20387
G1 X90.125 Y115.287 E113.72374
G1 X94.439 Y115.689 E114.24366
G1 X98.760 Y116.002 E114.76354
G1 X103.086 Y116.223 E115.28333
G1 X107.416 Y116.354 E115.80317
G1 X111.747 Y116.393 E116.32291
G1 X116.079 Y116.343 E116.84279
G1 X120.409 Y116.202 E117.36266
G1 X124.735 Y115.970 E117.88253
G1 X129.055 Y115.647 E118.40238
G1 X133.367 Y115.235 E118.92217
G1 X137.670 Y114.731 E119.44206
G1 X141.961 Y114.139 E119.96186
G1 X146.240 Y113.455 E120.48186
G1 X150.503 Y112.683 E121.00174
G1 X154.748 Y111.822 E121.52151
G1 X158.975 Y110.872 E122.04141
G1 X163.181 Y109.834 E122.56127
G1 X167.364 Y108.708 E123.08110
G1 X171.523 Y107.493 E123.60104
G1 X175.655 Y106.193 E124.12084
G1 X179.759 Y104.806 E124.64068
G1 X181.817 Y104.063 E124.90325
G1 X182.709 Y106.504 E125.21511
G1 X180.619 Y107.259 E125.48177
G1 X176.460 Y108.665 E126.00860
G1 X172.275 Y109.982 E126.53508
G1 X168.064 Y111.211 E127.06148
G1 X163.832 Y112.351 E127.58742
G1 X159.574 Y113.402 E128.11372
G1 X155.294 Y114.364 E128.64013
G1 X150.995 Y115.236 E129.16652
G1 X146.679 Y116.017 E129.69285
G1 X142.343 Y116.709 E130.21975
G1 X138.002 Y117.309 E130.74563
G1 X133.641 Y117.819 E131.27251
G1 X129.274 Y118.237 E131.79895
G1 X124.903 Y118.564 E132.32493
G1 X120.519 Y118.798 E132.85176
G1 X116.134 Y118.942 E133.37825
G1 X111.751 Y118.993 E133.90424
G1 X107.367 Y118.952 E134.43035
G1 X102.982 Y118.819 E134.95679
G1 X98.597 Y118.595 E135.48367
G1 X94.227 Y118.280 E136.00943
G1 X89.859 Y117.872 E136.53588
G1 X85.496 Y117.372 E137.06286
G1 X81.154 Y116.784 E137.58866
G1 X76.816 Y116.101 E138.11563
G1 X72.498 Y115.331 E138.64197
G1 X68.196 Y114.469 E139.16847
G1 X63.914 Y113.517 E139.69485
G1 X59.653 Y112.476 E140.22121
G1 X55.419 Y111.347 E140.74704
G1 X51.205 Y110.128 E141.27346
G1 X47.018 Y108.821 E141.79981
G1 X42.855 Y107.425 E142.32671
G1 X40.291 Y106.507 E142.65351
G1 X41.178 Y104.062 E142.96562
G1 X43.368 Y104.848 E143.24484
G0 F12000 X43.307 Y105.815
;TYPE:SKIN
G1 F1200 X44.462 Y106.971 E143.44093
G0 F12000 X45.023 Y106.400
G1 F1200 X46.164 Y107.541 E143.63457
G0 F12000 X46.726 Y106.971
G1 F1200 X47.848 Y108.093 E143.82498
G0 F12000 X48.398 Y107.512
G1 F1200 X49.492 Y108.606 E144.01063
G0 F12000 X50.044 Y108.027
G1 F1200 X51.137 Y109.120 E144.19612
G0 F12000 X51.688 Y108.540
G1 F1200 X52.740 Y109.591 E144.37457
G0 F12000 X53.280 Y109.000
G1 F1200 X54.333 Y110.053 E144.55327
G0 F12000 X54.871 Y109.460
G1 F1200 X55.918 Y110.506 E144.73086
G0 F12000 X56.689 Y110.712
G1 F1200 X55.667 Y109.690 E144.90430
G0 F12000 X55.129 Y110.283
G1 F1200 X54.075 Y109.230 E145.08309
G0 F12000 X53.536 Y109.822
G1 F1200 X52.484 Y108.769 E145.26170
G0 F12000 X51.944 Y109.361
G1 F1200 X50.867 Y108.284 E145.44448
G0 F12000 X50.314 Y108.863
G1 F1200 X49.221 Y107.770 E145.62996
G0 F12000 X48.670 Y108.349
G1 F1200 X47.575 Y107.255 E145.81571
G0 F12000 X47.016 Y107.827
G1 F1200 X45.874 Y106.686 E146.00943
G0 F12000 X45.314 Y107.256
G1 F1200 X44.172 Y106.115 E146.20314
G0 F12000 X43.611 Y106.685
G1 F1200 X42.432 Y105.506 E146.40323
G0 F12000 X41.710 Y105.349
G1 F1200 X42.749 Y106.389 E146.57964
G0 F12000 X41.867 Y106.073
G1 F1200 X41.559 Y105.764 E146.63199
G0 F12000 X56.444 Y109.902
G1 F1200 X57.460 Y110.918 E146.80441
G0 F12000 X58.232 Y111.123
G1 F1200 X57.216 Y110.107 E146.97683
G0 F12000 X57.987 Y110.313
G1 F1200 X59.003 Y111.329 E147.14925
G0 F12000 X59.775 Y111.535
G1 F1200 X58.759 Y110.519 E147.32167
G0 F12000 X59.529 Y110.724
G1 F1200 X60.526 Y111.720 E147.49079
G0 F12000 X61.275 Y111.903
G1 F1200 X60.294 Y110.923 E147.65718
G0 F12000 X61.043 Y111.106
G1 F1200 X62.023 Y112.086 E147.82349
G0 F12000 X62.771 Y112.269
G1 F1200 X61.791 Y111.289 E147.98981
G0 F12000 X62.540 Y111.472
G1 F1200 X63.520 Y112.451 E148.15603
G0 F12000 X64.264 Y112.630
G1 F1200 X63.289 Y111.655 E148.32150
G0 F12000 X64.038 Y111.838
G1 F1200 X64.992 Y112.792 E148.48339
G0 F12000 X65.719 Y112.953
G1 F1200 X64.772 Y112.007 E148.64402
G0 F12000 X65.500 Y112.169
G1 F1200 X66.446 Y113.115 E148.80456
G0 F12000 X67.174 Y113.277
G1 F1200 X66.227 Y112.330 E148.96527
G0 F12000 X66.954 Y112.492
G1 F1200 X67.901 Y113.439 E149.12599
G0 F12000 X68.622 Y113.594
G1 F1200 X67.682 Y112.654 E149.28551
G0 F12000 X68.409 Y112.816
G1 F1200 X69.330 Y113.736 E149.44172
G0 F12000 X70.037 Y113.878
G1 F1200 X69.121 Y112.961 E149.59726
G0 F12000 X69.828 Y113.103
G1 F1200 X70.745 Y114.020 E149.75288
G0 F12000 X71.452 Y114.161
G1 F1200 X70.536 Y113.245 E149.90833
G0 F12000 X71.243 Y113.386
G1 F1200 X72.160 Y114.303 E150.06395
G0 F12000 X72.862 Y114.440
G1 F1200 X71.950 Y113.528 E150.21872
G0 F12000 X72.658 Y113.670
G1 F1200 X73.551 Y114.563 E150.37027
G0 F12000 X74.239 Y114.685
G1 F1200 X73.351 Y113.797 E150.52097
G0 F12000 X74.039 Y113.919
G1 F1200 X74.927 Y114.808 E150.67175
G0 F12000 X75.616 Y114.931
G1 F1200 X74.727 Y114.042 E150.82262
G0 F12000 X75.415 Y114.165
G1 F1200 X76.304 Y115.054 E150.97349
G0 F12000 X76.992 Y115.176
G1 F1200 X76.104 Y114.288 E151.12418
G0 F12000 X76.793 Y114.411
G1 F1200 X77.663 Y115.281 E151.27183
G0 F12000 X78.334 Y115.387
G1 F1200 X77.472 Y114.524 E151.41820
G0 F12000 X78.143 Y114.629
G1 F1200 X79.005 Y115.492 E151.56457
G0 F12000 X79.677 Y115.598
G1 F1200 X78.814 Y114.735 E151.71103
G0 F12000 X79.486 Y114.841
G1 F1200 X80.348 Y115.703 E151.85731
G0 F12000 X81.019 Y115.809
G1 F1200 X80.157 Y114.947 E152.00360
G0 F12000 X80.829 Y115.053
G1 F1200 X81.681 Y115.905 E152.14819
G0 F12000 X82.335 Y115.993
G1 F1200 X81.498 Y115.156 E152.29023
G0 F12000 X82.152 Y115.244
G1 F1200 X82.990 Y116.082 E152.43244
G0 F12000 X83.644 Y116.171
G1 F1200 X82.806 Y115.333 E152.57466
G0 F12000 X83.460 Y115.421
G1 F1200 X84.299 Y116.260 E152.71704
G0 F12000 X84.953 Y116.348
G1 F1200 X84.114 Y115.510 E152.85934
G0 F12000 X84.768 Y115.598
G1 F1200 X85.608 Y116.437 E153.00181
G0 F12000 X86.246 Y116.510
G1 F1200 X85.423 Y115.687 E153.14148
G0 F12000 X86.068 Y115.766
G1 F1200 X86.885 Y116.583 E153.28012
G0 F12000 X87.524 Y116.657
G1 F1200 X86.707 Y115.840 E153.41877
G0 F12000 X87.346 Y115.913
G1 F1200 X88.162 Y116.729 E153.55725
G0 F12000 X88.802 Y116.803
G1 F1200 X87.985 Y115.986 E153.69590
G0 F12000 X88.624 Y116.060
G1 F1200 X89.440 Y116.876 E153.83438
G0 F12000 X90.076 Y116.946
G1 F1200 X89.263 Y116.133 E153.97235
G0 F12000 X89.902 Y116.207
G1 F1200 X90.701 Y117.005 E154.10786
G0 F12000 X91.324 Y117.063
G1 F1200 X90.529 Y116.268 E154.24278
G0 F12000 X91.153 Y116.326
G1 F1200 X91.949 Y117.122 E154.37787
G0 F12000 X92.573 Y117.181
G1 F1200 X91.777 Y116.384 E154.51304
G0 F12000 X92.401 Y116.442
