;FLAVOR:UltiGCode
;TIME:623
;MATERIAL:755
;MATERIAL2:0
;NOZZLE_DIAMETER:0.400000
;NOZZLE_DIAMETER2:0.400000
;MTYPE:PLA

;Layer count: 35
;LAYER:0
M107
G0 F12000 X54.116 Y102.549 Z0.300
;TYPE:SKIRT
G1 F1200 X57.505 Y103.475 E0.42159
G1 X59.325 Y103.972 E0.64798
G1 X59.527 Y104.027 E0.67311
G1 X63.693 Y105.073 E1.18854
G1 X67.360 Y105.911 E1.63993
G1 X67.846 Y106.022 E1.69975
G1 X71.531 Y106.783 E2.15128
G1 X72.011 Y106.883 E2.21012
G1 X75.719 Y107.569 E2.66263
G1 X76.227 Y107.663 E2.72462
G1 X80.418 Y108.347 E3.23420
G1 X84.632 Y108.945 E3.74494
G1 X88.852 Y109.454 E4.25501
G1 X89.375 Y109.506 E4.31808
G1 X93.114 Y109.878 E4.76898
G1 X97.345 Y110.208 E5.27824
G1 X97.863 Y110.237 E5.34050
G1 X101.623 Y110.453 E5.79244
G1 X102.119 Y110.470 E5.85200
G1 X105.861 Y110.606 E6.30133
G1 X109.626 Y110.662 E6.75318
G1 X110.152 Y110.671 E6.81631
G1 X114.392 Y110.647 E7.32512
G1 X114.899 Y110.634 E7.38598
G1 X118.676 Y110.533 E7.83938
G1 X122.398 Y110.356 E8.28653
G1 X122.874 Y110.333 E8.34371
G1 X127.192 Y110.037 E8.86309
G1 X127.663 Y109.995 E8.91983
G1 X131.390 Y109.660 E9.36888
G1 X131.910 Y109.603 E9.43165
G1 X131.910 Y109.604 E9.43177
G1 X135.622 Y109.191 E9.87996
G1 X136.146 Y109.123 E9.94337
G1 X139.841 Y108.634 E10.39063
G1 X144.089 Y107.983 E10.90634
G1 X147.771 Y107.339 E11.35489
G1 X148.260 Y107.253 E11.41447
G1 X148.768 Y107.153 E11.47660
G1 X152.441 Y106.431 E11.92580
G1 X152.949 Y106.320 E11.98819
G1 X156.617 Y105.518 E12.43875
G1 X157.111 Y105.400 E12.49970
G1 X160.752 Y104.523 E12.94912
G1 X164.387 Y103.568 E13.40012
G1 X164.852 Y103.446 E13.45781
G1 X169.321 Y102.170 E14.01552
G1 X171.868 Y111.220 E15.14371
G1 X167.540 Y112.454 E15.68377
G1 X163.052 Y113.638 E16.24075
G1 X159.286 Y114.543 E16.70554
G1 X159.286 Y114.544 E16.70566
G1 X158.718 Y114.681 E16.77577
G1 X154.931 Y115.507 E17.24090
G1 X154.364 Y115.632 E17.31057
G1 X149.987 Y116.492 E17.84585
G1 X146.172 Y117.159 E18.31060
G1 X145.597 Y117.260 E18.38065
G1 X141.766 Y117.847 E18.84574
G1 X141.192 Y117.936 E18.91544
G1 X136.771 Y118.520 E19.45057
G1 X132.919 Y118.947 E19.91564
G1 X132.919 Y118.946 E19.91576
G1 X132.342 Y119.011 E19.98544
G1 X128.486 Y119.357 E20.45002
G1 X127.903 Y119.410 E20.52027
G1 X124.033 Y119.675 E20.98576
G1 X124.033 Y119.674 E20.98588
G1 X123.454 Y119.715 E21.05553
G1 X119.588 Y119.898 E21.51997
G1 X119.003 Y119.927 E21.59026
G1 X115.128 Y120.030 E22.05542
G1 X114.544 Y120.046 E22.12553
G1 X110.675 Y120.067 E22.58981
G1 X110.091 Y120.071 E22.65989
G1 X109.507 Y120.063 E22.72998
G1 X105.630 Y120.003 E23.19528
G1 X101.176 Y119.842 E23.73011
G1 X100.595 Y119.809 E23.79994
G1 X96.725 Y119.587 E24.26510
G1 X92.861 Y119.285 E24.73020
G1 X92.280 Y119.240 E24.80012
G1 X88.423 Y118.857 E25.26524
G1 X87.842 Y118.799 E25.33531
G1 X83.996 Y118.335 E25.80017
G1 X83.418 Y118.265 E25.87004
G1 X79.005 Y117.640 E26.40489
G1 X75.179 Y117.016 E26.87007
G1 X74.604 Y116.922 E26.93999
G1 X70.794 Y116.218 E27.40493
G1 X70.221 Y116.112 E27.47485
G1 X66.424 Y115.327 E27.94013
G1 X65.854 Y115.209 E28.00998
G1 X62.076 Y114.346 E28.47502
G1 X61.508 Y114.216 E28.54494
G1 X59.109 Y113.614 E28.84174
G1 X59.109 Y113.613 E28.84186
G1 X58.899 Y113.561 E28.86783
G1 X57.401 Y113.186 E29.05313
G1 X55.409 Y112.648 E29.30074
G1 X53.456 Y112.107 E29.54392
G1 X51.487 Y105.209 E30.40475
G1 X54.116 Y102.549 E30.85354
G10
G1 Z0.400
G0 F12000 X56.527 Y107.562
;TYPE:WALL-INNER
G1 Z0.300
G11
G1 F1200 X58.216 Y108.023 E31.06363
G1 X62.722 Y109.160 E31.62130
G1 X66.961 Y110.128 E32.14308
G1 X71.220 Y111.008 E32.66495
G1 X74.953 Y111.698 E33.12050
G1 X75.496 Y111.799 E33.18678
G1 X79.789 Y112.500 E33.70876
G1 X84.095 Y113.111 E34.23066
G1 X88.413 Y113.631 E34.75256
G1 X92.741 Y114.061 E35.27448
G1 X97.076 Y114.400 E35.79627
G1 X97.626 Y114.430 E35.86236
G1 X101.418 Y114.648 E36.31815
G1 X101.968 Y114.667 E36.38419
G1 X105.763 Y114.806 E36.83990
G1 X109.559 Y114.862 E37.29547
G1 X110.111 Y114.871 E37.36172
G1 X114.460 Y114.847 E37.88361
G1 X118.807 Y114.731 E38.40543
G1 X123.151 Y114.524 E38.92730
G1 X127.490 Y114.227 E39.44920
G1 X131.821 Y113.838 E39.97101
G1 X132.369 Y113.778 E40.03717
G1 X136.144 Y113.359 E40.49295
G1 X136.690 Y113.287 E40.55904
G1 X140.456 Y112.789 E41.01489
G1 X144.754 Y112.130 E41.53668
G1 X148.495 Y111.476 E41.99241
G1 X149.038 Y111.380 E42.05858
G1 X153.305 Y110.541 E42.58042
G1 X157.553 Y109.613 E43.10220
G1 X158.090 Y109.484 E43.16848
G1 X161.782 Y108.595 E43.62418
G1 X165.988 Y107.489 E44.14606
G1 X166.420 Y107.366 E44.19996
G1 X166.691 Y108.328 E44.31989
G1 X162.015 Y109.568 E44.90040
G1 X158.301 Y110.461 E45.35879
G1 X157.775 Y110.588 E45.42372
G1 X154.035 Y111.404 E45.88308
G1 X153.497 Y111.522 E45.94917
G1 X149.225 Y112.362 E46.47163
G1 X144.906 Y113.117 E46.99777
G1 X141.129 Y113.696 E47.45630
G1 X140.589 Y113.779 E47.52186
G1 X136.275 Y114.349 E48.04404
G1 X131.917 Y114.832 E48.57020
G1 X128.105 Y115.174 E49.02948
G1 X127.576 Y115.222 E49.09322
G1 X123.199 Y115.522 E49.61969
G1 X119.383 Y115.703 E50.07813
G1 X118.851 Y115.729 E50.14205
G1 X114.465 Y115.846 E50.66855
G1 X110.646 Y115.867 E51.12684
G1 X110.111 Y115.871 E51.19104
G1 X105.727 Y115.804 E51.71718
G1 X101.370 Y115.646 E52.24037
G1 X97.019 Y115.397 E52.76334
G1 X92.645 Y115.055 E53.28982
G1 X88.841 Y114.678 E53.74854
G1 X88.315 Y114.625 E53.81198
G1 X83.955 Y114.099 E54.33897
G1 X79.647 Y113.489 E54.86109
G1 X75.858 Y112.871 E55.32178
G1 X75.316 Y112.782 E55.38769
G1 X71.024 Y111.989 E55.91145
G1 X67.278 Y111.215 E56.37046
G1 X66.757 Y111.106 E56.43433
G1 X63.015 Y110.252 E56.89492
G1 X62.480 Y110.129 E56.96080
G1 X58.450 Y109.119 E57.45935
G1 X56.848 Y108.686 E57.65849
G1 X56.527 Y107.562 E57.79876
G0 F12000 X58.572 Y107.705
G1 F1200 X62.815 Y108.771 E58.32375
G1 X67.046 Y109.737 E58.84453
G1 X71.297 Y110.616 E59.36544
G1 X75.565 Y111.405 E59.88628
G1 X79.850 Y112.104 E60.40728
G1 X84.147 Y112.714 E60.92809
G1 X88.457 Y113.233 E61.44902
G1 X92.776 Y113.663 E61.96986
G1 X97.103 Y114.001 E62.49069
G1 X97.649 Y114.031 E62.55631
G1 X101.436 Y114.248 E63.01149
G1 X105.774 Y114.406 E63.53240
G1 X109.566 Y114.462 E63.98749
G1 X110.114 Y114.471 E64.05325
G1 X114.453 Y114.447 E64.57394
G1 X118.792 Y114.332 E65.09481
G1 X123.128 Y114.125 E65.61572
G1 X127.458 Y113.828 E66.13654
G1 X131.781 Y113.440 E66.65738
G1 X136.096 Y112.962 E67.17835
G1 X136.638 Y112.891 E67.24395
G1 X140.399 Y112.393 E67.69921
G1 X144.689 Y111.735 E68.22003
G1 X148.964 Y110.987 E68.74082
G1 X153.224 Y110.150 E69.26179
G1 X157.464 Y109.223 E69.78261
G1 X161.684 Y108.207 E70.30348
G1 X165.883 Y107.104 E70.82446
G1 X166.696 Y106.872 E70.92591
G1 X167.184 Y108.604 E71.14184
G1 X166.528 Y108.791 E71.22370
G1 X162.117 Y109.955 E71.77114
G1 X157.873 Y110.976 E72.29495
G1 X153.596 Y111.910 E72.82028
G1 X149.287 Y112.757 E73.34726
G1 X144.982 Y113.510 E73.87170
G1 X140.659 Y114.173 E74.39653
G1 X136.306 Y114.748 E74.92343
G1 X131.967 Y115.230 E75.44731
G1 X128.141 Y115.572 E75.90826
G1 X127.595 Y115.622 E75.97405
G1 X123.226 Y115.921 E76.49956
G1 X119.402 Y116.103 E76.95896
G1 X118.866 Y116.129 E77.02335
G1 X114.476 Y116.246 E77.55034
G1 X110.648 Y116.267 E78.00971
G1 X110.108 Y116.271 E78.07451
G1 X105.734 Y116.204 E78.59945
G1 X101.346 Y116.045 E79.12636
G1 X96.975 Y115.795 E79.65173
G1 X92.619 Y115.455 E80.17604
G1 X88.266 Y115.022 E80.70098
G1 X83.907 Y114.496 E81.22786
G1 X79.577 Y113.883 E81.75264
G1 X75.261 Y113.179 E82.27740
G1 X70.957 Y112.383 E82.80264
G1 X66.657 Y111.494 E83.32955
G1 X62.390 Y110.519 E83.85479
G1 X58.353 Y109.507 E84.35422
G1 X56.524 Y109.013 E84.58156
G1 X55.946 Y106.988 E84.83427
G1 X58.572 Y107.705 E85.16092
G0 F12000 X58.673 Y107.318
;TYPE:WALL-OUTER
G1 F1200 X62.908 Y108.382 E85.68492
G1 X67.131 Y109.346 E86.20471
G1 X71.374 Y110.223 E86.72464
G1 X75.634 Y111.011 E87.24451
G1 X79.910 Y111.709 E87.76442
G1 X84.199 Y112.317 E88.28425
G1 X88.500 Y112.836 E88.80411
G1 X92.811 Y113.264 E89.32397
G1 X97.130 Y113.602 E89.84384
G1 X101.455 Y113.849 E90.36368
G1 X105.784 Y114.006 E90.88350
G1 X110.116 Y114.071 E91.40340
G1 X114.447 Y114.047 E91.92313
G1 X118.777 Y113.932 E92.44291
G1 X123.105 Y113.726 E92.96286
G1 X127.427 Y113.429 E93.48273
G1 X131.742 Y113.042 E94.00260
G1 X136.048 Y112.565 E94.52248
G1 X140.342 Y111.997 E95.04225
G1 X144.624 Y111.340 E95.56211
G1 X148.891 Y110.594 E96.08191
G1 X153.143 Y109.758 E96.60192
G1 X157.375 Y108.833 E97.12175
G1 X161.587 Y107.819 E97.64163
G1 X165.777 Y106.718 E98.16150
G1 X166.972 Y106.376 E98.31066
G1 X167.677 Y108.880 E98.62282
G1 X166.642 Y109.175 E98.75197
G1 X162.223 Y110.341 E99.30039
G1 X157.958 Y111.367 E99.82680
G1 X153.673 Y112.303 E100.35312
G1 X149.369 Y113.149 E100.87948
G1 X145.048 Y113.904 E101.40586
G1 X140.708 Y114.570 E101.93276
G1 X136.363 Y115.144 E102.45869
G1 X131.999 Y115.628 E102.98558
G1 X127.634 Y116.021 E103.51149
G1 X123.253 Y116.320 E104.03844
G1 X118.873 Y116.529 E104.56464
G1 X114.487 Y116.646 E105.09114
G1 X110.105 Y116.671 E105.61699
G1 X105.719 Y116.604 E106.14337
G1 X101.335 Y116.445 E106.66980
G1 X96.952 Y116.194 E107.19662
G1 X92.583 Y115.853 E107.72250
G1 X88.218 Y115.419 E108.24888
G1 X83.859 Y114.893 E108.77575
G1 X79.515 Y114.278 E109.30223
G1 X75.190 Y113.573 E109.82808
G1 X70.872 Y112.774 E110.35504
G1 X66.583 Y111.887 E110.88061
G1 X62.301 Y110.909 E111.40768
G1 X58.256 Y109.895 E111.90810
G1 X56.306 Y109.368 E112.15049
G1 X56.201 Y109.339 E112.16357
G1 X55.366 Y106.415 E112.52847
G1 X58.673 Y107.318 E112.93984
G0 F12000 X58.822 Y108.319
;TYPE:SKIN
G1 F1200 X59.819 Y109.317 E113.10912
G0 F12000 X60.574 Y109.506
G1 F1200 X59.578 Y108.510 E113.27815
G0 F12000 X59.064 Y109.127
G1 F1200 X58.062 Y108.125 E113.44819
G0 F12000 X57.528 Y108.723
G1 F1200 X56.794 Y107.988 E113.57284
G0 F12000 X57.284 Y107.912
G1 F1200 X58.305 Y108.934 E113.74620
G0 F12000 X60.335 Y108.701
G1 F1200 X61.329 Y109.695 E113.91488
G0 F12000 X62.083 Y109.884
G1 F1200 X61.091 Y108.892 E114.08323
G0 F12000 X61.848 Y109.083
G1 F1200 X62.829 Y110.063 E114.24963
G0 F12000 X63.562 Y110.231
G1 F1200 X62.605 Y109.274 E114.41204
G0 F12000 X63.341 Y109.444
G1 F1200 X64.295 Y110.399 E114.57402
G0 F12000 X65.029 Y110.566
G1 F1200 X64.074 Y109.612 E114.73600
G0 F12000 X64.807 Y109.779
G1 F1200 X65.762 Y110.734 E114.89807
G0 F12000 X66.495 Y110.901
G1 F1200 X65.541 Y109.947 E115.05997
G0 F12000 X66.273 Y110.114
G1 F1200 X67.216 Y111.057 E115.22001
G0 F12000 X67.930 Y111.205
G1 F1200 X67.004 Y110.278 E115.37724
G0 F12000 X67.716 Y110.426
G1 F1200 X68.643 Y111.353 E115.53455
G0 F12000 X69.357 Y111.500
G1 F1200 X68.430 Y110.573 E115.69187
G0 F12000 X69.143 Y110.720
G1 F1200 X70.070 Y111.647 E115.84919
G0 F12000 X70.783 Y111.795
G1 F1200 X69.855 Y110.867 E116.00668
G0 F12000 X70.569 Y111.015
G1 F1200 X71.484 Y111.931 E116.16204
G0 F12000 X72.178 Y112.059
G1 F1200 X71.279 Y111.160 E116.31461
G0 F12000 X71.973 Y111.288
G1 F1200 X72.872 Y112.187 E116.46717
G0 F12000 X73.565 Y112.315
G1 F1200 X72.667 Y111.417 E116.61957
G0 F12000 X73.361 Y111.545
G1 F1200 X74.259 Y112.443 E116.77196
G0 F12000 X74.953 Y112.571
G1 F1200 X74.056 Y111.674 E116.92419
G0 F12000 X74.749 Y111.802
G1 F1200 X75.639 Y112.692 E117.07523
G0 F12000 X76.315 Y112.802
G1 F1200 X75.444 Y111.930 E117.22313
G0 F12000 X76.120 Y112.041
G1 F1200 X76.991 Y112.912 E117.37094
G0 F12000 X77.667 Y113.023
G1 F1200 X76.797 Y112.152 E117.51867
G0 F12000 X77.473 Y112.263
G1 F1200 X78.343 Y113.133 E117.66631
G0 F12000 X79.019 Y113.243
G1 F1200 X78.150 Y112.374 E117.81379
G0 F12000 X78.826 Y112.484
G1 F1200 X79.694 Y113.352 E117.96109
G0 F12000 X80.353 Y113.446
G1 F1200 X79.502 Y112.595 E118.10551
G0 F12000 X80.168 Y112.695
G1 F1200 X81.012 Y113.539 E118.24874
G0 F12000 X81.671 Y113.632
G1 F1200 X80.827 Y112.789 E118.39189
G0 F12000 X81.486 Y112.882
G1 F1200 X82.329 Y113.725 E118.53495
G0 F12000 X82.988 Y113.818
G1 F1200 X82.146 Y112.975 E118.67793
G0 F12000 X82.805 Y113.069
G1 F1200 X83.647 Y113.912 E118.82090
G0 F12000 X84.299 Y113.997
G1 F1200 X83.464 Y113.163 E118.96252
G0 F12000 X84.120 Y113.253
G1 F1200 X84.941 Y114.074 E119.10185
G0 F12000 X85.585 Y114.152
G1 F1200 X84.764 Y113.331 E119.24118
G0 F12000 X85.407 Y113.409
G1 F1200 X86.228 Y114.230 E119.38051
G0 F12000 X86.872 Y114.308
G1 F1200 X86.050 Y113.486 E119.52001
G0 F12000 X86.694 Y113.564
G1 F1200 X87.515 Y114.385 E119.65934
G0 F12000 X88.159 Y114.463
G1 F1200 X87.337 Y113.641 E119.79883
G0 F12000 X87.980 Y113.719
G1 F1200 X88.791 Y114.530 E119.93646
G0 F12000 X89.420 Y114.593
G1 F1200 X88.618 Y113.791 E120.07257
G0 F12000 X89.246 Y113.854
G1 F1200 X90.047 Y114.655 E120.20850
G0 F12000 X90.675 Y114.717
G1 F1200 X89.874 Y113.916 E120.34444
G0 F12000 X90.502 Y113.978
G1 F1200 X91.304 Y114.780 E120.48054
G0 F12000 X91.932 Y114.842
G1 F1200 X91.130 Y114.040 E120.61664
G0 F12000 X91.758 Y114.102
G1 F1200 X92.560 Y114.905 E120.75283
G0 F12000 X93.176 Y114.955
G1 F1200 X92.386 Y114.165 E120.88690
G0 F12000 X93.007 Y114.221
G1 F1200 X93.790 Y115.003 E121.01970
G0 F12000 X94.404 Y115.051
G1 F1200 X93.621 Y114.269 E121.15249
G0 F12000 X94.236 Y114.317
G1 F1200 X95.018 Y115.100 E121.28528
G0 F12000 X95.631 Y115.148
G1 F1200 X94.849 Y114.366 E121.41799
G0 F12000 X95.463 Y114.414
G1 F1200 X96.245 Y115.196 E121.55070
G0 F12000 X96.859 Y115.244
G1 F1200 X96.077 Y114.462 E121.68341
G0 F12000 X96.691 Y114.510
G1 F1200 X97.461 Y115.281 E121.81417
G0 F12000 X98.061 Y115.314
G1 F1200 X97.299 Y114.552 E121.94349
G0 F12000 X97.899 Y114.587
G1 F1200 X98.661 Y115.349 E122.07280
G0 F12000 X99.262 Y115.384
G1 F1200 X98.499 Y114.621 E122.20229
G0 F12000 X99.099 Y114.655
G1 F1200 X99.862 Y115.418 E122.33177
G0 F12000 X100.462 Y115.452
G1 F1200 X99.699 Y114.689 E122.46126
G0 F12000 X100.299 Y114.724
G1 F1200 X101.062 Y115.487 E122.59075
G0 F12000 X101.656 Y115.515
G1 F1200 X100.899 Y114.758 E122.71921
G0 F12000 X101.497 Y114.791
G1 F1200 X102.243 Y115.537 E122.84581
G0 F12000 X102.830 Y115.558
G1 F1200 X102.084 Y114.812 E122.97241
G0 F12000 X102.671 Y114.833
G1 F1200 X103.416 Y115.578 E123.09884
G0 F12000 X104.003 Y115.599
G1 F1200 X103.258 Y114.854 E123.22527
G0 F12000 X103.844 Y114.875
G1 F1200 X104.590 Y115.621 E123.35188
G0 F12000 X105.177 Y115.642
G1 F1200 X104.431 Y114.897 E123.47839
G0 F12000 X105.018 Y114.918
G1 F1200 X105.763 Y115.662 E123.60474
G0 F12000 X106.338 Y115.672
G1 F1200 X105.606 Y114.940 E123.72896
G0 F12000 X106.183 Y114.951
G1 F1200 X106.912 Y115.680 E123.85268
G0 F12000 X107.487 Y115.689
G1 F1200 X106.758 Y114.960 E123.97639
G0 F12000 X107.332 Y114.969
G1 F1200 X108.061 Y115.698 E124.10011
G0 F12000 X108.635 Y115.706
G1 F1200 X107.906 Y114.977 E124.22382
G0 F12000 X108.480 Y114.986
G1 F1200 X109.210 Y115.715 E124.34762
G0 F12000 X109.784 Y115.724
G1 F1200 X109.054 Y114.994 E124.47151
G0 F12000 X109.629 Y115.003
G1 F1200 X110.354 Y115.728 E124.59454
G0 F12000 X110.916 Y115.725
G1 F1200 X110.201 Y115.010 E124.71588
G0 F12000 X110.764 Y115.006
G1 F1200 X111.478 Y115.721 E124.83714
G0 F12000 X112.041 Y115.718
G1 F1200 X111.326 Y115.003 E124.95848
G0 F12000 X111.889 Y115.001
G1 F1200 X112.603 Y115.715 E125.07965
G0 F12000 X113.166 Y115.712
G1 F1200 X112.451 Y114.997 E125.20099
G0 F12000 X113.014 Y114.994
G1 F1200 X113.728 Y115.708 E125.32216
G0 F12000 X114.291 Y115.706
G1 F1200 X113.576 Y114.991 E125.44350
G0 F12000 X114.139 Y114.988
G1 F1200 X114.846 Y115.694 E125.56339
G0 F12000 X115.396 Y115.679
G1 F1200 X114.697 Y114.980 E125.68202
G0 F12000 X115.248 Y114.965
G1 F1200 X115.948 Y115.665 E125.80081
G0 F12000 X116.499 Y115.650
G1 F1200 X115.799 Y114.950 E125.91961
G0 F12000 X116.350 Y114.936
G1 F1200 X117.050 Y115.636 E126.03840
G0 F12000 X117.601 Y115.621
G1 F1200 X116.901 Y114.921 E126.15719
G0 F12000 X117.452 Y114.906
G1 F1200 X118.152 Y115.607 E126.27607
G0 F12000 X118.704 Y115.592
G1 F1200 X118.004 Y114.892 E126.39487
G0 F12000 X118.554 Y114.877
G1 F1200 X119.246 Y115.569 E126.51230
G0 F12000 X119.786 Y115.544
G1 F1200 X119.100 Y114.857 E126.62881
G0 F12000 X119.640 Y114.832
G1 F1200 X120.326 Y115.517 E126.74514
G0 F12000 X120.866 Y115.492
G1 F1200 X120.180 Y114.806 E126.86156
G0 F12000 X120.720 Y114.780
