;FLAVOR:UltiGCode
;TIME:430
;MATERIAL:234
;MATERIAL2:0
;NOZZLE_DIAMETER:0.400000
;NOZZLE_DIAMETER2:0.400000
;MTYPE:PLA

;Layer count: 65
;LAYER:0
M107
G0 F12000 X92.386 Y107.033 Z0.300
;TYPE:SKIRT
G1 F1200 X93.632 Y106.056 E0.19000
G1 X98.469 Y105.660 E0.77239
G1 X99.967 Y105.535 E0.95277
G1 X106.282 Y109.176 E1.82750
G1 X111.258 Y109.181 E2.42463
G1 X113.366 Y109.184 E2.67759
G1 X113.355 Y109.116 E2.68585
G1 X113.496 Y108.025 E2.81786
G1 X113.894 Y107.084 E2.94047
G1 X114.476 Y106.312 E3.05648
G1 X115.255 Y105.684 E3.17655
G1 X116.488 Y105.134 E3.33857
G1 X122.326 Y105.271 E4.03932
G1 X123.869 Y106.389 E4.26798
G1 X130.338 Y111.083 E5.22709
G1 X130.883 Y111.603 E5.31748
G1 X131.418 Y112.459 E5.43861
G1 X131.699 Y113.424 E5.55922
G1 X131.742 Y114.661 E5.70775
G1 X131.173 Y116.147 E5.89870
G1 X130.326 Y117.013 E6.04406
G1 X129.523 Y117.531 E6.15873
G1 X128.356 Y117.890 E6.30525
G1 X123.574 Y117.520 E6.88080
G1 X123.290 Y117.498 E6.91498
G1 X106.698 Y117.475 E8.90602
G1 X100.801 Y117.480 E9.61366
G1 X93.002 Y112.983 E10.69398
G1 X92.398 Y112.521 E10.78523
G1 X91.767 Y111.712 E10.90835
G1 X91.369 Y110.735 E11.03495
G1 X91.249 Y109.692 E11.16093
G1 X91.405 Y108.694 E11.28215
G1 X91.794 Y107.790 E11.40024
G1 X92.386 Y107.033 E11.51556
G0 F12000 X92.671 Y107.318
G1 F1200 X93.784 Y106.445 E11.68531
G1 X98.496 Y106.059 E12.25264
G1 X99.876 Y105.944 E12.41881
G1 X106.174 Y109.576 E13.29124
G1 X111.258 Y109.581 E13.90132
G1 X113.833 Y109.585 E14.21032
G1 X113.759 Y109.111 E14.26789
G1 X113.885 Y108.130 E14.38658
G1 X114.243 Y107.285 E14.49670
G1 X114.766 Y106.592 E14.60089
G1 X115.465 Y106.028 E14.70867
G1 X116.569 Y105.536 E14.85371
G1 X122.192 Y105.668 E15.52865
G1 X123.634 Y106.713 E15.74235
G1 X130.081 Y111.391 E16.69820
G1 X130.570 Y111.857 E16.77926
G1 X131.050 Y112.624 E16.88784
G1 X131.301 Y113.488 E16.99580
G1 X131.340 Y114.594 E17.12861
G1 X130.829 Y115.926 E17.29980
G1 X130.072 Y116.701 E17.42981
G1 X129.353 Y117.165 E17.53249
G1 X128.311 Y117.485 E17.66330
G1 X123.605 Y117.121 E18.22970
G1 X123.309 Y117.098 E18.26533
G1 X106.699 Y117.075 E20.25853
G1 X100.908 Y117.080 E20.95345
G1 X93.224 Y112.649 E22.01786
G1 X92.682 Y112.234 E22.09977
G1 X92.116 Y111.510 E22.21005
G1 X91.761 Y110.635 E22.32337
G1 X91.652 Y109.700 E22.43633
G1 X91.792 Y108.806 E22.54491
G1 X92.141 Y107.996 E22.65075
G1 X92.671 Y107.318 E22.75402
G10
G1 Z0.400
G0 F12000 X100.370 Y111.761
;TYPE:FILL
G1 Z0.300
G11
G1 F1200 X100.703 Y111.428 E22.81053
G0 F12000 X105.159 Y113.368
G0 X122.324 Y113.357
G0 X122.577 Y112.582
G0 X122.760 Y111.999
G1 F1200 X123.083 Y111.676 E22.86535
G0 F12000 X123.093 Y112.413
;TYPE:WALL-INNER
G1 F1200 X119.500 Y109.806 E23.39805
G1 X120.786 Y109.837 E23.55241
G1 X125.189 Y113.031 E24.20515
G1 X123.933 Y112.934 E24.35632
G1 X123.475 Y112.898 E24.41145
G1 X122.936 Y112.897 E24.47613
G1 X123.093 Y112.413 E24.53719
G0 F12000 X122.324 Y113.357
G0 X105.159 Y113.368
G0 X103.493 Y112.878
G1 F1200 X102.030 Y112.879 E24.71275
G1 X97.635 Y110.344 E25.32159
G1 X98.846 Y110.245 E25.46739
G1 X98.918 Y110.239 E25.47606
G1 X103.493 Y112.878 E26.10985
G0 F12000 X101.924 Y113.279
G1 F1200 X96.324 Y110.050 E26.88556
G1 X98.813 Y109.846 E27.18524
G1 X99.008 Y109.830 E27.20872
G1 X104.985 Y113.276 E28.03663
G1 X101.924 Y113.279 E28.40395
G0 F12000 X122.324 Y113.357
G0 X122.577 Y112.582
G0 X118.225 Y109.376
G1 F1200 X120.920 Y109.440 E28.72744
G1 X126.571 Y113.539 E29.56517
G1 X123.459 Y113.298 E29.93973
G1 X122.385 Y113.297 E30.06861
G1 X122.622 Y112.566 E30.16082
G1 X118.225 Y109.376 E30.81270
G0 F12000 X117.209 Y109.120
;TYPE:WALL-OUTER
G1 F1200 X117.198 Y109.095 E30.81598
G1 X117.193 Y109.062 E30.81998
G1 X117.197 Y109.027 E30.82421
G1 X117.210 Y108.997 E30.82813
G1 X117.225 Y108.977 E30.83113
G1 X117.256 Y108.953 E30.83584
G1 X121.054 Y109.043 E31.29172
G1 X127.899 Y114.008 E32.30645
G1 X127.916 Y114.026 E32.30942
G1 X127.909 Y114.045 E32.31185
G1 X123.443 Y113.698 E32.84939
G1 X101.816 Y113.679 E35.44463
G1 X95.114 Y109.814 E36.37302
G1 X95.085 Y109.785 E36.37794
G1 X95.083 Y109.768 E36.38000
G1 X95.088 Y109.749 E36.38236
G1 X99.099 Y109.420 E36.86529
G1 X105.263 Y112.975 E37.71917
G1 X122.062 Y112.996 E39.73506
G1 X122.152 Y112.719 E39.77001
G1 X117.231 Y109.150 E40.49948
G1 X117.209 Y109.120 E40.50395
G10
G1 Z0.400
G0 F12000 X117.432 Y113.190
;TYPE:SKIN
G1 Z0.300
G11
G1 F1200 X117.867 Y113.341 E40.55520
G1 X118.433 Y113.342 E40.60631
G1 X118.999 Y113.342 E40.65742
G1 X119.565 Y113.343 E40.70853
G1 X120.132 Y113.343 E40.75973
G1 X120.698 Y113.344 E40.81067
G1 X121.264 Y113.345 E40.86161
G1 X121.830 Y113.345 E40.91255
G1 X122.164 Y113.395 E40.95307
G0 F12000 X123.151 Y112.685
G1 F1200 X123.223 Y112.758 E40.96538
G0 F12000 X123.814 Y112.783
G1 F1200 X121.716 Y110.685 E41.32142
G0 F12000 X121.681 Y111.216
G1 F1200 X120.434 Y109.969 E41.53304
G0 F12000 X123.773 Y112.176
G1 F1200 X124.427 Y112.830 E41.64403
G0 F12000 X122.324 Y113.357
G0 X117.169 Y113.492
G1 F1200 X116.734 Y113.340 E41.69546
G1 X116.167 Y113.339 E41.74666
G1 X115.601 Y113.338 E41.79811
G1 X115.035 Y113.338 E41.84938
G1 X114.468 Y113.337 E41.90076
G1 X113.903 Y113.337 E41.95211
G1 X113.336 Y113.336 E42.00348
G1 X112.770 Y113.335 E42.05493
G1 X112.203 Y113.335 E42.10630
G1 X111.637 Y113.335 E42.15775
G1 X111.071 Y113.334 E42.20937
G1 X110.505 Y113.333 E42.26082
G1 X109.938 Y113.332 E42.31253
G1 X109.372 Y113.332 E42.36415
G1 X108.805 Y113.331 E42.41586
G1 X108.239 Y113.330 E42.46765
G1 X107.673 Y113.330 E42.51927
G1 X107.107 Y113.329 E42.57106
G1 X106.541 Y113.329 E42.62285
G1 X105.974 Y113.328 E42.67490
G1 X105.408 Y113.328 E42.72669
G1 X105.150 Y113.352 E42.75778
G0 F12000 X102.803 Y112.702
G1 F1200 X102.657 Y112.557 E42.78247
G0 F12000 X102.273 Y112.738
G1 F1200 X101.319 Y111.785 E42.94429
G0 F12000 X101.217 Y112.248
G1 F1200 X99.982 Y111.013 E43.15387
G0 F12000 X99.880 Y111.477
G1 F1200 X98.792 Y110.389 E43.33851
G0 F12000 X98.544 Y110.706
G1 F1200 X98.270 Y110.432 E43.38501
;LAYER:1
M106 S5
G0 F12000 X100.368 Y111.763 Z0.400
;TYPE:FILL
G1 F1620 X100.705 Y111.426 E43.40403
G0 F12000 X105.159 Y113.367
G0 X122.324 Y113.356
G0 X122.576 Y112.582
G0 X122.756 Y112.002
G1 F1620 X123.086 Y111.673 E43.42262
G0 F12000 X123.089 Y112.415
;TYPE:WALL-INNER
G1 F1620 X119.489 Y109.803 E43.60009
G1 X120.788 Y109.834 E43.65193
G1 X125.200 Y113.035 E43.86942
G1 X124.099 Y112.950 E43.91348
G1 X123.475 Y112.901 E43.93846
G1 X122.931 Y112.900 E43.96016
G1 X123.089 Y112.415 E43.98052
G0 F12000 X122.324 Y113.356
G0 X105.159 Y113.367
G0 X103.504 Y112.881
G1 F1620 X102.030 Y112.882 E44.03933
G1 X97.626 Y110.342 E44.24218
G1 X98.691 Y110.255 E44.28481
G1 X98.918 Y110.236 E44.29390
G1 X103.504 Y112.881 E44.50514
G0 F12000 X101.923 Y113.281
G1 F1620 X96.317 Y110.048 E44.76335
G1 X98.658 Y109.857 E44.85706
G1 X99.008 Y109.828 E44.87108
G1 X104.992 Y113.278 E45.14668
G1 X101.923 Y113.281 E45.26913
G0 F12000 X122.324 Y113.356
G0 X122.576 Y112.582
G0 X118.217 Y109.373
G1 F1620 X120.921 Y109.438 E45.37705
G1 X126.578 Y113.542 E45.65591
G1 X123.458 Y113.300 E45.78077
G1 X122.382 Y113.299 E45.82370
G1 X122.620 Y112.567 E45.85441
G1 X118.217 Y109.373 E46.07145
G0 F12000 X117.207 Y109.119
;TYPE:WALL-OUTER
G1 F1620 X117.197 Y109.097 E46.07241
G1 X117.192 Y109.063 E46.07379
G1 X117.197 Y109.026 E46.07528
G1 X117.229 Y108.972 E46.07778
G1 X117.255 Y108.952 E46.07909
G1 X121.054 Y109.042 E46.23071
G1 X127.900 Y114.008 E46.56816
G1 X127.918 Y114.026 E46.56918
G1 X127.919 Y114.036 E46.56958
G1 X127.914 Y114.046 E46.57003
G1 X123.443 Y113.699 E46.74896
G1 X101.815 Y113.680 E47.61191
G1 X95.119 Y109.819 E47.92032
G1 X95.092 Y109.797 E47.92171
G1 X95.082 Y109.779 E47.92253
G1 X95.088 Y109.748 E47.92379
G1 X99.100 Y109.419 E48.08441
G1 X105.264 Y112.974 E48.36832
G1 X122.061 Y112.995 E49.03852
G1 X122.151 Y112.720 E49.05007
G1 X117.230 Y109.150 E49.29264
G1 X117.207 Y109.119 E49.29418
G10
G1 Z0.500
G0 F12000 X117.318 Y113.187
;TYPE:SKIN
G1 Z0.400
G11
G1 F1620 X116.882 Y113.340 E49.31146
G1 X116.319 Y113.339 E49.32875
G1 X115.755 Y113.338 E49.34606
G1 X115.191 Y113.338 E49.36343
G1 X114.628 Y113.337 E49.38077
G1 X114.064 Y113.337 E49.39814
G1 X113.500 Y113.336 E49.41557
G1 X112.937 Y113.335 E49.43297
G1 X112.373 Y113.335 E49.45040
G1 X111.810 Y113.334 E49.46774
G1 X111.245 Y113.333 E49.48525
G1 X110.682 Y113.333 E49.50276
G1 X110.118 Y113.332 E49.52025
G1 X109.555 Y113.331 E49.53770
G1 X108.991 Y113.331 E49.55524
G1 X108.427 Y113.331 E49.57278
G1 X107.864 Y113.330 E49.59029
G1 X107.300 Y113.329 E49.60777
G1 X106.736 Y113.329 E49.62531
G1 X106.173 Y113.328 E49.64282
G1 X105.609 Y113.327 E49.66036
G1 X105.171 Y113.484 E49.67893
G0 F12000 X105.171 Y113.383
G0 X102.695 Y112.574
G1 F1620 X102.432 Y112.554 E49.68837
G1 X101.821 Y112.601 E49.70737
G1 X101.800 Y112.058 E49.72633
G1 X101.106 Y112.188 E49.74525
G1 X101.085 Y111.645 E49.76422
G1 X100.390 Y111.775 E49.78317
G1 X100.369 Y111.232 E49.80213
G1 X99.675 Y111.362 E49.82106
G1 X99.653 Y110.820 E49.83999
G1 X98.959 Y110.949 E49.85891
G1 X98.891 Y110.453 E49.87788
G1 X98.422 Y110.640 E49.89803
G0 F12000 X105.159 Y113.367
G0 X117.574 Y113.394
G0 X117.574 Y113.495
G1 F1620 X118.009 Y113.341 E49.91533
G1 X118.573 Y113.342 E49.93264
G1 X119.136 Y113.343 E49.94987
G1 X119.700 Y113.343 E49.96719
G1 X120.264 Y113.343 E49.98450
G1 X120.827 Y113.344 E50.00173
G1 X121.391 Y113.345 E50.01899
G1 X121.955 Y113.345 E50.03625
G1 X122.147 Y113.436 E50.04472
G0 F12000 X123.387 Y112.760
G1 F1620 X123.727 Y112.138 E50.07308
G1 X123.070 Y112.230 E50.09165
G1 X123.073 Y111.663 E50.11020
G1 X122.416 Y111.755 E50.12870
G1 X122.418 Y111.189 E50.14721
G1 X121.762 Y111.281 E50.16576
G1 X121.764 Y110.715 E50.18427
G1 X121.108 Y110.806 E50.20281
G1 X121.110 Y110.240 E50.22132
G1 X120.454 Y110.331 E50.23987
G1 X120.537 Y109.967 E50.25476
G0 F12000 X123.916 Y112.795
G1 F1620 X124.381 Y112.612 E50.27175
G1 X124.440 Y112.835 E50.28096
;LAYER:2
M106 S10
G0 F12000 X123.086 Y111.673 Z0.500
;TYPE:FILL
G1 F2100 X122.756 Y112.002 E50.29955
G0 F12000 X122.324 Y113.356
G0 X105.159 Y113.367
G0 X100.705 Y111.426
G1 F2100 X100.368 Y111.763 E50.31856
G0 F12000 X102.030 Y112.882
;TYPE:WALL-INNER
G1 F2100 X97.624 Y110.341 E50.52150
G1 X98.917 Y110.235 E50.57327
G1 X103.504 Y112.881 E50.78456
G1 X102.030 Y112.882 E50.84337
G0 F12000 X105.159 Y113.367
G0 X122.324 Y113.356
G0 X122.576 Y112.583
G0 X119.490 Y109.803
G1 F2100 X120.788 Y109.834 E50.89517
G1 X125.201 Y113.035 E51.11270
G1 X124.266 Y112.963 E51.15011
G1 X123.475 Y112.901 E51.18177
G1 X122.931 Y112.900 E51.20348
G1 X123.089 Y112.415 E51.22383
G1 X119.490 Y109.803 E51.40126
G0 F12000 X120.921 Y109.438
G1 F2100 X126.578 Y113.542 E51.68012
G1 X123.458 Y113.300 E51.80498
G1 X122.382 Y113.299 E51.84791
G1 X122.620 Y112.567 E51.87863
G1 X118.218 Y109.374 E52.09561
G1 X120.921 Y109.438 E52.20349
G0 F12000 X122.576 Y112.583
G0 X122.324 Y113.356
G0 X104.992 Y113.278
G1 F2100 X101.923 Y113.281 E52.32594
G1 X96.317 Y110.048 E52.58415
G1 X99.008 Y109.827 E52.69188
G1 X104.992 Y113.278 E52.96750
G0 F12000 X105.264 Y112.974
;TYPE:WALL-OUTER
G1 F2100 X122.061 Y112.995 E53.63770
G1 X122.151 Y112.720 E53.64925
G1 X117.231 Y109.151 E53.89177
G1 X117.197 Y109.095 E53.89438
G1 X117.193 Y109.066 E53.89555
G1 X117.199 Y109.023 E53.89728
G1 X117.213 Y108.991 E53.89868
G1 X117.225 Y108.975 E53.89947
G1 X117.254 Y108.952 E53.90095
G1 X121.054 Y109.042 E54.05261
G1 X127.900 Y114.008 E54.39007
G1 X127.918 Y114.026 E54.39108
G1 X127.919 Y114.036 E54.39148
G1 X127.913 Y114.046 E54.39195
G1 X123.443 Y113.699 E54.57084
G1 X101.815 Y113.680 E55.43380
G1 X95.116 Y109.817 E55.74234
G1 X95.086 Y109.791 E55.74393
G1 X95.082 Y109.774 E55.74462
G1 X95.087 Y109.748 E55.74568
G1 X99.100 Y109.419 E55.90634
G1 X105.264 Y112.974 E56.19025
G0 F12000 X105.554 Y113.172
;TYPE:SKIN
G1 F2100 X105.992 Y113.328 E56.20778
G1 X106.557 Y113.328 E56.22529
G1 X107.122 Y113.329 E56.24281
G1 X107.686 Y113.330 E56.26029
G1 X108.251 Y113.330 E56.27781
G1 X108.816 Y113.331 E56.29532
G1 X109.381 Y113.332 E56.31284
G1 X109.946 Y113.332 E56.33035
G1 X110.510 Y113.332 E56.34778
G1 X111.075 Y113.333 E56.36524
G1 X111.640 Y113.334 E56.38270
G1 X112.205 Y113.334 E56.40004
G1 X112.770 Y113.335 E56.41739
G1 X113.335 Y113.336 E56.43473
G1 X113.900 Y113.337 E56.45208
G1 X114.465 Y113.337 E56.46943
G1 X115.030 Y113.338 E56.48677
G1 X115.595 Y113.338 E56.50406
G1 X116.160 Y113.339 E56.52135
G1 X116.725 Y113.340 E56.53864
G1 X117.290 Y113.340 E56.55593
G1 X117.855 Y113.341 E56.57322
G1 X118.420 Y113.342 E56.59051
G1 X118.984 Y113.342 E56.60771
G1 X119.549 Y113.343 E56.62494
G1 X119.985 Y113.497 E56.64339
G0 F12000 X119.985 Y113.396
G0 X105.300 Y113.483
G1 F2100 X105.160 Y113.342 E56.65132
G0 F12000 X102.821 Y112.696
G1 F2100 X102.705 Y112.581 E56.65784
G0 F12000 X102.301 Y112.741
G1 F2100 X101.372 Y111.811 E56.71028
G0 F12000 X101.289 Y112.293
G1 F2100 X100.038 Y111.042 E56.78087
G0 F12000 X99.955 Y111.524
G1 F2100 X98.815 Y110.383 E56.84523
G0 F12000 X98.621 Y110.754
G1 F2100 X98.293 Y110.426 E56.86374
G0 F12000 X105.159 Y113.367
G0 X122.324 Y113.356
G0 X122.576 Y112.583
G0 X120.403 Y109.965
G1 F2100 X121.601 Y111.162 E56.93131
G0 F12000 X121.594 Y110.592
G1 F2100 X123.786 Y112.784 E57.05500
G0 F12000 X123.198 Y112.760
G1 F2100 X123.141 Y112.703 E57.05821
G0 F12000 X123.648 Y112.081
G1 F2100 X124.398 Y112.831 E57.10053
G0 F12000 X122.156 Y113.410
G1 F2100 X121.809 Y113.345 E57.11271
G1 X121.244 Y113.344 E57.12995
G1 X120.679 Y113.344 E57.14712
G1 X120.244 Y113.191 E57.16552
;LAYER:3
M106 S15
G0 F12000 X120.244 Y113.292 Z0.600
G0 X122.324 Y113.356
G0 X122.576 Y112.582
G0 X122.756 Y112.002
;TYPE:FILL
G1 F2340 X123.086 Y111.673 E57.18411
G0 F12000 X122.324 Y113.356
G0 X105.159 Y113.367
G0 X100.705 Y111.426
G1 F2340 X100.368 Y111.763 E57.20313
G0 F12000 X98.384 Y110.280
;TYPE:WALL-INNER
G1 F2340 X98.917 Y110.236 E57.22447
G1 X103.503 Y112.880 E57.43568
G1 X102.030 Y112.882 E57.49446
G1 X97.626 Y110.342 E57.69731
G1 X98.384 Y110.280 E57.72765
G0 F12000 X105.159 Y113.367
G0 X122.324 Y113.356
G0 X122.576 Y112.582
G0 X119.489 Y109.803
G1 F2340 X120.788 Y109.834 E57.77950
G1 X125.200 Y113.035 E57.99699
G1 X123.474 Y112.901 E58.06606
G1 X122.931 Y112.900 E58.08773
G1 X123.089 Y112.415 E58.10808
G1 X119.489 Y109.803 E58.28555
G0 F12000 X120.921 Y109.438
G1 F2340 X126.578 Y113.542 E58.56440
G1 X123.458 Y113.300 E58.68926
G1 X122.382 Y113.299 E58.73220
G1 X122.620 Y112.567 E58.76291
G1 X118.218 Y109.374 E58.97989
G1 X120.921 Y109.438 E59.08777
G0 F12000 X122.576 Y112.582
G0 X122.324 Y113.356
G0 X104.992 Y113.278
G1 F2340 X101.923 Y113.281 E59.21022
G1 X96.317 Y110.048 E59.46843
G1 X99.008 Y109.827 E59.57616
G1 X104.992 Y113.278 E59.85178
G0 F12000 X105.264 Y112.974
;TYPE:WALL-OUTER
G1 F2340 X122.061 Y112.995 E60.52199
G1 X122.151 Y112.720 E60.53353
G1 X117.229 Y109.149 E60.77616
G1 X117.209 Y109.124 E60.77744
G1 X117.198 Y109.097 E60.77860
G1 X117.192 Y109.063 E60.77998
G1 X117.196 Y109.029 E60.78135
G1 X117.226 Y108.975 E60.78381
G1 X117.254 Y108.953 E60.78523
G1 X121.054 Y109.042 E60.93689
G1 X127.900 Y114.008 E61.27435
G1 X127.918 Y114.026 E61.27536
G1 X127.919 Y114.036 E61.27576
G1 X127.913 Y114.046 E61.27623
G1 X123.443 Y113.699 E61.45512
G1 X101.815 Y113.680 E62.31808
G1 X95.119 Y109.819 E62.62648
G1 X95.086 Y109.791 E62.62821
G1 X95.082 Y109.776 E62.62882
G1 X95.086 Y109.748 E62.62995
G1 X99.100 Y109.419 E62.79065
G1 X105.264 Y112.974 E63.07456
G0 F12000 X105.484 Y113.171
;TYPE:SKIN
G1 F2340 X105.453 Y113.484 E63.09221
G1 X106.173 Y113.328 E63.10982
G1 X106.736 Y113.329 E63.12733
G1 X107.300 Y113.329 E63.14487
G1 X107.864 Y113.330 E63.16235
G1 X108.427 Y113.331 E63.17986
G1 X108.991 Y113.331 E63.19740
G1 X109.555 Y113.331 E63.21494
G1 X110.118 Y113.332 E63.23239
G1 X110.682 Y113.333 E63.24988
G1 X111.245 Y113.333 E63.26739
G1 X111.810 Y113.334 E63.28490
G1 X112.373 Y113.335 E63.30224
G1 X112.937 Y113.335 E63.31967
G1 X113.500 Y113.336 E63.33707
G1 X114.064 Y113.337 E63.35449
G1 X114.628 Y113.337 E63.37187
G1 X115.191 Y113.338 E63.38921
G1 X115.755 Y113.338 E63.40658
G1 X116.319 Y113.339 E63.42389
