;FLAVOR:UltiGCode
;TIME:650
;MATERIAL:915
;MATERIAL2:0
;NOZZLE_DIAMETER:0.400000
;NOZZLE_DIAMETER2:0.400000
;MTYPE:PLA

;Layer count: 18
;LAYER:0
M107
G0 F12000 X39.145 Y99.842 Z0.300
;TYPE:SKIRT
G1 F1200 X44.381 Y101.727 E0.66780
G1 X44.837 Y101.880 E0.72551
G1 X48.397 Y103.079 E1.17629
G1 X48.878 Y103.229 E1.23675
G1 X52.431 Y104.343 E1.68358
G1 X56.562 Y105.544 E2.19983
G1 X57.044 Y105.673 E2.25970
G1 X60.644 Y106.638 E2.70695
G1 X64.820 Y107.663 E3.22295
G1 X65.303 Y107.771 E3.28234
G1 X68.957 Y108.588 E3.73164
G1 X73.153 Y109.434 E4.24530
G1 X73.640 Y109.521 E4.30466
G1 X77.326 Y110.185 E4.75410
G1 X77.836 Y110.265 E4.81605
G1 X81.550 Y110.854 E5.26730
G1 X82.046 Y110.921 E5.32736
G1 X85.741 Y111.428 E5.77492
G1 X86.270 Y111.489 E5.83882
G1 X90.017 Y111.923 E6.29146
G1 X90.501 Y111.968 E6.34979
G1 X94.236 Y112.321 E6.79999
G1 X94.745 Y112.358 E6.86123
G1 X98.460 Y112.632 E7.30824
G1 X98.997 Y112.660 E7.37277
G1 X102.780 Y112.859 E7.82736
G1 X106.978 Y112.991 E8.33137
G1 X107.509 Y112.996 E8.39509
G1 X111.268 Y113.035 E8.84619
G1 X111.772 Y113.030 E8.90668
G1 X115.552 Y112.991 E9.36030
G1 X119.752 Y112.859 E9.86455
G1 X120.290 Y112.831 E9.92920
G1 X124.044 Y112.633 E10.38030
G1 X124.548 Y112.597 E10.44094
G1 X124.548 Y112.598 E10.44106
G1 X128.286 Y112.323 E10.89083
G1 X128.792 Y112.276 E10.95181
G1 X128.792 Y112.275 E10.95193
G1 X132.539 Y111.920 E11.40358
G1 X133.034 Y111.863 E11.46338
G1 X136.761 Y111.431 E11.91361
G1 X137.268 Y111.362 E11.97501
G1 X137.268 Y111.363 E11.97513
G1 X140.973 Y110.855 E12.42389
G1 X141.485 Y110.775 E12.48608
G1 X141.485 Y110.774 E12.48620
G1 X145.226 Y110.181 E12.94072
G1 X145.696 Y110.097 E12.99802
G1 X149.360 Y109.438 E13.44475
G1 X153.572 Y108.588 E13.96038
G1 X157.700 Y107.665 E14.46797
G1 X161.874 Y106.640 E14.98373
G1 X162.350 Y106.513 E15.04285
G1 X165.957 Y105.547 E15.49094
G1 X170.080 Y104.349 E16.00617
G1 X170.556 Y104.200 E16.06602
G1 X170.556 Y104.201 E16.06614
G1 X174.129 Y103.081 E16.51547
G1 X174.614 Y102.918 E16.57687
G1 X174.614 Y102.917 E16.57699
G1 X178.175 Y101.718 E17.02788
G1 X183.856 Y99.673 E17.75243
G1 X185.842 Y105.132 E18.44951
G1 X187.074 Y108.505 E18.88042
G1 X181.611 Y110.471 E19.57714
G1 X177.596 Y111.830 E20.08579
G1 X177.040 Y112.018 E20.15623
G1 X173.340 Y113.177 E20.62150
G1 X172.787 Y113.351 E20.69107
G1 X169.067 Y114.431 E21.15590
G1 X168.505 Y114.595 E21.22615
G1 X164.760 Y115.598 E21.69139
G1 X164.197 Y115.749 E21.76134
G1 X159.869 Y116.813 E22.29616
G1 X156.088 Y117.658 E22.76107
G1 X155.518 Y117.785 E22.83115
G1 X151.718 Y118.550 E23.29630
G1 X151.150 Y118.665 E23.36584
G1 X147.334 Y119.351 E23.83110
G1 X146.763 Y119.454 E23.90073
G1 X142.358 Y120.152 E24.43593
G1 X138.521 Y120.677 E24.90066
G1 X137.942 Y120.757 E24.97080
G1 X133.514 Y121.269 E25.50570
G1 X129.657 Y121.634 E25.97060
G1 X129.075 Y121.689 E26.04075
G1 X125.215 Y121.971 E26.50519
G1 X124.631 Y122.015 E26.57547
G1 X120.761 Y122.218 E27.04051
G1 X120.179 Y122.248 E27.11044
G1 X116.309 Y122.369 E27.57507
G1 X115.724 Y122.388 E27.64530
G1 X111.849 Y122.429 E28.11033
G1 X111.266 Y122.435 E28.18029
G1 X107.390 Y122.395 E28.64544
G1 X106.808 Y122.388 E28.71528
G1 X102.933 Y122.267 E29.18051
G1 X102.350 Y122.248 E29.25051
G1 X98.482 Y122.046 E29.71530
G1 X97.900 Y122.015 E29.78524
G1 X94.034 Y121.732 E30.25040
G1 X93.452 Y121.689 E30.32043
G1 X89.596 Y121.324 E30.78522
G1 X89.016 Y121.269 E30.85513
G1 X84.588 Y120.757 E31.39003
G1 X80.747 Y120.231 E31.85525
G1 X80.170 Y120.152 E31.92514
G1 X75.769 Y119.454 E32.45986
G1 X71.954 Y118.769 E32.92498
G1 X71.380 Y118.665 E32.99498
G1 X67.582 Y117.901 E33.45987
G1 X67.010 Y117.785 E33.52991
G1 X63.229 Y116.940 E33.99482
G1 X62.660 Y116.812 E34.06481
G1 X58.897 Y115.888 E34.52978
G1 X58.332 Y115.749 E34.59960
G1 X54.589 Y114.746 E35.06461
G1 X54.026 Y114.596 E35.13453
G1 X50.302 Y113.514 E35.59989
G1 X49.743 Y113.351 E35.66976
G1 X46.045 Y112.193 E36.13477
G1 X45.489 Y112.018 E36.20472
G1 X41.817 Y110.782 E36.66965
G1 X41.264 Y110.596 E36.73966
G1 X35.930 Y108.675 E37.41999
G1 X39.145 Y99.842 E38.54797
G10
G1 Z0.400
G0 F12000 X41.660 Y105.212
;TYPE:WALL-INNER
G1 Z0.300
G11
G1 F1200 X42.976 Y105.686 E38.71583
G1 X47.099 Y107.073 E39.23783
G1 X47.625 Y107.238 E39.30398
G1 X51.248 Y108.373 E39.75958
G1 X55.424 Y109.587 E40.28144
G1 X59.625 Y110.713 E40.80336
G1 X63.848 Y111.750 E41.32517
G1 X68.092 Y112.698 E41.84700
G1 X72.356 Y113.558 E42.36899
G1 X72.898 Y113.655 E42.43506
G1 X76.637 Y114.328 E42.89095
G1 X77.180 Y114.414 E42.95692
G1 X80.931 Y115.008 E43.41265
G1 X85.240 Y115.598 E43.93456
G1 X89.560 Y116.099 E44.45643
G1 X90.108 Y116.150 E44.52248
G1 X93.890 Y116.508 E44.97834
G1 X94.439 Y116.547 E45.04439
G1 X98.227 Y116.826 E45.50018
G1 X102.570 Y117.054 E46.02206
G1 X106.918 Y117.191 E46.54408
G1 X107.468 Y117.196 E46.61008
G1 X111.264 Y117.235 E47.06563
G1 X111.815 Y117.230 E47.13175
G1 X115.613 Y117.191 E47.58753
G1 X119.960 Y117.054 E48.10943
G1 X124.302 Y116.826 E48.63119
G1 X124.852 Y116.786 E48.69736
G1 X128.639 Y116.508 E49.15303
G1 X129.187 Y116.457 E49.21907
G1 X132.969 Y116.099 E49.67494
G1 X137.289 Y115.598 E50.19681
G1 X141.597 Y115.008 E50.71860
G1 X142.142 Y114.923 E50.78479
G1 X145.893 Y114.328 E51.24054
G1 X146.435 Y114.231 E51.30661
G1 X150.175 Y113.558 E51.76262
G1 X154.437 Y112.698 E52.28437
G1 X158.681 Y111.750 E52.80620
G1 X162.905 Y110.713 E53.32813
G1 X167.106 Y109.587 E53.85004
G1 X171.282 Y108.373 E54.37191
G1 X171.808 Y108.209 E54.43803
G1 X175.432 Y107.073 E54.89377
G1 X179.554 Y105.686 E55.41566
G1 X181.340 Y105.043 E55.64345
G1 X181.681 Y105.982 E55.76333
G1 X180.217 Y106.509 E55.95005
G1 X175.733 Y108.026 E56.51809
G1 X172.084 Y109.169 E56.97694
G1 X171.560 Y109.334 E57.04287
G1 X167.892 Y110.399 E57.50121
G1 X167.384 Y110.547 E57.56470
G1 X163.147 Y111.682 E58.09107
G1 X158.913 Y112.723 E58.61428
G1 X154.635 Y113.679 E59.14030
G1 X150.889 Y114.433 E59.59884
G1 X150.352 Y114.542 E59.66459
G1 X146.591 Y115.217 E60.12312
G1 X146.071 Y115.311 E60.18653
G1 X141.747 Y115.996 E60.71188
G1 X137.404 Y116.591 E61.23791
G1 X133.085 Y117.091 E61.75965
G1 X128.713 Y117.504 E62.28663
G1 X124.902 Y117.783 E62.74517
G1 X124.376 Y117.822 E62.80847
G1 X120.008 Y118.051 E63.33335
G1 X116.172 Y118.172 E63.79389
G1 X115.645 Y118.189 E63.85717
G1 X111.265 Y118.235 E64.38280
G1 X106.906 Y118.189 E64.90591
G1 X103.066 Y118.069 E65.36693
G1 X102.538 Y118.053 E65.43032
G1 X98.153 Y117.822 E65.95725
G1 X94.345 Y117.544 E66.41543
G1 X93.816 Y117.504 E66.47909
G1 X89.445 Y117.090 E67.00595
G1 X85.125 Y116.591 E67.52780
G1 X80.783 Y115.996 E68.05371
G1 X76.458 Y115.311 E68.57918
G1 X72.700 Y114.636 E69.03736
G1 X72.159 Y114.538 E69.10333
G1 X68.414 Y113.784 E69.56175
G1 X67.888 Y113.677 E69.62616
G1 X63.617 Y112.723 E70.15131
G1 X59.382 Y111.682 E70.67464
G1 X55.145 Y110.547 E71.20101
G1 X51.477 Y109.482 E71.65935
G1 X50.950 Y109.328 E71.72523
G1 X47.304 Y108.186 E72.18371
G1 X46.798 Y108.027 E72.24736
G1 X43.158 Y106.802 E72.70823
G1 X42.657 Y106.633 E72.77168
G1 X41.318 Y106.151 E72.94245
G1 X41.660 Y105.212 E73.06237
G0 F12000 X43.108 Y105.308
G1 F1200 X47.222 Y106.693 E73.58328
G1 X51.364 Y107.990 E74.10412
G1 X55.531 Y109.202 E74.62488
G1 X59.725 Y110.325 E75.14589
G1 X63.940 Y111.360 E75.66671
G1 X68.175 Y112.307 E76.18746
G1 X72.431 Y113.165 E76.70846
G1 X76.704 Y113.934 E77.22946
G1 X80.990 Y114.613 E77.75019
G1 X85.290 Y115.201 E78.27099
G1 X89.602 Y115.701 E78.79190
G1 X90.145 Y115.751 E78.85733
G1 X93.923 Y116.109 E79.31273
G1 X98.253 Y116.427 E79.83373
G1 X102.587 Y116.655 E80.35452
G1 X106.926 Y116.791 E80.87546
G1 X111.265 Y116.835 E81.39617
G1 X115.604 Y116.791 E81.91687
G1 X119.943 Y116.655 E82.43781
G1 X124.277 Y116.427 E82.95861
G1 X128.605 Y116.109 E83.47937
G1 X129.150 Y116.058 E83.54505
G1 X132.928 Y115.701 E84.00043
G1 X137.239 Y115.201 E84.52122
G1 X141.539 Y114.613 E85.04202
G1 X145.826 Y113.934 E85.56288
G1 X150.099 Y113.165 E86.08387
G1 X154.354 Y112.307 E86.60475
G1 X158.590 Y111.360 E87.12562
G1 X162.805 Y110.325 E87.64644
G1 X166.999 Y109.202 E88.16745
G1 X171.166 Y107.990 E88.68822
G1 X175.308 Y106.693 E89.20905
G1 X179.422 Y105.308 E89.72996
G1 X181.580 Y104.531 E90.00519
G1 X182.195 Y106.222 E90.22112
G1 X180.353 Y106.885 E90.45604
G1 X175.871 Y108.403 E91.02389
G1 X171.681 Y109.715 E91.55076
G1 X167.488 Y110.933 E92.07472
G1 X163.249 Y112.068 E92.60132
G1 X159.007 Y113.111 E93.12552
G1 X154.722 Y114.069 E93.65242
G1 X150.443 Y114.932 E94.17623
G1 X146.126 Y115.707 E94.70256
G1 X141.797 Y116.393 E95.22852
G1 X137.471 Y116.986 E95.75249
G1 X133.110 Y117.490 E96.27930
G1 X128.752 Y117.903 E96.80460
G1 X124.932 Y118.182 E97.26422
G1 X124.395 Y118.222 E97.32884
G1 X120.025 Y118.451 E97.85396
G1 X115.636 Y118.589 E98.38090
G1 X111.265 Y118.635 E98.90545
G1 X106.894 Y118.589 E99.43000
G1 X102.505 Y118.451 E99.95694
G1 X98.132 Y118.222 E100.48242
G1 X94.315 Y117.943 E100.94168
G1 X93.774 Y117.903 E101.00677
G1 X89.420 Y117.490 E101.53160
G1 X85.058 Y116.986 E102.05852
G1 X80.733 Y116.394 E102.58236
G1 X76.403 Y115.707 E103.10846
G1 X72.087 Y114.931 E103.63469
G1 X67.808 Y114.070 E104.15846
G1 X63.523 Y113.111 E104.68538
G1 X59.280 Y112.068 E105.20970
G1 X55.041 Y110.933 E105.73629
G1 X51.365 Y109.866 E106.19562
G1 X50.849 Y109.715 E106.26014
G1 X46.659 Y108.402 E106.78705
G1 X42.521 Y107.009 E107.31099
G1 X40.805 Y106.391 E107.52985
G1 X41.420 Y104.700 E107.74578
G1 X43.108 Y105.308 E107.96108
G0 F12000 X43.239 Y104.930
;TYPE:WALL-OUTER
G1 F1200 X47.345 Y106.312 E108.48096
G1 X51.479 Y107.607 E109.00081
G1 X55.639 Y108.817 E109.52070
G1 X59.824 Y109.938 E110.04060
G1 X64.031 Y110.971 E110.56044
G1 X68.258 Y111.916 E111.08020
G1 X72.506 Y112.772 E111.60020
G1 X76.770 Y113.539 E112.12010
G1 X81.048 Y114.217 E112.63986
G1 X85.340 Y114.804 E113.15970
G1 X89.643 Y115.303 E113.67952
G1 X93.957 Y115.710 E114.19950
G1 X98.278 Y116.028 E114.71942
G1 X102.604 Y116.255 E115.23925
G1 X106.934 Y116.391 E115.75911
G1 X111.265 Y116.435 E116.27886
G1 X115.596 Y116.391 E116.79860
G1 X119.926 Y116.255 E117.31846
G1 X124.252 Y116.028 E117.83829
G1 X128.572 Y115.710 E118.35810
G1 X132.886 Y115.303 E118.87808
G1 X137.189 Y114.804 E119.39790
G1 X141.481 Y114.217 E119.91773
G1 X145.760 Y113.539 E120.43762
G1 X150.024 Y112.772 E120.95751
G1 X154.271 Y111.916 E121.47740
G1 X158.499 Y110.971 E121.99728
G1 X162.706 Y109.938 E122.51711
G1 X166.891 Y108.817 E123.03702
G1 X171.051 Y107.607 E123.55690
G1 X175.185 Y106.312 E124.07675
G1 X179.291 Y104.930 E124.59664
G1 X181.819 Y104.020 E124.91905
G1 X182.709 Y106.463 E125.23106
G1 X180.488 Y107.262 E125.51430
G1 X175.990 Y108.785 E126.08416
G1 X171.800 Y110.097 E126.61104
G1 X167.587 Y111.321 E127.13750
G1 X163.354 Y112.455 E127.66337
G1 X159.094 Y113.502 E128.18978
G1 X154.809 Y114.460 E128.71668
G1 X150.514 Y115.325 E129.24243
G1 X146.196 Y116.101 E129.76889
G1 X141.860 Y116.788 E130.29570
G1 X137.517 Y117.383 E130.82173
G1 X133.156 Y117.887 E131.34853
G1 X128.788 Y118.301 E131.87504
G1 X124.418 Y118.622 E132.40085
G1 X120.034 Y118.851 E132.92765
G1 X115.649 Y118.989 E133.45411
G1 X111.265 Y119.035 E133.98022
G1 X106.881 Y118.989 E134.50633
G1 X102.496 Y118.851 E135.03279
G1 X98.111 Y118.621 E135.55971
G1 X93.741 Y118.301 E136.08552
G1 X89.374 Y117.887 E136.61191
G1 X85.012 Y117.383 E137.13883
G1 X80.670 Y116.789 E137.66472
G1 X76.333 Y116.101 E138.19167
G1 X72.016 Y115.325 E138.71801
G1 X67.721 Y114.460 E139.24376
G1 X63.436 Y113.502 E139.77065
G1 X59.175 Y112.455 E140.29718
G1 X54.942 Y111.321 E140.82306
G1 X50.730 Y110.097 E141.34941
G1 X46.544 Y108.785 E141.87582
G1 X42.382 Y107.384 E142.40280
G1 X40.291 Y106.632 E142.66945
G1 X41.181 Y104.189 E142.98146
G1 X43.239 Y104.930 E143.24394
G0 F12000 X42.639 Y105.713
;TYPE:SKIN
G1 F1200 X43.792 Y106.866 E143.43961
G0 F12000 X44.354 Y106.297
G1 F1200 X45.497 Y107.439 E143.63350
G0 F12000 X46.058 Y106.869
G1 F1200 X47.190 Y108.002 E143.82569
G0 F12000 X47.740 Y107.420
G1 F1200 X48.838 Y108.518 E144.01203
G0 F12000 X49.387 Y107.936
G1 F1200 X50.486 Y109.034 E144.19845
G0 F12000 X51.036 Y108.453
G1 F1200 X52.097 Y109.514 E144.37851
G0 F12000 X52.635 Y108.921
G1 F1200 X53.692 Y109.978 E144.55788
G0 F12000 X54.230 Y109.385
G1 F1200 X55.285 Y110.439 E144.73684
G0 F12000 X56.057 Y110.645
G1 F1200 X55.028 Y109.617 E144.91138
G0 F12000 X54.490 Y110.210
G1 F1200 X53.433 Y109.153 E145.09076
G0 F12000 X52.895 Y109.746
G1 F1200 X51.837 Y108.689 E145.27022
G0 F12000 X51.299 Y109.282
G1 F1200 X50.211 Y108.194 E145.45486
G0 F12000 X49.662 Y108.776
G1 F1200 X48.564 Y107.678 E145.64120
G0 F12000 X48.014 Y108.260
G1 F1200 X46.911 Y107.157 E145.82839
G0 F12000 X46.350 Y107.727
G1 F1200 X45.206 Y106.583 E146.02253
G0 F12000 X44.645 Y107.153
G1 F1200 X43.502 Y106.010 E146.21650
G0 F12000 X42.939 Y106.579
G1 F1200 X41.755 Y105.394 E146.41752
G0 F12000 X41.594 Y105.800
G1 F1200 X42.065 Y106.270 E146.49737
G0 F12000 X55.812 Y109.835
G1 F1200 X56.830 Y110.853 E146.67013
G0 F12000 X57.602 Y111.059
G1 F1200 X56.585 Y110.042 E146.84272
G0 F12000 X57.358 Y110.249
G1 F1200 X58.375 Y111.266 E147.01531
G0 F12000 X59.148 Y111.473
G1 F1200 X58.131 Y110.457 E147.18781
G0 F12000 X58.904 Y110.664
G1 F1200 X59.905 Y111.665 E147.35769
G0 F12000 X60.655 Y111.850
G1 F1200 X59.674 Y110.868 E147.52425
G0 F12000 X60.424 Y111.053
G1 F1200 X61.405 Y112.034 E147.69074
G0 F12000 X62.155 Y112.218
G1 F1200 X61.174 Y111.237 E147.85722
G0 F12000 X61.924 Y111.422
G1 F1200 X62.905 Y112.403 E148.02370
G0 F12000 X63.655 Y112.586
G1 F1200 X62.675 Y111.606 E148.19001
G0 F12000 X63.425 Y111.791
G1 F1200 X64.383 Y112.749 E148.35259
G0 F12000 X65.112 Y112.912
G1 F1200 X64.162 Y111.963 E148.51372
G0 F12000 X64.891 Y112.125
G1 F1200 X65.840 Y113.075 E148.67486
G0 F12000 X66.569 Y113.238
G1 F1200 X65.620 Y112.289 E148.83591
G0 F12000 X66.348 Y112.451
G1 F1200 X67.297 Y113.400 E148.99696
G0 F12000 X68.022 Y113.560
G1 F1200 X67.076 Y112.614 E149.15750
G0 F12000 X67.805 Y112.777
G1 F1200 X68.731 Y113.703 E149.31465
G0 F12000 X69.440 Y113.846
G1 F1200 X68.520 Y112.927 E149.47069
G0 F12000 X69.229 Y113.069
G1 F1200 X70.148 Y113.989 E149.62674
G0 F12000 X70.856 Y114.131
G1 F1200 X69.937 Y113.212 E149.78270
G0 F12000 X70.645 Y113.354
G1 F1200 X71.564 Y114.274 E149.93874
G0 F12000 X72.271 Y114.414
G1 F1200 X71.354 Y113.497 E150.09436
G0 F12000 X72.062 Y113.640
G1 F1200 X72.960 Y114.538 E150.24676
G0 F12000 X73.650 Y114.663
G1 F1200 X72.759 Y113.771 E150.39805
G0 F12000 X73.449 Y113.895
G1 F1200 X74.340 Y114.786 E150.54926
G0 F12000 X75.029 Y114.910
G1 F1200 X74.138 Y114.019 E150.70047
G0 F12000 X74.828 Y114.144
G1 F1200 X75.719 Y115.034 E150.85159
G0 F12000 X76.409 Y115.158
G1 F1200 X75.518 Y114.267 E151.00280
G0 F12000 X76.208 Y114.392
G1 F1200 X77.083 Y115.266 E151.15120
G0 F12000 X77.754 Y115.372
G1 F1200 X76.890 Y114.508 E151.29783
G0 F12000 X77.563 Y114.615
G1 F1200 X78.427 Y115.479 E151.44445
G0 F12000 X79.099 Y115.585
G1 F1200 X78.235 Y114.722 E151.59100
G0 F12000 X78.907 Y114.828
G1 F1200 X79.771 Y115.692 E151.73762
G0 F12000 X80.443 Y115.798
G1 F1200 X79.579 Y114.935 E151.88416
G0 F12000 X80.252 Y115.042
G1 F1200 X81.108 Y115.898 E152.02943
G0 F12000 X81.764 Y115.988
G1 F1200 X80.924 Y115.148 E152.17198
G0 F12000 X81.579 Y115.237
G1 F1200 X82.419 Y116.077 E152.31454
G0 F12000 X83.075 Y116.167
G1 F1200 X82.235 Y115.327 E152.45709
G0 F12000 X82.890 Y115.417
G1 F1200 X83.730 Y116.257 E152.59964
G0 F12000 X84.386 Y116.347
G1 F1200 X83.546 Y115.507 E152.74219
G0 F12000 X84.201 Y115.597
G1 F1200 X85.041 Y116.437 E152.88475
G0 F12000 X85.683 Y116.513
G1 F1200 X84.857 Y115.686 E153.02501
G0 F12000 X85.504 Y115.768
G1 F1200 X86.323 Y116.587 E153.16400
G0 F12000 X86.962 Y116.661
G1 F1200 X86.143 Y115.842 E153.30299
G0 F12000 X86.783 Y115.916
G1 F1200 X87.602 Y116.735 E153.44197
G0 F12000 X88.241 Y116.809
G1 F1200 X87.424 Y115.991 E153.58071
G0 F12000 X88.064 Y116.065
G1 F1200 X88.881 Y116.883 E153.71944
G0 F12000 X89.519 Y116.955
G1 F1200 X88.704 Y116.140 E153.85775
G0 F12000 X89.344 Y116.214
G1 F1200 X90.144 Y117.014 E153.99352
G0 F12000 X90.769 Y117.074
G1 F1200 X89.974 Y116.278 E154.12852
