;FLAVOR:UltiGCode
;TIME:9550
;MATERIAL:15411
;MATERIAL2:0
;NOZZLE_DIAMETER:0.400000
;NOZZLE_DIAMETER2:0.400000
;MTYPE:PLA

;Layer count: 42
;LAYER:0
M107
G0 F12000 X30.044 Y24.391 Z0.300
G0 X30.470 Y27.296
;TYPE:SKIRT
G1 F1200 X30.044 Y24.391 E0.35233
G1 X54.176 Y20.909 E3.27816
G1 X59.239 Y20.177 E3.89204
G1 X59.826 Y23.902 E4.34455
G1 X60.583 Y28.605 E4.91618
G1 X61.510 Y33.382 E5.50011
G1 X62.683 Y38.595 E6.14131
G1 X62.884 Y39.418 E6.24297
G1 X64.132 Y44.181 E6.83383
G1 X65.496 Y48.782 E7.40970
G1 X65.497 Y48.784 E7.40997
G1 X66.876 Y53.027 E7.94534
G1 X67.113 Y53.714 E8.03255
G1 X68.801 Y58.389 E8.62900
G1 X70.773 Y63.342 E9.26874
G1 X72.741 Y67.854 E9.85944
G1 X75.043 Y72.729 E10.50638
G1 X75.461 Y73.565 E10.61854
G1 X77.502 Y77.527 E11.15336
G1 X80.073 Y82.165 E11.78971
G1 X80.371 Y82.681 E11.86121
G1 X82.972 Y87.020 E12.46828
G1 X85.681 Y91.223 E13.06832
G1 X88.716 Y95.633 E13.71074
G1 X89.262 Y96.387 E13.82245
G1 X92.051 Y100.157 E14.38519
G1 X95.211 Y104.151 E14.99634
G1 X98.809 Y108.424 E15.66666
G1 X102.235 Y112.224 E16.28063
G1 X105.940 Y116.086 E16.92285
G1 X106.488 Y116.627 E17.01526
G1 X106.489 Y116.626 E17.01543
G1 X109.794 Y119.848 E17.56931
G1 X113.797 Y123.512 E18.22051
G1 X117.771 Y126.913 E18.84818
G1 X121.957 Y130.274 E19.49238
G1 X126.231 Y133.483 E20.13374
G1 X126.795 Y133.881 E20.21657
G1 X130.634 Y136.570 E20.77902
G1 X133.562 Y138.486 E21.19892
G1 X134.100 Y144.992 E21.98230
G1 X134.174 Y146.025 E22.10658
G1 X134.181 Y146.072 E22.11228
G1 X134.206 Y146.476 E22.16086
G1 X134.369 Y148.748 E22.43420
G1 X134.343 Y148.753 E22.43738
G1 X134.377 Y149.344 E22.50841
G1 X134.894 Y157.129 E23.44467
G1 X134.981 Y158.274 E23.58247
G1 X134.980 Y158.333 E23.58955
G1 X135.037 Y158.515 E23.61243
G1 X135.830 Y162.675 E24.12062
G1 X135.459 Y163.087 E24.18715
G1 X135.517 Y164.027 E24.30017
G1 X136.254 Y173.577 E25.44957
G1 X131.393 Y178.200 E26.25457
G1 X127.151 Y181.645 E26.91033
G1 X119.834 Y177.587 E27.91437
G1 X120.513 Y172.163 E28.57033
G1 X121.116 Y169.231 E28.92953
G1 X121.626 Y166.750 E29.23348
G1 X117.327 Y170.225 E29.89682
G1 X112.822 Y173.318 E30.55257
G1 X107.764 Y169.951 E31.28171
G1 X105.859 Y168.687 E31.55605
G1 X106.969 Y163.332 E32.21231
G1 X108.106 Y159.433 E32.69968
G1 X108.105 Y159.433 E32.69980
G1 X108.528 Y157.981 E32.88128
G1 X107.258 Y158.848 E33.06581
G1 X106.360 Y159.462 E33.19635
G1 X103.925 Y161.123 E33.55006
G1 X99.185 Y163.844 E34.20592
G1 X94.456 Y160.114 E34.92868
G1 X92.617 Y158.658 E35.21015
G1 X94.115 Y153.559 E35.84789
G1 X95.219 Y150.627 E36.22384
G1 X96.122 Y148.255 E36.52841
G1 X91.323 Y150.993 E37.19143
G1 X86.378 Y153.322 E37.84735
G1 X82.008 Y149.264 E38.56298
G1 X80.251 Y147.625 E38.85131
G1 X82.205 Y142.527 E39.50647
G1 X83.902 Y138.966 E39.97983
G1 X84.582 Y137.536 E40.16984
G1 X83.126 Y138.218 E40.36278
G1 X82.169 Y138.666 E40.48958
G1 X79.577 Y139.880 E40.83305
G1 X74.461 Y141.803 E41.48890
G1 X68.808 Y135.635 E42.49290
G1 X71.019 Y131.023 E43.10665
G1 X71.172 Y130.705 E43.14900
G1 X72.573 Y128.288 E43.48424
G1 X73.113 Y127.356 E43.61350
G1 X73.942 Y125.925 E43.81195
G1 X68.764 Y127.858 E44.47520
G1 X63.510 Y129.363 E45.13103
G1 X58.373 Y122.760 E46.13494
G1 X60.929 Y118.372 E46.74432
G1 X61.127 Y118.035 E46.79122
G1 X64.297 Y113.456 E47.45953
G1 X62.618 Y113.933 E47.66898
G1 X61.626 Y114.215 E47.79274
G1 X58.936 Y114.978 E48.12827
G1 X53.578 Y116.054 E48.78407
G1 X48.990 Y109.059 E49.78792
G1 X51.873 Y104.920 E50.39321
G1 X52.115 Y104.573 E50.44398
G1 X55.616 Y100.299 E51.10696
G1 X53.898 Y100.641 E51.31716
G1 X50.195 Y101.375 E51.77017
G1 X44.768 Y102.018 E52.42596
G1 X40.758 Y94.674 E53.43006
G1 X43.945 Y90.805 E54.03157
G1 X44.231 Y90.456 E54.08572
G1 X48.099 Y86.443 E54.75456
G1 X46.296 Y86.652 E54.97236
G1 X45.293 Y86.768 E55.09353
G1 X42.563 Y87.084 E55.42331
G1 X37.100 Y87.287 E56.07933
G1 X34.762 Y82.034 E56.76930
G1 X33.698 Y79.646 E57.08302
G1 X37.170 Y76.058 E57.68216
G1 X37.502 Y75.717 E57.73927
G1 X41.643 Y72.062 E58.40207
G1 X39.835 Y72.126 E58.61917
G1 X36.120 Y72.254 E59.06523
G1 X30.658 Y72.017 E59.72129
G1 X29.005 Y67.317 E60.31915
G1 X28.165 Y64.936 E60.62213
G1 X32.220 Y61.329 E61.27338
G1 X32.588 Y61.002 E61.33246
G1 X36.989 Y57.665 E61.99523
G1 X36.756 Y57.656 E62.02321
G1 X31.467 Y57.447 E62.65839
G1 X25.618 Y56.753 E63.36519
G1 X23.632 Y49.413 E64.27766
G1 X27.594 Y46.425 E64.87315
G1 X27.997 Y46.121 E64.93373
G1 X32.655 Y43.148 E65.59684
G1 X30.825 Y42.926 E65.81805
G1 X27.168 Y42.485 E66.26007
G1 X21.809 Y41.406 E66.91605
G1 X20.770 Y35.803 E67.59987
G1 X20.284 Y33.180 E67.91999
G1 X24.463 Y30.526 E68.51405
G1 X24.897 Y30.251 E68.57571
G1 X30.470 Y27.296 E69.33266
G10
G1 Z0.400
G0 F12000 X33.643 Y30.367
;TYPE:WALL-INNER
G1 Z0.300
G11
G1 F1200 X34.238 Y30.108 E69.41054
G1 X34.803 Y29.346 E69.52437
G1 X34.893 Y28.542 E69.62145
G1 X34.808 Y27.947 E69.69358
G1 X55.737 Y24.927 E72.23107
G1 X56.446 Y29.331 E72.76635
G1 X57.402 Y34.258 E73.36862
G1 X58.600 Y39.583 E74.02359
G1 X58.811 Y40.443 E74.12985
G1 X60.083 Y45.300 E74.73235
G1 X61.488 Y50.038 E75.32538
G1 X62.903 Y54.388 E75.87430
G1 X63.160 Y55.134 E75.96899
G1 X64.872 Y59.875 E76.57386
G1 X66.892 Y64.949 E77.22922
G1 X68.922 Y69.604 E77.83863
G1 X71.258 Y74.550 E78.49501
G1 X71.724 Y75.484 E78.62027
G1 X73.790 Y79.492 E79.16137
G1 X76.419 Y84.237 E79.81232
G1 X76.764 Y84.834 E79.89506
G1 X79.396 Y89.224 E80.50929
G1 X82.191 Y93.559 E81.12824
G1 X85.294 Y98.069 E81.78517
G1 X85.863 Y98.855 E81.90161
G1 X88.723 Y102.720 E82.47858
G1 X91.960 Y106.811 E83.10459
G1 X95.634 Y111.175 E83.78914
G1 X99.160 Y115.084 E84.42086
G1 X102.952 Y119.037 E85.07819
G1 X103.555 Y119.632 E85.17984
G1 X106.893 Y122.886 E85.73924
G1 X111.016 Y126.660 E86.40998
G1 X115.093 Y130.149 E87.05391
G1 X119.372 Y133.585 E87.71244
G1 X123.760 Y136.879 E88.37086
G1 X124.384 Y137.320 E88.46255
G1 X128.281 Y140.050 E89.03352
G1 X129.545 Y140.877 E89.21479
G1 X129.911 Y145.314 E89.74903
G1 X129.824 Y145.335 E89.75977
G1 X130.001 Y146.516 E89.90308
G1 X130.077 Y147.728 E90.04880
G1 X130.186 Y149.618 E90.27598
G1 X130.706 Y157.442 E91.21693
G1 X130.777 Y158.380 E91.32981
G1 X130.764 Y158.932 E91.39607
G1 X130.959 Y159.550 E91.47383
G1 X131.314 Y161.414 E91.70154
G1 X131.158 Y161.587 E91.72949
G1 X131.328 Y164.342 E92.06072
G1 X131.912 Y171.910 E92.97158
G1 X128.611 Y175.049 E93.51820
G1 X126.707 Y176.596 E93.81259
G1 X124.354 Y175.291 E94.13547
G1 X124.659 Y172.857 E94.42984
G1 X126.170 Y165.507 E95.33028
G1 X126.351 Y164.863 E95.41055
G1 X126.119 Y163.943 E95.52441
G1 X125.558 Y163.366 E95.62098
G1 X122.967 Y161.788 E95.98503
G1 X122.831 Y161.702 E96.00434
G1 X122.050 Y161.469 E96.10214
G1 X121.135 Y161.686 E96.21498
G1 X120.584 Y162.193 E96.30484
G1 X114.813 Y166.856 E97.19517
G1 X112.785 Y168.248 E97.49034
G1 X110.548 Y166.759 E97.81281
G1 X111.048 Y164.350 E98.10805
G1 X113.134 Y157.182 E99.00389
G1 X113.344 Y156.609 E99.07713
G1 X113.344 Y156.333 E99.11025
G1 X113.218 Y155.593 E99.20032
G1 X112.708 Y154.970 E99.29694
G1 X110.091 Y153.071 E99.68495
G1 X109.337 Y152.778 E99.78202
G1 X108.411 Y152.921 E99.89446
G1 X107.795 Y153.396 E99.98780
G1 X101.689 Y157.564 E100.87495
G1 X99.556 Y158.788 E101.17006
G1 X97.445 Y157.123 E101.49269
G1 X98.099 Y154.898 E101.77099
G1 X99.147 Y152.116 E102.12773
G1 X100.773 Y147.844 E102.67625
G1 X101.070 Y147.184 E102.76310
G1 X101.070 Y146.911 E102.79586
G1 X101.009 Y146.209 E102.88041
G1 X100.551 Y145.546 E102.97711
G1 X98.116 Y143.462 E103.36172
G1 X97.423 Y143.127 E103.45408
G1 X97.141 Y143.127 E103.48792
G1 X96.462 Y143.177 E103.56962
G1 X95.627 Y143.702 E103.68798
G1 X89.390 Y147.261 E104.54970
G1 X87.157 Y148.313 E104.84591
G1 X85.187 Y146.483 E105.16857
G1 X86.068 Y144.183 E105.46413
G1 X89.224 Y137.557 E106.34483
G1 X89.476 Y137.094 E106.40809
G1 X89.622 Y136.862 E106.44098
G1 X89.618 Y135.894 E106.55714
G1 X89.214 Y135.194 E106.65413
G1 X86.955 Y132.922 E107.03860
G1 X86.259 Y132.511 E107.13559
G1 X85.311 Y132.504 E107.24936
G1 X84.759 Y132.816 E107.32545
G1 X77.941 Y136.008 E108.22883
G1 X75.640 Y136.873 E108.52382
G1 X73.823 Y134.891 E108.84648
G1 X74.806 Y132.840 E109.11941
G1 X74.887 Y132.669 E109.14211
G1 X78.422 Y126.569 E109.98814
G1 X78.664 Y126.155 E110.04569
G1 X79.022 Y125.635 E110.12145
G1 X79.093 Y124.693 E110.23481
G1 X78.748 Y123.963 E110.33170
G1 X76.680 Y121.514 E110.71634
G1 X76.017 Y121.051 E110.81338
G1 X75.075 Y120.966 E110.92688
G1 X74.497 Y121.234 E111.00333
G1 X67.441 Y123.868 E111.90712
G1 X65.082 Y124.544 E112.20160
G1 X63.431 Y122.421 E112.52433
G1 X64.556 Y120.490 E112.79250
G1 X64.672 Y120.292 E112.82004
G1 X68.637 Y114.565 E113.65591
G1 X68.947 Y114.118 E113.72119
G1 X69.358 Y113.614 E113.79923
G1 X69.505 Y112.679 E113.91281
G1 X69.219 Y111.925 E114.00958
G1 X67.337 Y109.297 E114.39747
G1 X66.718 Y108.777 E114.49448
G1 X65.779 Y108.618 E114.60876
G1 X65.183 Y108.839 E114.68504
G1 X64.629 Y108.996 E114.75414
G1 X57.943 Y110.894 E115.58816
G1 X55.534 Y111.378 E115.88302
G1 X54.059 Y109.130 E116.20566
G1 X55.468 Y107.108 E116.50140
G1 X60.236 Y101.289 E117.40415
G1 X60.676 Y100.830 E117.48045
G1 X60.900 Y99.910 E117.59408
G1 X60.674 Y99.134 E117.69107
G1 X59.026 Y96.387 E118.07548
G1 X58.449 Y95.822 E118.17239
G1 X57.530 Y95.587 E118.28621
G1 X56.915 Y95.759 E118.36285
G1 X56.282 Y95.884 E118.44027
G1 X49.536 Y97.224 E119.26561
G1 X47.094 Y97.513 E119.56069
G1 X45.805 Y95.153 E119.88338
G1 X47.372 Y93.250 E120.17920
G1 X52.588 Y87.839 E121.08108
G1 X53.066 Y87.413 E121.15792
G1 X53.366 Y86.513 E121.27176
G1 X53.201 Y85.721 E121.36884
G1 X52.554 Y84.412 E121.54406
G1 X51.767 Y82.823 E121.75684
G1 X51.236 Y82.215 E121.85371
G1 X50.342 Y81.906 E121.96722
G1 X49.703 Y82.030 E122.04533
G1 X42.245 Y82.893 E122.94626
G1 X39.783 Y82.985 E123.24191
G1 X38.690 Y80.528 E123.56460
G1 X40.184 Y78.983 E123.82251
G1 X40.397 Y78.763 E123.85925
G1 X46.039 Y73.785 E124.76215
G1 X46.551 Y73.400 E124.83902
G1 X46.922 Y72.526 E124.95296
G1 X46.821 Y71.724 E125.04996
G1 X45.637 Y68.748 E125.43431
G1 X45.156 Y68.098 E125.53134
G1 X44.289 Y67.718 E125.64494
G1 X43.643 Y67.791 E125.72295
G1 X42.898 Y67.816 E125.81240
G1 X36.142 Y68.051 E126.62361
G1 X33.678 Y67.944 E126.91957
G1 X33.064 Y66.199 E127.14155
G1 X35.009 Y64.469 E127.45392
G1 X35.256 Y64.250 E127.49353
G1 X41.241 Y59.714 E128.39470
G1 X41.784 Y59.363 E128.47228
G1 X42.219 Y58.521 E128.58601
G1 X42.180 Y57.713 E128.68308
G1 X41.219 Y54.656 E129.06762
G1 X40.787 Y53.973 E129.16460
G1 X39.951 Y53.530 E129.27814
G1 X39.310 Y53.555 E129.35511
G1 X31.800 Y53.257 E130.25702
G1 X28.931 Y52.916 E130.60373
G1 X28.427 Y51.056 E130.83498
G1 X30.390 Y49.576 E131.12999
G1 X36.739 Y45.524 E132.03381
G1 X37.296 Y45.226 E132.10961
G1 X37.799 Y44.421 E132.22352
G1 X37.822 Y43.612 E132.32064
G1 X37.113 Y40.490 E132.70482
G1 X36.738 Y39.771 E132.80213
G1 X35.938 Y39.265 E132.91572
G1 X35.303 Y39.237 E132.99199
G1 X27.827 Y38.334 E133.89563
G1 X25.421 Y37.849 E134.19016
G1 X24.930 Y35.205 E134.51286
G1 X27.014 Y33.882 E134.80908
G1 X33.643 Y30.367 E135.70947
G0 F12000 X33.981 Y29.784
G1 F1200 X34.417 Y29.194 E135.79751
G1 X34.490 Y28.549 E135.87540
G1 X34.355 Y27.608 E135.98948
G1 X56.069 Y24.475 E138.62214
G1 X56.840 Y29.261 E139.20386
G1 X57.794 Y34.176 E139.80467
G1 X58.990 Y39.492 E140.45854
G1 X59.198 Y40.345 E140.56390
G1 X60.468 Y45.192 E141.16517
G1 X61.870 Y49.920 E141.75695
G1 X63.282 Y54.261 E142.30473
G1 X63.537 Y55.001 E142.39866
G1 X65.246 Y59.733 E143.00240
G1 X67.261 Y64.795 E143.65619
G1 X69.287 Y69.439 E144.26420
G1 X71.617 Y74.375 E144.91919
G1 X72.081 Y75.303 E145.04370
G1 X74.143 Y79.304 E145.58383
G1 X76.767 Y84.040 E146.23355
G1 X77.109 Y84.631 E146.31549
G1 X79.735 Y89.013 E146.92852
G1 X82.524 Y93.337 E147.54597
G1 X85.621 Y97.838 E148.20160
G1 X86.186 Y98.618 E148.31717
G1 X89.040 Y102.477 E148.89314
G1 X92.270 Y106.558 E149.51769
G1 X95.936 Y110.912 E150.20070
G1 X99.453 Y114.812 E150.83090
G1 X103.237 Y118.756 E151.48678
G1 X103.835 Y119.346 E151.58759
G1 X107.168 Y122.595 E152.14613
G1 X111.281 Y126.360 E152.81526
G1 X115.348 Y129.841 E153.45765
G1 X119.617 Y133.269 E154.11465
G1 X123.996 Y136.556 E154.77170
G1 X124.614 Y136.993 E154.86253
G1 X128.506 Y139.719 E155.43273
G1 X129.928 Y140.649 E155.63663
G1 X130.311 Y145.281 E156.19436
G1 X130.335 Y145.622 E156.23538
G1 X130.273 Y145.637 E156.24304
G1 X130.398 Y146.467 E156.34376
G1 X130.476 Y147.705 E156.49262
G1 X130.585 Y149.593 E156.71955
G1 X131.105 Y157.414 E157.66015
G1 X131.177 Y158.369 E157.77507
G1 X131.166 Y158.875 E157.83581
G1 X131.347 Y159.449 E157.90803
G1 X131.744 Y161.534 E158.16272
G1 X131.568 Y161.730 E158.19433
G1 X131.727 Y164.315 E158.50512
G1 X132.326 Y172.068 E159.43825
G1 X128.877 Y175.348 E160.00941
G1 X126.749 Y177.076 E160.33836
G1 X123.924 Y175.510 E160.72596
G1 X124.264 Y172.791 E161.05478
G1 X125.780 Y165.419 E161.95793
G1 X125.937 Y164.857 E162.02795
G1 X125.758 Y164.144 E162.11617
G1 X125.307 Y163.681 E162.19373
G1 X122.765 Y162.133 E162.55088
G1 X122.664 Y162.070 E162.56516
G1 X122.038 Y161.883 E162.64356
G1 X121.329 Y162.051 E162.73100
G1 X120.847 Y162.494 E162.80956
G1 X115.057 Y167.173 E163.70287
G1 X112.788 Y168.731 E164.03316
G1 X110.102 Y166.942 E164.42043
G1 X110.662 Y164.245 E164.75097
G1 X112.750 Y157.069 E165.64780
G1 X112.944 Y156.537 E165.71576
G1 X112.944 Y156.366 E165.73628
G1 X112.842 Y155.765 E165.80943
G1 X112.431 Y155.264 E165.88719
G1 X109.898 Y153.425 E166.26281
G1 X109.292 Y153.189 E166.34085
G1 X108.574 Y153.301 E166.42805
G1 X108.031 Y153.719 E166.51028
G1 X101.901 Y157.904 E167.40096
G1 X99.521 Y159.270 E167.73026
G1 X96.986 Y157.269 E168.11781
G1 X97.722 Y154.766 E168.43089
G1 X98.773 Y151.974 E168.78888
G1 X100.404 Y147.690 E169.33896
G1 X100.670 Y147.098 E169.41684
G1 X100.670 Y146.928 E169.43724
G1 X100.620 Y146.350 E169.50686
G1 X100.251 Y145.817 E169.58465
G1 X97.895 Y143.800 E169.95682
G1 X97.332 Y143.527 E170.03191
G1 X97.156 Y143.527 E170.05303
G1 X96.591 Y143.569 E170.12101
G1 X95.840 Y144.041 E170.22746
G1 X89.576 Y147.616 E171.09294
G1 X87.082 Y148.790 E171.42372
G1 X84.716 Y146.593 E171.81117
G1 X85.698 Y144.032 E172.14031
G1 X88.874 Y137.362 E173.02681
G1 X89.127 Y136.897 E173.09034
G1 X89.222 Y136.747 E173.11164
G1 X89.218 Y136.002 E173.20105
G1 X88.894 Y135.439 E173.27899
G1 X86.707 Y133.240 E173.65116
G1 X86.148 Y132.910 E173.72906
G1 X85.414 Y132.905 E173.81714
G1 X84.925 Y133.180 E173.88446
G1 X78.110 Y136.372 E174.78752
G1 X75.527 Y137.343 E175.11866
G1 X73.345 Y134.962 E175.50621
G1 X74.533 Y132.484 E175.83598
G1 X78.321 Y125.948 E176.74250
G1 X78.631 Y125.498 E176.80807
G1 X78.686 Y124.768 E176.89592
G1 X78.409 Y124.182 E176.97370
G1 X76.408 Y121.812 E177.34591
G1 X75.875 Y121.440 E177.42391
G1 X75.146 Y121.374 E177.51175
G1 X74.652 Y121.603 E177.57709
G1 X67.576 Y124.245 E178.48346
G1 X64.933 Y125.002 E178.81338
G1 X62.949 Y122.453 E179.20099
G1 X64.211 Y120.288 E179.50171
G1 X64.334 Y120.078 E179.53091
G1 X68.633 Y113.870 E180.43706
G1 X68.979 Y113.445 E180.50282
G1 X69.094 Y112.722 E180.59067
G1 X68.863 Y112.116 E180.66850
G1 X67.042 Y109.571 E181.04402
G1 X66.544 Y109.154 E181.12197
G1 X65.818 Y109.031 E181.21033
G1 X65.308 Y109.219 E181.27555
G1 X64.738 Y109.381 E181.34666
G1 X58.040 Y111.282 E182.18217
G1 X55.348 Y111.823 E182.51167
G1 X53.576 Y109.123 E182.89921
G1 X55.148 Y106.867 E183.22917
G1 X59.932 Y101.028 E184.13500
G1 X60.313 Y100.631 E184.20103
G1 X60.486 Y99.919 E184.28895
G1 X60.305 Y99.295 E184.36692
G1 X58.710 Y96.637 E184.73890
G1 X58.246 Y96.183 E184.81680
G1 X57.535 Y96.001 E184.90487
G1 X57.006 Y96.149 E184.97079
G1 X49.600 Y97.619 E185.87685
G1 X46.873 Y97.942 E186.20637
G1 X45.324 Y95.107 E186.59404
G1 X47.070 Y92.986 E186.92371
G1 X52.309 Y87.552 E187.82949
G1 X52.721 Y87.186 E187.89562
G1 X52.952 Y86.489 E187.98374
G1 X52.820 Y85.853 E188.06168
G1 X51.431 Y83.048 E188.43729
G1 X51.005 Y82.558 E188.51521
G1 X50.313 Y82.319 E188.60306
G1 X49.774 Y82.424 E188.66896
G1 X42.279 Y83.292 E189.57437
G1 X39.527 Y83.394 E189.90483
G1 X38.214 Y80.444 E190.29231
G1 X39.897 Y78.704 E190.58281
G1 X40.121 Y78.473 E190.62142
