;FLAVOR:UltiGCode
;TIME:8001
;MATERIAL:12964
;MATERIAL2:0
;NOZZLE_DIAMETER:0.400000
;NOZZLE_DIAMETER2:0.400000
;MTYPE:PLA

;Layer count: 38
;LAYER:0
M107
G0 F12000 X20.355 Y77.082 Z0.300
;TYPE:SKIRT
G1 F1200 X23.622 Y79.074 E0.45917
G1 X24.133 Y79.387 E0.53108
G1 X27.627 Y81.521 E1.02237
G1 X31.717 Y83.841 E1.58664
G1 X32.277 Y84.159 E1.66391
G1 X32.818 Y84.442 E1.73718
G1 X36.978 Y86.628 E2.30111
G1 X41.765 Y88.949 E2.93951
G1 X46.645 Y91.125 E3.58069
G1 X47.242 Y91.370 E3.65812
G1 X47.242 Y91.369 E3.65824
G1 X47.793 Y91.594 E3.72966
G1 X51.600 Y93.145 E4.22296
G1 X56.581 Y94.989 E4.86033
G1 X61.655 Y96.685 E5.50232
G1 X66.734 Y98.203 E6.13844
G1 X67.347 Y98.364 E6.21450
G1 X71.881 Y99.561 E6.77722
G1 X77.111 Y100.763 E7.42118
G1 X77.721 Y100.883 E7.49578
G1 X82.317 Y101.784 E8.05780
G1 X87.591 Y102.641 E8.69898
G1 X88.211 Y102.722 E8.77401
G1 X92.867 Y103.327 E9.33743
G1 X93.494 Y103.387 E9.41301
G1 X98.187 Y103.843 E9.97883
G1 X98.829 Y103.884 E10.05602
G1 X99.427 Y103.924 E10.12794
G1 X99.427 Y103.925 E10.12806
G1 X103.514 Y104.188 E10.61952
G1 X108.210 Y104.338 E11.18333
G1 X108.828 Y104.358 E11.25752
G1 X114.174 Y104.358 E11.89904
G1 X118.857 Y104.208 E12.46129
G1 X119.462 Y104.188 E12.53393
G1 X120.114 Y104.147 E12.61233
G1 X120.114 Y104.148 E12.61245
G1 X124.777 Y103.846 E13.17318
G1 X125.372 Y103.789 E13.24491
G1 X125.372 Y103.790 E13.24503
G1 X129.585 Y103.380 E13.75297
G1 X130.149 Y103.325 E13.82097
G1 X134.785 Y102.723 E14.38197
G1 X135.397 Y102.643 E14.45603
G1 X140.689 Y101.783 E15.09940
G1 X145.275 Y100.885 E15.66017
G1 X145.275 Y100.884 E15.66029
G1 X145.895 Y100.762 E15.73612
G1 X151.074 Y99.573 E16.37377
G1 X151.636 Y99.425 E16.44351
G1 X156.264 Y98.203 E17.01790
G1 X160.761 Y96.860 E17.58109
G1 X161.350 Y96.684 E17.65486
G1 X165.815 Y95.192 E18.21978
G1 X166.418 Y94.990 E18.29609
G1 X171.400 Y93.145 E18.93361
G1 X175.760 Y91.369 E19.49855
G1 X175.760 Y91.370 E19.49867
G1 X176.330 Y91.137 E19.57257
G1 X176.863 Y90.900 E19.64257
G1 X180.733 Y89.173 E20.15111
G1 X181.248 Y88.943 E20.21879
G1 X185.454 Y86.904 E20.77969
G1 X186.020 Y86.629 E20.85521
G1 X190.181 Y84.443 E21.41924
G1 X190.731 Y84.154 E21.49379
G1 X194.822 Y81.832 E22.05828
G1 X195.376 Y81.518 E22.13469
G1 X195.905 Y81.196 E22.20901
G1 X202.646 Y77.078 E23.15693
G1 X218.413 Y101.988 E26.69460
G1 X215.933 Y103.558 E27.04682
G1 X217.311 Y109.714 E27.80382
G1 X218.083 Y115.124 E28.45960
G1 X213.151 Y117.976 E29.14327
G1 X210.841 Y119.310 E29.46337
G1 X206.951 Y116.263 E30.05632
G1 X206.539 Y115.941 E30.11907
G1 X203.897 Y113.514 E30.54958
G1 X203.153 Y112.831 E30.67077
G1 X202.467 Y112.201 E30.78254
G1 X203.087 Y116.607 E31.31647
G1 X203.237 Y117.674 E31.44577
G1 X203.415 Y120.570 E31.79395
G1 X203.576 Y123.129 E32.10163
G1 X198.427 Y125.575 E32.78569
G1 X196.016 Y126.720 E33.10597
G1 X191.999 Y123.014 E33.76182
G1 X188.210 Y118.926 E34.43069
G1 X188.267 Y119.885 E34.54597
G1 X188.266 Y119.885 E34.54609
G1 X188.301 Y120.464 E34.61570
G1 X188.539 Y124.490 E35.09966
G1 X188.483 Y127.396 E35.44845
G1 X188.432 Y129.956 E35.75571
G1 X183.106 Y131.977 E36.43930
G1 X180.613 Y132.926 E36.75940
G1 X176.906 Y128.906 E37.41559
G1 X174.690 Y126.088 E37.84579
G1 X173.490 Y124.563 E38.07865
G1 X173.370 Y130.088 E38.74181
G1 X173.081 Y132.979 E39.09045
G1 X172.824 Y135.526 E39.39765
G1 X164.790 Y137.857 E40.40149
G1 X161.419 Y133.552 E41.05762
G1 X161.071 Y133.026 E41.13330
G1 X158.338 Y128.911 E41.72609
G1 X158.240 Y129.864 E41.84105
G1 X158.094 Y131.282 E42.01211
G1 X157.819 Y133.968 E42.33612
G1 X157.768 Y134.457 E42.39512
G1 X157.247 Y137.315 E42.74373
G1 X156.783 Y139.832 E43.05086
G1 X151.209 Y140.970 E43.73354
G1 X148.592 Y141.509 E44.05417
G1 X145.577 Y136.944 E44.71066
G1 X145.058 Y136.005 E44.83941
G1 X143.841 Y133.809 E45.14069
G1 X142.902 Y132.111 E45.37353
G1 X142.012 Y136.925 E45.96100
G1 X141.897 Y137.545 E46.03667
G1 X141.147 Y140.352 E46.38532
G1 X140.484 Y142.825 E46.69256
G1 X132.181 Y143.833 E47.69624
G1 X129.546 Y139.046 E48.35196
G1 X129.103 Y138.066 E48.48101
G1 X127.249 Y133.969 E49.02065
G1 X125.924 Y138.878 E49.63081
G1 X125.795 Y139.351 E49.68964
G1 X124.822 Y142.087 E50.03811
G1 X123.960 Y144.499 E50.34548
G1 X118.275 Y144.726 E51.02822
G1 X115.606 Y144.837 E51.34878
G1 X113.364 Y139.850 E52.00491
G1 X113.002 Y138.838 E52.13389
G1 X112.154 Y136.474 E52.43527
G1 X111.813 Y135.523 E52.55650
G1 X111.500 Y134.650 E52.66779
G1 X109.636 Y139.850 E53.33067
G1 X108.445 Y142.498 E53.67909
G1 X107.396 Y144.834 E53.98638
G1 X101.701 Y144.606 E54.67032
G1 X99.035 Y144.495 E54.99052
G1 X97.204 Y139.348 E55.64608
G1 X96.249 Y135.810 E56.08583
G1 X96.002 Y134.892 E56.19991
G1 X95.752 Y133.967 E56.31489
G1 X95.357 Y134.841 E56.42999
G1 X94.769 Y136.139 E56.60099
G1 X93.656 Y138.599 E56.92499
G1 X93.454 Y139.046 E56.98386
G1 X92.053 Y141.592 E57.33258
G1 X90.816 Y143.833 E57.63975
G1 X82.514 Y142.825 E58.64330
G1 X81.103 Y137.544 E59.29925
G1 X80.098 Y132.109 E59.96251
G1 X77.422 Y136.945 E60.62575
G1 X75.821 Y139.369 E60.97435
G1 X74.412 Y141.506 E61.28151
G1 X68.825 Y140.366 E61.96577
G1 X66.213 Y139.827 E62.28581
G1 X65.232 Y134.455 E62.94111
G1 X64.662 Y128.911 E63.60990
G1 X63.344 Y130.897 E63.89593
G1 X63.064 Y131.319 E63.95670
G1 X61.580 Y133.553 E64.27854
G1 X58.210 Y137.857 E64.93450
G1 X50.174 Y135.526 E65.93857
G1 X49.630 Y130.088 E66.59439
G1 X49.511 Y124.563 E67.25754
G1 X46.482 Y128.413 E67.84539
G1 X46.093 Y128.907 E67.92084
G1 X42.389 Y132.924 E68.57653
G1 X37.060 Y130.902 E69.26049
G1 X34.566 Y129.953 E69.58071
G1 X34.461 Y124.491 E70.23627
G1 X34.789 Y118.926 E70.90523
G1 X31.335 Y122.653 E71.51500
G1 X31.001 Y123.014 E71.57401
G1 X28.867 Y124.981 E71.92228
G1 X28.868 Y124.982 E71.92245
G1 X26.988 Y126.720 E72.22969
G1 X24.575 Y125.577 E72.55009
G1 X19.428 Y123.130 E73.23398
G1 X19.730 Y118.195 E73.82728
G1 X19.763 Y117.672 E73.89017
G1 X20.531 Y112.204 E74.55277
G1 X16.924 Y115.515 E75.14032
G1 X16.462 Y115.940 E75.21565
G1 X12.159 Y119.311 E75.87159
G1 X7.227 Y116.460 E76.55520
G1 X4.917 Y115.125 E76.87536
G1 X5.614 Y110.230 E77.46869
G1 X5.690 Y109.712 E77.53152
G1 X6.490 Y106.138 E77.97101
G1 X6.601 Y105.642 E78.03200
G1 X7.067 Y103.558 E78.28826
G1 X4.589 Y101.985 E78.64047
G1 X18.236 Y80.425 E81.70241
G1 X20.355 Y77.082 E82.17737
G10
G1 Z0.400
G0 F12000 X21.693 Y82.817
;TYPE:WALL-INNER
G1 Z0.300
G11
G1 F1200 X25.501 Y85.143 E82.71283
G1 X30.251 Y87.838 E83.36818
G1 X35.085 Y90.378 E84.02347
G1 X39.999 Y92.761 E84.67883
G1 X44.986 Y94.985 E85.33408
G1 X46.205 Y95.483 E85.49209
G1 X50.070 Y97.057 E85.99288
G1 X55.191 Y98.953 E86.64817
G1 X60.370 Y100.685 E87.30348
G1 X65.603 Y102.248 E87.95885
G1 X70.883 Y103.642 E88.61416
G1 X76.233 Y104.871 E89.27288
G1 X81.593 Y105.922 E89.92833
G1 X86.983 Y106.798 E90.58362
G1 X92.399 Y107.501 E91.23899
G1 X97.835 Y108.029 E91.89438
G1 X98.552 Y108.075 E91.98060
G1 X99.146 Y108.115 E92.05204
G1 X103.312 Y108.383 E92.55299
G1 X108.770 Y108.558 E93.20829
G1 X114.230 Y108.558 E93.86349
G1 X119.688 Y108.383 E94.51878
G1 X120.381 Y108.339 E94.60211
G1 X125.138 Y108.031 E95.17415
G1 X125.772 Y107.970 E95.25058
G1 X129.995 Y107.560 E95.75972
G1 X130.602 Y107.501 E95.83290
G1 X135.329 Y106.888 E96.40489
G1 X136.018 Y106.798 E96.48828
G1 X141.407 Y105.921 E97.14346
G1 X146.767 Y104.871 E97.79889
G1 X152.090 Y103.649 E98.45427
G1 X157.396 Y102.248 E99.11281
G1 X162.630 Y100.685 E99.76829
G1 X167.150 Y99.174 E100.34020
G1 X167.810 Y98.953 E100.42372
G1 X172.930 Y97.057 E101.07889
G1 X177.345 Y95.259 E101.65094
G1 X177.988 Y94.996 E101.73431
G1 X178.570 Y94.738 E101.81070
G1 X183.001 Y92.761 E102.39295
G1 X187.290 Y90.682 E102.96491
G1 X187.915 Y90.378 E103.04831
G1 X192.749 Y87.838 E103.70359
G1 X197.499 Y85.143 E104.35894
G1 X201.307 Y82.818 E104.89434
G1 X212.618 Y100.686 E107.43201
G1 X212.111 Y101.008 E107.50408
G1 X211.558 Y101.599 E107.60121
G1 X211.346 Y102.524 E107.71508
G1 X211.535 Y103.138 E107.79218
G1 X213.177 Y110.472 E108.69404
G1 X213.525 Y112.908 E108.98933
G1 X211.197 Y114.254 E109.31202
G1 X209.252 Y112.730 E109.60854
G1 X203.724 Y107.655 E110.50905
G1 X203.283 Y107.182 E110.58666
G1 X202.377 Y106.905 E110.70034
G1 X201.590 Y107.088 E110.79730
G1 X199.193 Y108.346 E111.12215
G1 X198.753 Y108.578 E111.18184
G1 X198.158 Y109.122 E111.27858
G1 X197.870 Y110.026 E111.39244
G1 X198.009 Y110.652 E111.46939
G1 X199.055 Y118.094 E112.37120
G1 X199.206 Y120.555 E112.66708
G1 X196.778 Y121.709 E112.98967
G1 X194.967 Y120.038 E113.28537
G1 X189.858 Y114.526 E114.18724
G1 X189.459 Y114.023 E114.26429
G1 X188.580 Y113.674 E114.37778
G1 X187.779 Y113.791 E114.47492
G1 X185.092 Y114.938 E114.82550
G1 X184.803 Y115.062 E114.86324
G1 X184.166 Y115.556 E114.95997
G1 X183.807 Y116.433 E115.07369
G1 X183.895 Y117.075 E115.15145
G1 X184.074 Y120.131 E115.51880
G1 X184.109 Y120.713 E115.58877
G1 X184.336 Y124.568 E116.05217
G1 X184.289 Y127.036 E116.34838
G1 X181.775 Y127.990 E116.67105
G1 X180.105 Y126.179 E116.96667
G1 X175.457 Y120.271 E117.86873
G1 X175.100 Y119.738 E117.94571
G1 X174.250 Y119.319 E118.05943
G1 X173.442 Y119.374 E118.15662
G1 X170.406 Y120.388 E118.54072
G1 X169.728 Y120.831 E118.63791
G1 X169.302 Y121.678 E118.75168
G1 X169.337 Y122.308 E118.82739
G1 X169.174 Y129.838 E119.73121
G1 X168.930 Y132.283 E120.02606
G1 X166.346 Y133.033 E120.34894
G1 X164.834 Y131.101 E120.64334
G1 X160.672 Y124.834 E121.54611
G1 X160.358 Y124.271 E121.62347
G1 X159.543 Y123.785 E121.73734
G1 X158.736 Y123.773 E121.83419
G1 X155.898 Y124.473 E122.18496
G1 X155.593 Y124.549 E122.22268
G1 X154.886 Y124.935 E122.31934
G1 X154.391 Y125.743 E122.43305
G1 X154.375 Y126.384 E122.50999
G1 X153.641 Y133.535 E123.37262
G1 X153.607 Y133.865 E123.41243
G1 X153.165 Y136.284 E123.70751
G1 X150.530 Y136.822 E124.03024
G1 X149.170 Y134.762 E124.32645
G1 X145.531 Y128.186 E125.22834
G1 X145.266 Y127.607 E125.30475
G1 X144.495 Y127.057 E125.41840
G1 X143.690 Y126.980 E125.51544
G1 X141.019 Y127.414 E125.84016
G1 X140.527 Y127.495 E125.90000
G1 X139.789 Y127.823 E125.99691
G1 X139.232 Y128.589 E126.11056
G1 X139.164 Y129.226 E126.18744
G1 X137.797 Y136.617 E127.08940
G1 X137.162 Y138.997 E127.38499
G1 X134.492 Y139.322 E127.70775
G1 X133.305 Y137.165 E128.00320
G1 X130.204 Y130.313 E128.90572
G1 X129.987 Y129.713 E128.98229
G1 X129.262 Y129.102 E129.09606
G1 X128.466 Y128.961 E129.19307
G1 X125.243 Y129.222 E129.58110
G1 X124.479 Y129.489 E129.67821
G1 X123.862 Y130.208 E129.79191
G1 X123.742 Y130.843 E129.86946
G1 X121.870 Y137.779 E130.73156
G1 X121.784 Y138.097 E130.77109
G1 X120.959 Y140.416 E131.06645
G1 X118.272 Y140.523 E131.38915
G1 X117.260 Y138.273 E131.68520
G1 X114.728 Y131.209 E132.58569
G1 X114.557 Y130.583 E132.66356
G1 X113.883 Y129.915 E132.77744
G1 X113.100 Y129.711 E132.87453
G1 X109.900 Y129.711 E133.25853
G1 X109.117 Y129.915 E133.35563
G1 X108.443 Y130.583 E133.46950
G1 X108.272 Y131.209 E133.54738
G1 X105.740 Y138.273 E134.44787
G1 X104.728 Y140.524 E134.74403
G1 X102.042 Y140.417 E135.06660
G1 X101.216 Y138.094 E135.36246
G1 X99.258 Y130.843 E136.26375
G1 X99.138 Y130.208 E136.34130
G1 X98.521 Y129.489 E136.45499
G1 X97.757 Y129.222 E136.55211
G1 X94.534 Y128.961 E136.94013
G1 X93.738 Y129.102 E137.03714
G1 X93.013 Y129.713 E137.15091
G1 X92.796 Y130.313 E137.22748
G1 X89.695 Y137.165 E138.13000
G1 X88.509 Y139.322 E138.42539
G1 X85.838 Y138.997 E138.74827
G1 X85.203 Y136.617 E139.04387
G1 X83.836 Y129.226 E139.94583
G1 X83.768 Y128.589 E140.02270
G1 X83.211 Y127.823 E140.13635
G1 X82.472 Y127.495 E140.23338
G1 X79.310 Y126.980 E140.61782
G1 X78.505 Y127.057 E140.71486
G1 X77.734 Y127.607 E140.82851
G1 X77.469 Y128.186 E140.90492
G1 X73.825 Y134.772 E141.80814
G1 X72.470 Y136.823 E142.10313
G1 X69.836 Y136.285 E142.42573
G1 X69.393 Y133.860 E142.72155
G1 X68.625 Y126.384 E143.62339
G1 X68.609 Y125.743 E143.70033
G1 X68.114 Y124.935 E143.81404
G1 X67.405 Y124.548 E143.91097
G1 X64.264 Y123.773 E144.29919
G1 X63.457 Y123.785 E144.39604
G1 X62.642 Y124.271 E144.50991
G1 X62.326 Y124.837 E144.58770
G1 X58.173 Y131.091 E145.48858
G1 X56.653 Y133.032 E145.78442
G1 X54.071 Y132.283 E146.10703
G1 X53.826 Y129.838 E146.40190
G1 X53.683 Y123.227 E147.19541
G1 X53.671 Y122.722 E147.25603
G1 X53.663 Y122.310 E147.30548
G1 X53.698 Y121.678 E147.38143
G1 X53.272 Y120.831 E147.49520
G1 X52.594 Y120.388 E147.59239
G1 X49.558 Y119.374 E147.97649
G1 X48.750 Y119.319 E148.07368
G1 X47.900 Y119.738 E148.18740
G1 X47.543 Y120.271 E148.26438
G1 X42.895 Y126.179 E149.16644
G1 X41.225 Y127.990 E149.46206
G1 X38.711 Y127.036 E149.78473
G1 X38.664 Y124.568 E150.08094
G1 X39.105 Y117.075 E150.98166
G1 X39.193 Y116.433 E151.05942
G1 X38.834 Y115.556 E151.17314
G1 X38.196 Y115.061 E151.27004
G1 X35.222 Y113.791 E151.65809
G1 X34.420 Y113.674 E151.75535
G1 X33.560 Y114.016 E151.86641
G1 X32.855 Y114.835 E151.99609
G1 X28.033 Y120.038 E152.84735
G1 X26.221 Y121.709 E153.14314
G1 X23.793 Y120.555 E153.46573
G1 X23.922 Y118.456 E153.71809
G1 X23.945 Y118.094 E153.76162
G1 X24.933 Y111.059 E154.61410
G1 X24.991 Y110.650 E154.66367
G1 X25.130 Y110.026 E154.74039
G1 X24.842 Y109.122 E154.85424
G1 X24.246 Y108.578 E154.95107
G1 X21.410 Y107.088 E155.33550
G1 X20.623 Y106.905 E155.43246
G1 X19.717 Y107.182 E155.54615
G1 X19.282 Y107.648 E155.62265
G1 X13.741 Y112.736 E156.52537
G1 X11.803 Y114.254 E156.82078
G1 X9.475 Y112.908 E157.14347
G1 X9.772 Y110.828 E157.39560
G1 X9.824 Y110.469 E157.43913
G1 X11.369 Y103.565 E158.28810
G1 X11.567 Y102.805 E158.38235
G1 X11.655 Y102.530 E158.41699
G1 X11.442 Y101.599 E158.53160
G1 X10.889 Y101.008 E158.62873
G1 X10.382 Y100.686 E158.70080
G1 X21.693 Y82.817 E161.23857
G0 F12000 X22.147 Y82.627
G1 F1200 X25.704 Y84.798 E161.73863
G1 X30.442 Y87.487 E162.39237
G1 X35.266 Y90.021 E163.04626
G1 X40.168 Y92.398 E163.70001
G1 X45.143 Y94.617 E164.35370
G1 X50.214 Y96.684 E165.01083
G1 X55.324 Y98.576 E165.66471
G1 X60.491 Y100.303 E166.31847
G1 X65.712 Y101.863 E166.97236
G1 X70.979 Y103.254 E167.62607
G1 X76.316 Y104.480 E168.28319
G1 X81.663 Y105.528 E168.93704
G1 X87.040 Y106.402 E169.59075
G1 X92.444 Y107.103 E170.24466
G1 X97.867 Y107.630 E170.89849
G1 X98.579 Y107.676 E170.98410
G1 X99.173 Y107.716 E171.05555
G1 X103.331 Y107.983 E171.55553
G1 X108.776 Y108.158 E172.20927
G1 X114.224 Y108.158 E172.86303
G1 X119.669 Y107.983 E173.51677
G1 X125.106 Y107.632 E174.17057
G1 X129.956 Y107.162 E174.75529
G1 X130.557 Y107.103 E174.82776
G1 X135.960 Y106.402 E175.48155
G1 X141.337 Y105.528 E176.13526
G1 X146.684 Y104.480 E176.78911
G1 X151.995 Y103.261 E177.44300
G1 X157.288 Y101.863 E178.09994
G1 X162.509 Y100.303 E178.75383
G1 X167.676 Y98.576 E179.40759
G1 X172.785 Y96.684 E180.06136
G1 X177.831 Y94.628 E180.71521
G1 X182.832 Y92.398 E181.37229
G1 X187.734 Y90.021 E182.02604
G1 X192.558 Y87.487 E182.67993
G1 X197.296 Y84.798 E183.33367
G1 X201.435 Y82.270 E183.91567
G1 X213.170 Y100.810 E186.54868
G1 X212.368 Y101.318 E186.66260
G1 X211.924 Y101.794 E186.74072
G1 X211.760 Y102.509 E186.82874
G1 X211.919 Y103.024 E186.89342
G1 X213.571 Y110.404 E187.80094
G1 X213.959 Y113.120 E188.13017
G1 X211.163 Y114.736 E188.51770
G1 X209.004 Y113.045 E188.84678
G1 X203.437 Y107.933 E189.75375
G1 X203.064 Y107.533 E189.81938
G1 X202.363 Y107.319 E189.90733
G1 X201.730 Y107.466 E189.98531
G1 X199.380 Y108.700 E190.30383
G1 X198.985 Y108.908 E190.35740
G1 X198.507 Y109.345 E190.43512
G1 X198.284 Y110.045 E190.52328
G1 X198.404 Y110.588 E190.59001
G1 X199.453 Y118.051 E191.49437
G1 X199.622 Y120.800 E191.82488
G1 X196.706 Y122.186 E192.21231
G1 X194.685 Y120.321 E192.54232
G1 X189.553 Y114.784 E193.44826
G1 X189.212 Y114.356 E193.51393
G1 X188.532 Y114.085 E193.60177
G1 X187.888 Y114.180 E193.67989
G1 X185.249 Y115.305 E194.02414
G1 X185.008 Y115.409 E194.05564
G1 X184.496 Y115.806 E194.13339
G1 X184.218 Y116.485 E194.22143
G1 X184.292 Y117.025 E194.28684
G1 X184.737 Y124.565 E195.19321
G1 X184.684 Y127.314 E195.52315
G1 X181.664 Y128.460 E195.91077
G1 X179.803 Y126.442 E196.24018
G1 X175.134 Y120.507 E197.14635
G1 X174.827 Y120.050 E197.21242
G1 X174.169 Y119.725 E197.30048
