;FLAVOR:UltiGCode
;TIME:9310
;MATERIAL:15087
;MATERIAL2:0
;NOZZLE_DIAMETER:0.400000
;NOZZLE_DIAMETER2:0.400000
;MTYPE:PLA

;Layer count: 38
;LAYER:0
M107
G0 F12000 X29.739 Y23.997 Z0.300
G0 X30.149 Y26.905
;TYPE:SKIRT
G1 F1200 X29.739 Y23.997 E0.35241
G1 X52.948 Y20.717 E3.16517
G1 X52.948 Y20.718 E3.16529
G1 X54.543 Y20.492 E3.35860
G1 X58.932 Y19.872 E3.89051
G1 X59.512 Y23.568 E4.33946
G1 X60.261 Y28.312 E4.91579
G1 X60.375 Y28.909 E4.98872
G1 X61.259 Y33.531 E5.55341
G1 X62.424 Y38.720 E6.19159
G1 X62.581 Y39.328 E6.26695
G1 X63.756 Y43.868 E6.82970
G1 X65.266 Y49.014 E7.47325
G1 X65.461 Y49.608 E7.54828
G1 X65.462 Y49.608 E7.54840
G1 X65.648 Y50.174 E7.61989
G1 X66.930 Y54.074 E8.11253
G1 X68.754 Y59.071 E8.75087
G1 X70.748 Y64.029 E9.39214
G1 X72.885 Y68.890 E10.02934
G1 X74.914 Y73.127 E10.59307
G1 X75.187 Y73.695 E10.66870
G1 X77.652 Y78.441 E11.31045
G1 X77.961 Y78.992 E11.38626
G1 X80.255 Y83.082 E11.94899
G1 X83.018 Y87.654 E12.59003
G1 X83.356 Y88.176 E12.66466
G1 X85.903 Y92.100 E13.22603
G1 X88.598 Y95.973 E13.79224
G1 X88.953 Y96.482 E13.86671
G1 X89.349 Y97.015 E13.94639
G1 X92.163 Y100.794 E14.51178
G1 X95.461 Y104.935 E15.14705
G1 X98.915 Y108.994 E15.78661
G1 X99.344 Y109.468 E15.86333
G1 X102.498 Y112.944 E16.42656
G1 X102.937 Y113.397 E16.50226
G1 X106.207 Y116.774 E17.06635
G1 X109.602 Y120.062 E17.63349
G1 X110.043 Y120.489 E17.70716
G1 X110.517 Y120.920 E17.78403
G1 X113.992 Y124.073 E18.34710
G1 X118.065 Y127.539 E18.98888
G1 X122.201 Y130.833 E19.62337
G1 X126.483 Y134.022 E20.26405
G1 X126.959 Y134.354 E20.33369
G1 X127.513 Y134.740 E20.41472
G1 X130.900 Y137.096 E20.90982
G1 X135.335 Y139.975 E21.54432
G1 X135.886 Y140.309 E21.62164
G1 X139.916 Y142.744 E22.18666
G1 X140.454 Y143.046 E22.26070
G1 X144.556 Y145.346 E22.82504
G1 X145.109 Y145.633 E22.89980
G1 X149.270 Y147.794 E23.46244
G1 X149.798 Y148.048 E23.53275
G1 X149.798 Y148.049 E23.53287
G1 X154.111 Y150.115 E24.10675
G1 X158.981 Y152.257 E24.74518
G1 X163.343 Y154.009 E25.30926
G1 X163.929 Y154.246 E25.38512
G1 X164.511 Y154.458 E25.45945
G1 X168.918 Y156.067 E26.02243
G1 X169.523 Y156.266 E26.09886
G1 X174.001 Y157.739 E26.66454
G1 X174.614 Y157.919 E26.74121
G1 X179.109 Y159.239 E27.30338
G1 X179.727 Y159.397 E27.37993
G1 X184.281 Y160.575 E27.94440
G1 X184.889 Y160.712 E28.01919
G1 X189.481 Y161.744 E28.58397
G1 X194.091 Y162.624 E29.14716
G1 X194.712 Y162.743 E29.22304
G1 X203.128 Y164.071 E30.24545
G1 X199.003 Y193.261 E33.78305
G1 X196.096 Y192.850 E34.13536
G1 X195.099 Y194.743 E34.39210
G1 X194.644 Y195.610 E34.50960
G1 X193.385 Y198.001 E34.83387
G1 X193.155 Y198.435 E34.89281
G1 X190.241 Y203.055 E35.54827
G1 X184.634 Y202.032 E36.23222
G1 X182.010 Y201.551 E36.55235
G1 X180.916 Y196.197 E37.20810
G1 X180.785 Y195.129 E37.33722
G1 X180.238 Y190.712 E37.87131
G1 X179.741 Y191.495 E37.98260
G1 X177.279 Y195.380 E38.53453
G1 X175.535 Y197.706 E38.88340
G1 X173.999 Y199.751 E39.19031
G1 X171.424 Y199.065 E39.51009
G1 X165.917 Y197.591 E40.19419
G1 X165.258 Y192.165 E40.85009
G1 X165.232 Y191.533 E40.92600
G1 X165.021 Y186.598 E41.51874
G1 X164.177 Y187.719 E41.68712
G1 X163.588 Y188.501 E41.80460
G1 X161.960 Y190.660 E42.12908
G1 X161.664 Y191.051 E42.18793
G1 X159.742 Y193.225 E42.53615
G1 X158.049 Y195.143 E42.84314
G1 X152.677 Y193.233 E43.52732
G1 X150.165 Y192.336 E43.84740
G1 X149.945 Y186.878 E44.50289
G1 X150.155 Y181.355 E45.16613
G1 X146.485 Y185.486 E45.82922
G1 X142.546 Y189.275 E46.48509
G1 X137.348 Y186.939 E47.16894
G1 X134.917 Y185.842 E47.48899
G1 X135.137 Y180.384 E48.14448
G1 X135.263 Y179.317 E48.27341
G1 X135.684 Y175.802 E48.69822
G1 X135.683 Y175.802 E48.69834
G1 X135.796 Y174.850 E48.81339
G1 X135.104 Y175.513 E48.92839
G1 X132.078 Y178.410 E49.43109
G1 X131.413 Y178.997 E49.53753
G1 X127.539 Y182.164 E50.13798
G1 X120.212 Y178.129 E51.14173
G1 X120.870 Y172.704 E51.79750
G1 X121.393 Y170.120 E52.11387
G1 X121.493 Y169.628 E52.17412
G1 X121.492 Y169.628 E52.17424
G1 X121.965 Y167.288 E52.46072
G1 X117.679 Y170.776 E53.12383
G1 X115.290 Y172.428 E53.47238
G1 X113.184 Y173.884 E53.77961
G1 X106.203 Y169.273 E54.78358
G1 X107.194 Y164.430 E55.37678
G1 X107.299 Y163.918 E55.43950
G1 X108.310 Y160.396 E55.87920
G1 X108.450 Y159.908 E55.94013
G1 X108.836 Y158.563 E56.10804
G1 X108.048 Y159.105 E56.22281
G1 X106.875 Y159.912 E56.39366
G1 X104.651 Y161.441 E56.71753
G1 X104.247 Y161.719 E56.77638
G1 X101.730 Y163.174 E57.12525
G1 X99.515 Y164.455 E57.43230
G1 X95.029 Y160.942 E58.11605
G1 X92.928 Y159.295 E58.43640
G1 X94.452 Y154.047 E59.09217
G1 X95.381 Y151.582 E59.40828
G1 X96.401 Y148.876 E59.75531
G1 X92.160 Y151.315 E60.34239
G1 X91.612 Y151.631 E60.41830
G1 X86.674 Y153.976 E61.07428
G1 X80.524 Y148.305 E62.07815
G1 X82.279 Y143.684 E62.67131
G1 X82.280 Y143.684 E62.67143
G1 X82.464 Y143.198 E62.73379
G1 X82.732 Y142.627 E62.80948
G1 X84.844 Y138.156 E63.40285
G1 X83.575 Y138.755 E63.57124
G1 X82.563 Y139.233 E63.70555
G1 X80.248 Y140.326 E64.01275
G1 X79.804 Y140.536 E64.07169
G1 X77.088 Y141.567 E64.42031
G1 X74.694 Y142.475 E64.72756
G1 X69.024 Y136.326 E65.73125
G1 X71.368 Y131.389 E66.38708
G1 X72.683 Y129.104 E66.70344
G1 X72.684 Y129.104 E66.70356
G1 X73.364 Y127.920 E66.86741
G1 X74.125 Y126.598 E67.05045
G1 X68.953 Y128.548 E67.71374
G1 X63.704 Y130.072 E68.36963
G1 X58.545 Y123.486 E69.37356
G1 X61.019 Y119.206 E69.96679
G1 X61.281 Y118.754 E70.02948
G1 X63.357 Y115.734 E70.46925
G1 X63.644 Y115.317 E70.52999
G1 X64.437 Y114.163 E70.69802
G1 X59.553 Y115.566 E71.30780
G1 X59.081 Y115.701 E71.36671
G1 X56.238 Y116.283 E71.71495
G1 X53.728 Y116.798 E72.02242
G1 X50.587 Y112.043 E72.70627
G1 X49.115 Y109.817 E73.02652
G1 X51.927 Y105.751 E73.61975
G1 X52.224 Y105.321 E73.68247
G1 X55.713 Y101.034 E74.34575
G1 X50.913 Y102.005 E74.93341
G1 X50.913 Y102.004 E74.93353
G1 X50.296 Y102.129 E75.00908
G1 X44.869 Y102.788 E75.66510
G1 X43.584 Y100.451 E75.98514
G1 X40.836 Y95.461 E76.66874
G1 X43.964 Y91.634 E77.26186
G1 X44.295 Y91.229 E77.32463
G1 X46.829 Y88.585 E77.76409
G1 X46.828 Y88.584 E77.76426
G1 X47.179 Y88.217 E77.82520
G1 X48.150 Y87.204 E77.99359
G1 X43.103 Y87.805 E78.60351
G1 X42.619 Y87.863 E78.66200
G1 X37.156 Y88.083 E79.31809
G1 X36.062 Y85.652 E79.63799
G1 X33.725 Y80.454 E80.32189
G1 X37.514 Y76.515 E80.97776
G1 X41.646 Y72.845 E81.64094
G1 X36.751 Y73.031 E82.22877
G1 X36.751 Y73.030 E82.22889
G1 X36.125 Y73.056 E82.30407
G1 X30.661 Y72.835 E82.96029
G1 X27.857 Y64.953 E83.96420
G1 X31.560 Y61.679 E84.55733
G1 X31.952 Y61.333 E84.62007
G1 X32.454 Y60.955 E84.69548
G1 X36.402 Y57.979 E85.28876
G1 X34.020 Y57.877 E85.57487
G1 X33.517 Y57.856 E85.63528
G1 X30.834 Y57.742 E85.95753
G1 X25.406 Y57.083 E86.61367
G1 X24.719 Y54.503 E86.93406
G1 X23.247 Y49.000 E87.61764
G1 X27.202 Y46.035 E88.21080
G1 X27.618 Y45.722 E88.27327
G1 X29.846 Y44.310 E88.58980
G1 X32.287 Y42.763 E88.93659
G1 X31.368 Y42.649 E89.04772
G1 X30.427 Y42.533 E89.16149
G1 X26.802 Y42.083 E89.59983
G1 X21.445 Y40.989 E90.25594
G1 X20.968 Y38.362 E90.57633
G1 X19.944 Y32.760 E91.25971
G1 X24.567 Y29.844 E91.91561
G1 X30.149 Y26.905 E92.67262
G10
G1 Z0.400
G0 F12000 X33.326 Y29.979
;TYPE:WALL-INNER
G1 Z0.300
G11
G1 F1200 X33.911 Y29.727 E92.74906
G1 X34.475 Y28.967 E92.86263
G1 X34.569 Y28.164 E92.95965
G1 X34.485 Y27.568 E93.03187
G1 X55.425 Y24.609 E95.56964
G1 X56.120 Y29.015 E96.10489
G1 X57.145 Y34.379 E96.76022
G1 X58.342 Y39.707 E97.41552
G1 X58.515 Y40.380 E97.49890
G1 X59.709 Y44.995 E98.07094
G1 X61.247 Y50.236 E98.72638
G1 X62.961 Y55.450 E99.38500
G1 X64.834 Y60.580 E100.04035
G1 X66.871 Y65.647 E100.69568
G1 X69.070 Y70.646 E101.35103
G1 X71.128 Y74.945 E101.92298
G1 X71.429 Y75.572 E102.00644
G1 X73.959 Y80.442 E102.66500
G1 X76.631 Y85.206 E103.32046
G1 X79.455 Y89.880 E103.97576
G1 X82.429 Y94.461 E104.63117
G1 X85.548 Y98.943 E105.28642
G1 X88.826 Y103.345 E105.94503
G1 X92.229 Y107.618 E106.60053
G1 X95.768 Y111.777 E107.25585
G1 X99.438 Y115.821 E107.91117
G1 X103.237 Y119.744 E108.56649
G1 X107.179 Y123.562 E109.22503
G1 X111.223 Y127.232 E109.88035
G1 X115.382 Y130.771 E110.53566
G1 X119.655 Y134.173 E111.19109
G1 X124.034 Y137.435 E111.84634
G1 X125.113 Y138.188 E112.00423
G1 X128.539 Y140.571 E112.50503
G1 X133.120 Y143.544 E113.16037
G1 X137.794 Y146.369 E113.81573
G1 X142.558 Y149.041 E114.47119
G1 X147.404 Y151.558 E115.12647
G1 X147.977 Y151.834 E115.20280
G1 X152.354 Y153.930 E115.78515
G1 X157.353 Y156.129 E116.44051
G1 X161.775 Y157.906 E117.01239
G1 X162.420 Y158.166 E117.09584
G1 X167.550 Y160.039 E117.75119
G1 X172.738 Y161.745 E118.40654
G1 X178.005 Y163.291 E119.06525
G1 X178.677 Y163.464 E119.14852
G1 X183.293 Y164.658 E119.72067
G1 X183.970 Y164.810 E119.80393
G1 X188.620 Y165.855 E120.37585
G1 X193.984 Y166.880 E121.03118
G1 X198.391 Y167.576 E121.56657
G1 X195.432 Y188.515 E124.10422
G1 X194.836 Y188.431 E124.17644
G1 X194.033 Y188.525 E124.27346
G1 X193.290 Y189.077 E124.38453
G1 X192.824 Y190.049 E124.51389
G1 X189.518 Y196.329 E125.36553
G1 X188.203 Y198.413 E125.66123
G1 X185.558 Y197.930 E125.98388
G1 X185.065 Y195.522 E126.27884
G1 X184.141 Y188.051 E127.18219
G1 X184.112 Y187.416 E127.25847
G1 X183.600 Y186.619 E127.37214
G1 X182.883 Y186.248 E127.46902
G1 X179.757 Y185.545 E127.85351
G1 X178.950 Y185.574 E127.95041
G1 X178.147 Y186.076 E128.06405
G1 X177.843 Y186.648 E128.14178
G1 X173.821 Y192.991 E129.04306
G1 X172.342 Y194.963 E129.33886
G1 X169.745 Y194.268 E129.66147
G1 X169.447 Y191.818 E129.95763
G1 X169.127 Y184.310 E130.85941
G1 X169.150 Y183.672 E130.93602
G1 X168.704 Y182.835 E131.04983
G1 X168.018 Y182.406 E131.14692
G1 X164.929 Y181.446 E131.53509
G1 X164.122 Y181.410 E131.63203
G1 X163.301 Y181.835 E131.74297
G1 X162.692 Y182.709 E131.87080
G1 X158.608 Y188.129 E132.68517
G1 X158.414 Y188.387 E132.72390
G1 X156.781 Y190.235 E133.01984
G1 X154.247 Y189.334 E133.34257
G1 X154.148 Y186.872 E133.63825
G1 X154.433 Y179.363 E134.53997
G1 X154.509 Y178.723 E134.61731
G1 X154.131 Y177.854 E134.73103
G1 X153.483 Y177.371 E134.82802
G1 X150.972 Y176.363 E135.15271
G1 X150.511 Y176.177 E135.21236
G1 X149.709 Y176.075 E135.30938
G1 X148.835 Y176.443 E135.42317
G1 X148.445 Y176.954 E135.50031
G1 X143.453 Y182.575 E136.40244
G1 X141.680 Y184.281 E136.69769
G1 X139.227 Y183.179 E137.02039
G1 X139.326 Y180.720 E137.31571
G1 X140.216 Y173.253 E138.21810
G1 X140.341 Y172.623 E138.29517
G1 X140.035 Y171.727 E138.40879
G1 X139.428 Y171.195 E138.50564
G1 X136.818 Y169.892 E138.85570
G1 X136.534 Y169.751 E138.89375
G1 X135.743 Y169.584 E138.99077
G1 X134.843 Y169.881 E139.10449
G1 X134.417 Y170.355 E139.18097
G1 X129.240 Y175.313 E140.04115
G1 X128.684 Y175.804 E140.13017
G1 X127.078 Y177.116 E140.37902
G1 X124.723 Y175.819 E140.70165
G1 X125.021 Y173.368 E140.99793
G1 X126.424 Y166.423 E141.84817
G1 X126.679 Y165.368 E141.97841
G1 X126.452 Y164.471 E142.08945
G1 X125.890 Y163.891 E142.18636
G1 X123.147 Y162.233 E142.57098
G1 X122.372 Y162.005 E142.66792
G1 X121.451 Y162.226 E142.78158
G1 X120.987 Y162.669 E142.85856
G1 X115.151 Y167.418 E143.76145
G1 X113.130 Y168.815 E144.05627
G1 X110.887 Y167.334 E144.37881
G1 X111.382 Y164.916 E144.67499
G1 X112.346 Y161.557 E145.09434
G1 X113.338 Y158.105 E145.52534
G1 X113.576 Y157.375 E145.61748
G1 X113.680 Y157.092 E145.65366
G1 X113.524 Y156.159 E145.76718
G1 X113.007 Y155.536 E145.86432
G1 X110.385 Y153.646 E146.25219
G1 X109.630 Y153.355 E146.34928
G1 X108.694 Y153.503 E146.46300
G1 X108.202 Y153.902 E146.53901
G1 X102.001 Y158.166 E147.44208
G1 X99.869 Y159.398 E147.73756
G1 X97.752 Y157.741 E148.06017
G1 X98.437 Y155.383 E148.35483
G1 X100.948 Y148.723 E149.20894
G1 X101.235 Y148.035 E149.29840
G1 X101.363 Y147.761 E149.33469
G1 X101.282 Y146.816 E149.44851
G1 X100.819 Y146.153 E149.54554
G1 X98.379 Y144.077 E149.92998
G1 X97.650 Y143.728 E150.02697
G1 X96.706 Y143.799 E150.14057
G1 X96.173 Y144.162 E150.21796
G1 X90.062 Y147.676 E151.06387
G1 X89.656 Y147.911 E151.12016
G1 X87.435 Y148.965 E151.41517
G1 X85.459 Y147.142 E151.73779
G1 X86.333 Y144.840 E152.03327
G1 X89.541 Y138.045 E152.93497
G1 X89.860 Y137.485 E153.01231
G1 X89.856 Y136.538 E153.12595
G1 X89.447 Y135.839 E153.22314
G1 X87.161 Y133.553 E153.61108
G1 X86.462 Y133.144 E153.70827
G1 X85.515 Y133.140 E153.82191
G1 X84.955 Y133.459 E153.89925
G1 X78.165 Y136.665 E154.80031
G1 X75.858 Y137.541 E155.09643
G1 X74.035 Y135.565 E155.41905
G1 X75.088 Y133.348 E155.71357
G1 X78.636 Y127.179 E156.56756
G1 X79.033 Y126.540 E156.65783
G1 X79.201 Y126.291 E156.69387
G1 X79.272 Y125.350 E156.80712
G1 X78.923 Y124.621 E156.90410
G1 X76.847 Y122.181 E157.28854
G1 X76.184 Y121.718 E157.38558
G1 X75.240 Y121.637 E157.49928
G1 X74.665 Y121.905 E157.57540
G1 X67.617 Y124.563 E158.47931
G1 X65.260 Y125.247 E158.77382
G1 X63.602 Y123.130 E159.09650
G1 X64.833 Y121.001 E159.39161
G1 X69.098 Y114.798 E160.29494
G1 X69.497 Y114.306 E160.37096
G1 X69.645 Y113.370 E160.48467
G1 X69.354 Y112.615 E160.58177
G1 X67.464 Y109.993 E160.96963
G1 X66.841 Y109.476 E161.06678
G1 X65.905 Y109.319 E161.18067
G1 X65.301 Y109.545 E161.25806
G1 X58.084 Y111.618 E162.15912
G1 X55.666 Y112.113 E162.45529
G1 X54.185 Y109.870 E162.77783
G1 X55.582 Y107.849 E163.07265
G1 X60.331 Y102.013 E163.97554
G1 X60.774 Y101.549 E164.05253
G1 X60.995 Y100.628 E164.16618
G1 X60.767 Y99.853 E164.26312
G1 X59.109 Y97.110 E164.64774
G1 X58.529 Y96.548 E164.74466
G1 X57.612 Y96.316 E164.85816
G1 X56.996 Y96.490 E164.93498
G1 X49.632 Y97.979 E165.83654
G1 X47.181 Y98.277 E166.13283
G1 X45.884 Y95.922 E166.45545
G1 X47.441 Y94.017 E166.75069
G1 X52.645 Y88.583 E167.65357
G1 X53.119 Y88.157 E167.73004
G1 X53.416 Y87.257 E167.84377
G1 X53.249 Y86.465 E167.94090
G1 X51.805 Y83.572 E168.32890
G1 X51.273 Y82.965 E168.42576
G1 X50.377 Y82.659 E168.53938
G1 X49.747 Y82.784 E168.61645
G1 X42.606 Y83.634 E169.47942
G1 X42.276 Y83.674 E169.51931
G1 X39.822 Y83.773 E169.81403
G1 X38.719 Y81.320 E170.13678
G1 X40.425 Y79.547 E170.43204
G1 X46.046 Y74.555 E171.33416
G1 X46.557 Y74.165 E171.41130
G1 X46.925 Y73.291 E171.52510
G1 X46.823 Y72.489 E171.62211
G1 X45.628 Y69.517 E172.00650
G1 X45.146 Y68.869 E172.10341
G1 X44.277 Y68.491 E172.21713
G1 X43.637 Y68.567 E172.29447
G1 X36.591 Y68.834 E173.14060
G1 X36.126 Y68.852 E173.19644
G1 X33.667 Y68.753 E173.49176
G1 X32.765 Y66.219 E173.81453
G1 X34.610 Y64.589 E174.10996
G1 X40.263 Y60.328 E174.95944
G1 X40.894 Y59.885 E175.05196
G1 X41.154 Y59.719 E175.08897
G1 X41.590 Y58.878 E175.20265
G1 X41.554 Y58.071 E175.29959
G1 X40.593 Y54.982 E175.68779
G1 X40.165 Y54.296 E175.78482
G1 X39.328 Y53.850 E175.89863
G1 X38.691 Y53.873 E175.97512
G1 X34.199 Y53.681 E176.51465
G1 X33.695 Y53.660 E176.57518
G1 X31.182 Y53.553 E176.87702
G1 X28.733 Y53.255 E177.17306
G1 X28.038 Y50.658 E177.49567
G1 X29.721 Y49.396 E177.74810
G1 X30.005 Y49.182 E177.79077
G1 X35.990 Y45.387 E178.64119
G1 X36.660 Y44.995 E178.73434
G1 X36.927 Y44.849 E178.77085
G1 X37.426 Y44.050 E178.88390
G1 X37.455 Y43.243 E178.98080
G1 X36.752 Y40.117 E179.36529
G1 X36.381 Y39.400 E179.46216
G1 X35.584 Y38.888 E179.57584
G1 X34.936 Y38.858 E179.65368
G1 X27.489 Y37.937 E180.55413
G1 X25.070 Y37.442 E180.85042
G1 X24.587 Y34.797 E181.17307
G1 X26.671 Y33.482 E181.46878
G1 X33.326 Y29.979 E182.37125
G0 F12000 X33.654 Y29.402
G1 F1200 X34.090 Y28.814 E182.45909
G1 X34.166 Y28.169 E182.53703
G1 X34.033 Y27.228 E182.65107
G1 X55.758 Y24.158 E185.28397
G1 X56.514 Y28.947 E185.86577
G1 X57.536 Y34.298 E186.51950
G1 X58.731 Y39.614 E187.17334
G1 X60.094 Y44.888 E187.82701
G1 X61.629 Y50.117 E188.48097
G1 X63.339 Y55.319 E189.13807
G1 X65.208 Y60.437 E189.79190
G1 X67.240 Y65.492 E190.44567
G1 X69.434 Y70.479 E191.09947
G1 X71.787 Y75.393 E191.75326
G1 X74.311 Y80.252 E192.41032
G1 X76.977 Y85.004 E193.06417
G1 X79.794 Y89.667 E193.71791
G1 X82.761 Y94.238 E194.37185
G1 X85.873 Y98.709 E195.02554
G1 X89.143 Y103.101 E195.68262
G1 X92.538 Y107.363 E196.33649
G1 X96.068 Y111.513 E196.99028
G1 X99.729 Y115.548 E197.64408
G1 X103.520 Y119.461 E198.29786
G1 X107.452 Y123.271 E198.95488
G1 X111.487 Y126.932 E199.60867
