;FLAVOR:UltiGCode
;TIME:9314
;MATERIAL:15086
;MATERIAL2:0
;NOZZLE_DIAMETER:0.400000
;NOZZLE_DIAMETER2:0.400000
;MTYPE:PLA

;Layer count: 38
;LAYER:0
M107
G0 F12000 X29.730 Y23.990 Z0.300
G0 X30.140 Y26.898
;TYPE:SKIRT
G1 F1200 X29.730 Y23.990 E0.35241
G1 X54.998 Y20.417 E3.41474
G1 X54.998 Y20.418 E3.41486
G1 X58.928 Y19.860 E3.89119
G1 X59.502 Y23.558 E4.34026
G1 X60.253 Y28.307 E4.91722
G1 X60.366 Y28.899 E4.98954
G1 X61.248 Y33.514 E5.55337
G1 X61.385 Y34.126 E5.62862
G1 X62.417 Y38.713 E6.19282
G1 X63.749 Y43.859 E6.83069
G1 X65.256 Y48.995 E7.47300
G1 X65.428 Y49.520 E7.53929
G1 X65.639 Y50.163 E7.62050
G1 X66.920 Y54.054 E8.11207
G1 X68.748 Y59.061 E8.75170
G1 X70.743 Y64.019 E9.39302
G1 X72.880 Y68.878 E10.03000
G1 X74.910 Y73.116 E10.59390
G1 X75.179 Y73.676 E10.66845
G1 X75.481 Y74.261 E10.74745
G1 X75.757 Y74.790 E10.81905
G1 X77.649 Y78.431 E11.31144
G1 X79.948 Y82.530 E11.87540
G1 X80.252 Y83.070 E11.94977
G1 X80.581 Y83.615 E12.02616
G1 X83.010 Y87.636 E12.58988
G1 X85.916 Y92.111 E13.23018
G1 X86.271 Y92.622 E13.30484
G1 X88.954 Y96.477 E13.86845
G1 X89.699 Y97.478 E14.01819
G1 X92.161 Y100.782 E14.51264
G1 X92.542 Y101.259 E14.58590
G1 X95.473 Y104.937 E15.15026
G1 X98.926 Y108.997 E15.78984
G1 X102.077 Y112.468 E16.35239
G1 X102.494 Y112.927 E16.42680
G1 X102.937 Y113.384 E16.50318
G1 X106.594 Y117.162 E17.13414
G1 X106.595 Y117.163 E17.13431
G1 X106.679 Y117.245 E17.14840
G1 X107.106 Y117.658 E17.21969
G1 X110.046 Y120.505 E17.71079
G1 X113.535 Y123.672 E18.27623
G1 X114.001 Y124.095 E18.35176
G1 X114.476 Y124.498 E18.42651
G1 X118.072 Y127.556 E18.99296
G1 X122.226 Y130.863 E19.63011
G1 X126.489 Y134.039 E20.26804
G1 X127.033 Y134.417 E20.34753
G1 X127.518 Y134.756 E20.41854
G1 X130.883 Y137.096 E20.91037
G1 X135.352 Y139.996 E21.54967
G1 X139.911 Y142.750 E22.18882
G1 X144.575 Y145.366 E22.83053
G1 X145.115 Y145.646 E22.90352
G1 X149.300 Y147.819 E23.46938
G1 X149.799 Y148.059 E23.53583
G1 X154.118 Y150.127 E24.11046
G1 X158.988 Y152.269 E24.74889
G1 X163.350 Y154.021 E25.31297
G1 X163.936 Y154.258 E25.38883
G1 X164.518 Y154.470 E25.46315
G1 X168.924 Y156.078 E26.02598
G1 X173.988 Y157.743 E26.66567
G1 X178.527 Y159.075 E27.23332
G1 X179.135 Y159.253 E27.30934
G1 X179.734 Y159.407 E27.38356
G1 X184.291 Y160.586 E27.94840
G1 X189.482 Y161.752 E28.58684
G1 X194.099 Y162.633 E29.15088
G1 X194.736 Y162.755 E29.22871
G1 X195.332 Y162.848 E29.30110
G1 X203.136 Y164.079 E30.24915
G1 X199.865 Y187.240 E33.05605
G1 X199.750 Y188.048 E33.15399
G1 X199.507 Y189.776 E33.36339
G1 X199.012 Y193.270 E33.78686
G1 X196.106 Y192.859 E34.13905
G1 X195.317 Y194.359 E34.34243
G1 X195.316 Y194.359 E34.34255
G1 X194.654 Y195.619 E34.51335
G1 X193.396 Y198.009 E34.83745
G1 X193.166 Y198.444 E34.89650
G1 X190.252 Y203.064 E35.55197
G1 X184.646 Y202.042 E36.23577
G1 X182.021 Y201.561 E36.55602
G1 X181.034 Y196.722 E37.14866
G1 X181.033 Y196.722 E37.14878
G1 X180.928 Y196.208 E37.21173
G1 X180.480 Y192.590 E37.64920
G1 X180.248 Y190.724 E37.87485
G1 X179.753 Y191.505 E37.98581
G1 X179.245 Y192.307 E38.09973
G1 X177.289 Y195.390 E38.53787
G1 X175.546 Y197.716 E38.88666
G1 X174.009 Y199.762 E39.19374
G1 X168.504 Y198.292 E39.87748
G1 X165.928 Y197.600 E40.19756
G1 X165.269 Y192.178 E40.85299
G1 X165.031 Y186.610 E41.52176
G1 X164.455 Y187.375 E41.63667
G1 X163.598 Y188.513 E41.80763
G1 X161.677 Y191.061 E42.19055
G1 X159.752 Y193.239 E42.53936
G1 X158.055 Y195.155 E42.84650
G1 X150.175 Y192.351 E43.85018
G1 X149.955 Y186.890 E44.50603
G1 X150.106 Y182.889 E44.98649
G1 X150.164 Y181.367 E45.16926
G1 X146.495 Y185.498 E45.83228
G1 X144.402 Y187.514 E46.18100
G1 X142.556 Y189.289 E46.48831
G1 X137.357 Y186.953 E47.17227
G1 X134.926 Y185.856 E47.49232
G1 X135.146 Y180.398 E48.14781
G1 X135.805 Y174.864 E48.81658
G1 X135.113 Y175.527 E48.93158
G1 X132.134 Y178.380 E49.42656
G1 X132.133 Y178.379 E49.42673
G1 X131.781 Y178.718 E49.48537
G1 X127.551 Y182.179 E50.14123
G1 X125.214 Y180.894 E50.46127
G1 X120.221 Y178.146 E51.14518
G1 X120.879 Y172.720 E51.80107
G1 X121.472 Y169.784 E52.16051
G1 X121.671 Y168.797 E52.28133
G1 X121.973 Y167.303 E52.46423
G1 X118.176 Y170.395 E53.05184
G1 X117.687 Y170.792 E53.12742
G1 X113.192 Y173.900 E53.78321
G1 X106.211 Y169.289 E54.78717
G1 X107.202 Y164.446 E55.38037
G1 X107.307 Y163.934 E55.44309
G1 X108.318 Y160.412 E55.88280
G1 X108.458 Y159.924 E55.94372
G1 X108.845 Y158.579 E56.11167
G1 X104.659 Y161.457 E56.72126
G1 X104.254 Y161.736 E56.78027
G1 X99.523 Y164.473 E57.43615
G1 X95.036 Y160.959 E58.12006
G1 X92.937 Y159.313 E58.44015
G1 X94.313 Y154.567 E59.03312
G1 X94.459 Y154.065 E59.09586
G1 X96.408 Y148.893 E59.75911
G1 X95.603 Y149.356 E59.87054
G1 X92.163 Y151.335 E60.34678
G1 X91.618 Y151.649 E60.42226
G1 X88.995 Y152.895 E60.77073
G1 X86.682 Y153.997 E61.07818
G1 X80.531 Y148.324 E62.08230
G1 X82.285 Y143.703 E62.67542
G1 X82.286 Y143.703 E62.67554
G1 X82.470 Y143.215 E62.73812
G1 X84.035 Y139.901 E63.17792
G1 X84.251 Y139.443 E63.23868
G1 X84.870 Y138.132 E63.41266
G1 X83.978 Y138.553 E63.53102
G1 X82.691 Y139.161 E63.70183
G1 X80.250 Y140.314 E64.02578
G1 X80.250 Y140.313 E64.02590
G1 X79.809 Y140.523 E64.08451
G1 X77.089 Y141.556 E64.43366
G1 X74.695 Y142.463 E64.74087
G1 X69.025 Y136.317 E65.74430
G1 X71.145 Y131.851 E66.33754
G1 X71.370 Y131.379 E66.40028
G1 X72.683 Y129.094 E66.71653
G1 X73.366 Y127.908 E66.88076
G1 X74.125 Y126.587 E67.06358
G1 X72.369 Y127.249 E67.28878
G1 X68.954 Y128.538 E67.72680
G1 X63.703 Y130.062 E68.38292
G1 X60.190 Y125.576 E69.06666
G1 X60.191 Y125.575 E69.06683
G1 X58.545 Y123.477 E69.38683
G1 X61.019 Y119.196 E69.98016
G1 X61.281 Y118.744 E70.04286
G1 X63.357 Y115.724 E70.48262
G1 X63.644 Y115.307 E70.54337
G1 X64.437 Y114.153 E70.71139
G1 X63.088 Y114.541 E70.87984
G1 X62.011 Y114.850 E71.01429
G1 X62.011 Y114.849 E71.01441
G1 X59.081 Y115.692 E71.38027
G1 X56.237 Y116.274 E71.72863
G1 X53.726 Y116.789 E72.03622
G1 X52.256 Y114.562 E72.35643
G1 X49.115 Y109.809 E73.04008
G1 X52.223 Y105.313 E73.69596
G1 X53.885 Y103.268 E74.01219
G1 X55.711 Y101.025 E74.35926
G1 X54.363 Y101.298 E74.52430
G1 X53.868 Y101.397 E74.58488
G1 X50.293 Y102.120 E75.02257
G1 X44.868 Y102.781 E75.67838
G1 X40.832 Y95.453 E76.68229
G1 X44.293 Y91.222 E77.33824
G1 X46.826 Y88.575 E77.77789
G1 X46.825 Y88.575 E77.77801
G1 X47.176 Y88.209 E77.83886
G1 X48.147 Y87.195 E78.00733
G1 X45.641 Y87.495 E78.31020
G1 X43.099 Y87.797 E78.61738
G1 X42.616 Y87.855 E78.67576
G1 X37.152 Y88.077 E79.33198
G1 X36.058 Y85.645 E79.65199
G1 X33.721 Y80.447 E80.33589
G1 X37.510 Y76.508 E80.99176
G1 X39.479 Y74.758 E81.30787
G1 X40.501 Y73.849 E81.47200
G1 X41.640 Y72.838 E81.65476
G1 X40.268 Y72.890 E81.81952
G1 X36.117 Y73.047 E82.31799
G1 X30.658 Y72.829 E82.97360
G1 X28.746 Y67.460 E83.65751
G1 X27.849 Y64.948 E83.97759
G1 X31.553 Y61.673 E84.57090
G1 X31.944 Y61.327 E84.63355
G1 X34.872 Y59.120 E85.07355
G1 X35.275 Y58.816 E85.13412
G1 X36.395 Y57.972 E85.30241
G1 X35.438 Y57.931 E85.41736
G1 X34.457 Y57.889 E85.53518
G1 X33.509 Y57.849 E85.64904
G1 X30.828 Y57.735 E85.97106
G1 X25.400 Y57.076 E86.62720
G1 X24.712 Y54.498 E86.94739
G1 X23.240 Y48.995 E87.63096
G1 X27.194 Y46.029 E88.22410
G1 X27.611 Y45.715 E88.28674
G1 X32.280 Y42.755 E88.95012
G1 X27.862 Y42.209 E89.48432
G1 X26.794 Y42.076 E89.61347
G1 X21.440 Y40.982 E90.26922
G1 X20.416 Y35.378 E90.95284
G1 X19.936 Y32.755 E91.27282
G1 X24.558 Y29.837 E91.92875
G1 X30.140 Y26.898 E92.68576
G10
G1 Z0.400
G0 F12000 X33.317 Y29.972
;TYPE:WALL-INNER
G1 Z0.300
G11
G1 F1200 X33.902 Y29.720 E92.76220
G1 X34.466 Y28.960 E92.87577
G1 X34.560 Y28.157 E92.97279
G1 X34.476 Y27.561 E93.04501
G1 X55.414 Y24.600 E95.58257
G1 X56.111 Y29.006 E96.11787
G1 X57.136 Y34.370 E96.77319
G1 X57.287 Y35.048 E96.85655
G1 X58.334 Y39.699 E97.42863
G1 X59.702 Y44.986 E98.08397
G1 X61.240 Y50.225 E98.73918
G1 X61.438 Y50.831 E98.81568
G1 X62.955 Y55.440 E99.39795
G1 X64.828 Y60.570 E100.05330
G1 X66.866 Y65.637 E100.70868
G1 X69.065 Y70.635 E101.36392
G1 X71.124 Y74.935 E101.93603
G1 X71.425 Y75.560 E102.01927
G1 X71.757 Y76.202 E102.10600
G1 X72.032 Y76.731 E102.17755
G1 X73.955 Y80.431 E102.67793
G1 X76.287 Y84.589 E103.25001
G1 X76.628 Y85.195 E103.33345
G1 X79.453 Y89.869 E103.98882
G1 X82.426 Y94.449 E104.64406
G1 X85.545 Y98.931 E105.29931
G1 X88.824 Y103.333 E105.95800
G1 X92.228 Y107.605 E106.61348
G1 X95.766 Y111.764 E107.26871
G1 X99.437 Y115.807 E107.92403
G1 X103.115 Y119.606 E108.55855
G1 X103.146 Y119.670 E108.56709
G1 X103.758 Y120.263 E108.66935
G1 X107.184 Y123.579 E109.24150
G1 X111.227 Y127.250 E109.89682
G1 X115.388 Y130.786 E110.55208
G1 X119.660 Y134.188 E111.20741
G1 X124.040 Y137.451 E111.86283
G1 X124.630 Y137.862 E111.94912
G1 X125.119 Y138.203 E112.02065
G1 X128.545 Y140.586 E112.52145
G1 X133.126 Y143.559 E113.17679
G1 X137.801 Y146.382 E113.83213
G1 X142.564 Y149.054 E114.48749
G1 X147.410 Y151.571 E115.14277
G1 X147.985 Y151.847 E115.21931
G1 X152.361 Y153.942 E115.80150
G1 X157.360 Y156.141 E116.45686
G1 X161.782 Y157.918 E117.02874
G1 X162.427 Y158.178 E117.11219
G1 X167.558 Y160.050 E117.76761
G1 X172.746 Y161.756 E118.42297
G1 X178.013 Y163.301 E119.08164
G1 X178.685 Y163.474 E119.16491
G1 X183.300 Y164.668 E119.73694
G1 X188.629 Y165.865 E120.39236
G1 X193.310 Y166.758 E120.96421
G1 X193.993 Y166.889 E121.04766
G1 X198.399 Y167.584 E121.58292
G1 X195.707 Y186.649 E123.89341
G1 X195.592 Y187.456 E123.99123
G1 X195.442 Y188.524 E124.12065
G1 X194.847 Y188.440 E124.19276
G1 X194.043 Y188.532 E124.28987
G1 X193.283 Y189.099 E124.40365
G1 X193.031 Y189.683 E124.47998
G1 X189.681 Y196.050 E125.34332
G1 X189.532 Y196.333 E125.38170
G1 X188.213 Y198.423 E125.67827
G1 X185.569 Y197.940 E126.00080
G1 X185.073 Y195.512 E126.29817
G1 X184.152 Y188.073 E127.19767
G1 X184.122 Y187.426 E127.27539
G1 X183.611 Y186.630 E127.38890
G1 X182.894 Y186.257 E127.48589
G1 X179.767 Y185.555 E127.87047
G1 X178.960 Y185.584 E127.96737
G1 X178.156 Y186.086 E128.08111
G1 X177.860 Y186.646 E128.15712
G1 X173.829 Y193.004 E129.06050
G1 X172.354 Y194.973 E129.35573
G1 X169.756 Y194.279 E129.67842
G1 X169.458 Y191.829 E129.97458
G1 X169.136 Y184.319 E130.87661
G1 X169.159 Y183.683 E130.95298
G1 X168.714 Y182.847 E131.06663
G1 X168.028 Y182.419 E131.16366
G1 X164.941 Y181.458 E131.55163
G1 X164.133 Y181.421 E131.64869
G1 X163.290 Y181.858 E131.76264
G1 X162.952 Y182.390 E131.83827
G1 X158.416 Y188.410 E132.74279
G1 X156.791 Y190.248 E133.03719
G1 X154.257 Y189.346 E133.35996
G1 X154.158 Y186.884 E133.65564
G1 X154.444 Y179.370 E134.55797
G1 X154.517 Y178.736 E134.63455
G1 X154.142 Y177.866 E134.74824
G1 X153.491 Y177.384 E134.84544
G1 X150.520 Y176.190 E135.22967
G1 X149.718 Y176.088 E135.32669
G1 X149.142 Y176.330 E135.40166
G1 X148.846 Y176.454 E135.44017
G1 X148.460 Y176.962 E135.51673
G1 X143.462 Y182.588 E136.41978
G1 X141.689 Y184.295 E136.71512
G1 X139.236 Y183.193 E137.03782
G1 X139.335 Y180.734 E137.33314
G1 X140.225 Y173.267 E138.23553
G1 X140.350 Y172.637 E138.31260
G1 X140.044 Y171.740 E138.42633
G1 X139.437 Y171.208 E138.52319
G1 X136.822 Y169.905 E138.87378
G1 X136.544 Y169.765 E138.91114
G1 X135.751 Y169.598 E139.00838
G1 X134.850 Y169.895 E139.12223
G1 X134.425 Y170.370 E139.19871
G1 X128.992 Y175.573 E140.10142
G1 X127.088 Y177.131 E140.39664
G1 X124.732 Y175.835 E140.71931
G1 X125.030 Y173.384 E141.01560
G1 X126.429 Y166.455 E141.86386
G1 X126.612 Y165.686 E141.95871
G1 X126.692 Y165.402 E141.99412
G1 X126.460 Y164.486 E142.10751
G1 X125.898 Y163.906 E142.20442
G1 X123.155 Y162.250 E142.58892
G1 X122.380 Y162.020 E142.68593
G1 X121.480 Y162.238 E142.79705
G1 X120.654 Y162.961 E142.92878
G1 X115.176 Y167.422 E143.77653
G1 X113.137 Y168.831 E144.07395
G1 X110.895 Y167.350 E144.39639
G1 X111.390 Y164.932 E144.69257
G1 X112.354 Y161.573 E145.11192
G1 X113.463 Y157.712 E145.59397
G1 X113.687 Y157.111 E145.67094
G1 X113.531 Y156.176 E145.78469
G1 X113.016 Y155.553 E145.88169
G1 X111.867 Y154.725 E146.05164
G1 X110.392 Y153.663 E146.26974
G1 X109.637 Y153.372 E146.36684
G1 X108.702 Y153.520 E146.48044
G1 X108.208 Y153.919 E146.55664
G1 X102.011 Y158.181 E147.45917
G1 X99.877 Y159.416 E147.75504
G1 X97.760 Y157.757 E148.07780
G1 X98.444 Y155.401 E148.37219
G1 X101.101 Y148.353 E149.27605
G1 X101.371 Y147.777 E149.35239
G1 X101.288 Y146.833 E149.46611
G1 X100.826 Y146.171 E149.56298
G1 X98.385 Y144.095 E149.94751
G1 X97.656 Y143.746 E150.04450
G1 X96.711 Y143.817 E150.15822
G1 X96.182 Y144.179 E150.23514
G1 X90.068 Y147.694 E151.08143
G1 X89.662 Y147.929 E151.13772
G1 X87.441 Y148.984 E151.43278
G1 X85.465 Y147.161 E151.75540
G1 X86.341 Y144.854 E152.05152
G1 X89.372 Y138.434 E152.90347
G1 X89.575 Y138.013 E152.95955
G1 X89.865 Y137.503 E153.02995
G1 X89.861 Y136.555 E153.14371
G1 X89.452 Y135.858 E153.24069
G1 X88.437 Y134.843 E153.41294
G1 X88.411 Y134.790 E153.42003
G1 X87.161 Y133.541 E153.63207
G1 X86.464 Y133.132 E153.72905
G1 X85.516 Y133.128 E153.84281
G1 X84.956 Y133.447 E153.92015
G1 X78.456 Y136.516 E154.78272
G1 X78.155 Y136.658 E154.82266
G1 X75.859 Y137.530 E155.11738
G1 X74.036 Y135.554 E155.44000
G1 X74.938 Y133.655 E155.69228
G1 X75.094 Y133.327 E155.73586
G1 X78.618 Y127.197 E156.58435
G1 X79.044 Y126.513 E156.68105
G1 X79.201 Y126.280 E156.71477
G1 X79.272 Y125.339 E156.82801
G1 X78.923 Y124.610 E156.92499
G1 X76.847 Y122.170 E157.30943
G1 X76.184 Y121.707 E157.40647
G1 X75.240 Y121.626 E157.52017
G1 X74.665 Y121.894 E157.59630
G1 X67.617 Y124.553 E158.50024
G1 X65.259 Y125.238 E158.79490
G1 X63.602 Y123.121 E159.11751
G1 X64.833 Y120.991 E159.41272
G1 X68.854 Y115.142 E160.26446
G1 X69.314 Y114.520 E160.35730
G1 X69.495 Y114.300 E160.39148
G1 X69.644 Y113.359 E160.50581
G1 X69.353 Y112.604 E160.60291
G1 X67.647 Y110.238 E160.95294
G1 X67.463 Y109.981 E160.99086
G1 X66.839 Y109.466 E161.08795
G1 X65.904 Y109.310 E161.20170
G1 X65.299 Y109.535 E161.27916
G1 X58.083 Y111.609 E162.18014
G1 X55.665 Y112.104 E162.47632
G1 X54.184 Y109.862 E162.79876
G1 X55.588 Y107.832 E163.09494
G1 X60.330 Y102.004 E163.99656
G1 X60.770 Y101.540 E164.07329
G1 X60.993 Y100.619 E164.18701
G1 X60.763 Y99.843 E164.28413
G1 X59.107 Y97.102 E164.66842
G1 X58.527 Y96.537 E164.76558
G1 X57.629 Y96.312 E164.87667
G1 X56.582 Y96.564 E165.00590
G1 X53.533 Y97.181 E165.37920
G1 X53.040 Y97.280 E165.43954
G1 X49.629 Y97.970 E165.85715
G1 X47.178 Y98.268 E166.15344
G1 X45.881 Y95.914 E166.47596
G1 X47.444 Y94.002 E166.77230
G1 X52.633 Y88.581 E167.67281
G1 X53.117 Y88.148 E167.75074
G1 X53.411 Y87.248 E167.86435
G1 X53.247 Y86.457 E167.96129
G1 X51.944 Y83.847 E168.31135
G1 X51.803 Y83.563 E168.34940
G1 X51.270 Y82.956 E168.44634
G1 X50.373 Y82.650 E168.56007
G1 X49.745 Y82.774 E168.63688
G1 X42.602 Y83.626 E169.50012
G1 X42.273 Y83.666 E169.53989
G1 X39.818 Y83.766 E169.83473
G1 X38.715 Y81.313 E170.15748
G1 X40.421 Y79.540 E170.45274
G1 X45.729 Y74.823 E171.30487
G1 X46.332 Y74.324 E171.39879
G1 X46.556 Y74.150 E171.43283
G1 X46.797 Y73.577 E171.50742
G1 X46.919 Y73.282 E171.54573
G1 X46.819 Y72.482 E171.64248
G1 X45.623 Y69.508 E172.02713
G1 X45.141 Y68.861 E172.12395
G1 X44.272 Y68.483 E172.23767
G1 X43.632 Y68.559 E172.31501
G1 X36.123 Y68.844 E173.21674
G1 X33.662 Y68.746 E173.51229
G1 X32.760 Y66.212 E173.83506
G1 X34.596 Y64.587 E174.12928
G1 X40.616 Y60.050 E175.03387
G1 X41.149 Y59.712 E175.10961
G1 X41.584 Y58.869 E175.22344
G1 X41.548 Y58.063 E175.32026
G1 X40.586 Y54.974 E175.70850
G1 X40.158 Y54.288 E175.80552
G1 X39.322 Y53.843 E175.91917
G1 X38.685 Y53.866 E175.99566
G1 X31.175 Y53.546 E176.89768
G1 X28.725 Y53.248 E177.19384
G1 X28.031 Y50.652 E177.51630
G1 X29.714 Y49.389 E177.76881
G1 X29.998 Y49.175 E177.81148
G1 X35.983 Y45.380 E178.66189
G1 X36.656 Y44.986 E178.75547
G1 X36.920 Y44.842 E178.79156
G1 X37.419 Y44.042 E178.90471
G1 X37.447 Y43.235 E179.00160
G1 X36.745 Y40.109 E179.38607
G1 X36.372 Y39.392 E179.48305
G1 X35.576 Y38.881 E179.59656
G1 X34.929 Y38.851 E179.67428
G1 X27.481 Y37.930 E180.57485
G1 X25.062 Y37.435 E180.87115
G1 X24.579 Y34.791 E181.19368
G1 X26.663 Y33.475 E181.48945
G1 X33.317 Y29.972 E182.39182
