;FLAVOR:UltiGCode
;TIME:9229
;MATERIAL:14984
;MATERIAL2:0
;NOZZLE_DIAMETER:0.400000
;NOZZLE_DIAMETER2:0.400000
;MTYPE:PLA

;Layer count: 38
;LAYER:0
M107
G0 F12000 X29.739 Y23.997 Z0.300
G0 X30.149 Y26.905
;TYPE:SKIRT
G1 F1200 X29.739 Y23.997 E0.35241
G1 X34.967 Y23.258 E0.98601
G1 X35.773 Y23.145 E1.08367
G1 X35.773 Y23.146 E1.08379
G1 X58.928 Y19.872 E3.89003
G1 X59.526 Y23.652 E4.34927
G1 X60.173 Y27.756 E4.84784
G1 X60.262 Y28.315 E4.91576
G1 X61.138 Y32.906 E5.47662
G1 X61.139 Y32.906 E5.47674
G1 X61.259 Y33.534 E5.55346
G1 X61.394 Y34.136 E5.62750
G1 X62.426 Y38.727 E6.19216
G1 X62.581 Y39.328 E6.26664
G1 X63.756 Y43.868 E6.82940
G1 X65.260 Y48.995 E7.47056
G1 X65.462 Y49.611 E7.54835
G1 X66.759 Y53.556 E8.04668
G1 X66.929 Y54.072 E8.11188
G1 X68.754 Y59.071 E8.75048
G1 X70.748 Y64.030 E9.39187
G1 X72.633 Y68.317 E9.95384
G1 X72.883 Y68.885 E10.02831
G1 X75.189 Y73.699 E10.66885
G1 X77.404 Y77.964 E11.24555
G1 X77.652 Y78.441 E11.31007
G1 X77.961 Y78.992 E11.38588
G1 X80.253 Y83.077 E11.94796
G1 X80.584 Y83.626 E12.02489
G1 X83.018 Y87.654 E12.58965
G1 X83.356 Y88.176 E12.66427
G1 X85.903 Y92.100 E13.22565
G1 X88.598 Y95.973 E13.79185
G1 X88.961 Y96.494 E13.86805
G1 X89.349 Y97.016 E13.94610
G1 X89.703 Y97.492 E14.01729
G1 X92.163 Y100.794 E14.51140
G1 X95.461 Y104.935 E15.14666
G1 X98.915 Y108.994 E15.78622
G1 X99.344 Y109.468 E15.86294
G1 X102.498 Y112.944 E16.42618
G1 X102.937 Y113.397 E16.50188
G1 X106.210 Y116.777 E17.06647
G1 X106.615 Y117.170 E17.13419
G1 X109.663 Y120.121 E17.64329
G1 X110.027 Y120.475 E17.70422
G1 X113.531 Y123.655 E18.27205
G1 X113.993 Y124.074 E18.34689
G1 X118.065 Y127.539 E18.98850
G1 X122.201 Y130.833 E19.62299
G1 X126.505 Y134.038 E20.26694
G1 X127.025 Y134.401 E20.34304
G1 X130.437 Y136.775 E20.84183
G1 X130.893 Y137.092 E20.90847
G1 X135.335 Y139.975 E21.54394
G1 X135.886 Y140.309 E21.62126
G1 X139.905 Y142.737 E22.18472
G1 X144.569 Y145.353 E22.82643
G1 X145.109 Y145.633 E22.89942
G1 X149.270 Y147.794 E23.46206
G1 X149.798 Y148.048 E23.53237
G1 X149.798 Y148.049 E23.53249
G1 X153.618 Y149.878 E24.04073
G1 X154.111 Y150.115 E24.10637
G1 X158.971 Y152.252 E24.74346
G1 X163.929 Y154.246 E25.38473
G1 X168.917 Y156.067 E26.02193
G1 X174.001 Y157.739 E26.66416
G1 X174.614 Y157.919 E26.74083
G1 X179.109 Y159.239 E27.30300
G1 X179.727 Y159.397 E27.37955
G1 X184.281 Y160.575 E27.94401
G1 X184.889 Y160.712 E28.01880
G1 X189.486 Y161.745 E28.58420
G1 X190.090 Y161.860 E28.65798
G1 X194.700 Y162.741 E29.22119
G1 X203.128 Y164.071 E30.24507
G1 X199.003 Y193.261 E33.78267
G1 X196.095 Y192.850 E34.13510
G1 X193.156 Y198.433 E34.89222
G1 X190.242 Y203.053 E35.54768
G1 X187.619 Y202.577 E35.86759
G1 X182.010 Y201.552 E36.55181
G1 X181.023 Y196.713 E37.14445
G1 X181.022 Y196.713 E37.14457
G1 X180.917 Y196.199 E37.20752
G1 X180.238 Y190.712 E37.87098
G1 X179.741 Y191.495 E37.98227
G1 X179.234 Y192.296 E38.09603
G1 X177.278 Y195.380 E38.53427
G1 X174.000 Y199.753 E39.19009
G1 X168.493 Y198.281 E39.87413
G1 X165.917 Y197.589 E40.19421
G1 X165.258 Y192.166 E40.84976
G1 X165.103 Y188.505 E41.28947
G1 X165.062 Y187.558 E41.40322
G1 X165.021 Y186.600 E41.51828
G1 X164.444 Y187.365 E41.63327
G1 X164.090 Y187.833 E41.70369
G1 X161.666 Y191.049 E42.18695
G1 X158.047 Y195.142 E42.84257
G1 X152.677 Y193.233 E43.52648
G1 X150.165 Y192.336 E43.84656
G1 X149.945 Y186.878 E44.50205
G1 X150.155 Y181.354 E45.16541
G1 X147.199 Y184.682 E45.69956
G1 X146.485 Y185.486 E45.82859
G1 X142.546 Y189.275 E46.48446
G1 X137.348 Y186.939 E47.16831
G1 X134.917 Y185.842 E47.48836
G1 X135.137 Y180.386 E48.14361
G1 X135.210 Y179.760 E48.21924
G1 X135.796 Y174.850 E48.81262
G1 X135.103 Y175.514 E48.92779
G1 X134.679 Y175.919 E48.99815
G1 X131.771 Y178.705 E49.48142
G1 X127.540 Y182.163 E50.13714
G1 X125.203 Y180.879 E50.45712
G1 X120.212 Y178.129 E51.14093
G1 X120.870 Y172.704 E51.79671
G1 X121.393 Y170.120 E52.11307
G1 X121.493 Y169.628 E52.17332
G1 X121.492 Y169.628 E52.17344
G1 X121.965 Y167.288 E52.45992
G1 X117.679 Y170.776 E53.12303
G1 X113.184 Y173.884 E53.77882
G1 X106.203 Y169.273 E54.78278
G1 X107.194 Y164.430 E55.37598
G1 X107.299 Y163.918 E55.43870
G1 X108.837 Y158.563 E56.10728
G1 X106.457 Y160.200 E56.45391
G1 X104.246 Y161.720 E56.77588
G1 X99.514 Y164.454 E57.43168
G1 X95.029 Y160.942 E58.11526
G1 X92.928 Y159.295 E58.43561
G1 X94.322 Y154.493 E59.03564
G1 X94.599 Y153.656 E59.14144
G1 X94.832 Y153.040 E59.22047
G1 X96.402 Y148.875 E59.75460
G1 X95.598 Y149.337 E59.86587
G1 X94.776 Y149.810 E59.97968
G1 X91.610 Y151.632 E60.41802
G1 X88.985 Y152.878 E60.76670
G1 X86.676 Y153.978 E61.07362
G1 X80.525 Y148.305 E62.07774
G1 X82.465 Y143.195 E62.73364
G1 X84.029 Y139.882 E63.17327
G1 X84.434 Y139.023 E63.28724
G1 X84.844 Y138.156 E63.40232
G1 X79.805 Y140.535 E64.07101
G1 X74.695 Y142.475 E64.72691
G1 X69.024 Y136.326 E65.73069
G1 X71.144 Y131.861 E66.32382
G1 X71.369 Y131.388 E66.38667
G1 X72.683 Y129.104 E66.70287
G1 X73.659 Y127.407 E66.93779
G1 X74.124 Y126.598 E67.04977
G1 X68.953 Y128.548 E67.71294
G1 X63.703 Y130.072 E68.36895
G1 X60.190 Y125.586 E69.05269
G1 X60.191 Y125.585 E69.05286
G1 X58.545 Y123.487 E69.37285
G1 X61.280 Y118.754 E70.02882
G1 X64.438 Y114.163 E70.69749
G1 X60.114 Y115.404 E71.23732
G1 X59.083 Y115.701 E71.36607
G1 X53.727 Y116.797 E72.02211
G1 X50.587 Y112.043 E72.70580
G1 X49.115 Y109.817 E73.02604
G1 X52.224 Y105.321 E73.68199
G1 X54.488 Y102.540 E74.11231
G1 X55.125 Y101.757 E74.23344
G1 X55.713 Y101.034 E74.34527
G1 X51.350 Y101.916 E74.87942
G1 X50.297 Y102.129 E75.00834
G1 X44.871 Y102.788 E75.66424
G1 X40.836 Y95.461 E76.66799
G1 X44.295 Y91.229 E77.32388
G1 X48.150 Y87.204 E77.99268
G1 X43.683 Y87.736 E78.53251
G1 X43.104 Y87.805 E78.60248
G1 X42.616 Y87.863 E78.66145
G1 X37.155 Y88.084 E79.31731
G1 X34.819 Y82.887 E80.00105
G1 X33.723 Y80.456 E80.32105
G1 X37.514 Y76.515 E80.97726
G1 X40.949 Y73.464 E81.52857
G1 X41.646 Y72.845 E81.64044
G1 X36.751 Y73.031 E82.22826
G1 X36.751 Y73.030 E82.22838
G1 X36.125 Y73.056 E82.30357
G1 X30.660 Y72.835 E82.95990
G1 X28.752 Y67.466 E83.64366
G1 X27.855 Y64.955 E83.96362
G1 X31.951 Y61.334 E84.61967
G1 X36.401 Y57.979 E85.28843
G1 X34.020 Y57.877 E85.57442
G1 X31.324 Y57.763 E85.89823
G1 X30.832 Y57.742 E85.95732
G1 X25.406 Y57.083 E86.61322
G1 X24.719 Y54.503 E86.93361
G1 X23.247 Y49.000 E87.61719
G1 X27.619 Y45.722 E88.27292
G1 X32.286 Y42.762 E88.93610
G1 X26.803 Y42.083 E89.59909
G1 X23.955 Y41.502 E89.94789
G1 X21.447 Y40.988 E90.25510
G1 X20.424 Y35.384 E90.93869
G1 X19.944 Y32.760 E91.25880
G1 X24.567 Y29.844 E91.91470
G1 X25.518 Y29.343 E92.04368
G1 X30.149 Y26.905 E92.67171
G10
G1 Z0.400
G0 F12000 X33.326 Y29.979
;TYPE:WALL-INNER
G1 Z0.300
G11
G1 F1200 X33.911 Y29.727 E92.74815
G1 X34.475 Y28.967 E92.86172
G1 X34.569 Y28.164 E92.95873
G1 X34.485 Y27.568 E93.03096
G1 X55.424 Y24.609 E95.56861
G1 X56.120 Y29.016 E96.10400
G1 X57.145 Y34.379 E96.75921
G1 X57.296 Y35.057 E96.84256
G1 X58.342 Y39.707 E97.41451
G1 X58.515 Y40.380 E97.49789
G1 X59.709 Y44.995 E98.06993
G1 X61.247 Y50.236 E98.72537
G1 X62.770 Y54.870 E99.31071
G1 X62.961 Y55.450 E99.38399
G1 X64.834 Y60.580 E100.03933
G1 X66.871 Y65.647 E100.69467
G1 X69.070 Y70.646 E101.35002
G1 X71.429 Y75.571 E102.00532
G1 X73.959 Y80.442 E102.66398
G1 X76.631 Y85.206 E103.31944
G1 X79.456 Y89.880 E103.97481
G1 X82.429 Y94.461 E104.63015
G1 X85.548 Y98.943 E105.28540
G1 X86.333 Y99.999 E105.44330
G1 X88.827 Y103.345 E105.94409
G1 X92.229 Y107.618 E106.59951
G1 X95.768 Y111.777 E107.25483
G1 X99.438 Y115.821 E107.91015
G1 X103.237 Y119.744 E108.56547
G1 X103.693 Y120.187 E108.64176
G1 X107.179 Y123.563 E109.22409
G1 X111.223 Y127.232 E109.87934
G1 X115.382 Y130.771 E110.53465
G1 X119.655 Y134.173 E111.19007
G1 X124.034 Y137.435 E111.84532
G1 X124.626 Y137.848 E111.93194
G1 X128.539 Y140.571 E112.50401
G1 X133.120 Y143.544 E113.15935
G1 X137.794 Y146.369 E113.81472
G1 X142.558 Y149.041 E114.47018
G1 X147.404 Y151.558 E115.12546
G1 X147.977 Y151.833 E115.20173
G1 X152.354 Y153.930 E115.78414
G1 X157.353 Y156.129 E116.43949
G1 X162.420 Y158.166 E117.09482
G1 X167.550 Y160.039 E117.75017
G1 X172.738 Y161.745 E118.40553
G1 X178.005 Y163.291 E119.06423
G1 X178.677 Y163.464 E119.14750
G1 X183.293 Y164.658 E119.71965
G1 X183.970 Y164.810 E119.80292
G1 X188.621 Y165.855 E120.37495
G1 X193.984 Y166.880 E121.03016
G1 X198.391 Y167.576 E121.56555
G1 X195.432 Y188.515 E124.10320
G1 X194.836 Y188.431 E124.17542
G1 X194.033 Y188.525 E124.27244
G1 X193.273 Y189.089 E124.38601
G1 X193.021 Y189.674 E124.46245
G1 X189.518 Y196.329 E125.36493
G1 X188.202 Y198.414 E125.66079
G1 X185.558 Y197.931 E125.98333
G1 X185.062 Y195.503 E126.28070
G1 X184.142 Y188.064 E127.18018
G1 X184.112 Y187.416 E127.25803
G1 X183.600 Y186.619 E127.37170
G1 X182.883 Y186.248 E127.46858
G1 X179.757 Y185.545 E127.85307
G1 X178.950 Y185.574 E127.94997
G1 X178.147 Y186.076 E128.06361
G1 X177.843 Y186.648 E128.14134
G1 X173.821 Y192.991 E129.04262
G1 X172.342 Y194.963 E129.33842
G1 X169.745 Y194.268 E129.66103
G1 X169.447 Y191.817 E129.95731
G1 X169.127 Y184.310 E130.85897
G1 X169.150 Y183.672 E130.93558
G1 X168.704 Y182.835 E131.04939
G1 X168.018 Y182.406 E131.14648
G1 X165.229 Y181.539 E131.49696
G1 X164.930 Y181.446 E131.53454
G1 X164.122 Y181.410 E131.63159
G1 X163.282 Y181.845 E131.74511
G1 X162.941 Y182.379 E131.82114
G1 X161.091 Y184.835 E132.19011
G1 X160.739 Y185.302 E132.26029
G1 X158.405 Y188.398 E132.72556
G1 X156.781 Y190.235 E133.01979
G1 X154.247 Y189.334 E133.34252
G1 X154.148 Y186.872 E133.63820
G1 X154.433 Y179.363 E134.53992
G1 X154.509 Y178.723 E134.61726
G1 X154.131 Y177.854 E134.73098
G1 X153.483 Y177.371 E134.82797
G1 X150.972 Y176.363 E135.15266
G1 X150.511 Y176.177 E135.21231
G1 X149.709 Y176.075 E135.30933
G1 X148.835 Y176.443 E135.42312
G1 X148.445 Y176.954 E135.50026
G1 X143.453 Y182.575 E136.40239
G1 X141.680 Y184.281 E136.69764
G1 X139.227 Y183.179 E137.02034
G1 X139.326 Y180.717 E137.31602
G1 X140.216 Y173.253 E138.21805
G1 X140.341 Y172.623 E138.29512
G1 X140.035 Y171.727 E138.40874
G1 X139.428 Y171.195 E138.50560
G1 X136.814 Y169.891 E138.85614
G1 X136.536 Y169.751 E138.89349
G1 X135.743 Y169.584 E138.99074
G1 X134.843 Y169.881 E139.10447
G1 X134.417 Y170.355 E139.18094
G1 X132.200 Y172.479 E139.54937
G1 X131.778 Y172.882 E139.61940
G1 X128.983 Y175.559 E140.08382
G1 X127.078 Y177.116 E140.37906
G1 X124.723 Y175.819 E140.70168
G1 X125.021 Y173.368 E140.99797
G1 X126.510 Y166.004 E141.89953
G1 X126.684 Y165.388 E141.97635
G1 X126.452 Y164.471 E142.08985
G1 X125.890 Y163.891 E142.18677
G1 X123.147 Y162.233 E142.57138
G1 X122.372 Y162.005 E142.66833
G1 X121.451 Y162.226 E142.78198
G1 X120.987 Y162.669 E142.85897
G1 X115.151 Y167.418 E143.76186
G1 X113.130 Y168.815 E144.05668
G1 X110.887 Y167.334 E144.37922
G1 X111.382 Y164.916 E144.67539
G1 X113.455 Y157.699 E145.57645
G1 X113.681 Y157.095 E145.65384
G1 X113.524 Y156.159 E145.76773
G1 X113.007 Y155.536 E145.86488
G1 X110.385 Y153.646 E146.25274
G1 X109.630 Y153.355 E146.34984
G1 X108.694 Y153.503 E146.46355
G1 X108.202 Y153.902 E146.53957
G1 X102.001 Y158.166 E147.44263
G1 X99.869 Y159.398 E147.73812
G1 X97.752 Y157.741 E148.06072
G1 X98.335 Y155.734 E148.31152
G1 X98.557 Y155.061 E148.39656
G1 X101.092 Y148.342 E149.25831
G1 X101.363 Y147.760 E149.33535
G1 X101.282 Y146.816 E149.44905
G1 X100.819 Y146.153 E149.54609
G1 X98.379 Y144.077 E149.93053
G1 X97.650 Y143.728 E150.02752
G1 X96.706 Y143.799 E150.14112
G1 X96.173 Y144.163 E150.21857
G1 X89.658 Y147.909 E151.12039
G1 X87.435 Y148.965 E151.41572
G1 X85.459 Y147.142 E151.73833
G1 X86.335 Y144.835 E152.03446
G1 X89.541 Y138.045 E152.93552
G1 X89.860 Y137.485 E153.01286
G1 X89.856 Y136.538 E153.12650
G1 X89.447 Y135.839 E153.22368
G1 X87.161 Y133.553 E153.61163
G1 X86.462 Y133.144 E153.70881
G1 X85.515 Y133.140 E153.82246
G1 X84.955 Y133.459 E153.89979
G1 X78.165 Y136.665 E154.80085
G1 X75.858 Y137.541 E155.09698
G1 X74.035 Y135.564 E155.41968
G1 X74.937 Y133.665 E155.67196
G1 X75.090 Y133.343 E155.71474
G1 X78.841 Y126.822 E156.61749
G1 X79.201 Y126.294 E156.69417
G1 X79.272 Y125.350 E156.80777
G1 X78.923 Y124.621 E156.90476
G1 X76.847 Y122.181 E157.28920
G1 X76.184 Y121.718 E157.38624
G1 X75.240 Y121.637 E157.49994
G1 X74.665 Y121.905 E157.57606
G1 X67.617 Y124.563 E158.47997
G1 X65.259 Y125.248 E158.77463
G1 X63.602 Y123.131 E159.09723
G1 X64.833 Y121.001 E159.39245
G1 X69.098 Y114.798 E160.29578
G1 X69.497 Y114.306 E160.37179
G1 X69.645 Y113.370 E160.48551
G1 X69.354 Y112.615 E160.58261
G1 X67.464 Y109.993 E160.97047
G1 X66.841 Y109.476 E161.06762
G1 X65.905 Y109.319 E161.18151
G1 X65.301 Y109.545 E161.25889
G1 X58.084 Y111.618 E162.15995
G1 X55.666 Y112.113 E162.45613
G1 X54.185 Y109.870 E162.77867
G1 X55.582 Y107.849 E163.07349
G1 X60.331 Y102.013 E163.97638
G1 X60.774 Y101.549 E164.05336
G1 X60.995 Y100.628 E164.16702
G1 X60.767 Y99.853 E164.26396
G1 X59.109 Y97.110 E164.64858
G1 X58.529 Y96.548 E164.74549
G1 X57.612 Y96.316 E164.85900
G1 X56.996 Y96.490 E164.93581
G1 X49.632 Y97.979 E165.83738
G1 X47.181 Y98.277 E166.13366
G1 X45.884 Y95.922 E166.45629
G1 X47.441 Y94.017 E166.75153
G1 X52.645 Y88.583 E167.65440
G1 X53.119 Y88.157 E167.73088
G1 X53.416 Y87.257 E167.84461
G1 X53.249 Y86.465 E167.94174
G1 X52.618 Y85.199 E168.11148
G1 X51.805 Y83.572 E168.32974
G1 X51.273 Y82.965 E168.42660
G1 X50.377 Y82.659 E168.54021
G1 X49.747 Y82.784 E168.61729
G1 X43.186 Y83.565 E169.41017
G1 X42.604 Y83.635 E169.48051
G1 X42.280 Y83.674 E169.51967
G1 X39.822 Y83.773 E169.81487
G1 X38.720 Y81.320 E170.13757
G1 X40.425 Y79.547 E170.43274
G1 X46.046 Y74.555 E171.33487
G1 X46.557 Y74.165 E171.41201
G1 X46.925 Y73.291 E171.52580
G1 X46.823 Y72.489 E171.62282
G1 X45.815 Y69.979 E171.94740
G1 X45.628 Y69.516 E172.00732
G1 X45.146 Y68.869 E172.10414
G1 X44.277 Y68.491 E172.21786
G1 X43.637 Y68.567 E172.29519
G1 X36.591 Y68.834 E173.14132
G1 X36.126 Y68.852 E173.19716
G1 X33.667 Y68.753 E173.49248
G1 X32.766 Y66.219 E173.81521
G1 X34.602 Y64.595 E174.10935
G1 X40.284 Y60.313 E174.96313
G1 X40.654 Y60.039 E175.01838
G1 X41.155 Y59.717 E175.08985
G1 X41.590 Y58.878 E175.20326
G1 X41.554 Y58.071 E175.30019
G1 X40.593 Y54.982 E175.68840
G1 X40.165 Y54.296 E175.78542
G1 X39.328 Y53.850 E175.89923
G1 X38.690 Y53.873 E175.97584
G1 X31.182 Y53.553 E176.87762
G1 X28.733 Y53.255 E177.17367
G1 X28.038 Y50.658 E177.49628
G1 X30.009 Y49.179 E177.79198
G1 X36.357 Y45.154 E178.69396
G1 X36.924 Y44.854 E178.77094
G1 X37.426 Y44.050 E178.88468
G1 X37.455 Y43.243 E178.98158
G1 X36.752 Y40.117 E179.36607
G1 X36.381 Y39.400 E179.46294
G1 X35.584 Y38.888 E179.57662
G1 X34.936 Y38.858 E179.65446
G1 X27.489 Y37.937 E180.55491
G1 X25.070 Y37.442 E180.85121
G1 X24.587 Y34.797 E181.17385
G1 X26.671 Y33.482 E181.46956
G1 X33.326 Y29.979 E182.37204
G0 F12000 X95.742 Y136.340
G1 F1200 X94.363 Y138.287 E182.65834
G1 X96.371 Y139.709 E182.95360
G1 X97.205 Y140.303 E183.07647
G1 X98.769 Y138.420 E183.37021
G1 X98.612 Y137.351 E183.49987
G1 X98.473 Y136.518 E183.60121
G1 X95.742 Y136.340 E183.92962
G0 F12000 X95.939 Y136.753
G1 F1200 X94.921 Y138.192 E184.14115
G1 X96.601 Y139.382 E184.38820
G1 X97.135 Y139.762 E184.46685
G1 X98.348 Y138.301 E184.69472
G1 X98.217 Y137.413 E184.80243
G1 X98.131 Y136.896 E184.86532
G1 X95.939 Y136.753 E185.12892
G0 F12000 X89.456 Y136.647
G1 F1200 X89.128 Y136.085 E185.20701
G1 X86.915 Y133.872 E185.58257
G1 X86.353 Y133.544 E185.66065
G1 X85.620 Y133.540 E185.74861
G1 X85.150 Y133.809 E185.81360
G1 X78.314 Y137.036 E186.72072
G1 X75.747 Y138.011 E187.05023
G1 X73.558 Y135.637 E187.43774
G1 X74.737 Y133.155 E187.76747
G1 X78.498 Y126.615 E188.67279
G1 X78.810 Y126.157 E188.73929
G1 X78.865 Y125.426 E188.82726
G1 X78.584 Y124.840 E188.90524
G1 X76.575 Y122.480 E189.27716
G1 X76.043 Y122.107 E189.35513
G1 X75.312 Y122.045 E189.44316
G1 X74.807 Y122.280 E189.51000
G1 X67.751 Y124.941 E190.41494
G1 X65.111 Y125.707 E190.74480
G1 X63.120 Y123.164 E191.13236
G1 X64.494 Y120.787 E191.46183
G1 X68.775 Y114.561 E192.36853
G1 X69.119 Y114.137 E192.43404
G1 X69.233 Y113.413 E192.52200
