;FLAVOR:UltiGCode
;TIME:2098
;MATERIAL:3048
;MATERIAL2:0
;NOZZLE_DIAMETER:0.400000
;NOZZLE_DIAMETER2:0.400000

;Layer count: 132
;LAYER:0
M107
G0 F12000 X93.189 Y91.178 Z0.300
;TYPE:SKIRT
G1 F1200 X97.204 Y89.197 E0.53725
G1 X131.352 Y115.396 E5.70210
G1 X135.311 Y118.434 E6.30094
G1 X135.311 Y133.686 E8.13118
G1 X110.162 Y133.686 E11.14906
G1 X105.987 Y133.693 E11.65006
G1 X105.987 Y127.876 E12.34810
G1 X97.204 Y127.875 E13.40206
G1 X93.189 Y127.885 E13.88386
G1 X93.189 Y91.178 E18.28870
G0 F12000 X93.589 Y91.426
G1 F1200 X97.158 Y89.666 E18.76622
G1 X134.911 Y118.631 E24.47633
G1 X134.911 Y133.286 E26.23493
G1 X110.162 Y133.286 E29.20481
G1 X106.387 Y133.293 E29.65781
G1 X106.387 Y127.476 E30.35585
G1 X97.203 Y127.475 E31.45793
G1 X93.589 Y127.484 E31.89161
G1 X93.589 Y91.426 E36.21857
G10
G1 Z0.400
G0 F12000 X97.789 Y95.443
;TYPE:WALL-INNER
G1 Z0.300
G11
G1 F1200 X130.711 Y120.702 E41.19803
G1 X130.711 Y129.086 E42.20411
G1 X110.587 Y129.086 E44.61899
G1 X110.587 Y123.276 E45.31619
G1 X97.789 Y123.275 E46.85195
G1 X97.789 Y95.443 E50.19179
G0 F12000 X97.389 Y94.632
G1 F1200 X131.111 Y120.505 E55.29226
G1 X131.111 Y129.486 E56.36998
G1 X110.187 Y129.486 E58.88086
G1 X110.187 Y123.676 E59.57806
G1 X97.389 Y123.675 E61.11382
G1 X97.389 Y94.632 E64.59898
G0 F12000 X96.989 Y93.822
;TYPE:WALL-OUTER
G1 F1200 X131.511 Y120.308 E69.82040
G1 X131.511 Y129.886 E70.96976
G1 X109.787 Y129.887 E73.57664
G1 X109.787 Y124.076 E74.27396
G1 X96.989 Y124.076 E75.80972
G1 X96.989 Y93.822 E79.44020
G10
G1 Z0.400
G0 F12000 X97.927 Y95.948
;TYPE:SKIN
G1 Z0.300
G11
G1 F1200 X130.570 Y128.590 E84.97982
G0 F12000 X130.359 Y128.945
G1 F1200 X97.927 Y96.513 E90.48371
G0 F12000 X97.927 Y97.079
G1 F1200 X129.793 Y128.945 E95.89155
G0 F12000 X129.228 Y128.945
G1 F1200 X97.927 Y97.645 E101.20342
G0 F12000 X97.927 Y98.210
G1 F1200 X128.662 Y128.945 E106.41932
G0 F12000 X128.096 Y128.945
G1 F1200 X97.927 Y98.776 E111.53917
G0 F12000 X97.927 Y99.342
G1 F1200 X127.530 Y128.945 E116.56297
G0 F12000 X126.965 Y128.945
G1 F1200 X97.927 Y99.907 E121.49088
G0 F12000 X99.410 Y96.865
G1 F1200 X130.570 Y128.025 E126.77891
G0 F12000 X130.570 Y127.459
G1 F1200 X101.841 Y98.729 E131.65446
G0 F12000 X104.271 Y100.594
G1 F1200 X130.570 Y126.893 E136.11755
G0 F12000 X130.570 Y126.328
G1 F1200 X106.700 Y102.458 E140.16843
G0 F12000 X109.131 Y104.322
G1 F1200 X130.570 Y125.762 E143.80683
G0 F12000 X130.570 Y125.196
G1 F1200 X111.560 Y106.186 E147.03293
G0 F12000 X113.991 Y108.051
G1 F1200 X130.570 Y124.631 E149.84657
G0 F12000 X130.570 Y124.065
G1 F1200 X116.421 Y109.916 E152.24773
G0 F12000 X118.851 Y111.780
G1 F1200 X130.570 Y123.499 E154.23651
G0 F12000 X130.570 Y122.934
G1 F1200 X121.281 Y113.644 E155.81299
G0 F12000 X123.711 Y115.509
G1 F1200 X130.570 Y122.368 E156.97700
G0 F12000 X130.570 Y121.802
G1 F1200 X126.141 Y117.373 E157.72863
G0 F12000 X128.571 Y119.238
G1 F1200 X130.570 Y121.236 E158.06779
G0 F12000 X126.399 Y128.945
G1 F1200 X97.927 Y100.473 E162.89965
G0 F12000 X97.927 Y101.039
G1 F1200 X125.833 Y128.945 E167.63545
G0 F12000 X125.268 Y128.945
G1 F1200 X97.927 Y101.604 E172.27537
G0 F12000 X97.927 Y102.170
G1 F1200 X124.702 Y128.945 E176.81924
G0 F12000 X124.136 Y128.945
G1 F1200 X97.927 Y102.736 E181.26706
G0 F12000 X97.927 Y103.301
G1 F1200 X123.571 Y128.945 E185.61899
G0 F12000 X123.005 Y128.945
G1 F1200 X97.927 Y103.867 E189.87486
G0 F12000 X97.927 Y104.433
G1 F1200 X122.439 Y128.945 E194.03469
G0 F12000 X121.874 Y128.945
G1 F1200 X97.927 Y104.998 E198.09863
G0 F12000 X97.927 Y105.564
G1 F1200 X121.308 Y128.945 E202.06652
G0 F12000 X120.742 Y128.945
G1 F1200 X97.927 Y106.130 E205.93835
G0 F12000 X97.927 Y106.696
G1 F1200 X120.177 Y128.945 E209.71422
G0 F12000 X119.611 Y128.945
G1 F1200 X97.927 Y107.261 E213.39411
G0 F12000 X97.927 Y107.827
G1 F1200 X119.045 Y128.945 E216.97796
G0 F12000 X118.479 Y128.945
G1 F1200 X97.927 Y108.393 E220.46575
G0 F12000 X97.927 Y108.958
G1 F1200 X117.914 Y128.945 E223.85765
G0 F12000 X117.348 Y128.945
G1 F1200 X97.927 Y109.524 E227.15351
G0 F12000 X97.927 Y110.090
G1 F1200 X116.782 Y128.945 E230.35331
G0 F12000 X116.217 Y128.945
G1 F1200 X110.727 Y123.455 E231.28499
G0 F12000 X110.406 Y123.134
G1 F1200 X97.927 Y110.655 E233.40275
G0 F12000 X97.927 Y111.221
G1 F1200 X109.841 Y123.134 E235.42453
G0 F12000 X109.275 Y123.134
G1 F1200 X97.927 Y111.787 E237.35027
G0 F12000 X97.927 Y112.352
G1 F1200 X108.709 Y123.134 E239.18003
G0 F12000 X108.144 Y123.134
G1 F1200 X97.927 Y112.918 E240.91383
G0 F12000 X97.927 Y113.484
G1 F1200 X107.578 Y123.134 E242.55158
G0 F12000 X107.012 Y123.134
G1 F1200 X97.927 Y114.049 E244.09335
G0 F12000 X97.927 Y114.615
G1 F1200 X106.447 Y123.134 E245.53916
G0 F12000 X105.881 Y123.134
G1 F1200 X97.927 Y115.181 E246.88891
G0 F12000 X97.927 Y115.747
G1 F1200 X105.315 Y123.134 E248.14261
G0 F12000 X104.750 Y123.134
G1 F1200 X97.927 Y116.312 E249.30043
G0 F12000 X97.927 Y116.878
G1 F1200 X104.183 Y123.134 E250.36211
G0 F12000 X103.618 Y123.134
G1 F1200 X97.927 Y117.444 E251.32782
G0 F12000 X97.927 Y118.009
G1 F1200 X103.052 Y123.134 E252.19756
G0 F12000 X102.486 Y123.134
G1 F1200 X97.927 Y118.575 E252.97125
G0 F12000 X97.927 Y119.141
G1 F1200 X101.920 Y123.134 E253.64888
G0 F12000 X101.355 Y123.134
G1 F1200 X97.927 Y119.706 E254.23063
G0 F12000 X97.927 Y120.272
G1 F1200 X100.789 Y123.134 E254.71633
G0 F12000 X100.223 Y123.134
G1 F1200 X97.927 Y120.838 E255.10597
G0 F12000 X97.927 Y121.403
G1 F1200 X99.658 Y123.134 E255.39973
G0 F12000 X99.092 Y123.134
G1 F1200 X97.927 Y121.969 E255.59744
G0 F12000 X97.927 Y122.535
G1 F1200 X98.526 Y123.134 E255.69910
G0 F12000 X110.128 Y123.735
G0 X110.727 Y124.020
G1 F1200 X115.651 Y128.945 E256.53481
G0 F12000 X115.085 Y128.945
G1 F1200 X110.727 Y124.586 E257.27447
G0 F12000 X110.727 Y125.152
G1 F1200 X114.520 Y128.945 E257.91817
G0 F12000 X113.954 Y128.945
G1 F1200 X110.727 Y125.717 E258.46589
G0 F12000 X110.727 Y126.283
G1 F1200 X113.388 Y128.945 E258.91756
G0 F12000 X112.823 Y128.945
G1 F1200 X110.727 Y126.849 E259.27327
G0 F12000 X110.727 Y127.414
G1 F1200 X112.257 Y128.945 E259.53300
G0 F12000 X111.691 Y128.945
G1 F1200 X110.727 Y127.980 E259.69668
G0 F12000 X110.727 Y128.546
G1 F1200 X111.126 Y128.945 E259.76439
;LAYER:1
M106 S5
G0 F12000 X110.584 Y129.053 Z0.400
;TYPE:WALL-INNER
G1 F1620 X110.584 Y123.243 E259.99621
G1 X97.786 Y123.242 E260.50685
G1 X97.786 Y95.402 E261.61767
G1 X130.714 Y120.665 E263.27363
G1 X130.714 Y129.053 E263.60831
G1 X110.584 Y129.053 E264.41149
G0 F12000 X110.185 Y129.453
G1 F1620 X110.185 Y123.642 E264.64335
G1 X97.387 Y123.641 E265.15399
G1 X97.387 Y94.592 E266.31305
G1 X131.113 Y120.467 E268.00913
G1 X131.113 Y129.452 E268.36763
G1 X110.185 Y129.453 E269.20266
G0 F12000 X109.786 Y129.852
;TYPE:WALL-OUTER
G1 F1620 X109.786 Y124.041 E269.43452
G1 X96.988 Y124.041 E269.94516
G1 X96.988 Y93.784 E271.15241
G1 X131.512 Y120.271 E272.88862
G1 X131.512 Y129.851 E273.27086
G1 X109.786 Y129.852 E274.13773
G0 F12000 X110.723 Y128.810
;TYPE:SKIN
G1 F1620 X123.911 Y115.622 E274.88189
G0 F12000 X124.230 Y115.867
G1 F1620 X111.185 Y128.912 E275.61798
G0 F12000 X111.749 Y128.912
G1 F1620 X124.549 Y116.112 E276.34025
G0 F12000 X124.869 Y116.357
G1 F1620 X112.314 Y128.912 E277.04869
G0 F12000 X112.878 Y128.912
G1 F1620 X125.188 Y116.602 E277.74331
G0 F12000 X125.507 Y116.847
G1 F1620 X113.442 Y128.912 E278.42410
G0 F12000 X114.006 Y128.912
G1 F1620 X125.826 Y117.092 E279.09107
G0 F12000 X126.146 Y117.337
G1 F1620 X114.571 Y128.912 E279.74422
G0 F12000 X115.135 Y128.912
G1 F1620 X126.465 Y117.582 E280.38354
G0 F12000 X126.784 Y117.827
G1 F1620 X115.699 Y128.912 E281.00903
G0 F12000 X116.263 Y128.912
G1 F1620 X127.103 Y118.072 E281.62070
G0 F12000 X127.423 Y118.317
G1 F1620 X116.828 Y128.912 E282.21855
G0 F12000 X117.392 Y128.912
G1 F1620 X127.743 Y118.562 E282.80259
G0 F12000 X128.061 Y118.807
G1 F1620 X117.956 Y128.912 E283.37279
G0 F12000 X118.520 Y128.912
G1 F1620 X128.381 Y119.052 E283.92919
G0 F12000 X128.700 Y119.297
G1 F1620 X119.085 Y128.912 E284.47174
G0 F12000 X119.649 Y128.912
G1 F1620 X129.020 Y119.542 E285.00049
G0 F12000 X129.339 Y119.787
G1 F1620 X120.213 Y128.912 E285.51541
G0 F12000 X120.777 Y128.913
G1 F1620 X129.658 Y120.032 E286.01654
G0 F12000 X129.977 Y120.277
G1 F1620 X121.341 Y128.913 E286.50385
G0 F12000 X121.905 Y128.913
G1 F1620 X130.297 Y120.522 E286.97736
G0 F12000 X130.572 Y120.810
G1 F1620 X122.470 Y128.913 E287.43456
G0 F12000 X123.034 Y128.913
G1 F1620 X130.572 Y121.374 E287.85993
G0 F12000 X130.572 Y121.939
G1 F1620 X123.598 Y128.913 E288.25345
G0 F12000 X124.163 Y128.913
G1 F1620 X130.572 Y122.503 E288.61512
G0 F12000 X130.572 Y123.067
G1 F1620 X124.727 Y128.913 E288.94497
G0 F12000 X125.291 Y128.913
G1 F1620 X130.572 Y123.631 E289.24299
G0 F12000 X130.572 Y124.196
G1 F1620 X125.855 Y128.913 E289.50916
G0 F12000 X126.420 Y128.913
G1 F1620 X130.572 Y124.760 E289.74347
G0 F12000 X130.572 Y125.324
G1 F1620 X126.984 Y128.913 E289.94596
G0 F12000 X127.548 Y128.913
G1 F1620 X130.572 Y125.889 E290.11659
G0 F12000 X130.572 Y126.453
G1 F1620 X128.112 Y128.913 E290.25540
G0 F12000 X128.677 Y128.913
G1 F1620 X130.572 Y127.017 E290.36236
G0 F12000 X130.572 Y127.581
G1 F1620 X129.241 Y128.913 E290.43749
G0 F12000 X129.805 Y128.913
G1 F1620 X130.572 Y128.146 E290.48077
G0 F12000 X130.572 Y128.710
G1 F1620 X130.369 Y128.913 E290.49223
G0 F12000 X123.591 Y115.377
G1 F1620 X110.723 Y128.245 E291.21833
G0 F12000 X110.723 Y127.681
G1 F1620 X123.272 Y115.132 E291.92644
G0 F12000 X122.953 Y114.887
G1 F1620 X110.723 Y127.117 E292.61654
G0 F12000 X110.723 Y126.553
G1 F1620 X122.634 Y114.642 E293.28864
G0 F12000 X122.314 Y114.397
G1 F1620 X110.723 Y125.988 E293.94269
G0 F12000 X110.723 Y125.424
G1 F1620 X121.995 Y114.152 E294.57874
G0 F12000 X121.676 Y113.907
G1 F1620 X110.723 Y124.860 E295.19678
G0 F12000 X110.723 Y124.295
G1 F1620 X121.356 Y113.663 E295.79675
G0 F12000 X121.037 Y113.417
G1 F1620 X110.723 Y123.731 E296.37873
G0 F12000 X110.723 Y123.167
G1 F1620 X120.717 Y113.173 E296.94267
G0 F12000 X120.399 Y112.927
G1 F1620 X110.224 Y123.102 E297.51681
G0 F12000 X109.660 Y123.102
G1 F1620 X120.079 Y112.683 E298.10473
G0 F12000 X119.760 Y112.437
G1 F1620 X109.095 Y123.102 E298.70652
G0 F12000 X108.531 Y123.102
G1 F1620 X119.440 Y112.193 E299.32209
G0 F12000 X119.122 Y111.947
G1 F1620 X107.967 Y123.102 E299.95153
G0 F12000 X107.403 Y123.102
G1 F1620 X118.802 Y111.703 E300.59474
G0 F12000 X118.482 Y111.458
G1 F1620 X106.838 Y123.102 E301.25178
G0 F12000 X106.274 Y123.102
G1 F1620 X118.163 Y111.213 E301.92264
G0 F12000 X117.844 Y110.968
G1 F1620 X105.710 Y123.102 E302.60733
G0 F12000 X105.146 Y123.102
G1 F1620 X117.525 Y110.723 E303.30584
G0 F12000 X117.205 Y110.478
G1 F1620 X104.581 Y123.102 E304.01818
G0 F12000 X104.017 Y123.102
G1 F1620 X116.886 Y110.232 E304.74437
G0 F12000 X116.567 Y109.988
G1 F1620 X103.453 Y123.102 E305.48435
G0 F12000 X102.888 Y123.102
G1 F1620 X116.248 Y109.742 E306.23822
G0 F12000 X115.928 Y109.498
G1 F1620 X102.324 Y123.102 E307.00585
G0 F12000 X101.760 Y123.102
G1 F1620 X115.609 Y109.253 E307.78731
G0 F12000 X115.290 Y109.008
G1 F1620 X101.196 Y123.102 E308.58259
G0 F12000 X100.631 Y123.102
G1 F1620 X114.970 Y108.763 E309.39170
G0 F12000 X114.651 Y108.518
G1 F1620 X100.067 Y123.102 E310.21464
G0 F12000 X99.503 Y123.102
G1 F1620 X114.332 Y108.273 E311.05139
G0 F12000 X114.013 Y108.028
G1 F1620 X98.939 Y123.102 E311.90198
G0 F12000 X98.374 Y123.102
G1 F1620 X113.693 Y107.783 E312.76638
G0 F12000 X113.373 Y107.538
G1 F1620 X97.925 Y122.987 E313.63810
G0 F12000 X97.925 Y122.422
G1 F1620 X113.055 Y107.293 E314.49181
G0 F12000 X112.735 Y107.048
G1 F1620 X97.925 Y121.858 E315.32750
G0 F12000 X97.925 Y121.294
G1 F1620 X112.416 Y106.803 E316.14518
G0 F12000 X112.096 Y106.558
G1 F1620 X97.925 Y120.729 E316.94481
G0 F12000 X97.925 Y120.165
G1 F1620 X111.778 Y106.313 E317.72647
G0 F12000 X111.458 Y106.068
G1 F1620 X97.925 Y119.601 E318.49010
G0 F12000 X97.925 Y119.037
G1 F1620 X111.139 Y105.823 E319.23572
G0 F12000 X110.819 Y105.578
G1 F1620 X97.925 Y118.472 E319.96330
G0 F12000 X97.925 Y117.908
G1 F1620 X110.500 Y105.334 E320.67284
G0 F12000 X110.181 Y105.088
G1 F1620 X97.925 Y117.344 E321.36441
G0 F12000 X97.925 Y116.780
G1 F1620 X109.861 Y104.844 E322.03792
G0 F12000 X109.542 Y104.598
G1 F1620 X97.925 Y116.215 E322.69344
G0 F12000 X97.925 Y115.651
G1 F1620 X109.223 Y104.354 E323.33092
G0 F12000 X108.904 Y104.108
G1 F1620 X97.925 Y115.087 E323.95044
G0 F12000 X97.925 Y114.523
G1 F1620 X108.584 Y103.864 E324.55189
G0 F12000 X108.265 Y103.618
G1 F1620 X97.925 Y113.958 E325.13535
G0 F12000 X97.925 Y113.394
G1 F1620 X107.946 Y103.374 E325.70078
G0 F12000 X107.626 Y103.129
G1 F1620 X97.925 Y112.830 E326.24818
G0 F12000 X97.925 Y112.265
G1 F1620 X107.307 Y102.884 E326.77755
G0 F12000 X106.988 Y102.639
G1 F1620 X97.925 Y111.701 E327.28892
G0 F12000 X97.925 Y111.137
G1 F1620 X106.669 Y102.394 E327.78229
G0 F12000 X106.349 Y102.149
G1 F1620 X97.925 Y110.573 E328.25763
G0 F12000 X97.925 Y110.008
G1 F1620 X106.030 Y101.903 E328.71497
G0 F12000 X105.711 Y101.659
G1 F1620 X97.925 Y109.444 E329.15429
G0 F12000 X97.925 Y108.880
G1 F1620 X105.392 Y101.413 E329.57563
G0 F12000 X105.072 Y101.169
G1 F1620 X97.925 Y108.316 E329.97891
G0 F12000 X97.925 Y107.751
G1 F1620 X104.752 Y100.924 E330.36414
G0 F12000 X104.434 Y100.679
G1 F1620 X97.925 Y107.187 E330.73140
G0 F12000 X97.925 Y106.623
G1 F1620 X104.114 Y100.434 E331.08062
G0 F12000 X103.795 Y100.189
G1 F1620 X97.925 Y106.058 E331.41182
G0 F12000 X97.925 Y105.494
G1 F1620 X103.475 Y99.944 E331.72499
G0 F12000 X103.156 Y99.699
G1 F1620 X97.925 Y104.930 E332.02016
G0 F12000 X97.925 Y104.366
G1 F1620 X102.837 Y99.454 E332.29733
G0 F12000 X102.518 Y99.209
G1 F1620 X97.925 Y103.801 E332.55648
G0 F12000 X97.925 Y103.237
G1 F1620 X102.198 Y98.964 E332.79759
G0 F12000 X101.879 Y98.719
G1 F1620 X97.925 Y102.673 E333.02070
G0 F12000 X97.925 Y102.109
G1 F1620 X101.560 Y98.474 E333.22581
G0 F12000 X101.240 Y98.229
G1 F1620 X97.925 Y101.544 E333.41287
G0 F12000 X97.925 Y100.980
G1 F1620 X100.921 Y97.984 E333.58193
G0 F12000 X100.602 Y97.739
G1 F1620 X97.925 Y100.416 E333.73298
G0 F12000 X97.925 Y99.851
G1 F1620 X100.283 Y97.494 E333.86601
G0 F12000 X99.963 Y97.249
G1 F1620 X97.925 Y99.287 E333.98101
G0 F12000 X97.925 Y98.723
G1 F1620 X99.644 Y97.004 E334.07800
G0 F12000 X99.325 Y96.759
G1 F1620 X97.925 Y98.159 E334.15700
G0 F12000 X97.925 Y97.594
G1 F1620 X99.005 Y96.515 E334.21792
G0 F12000 X98.686 Y96.269
G1 F1620 X97.925 Y97.030 E334.26086
G0 F12000 X97.925 Y96.466
G1 F1620 X98.207 Y95.902 E334.28576
G1 X97.925 Y95.902 E334.29702
;LAYER:2
M106 S10
G0 F12000 X97.786 Y95.366 Z0.500
;TYPE:WALL-INNER
G1 F2100 X130.714 Y120.629 E335.95297
G1 X130.714 Y129.017 E336.28765
G1 X110.584 Y129.018 E337.09084
G1 X110.584 Y123.207 E337.32270
G1 X97.786 Y123.206 E337.83334
G1 X97.786 Y95.366 E338.94416
G0 F12000 X97.387 Y94.557
G1 F2100 X131.113 Y120.432 E340.64024
G1 X131.113 Y129.416 E340.99870
G1 X110.185 Y129.417 E341.83373
G1 X110.185 Y123.606 E342.06559
G1 X97.387 Y123.606 E342.57623
G1 X97.387 Y94.557 E343.73528
G0 F12000 X96.988 Y93.748
;TYPE:WALL-OUTER
G1 F2100 X131.512 Y120.235 E345.47149
G1 X131.512 Y129.815 E345.85373
G1 X109.786 Y129.816 E346.72060
G1 X109.786 Y124.005 E346.95246
G1 X96.988 Y124.005 E347.46310
G1 X96.988 Y93.748 E348.67035
G10
G1 Z0.600
G0 F12000 X97.925 Y95.950
;TYPE:SKIN
G1 Z0.500
G11
G1 F2100 X130.573 Y128.599 E350.51261
G0 F12000 X130.287 Y128.877
G1 F2100 X97.925 Y96.515 E352.33871
G0 F12000 X97.925 Y97.079
G1 F2100 X129.722 Y128.877 E354.13295
