;FLAVOR:UltiGCode
;TIME:15356
;MATERIAL:14651
;MATERIAL2:0
;NOZZLE_DIAMETER:0.400000
;NOZZLE_DIAMETER2:0.400000

;Layer count: 102
;LAYER:0
M106 S255
G0 F12000 X32.027 Y44.443 Z0.300
;TYPE:SKIRT
G1 F1200 X190.972 Y44.443 E19.07340
G1 X165.477 Y116.021 E28.19135
G1 X165.055 Y117.205 E28.34219
G1 X143.257 Y178.400 E36.13755
G1 X79.743 Y178.400 E43.75923
G1 X59.333 Y121.103 E51.05807
G1 X58.943 Y120.007 E51.19767
G1 X58.944 Y120.007 E51.19779
G1 X34.349 Y50.964 E59.99293
G1 X33.933 Y49.793 E60.14206
G1 X32.027 Y44.443 E60.82358
G10
G1 Z0.400
G0 F12000 X37.982 Y48.643
;TYPE:WALL-INNER
G1 Z0.300
G11
G1 F1200 X185.018 Y48.643 E78.46790
G1 X140.295 Y174.200 E94.46202
G1 X82.705 Y174.200 E101.37282
G1 X37.982 Y48.643 E117.36694
G0 F12000 X57.999 Y58.598
G1 F1200 X57.999 Y80.002 E119.93542
G1 X73.002 Y80.002 E121.73578
G1 X73.002 Y58.598 E124.30426
G1 X57.999 Y58.598 E126.10462
G0 F12000 X72.543 Y59.057
G0 X79.133 Y62.613
G1 F1200 X78.985 Y63.994 E126.27129
G1 X79.106 Y65.123 E126.40754
G1 X79.133 Y65.376 E126.43807
G1 X79.570 Y66.699 E126.60527
G1 X80.274 Y67.915 E126.77388
G1 X81.049 Y68.786 E126.91379
G1 X81.216 Y68.973 E126.94387
G1 X82.356 Y69.835 E127.11538
G1 X83.421 Y70.360 E127.25786
G1 X83.647 Y70.472 E127.28813
G1 X85.048 Y70.863 E127.46267
G1 X86.497 Y70.993 E127.63725
G1 X87.948 Y70.863 E127.81207
G1 X89.104 Y70.540 E127.95610
G1 X89.346 Y70.472 E127.98627
G1 X90.414 Y69.947 E128.12908
G1 X90.641 Y69.834 E128.15950
G1 X91.779 Y68.972 E128.33082
G1 X92.722 Y67.915 E128.50080
G1 X93.424 Y66.699 E128.66929
G1 X93.861 Y65.376 E128.83649
G1 X94.010 Y63.994 E129.00329
G1 X93.888 Y62.864 E129.13968
G1 X93.861 Y62.612 E129.17009
G1 X93.424 Y61.289 E129.33729
G1 X92.721 Y60.073 E129.50584
G1 X91.779 Y59.017 E129.67565
G1 X90.640 Y58.153 E129.84720
G1 X89.345 Y57.516 E130.02038
G1 X88.191 Y57.194 E130.16415
G1 X87.949 Y57.125 E130.19435
G1 X86.497 Y56.994 E130.36930
G1 X85.048 Y57.125 E130.54389
G1 X83.890 Y57.448 E130.68815
G1 X83.648 Y57.516 E130.71832
G1 X82.355 Y58.153 E130.89129
G1 X81.215 Y59.017 E131.06294
G1 X80.445 Y59.881 E131.20181
G1 X80.274 Y60.072 E131.23258
G1 X79.697 Y61.069 E131.37081
G1 X79.570 Y61.286 E131.40098
G1 X79.133 Y62.613 E131.56863
G0 F12000 X79.938 Y66.534
G0 X81.489 Y68.676
G0 X84.814 Y75.066
G1 F1200 X83.691 Y75.818 E131.73082
G1 X83.390 Y76.021 E131.77438
G1 X82.437 Y77.444 E131.97990
G1 X82.102 Y79.127 E132.18582
G1 X82.437 Y80.810 E132.39174
G1 X83.188 Y81.934 E132.55396
G1 X83.391 Y82.235 E132.59753
G1 X84.814 Y83.189 E132.80311
G1 X86.497 Y83.522 E133.00899
G1 X88.179 Y83.189 E133.21474
G1 X89.606 Y82.235 E133.42073
G1 X90.558 Y80.810 E133.62638
G1 X90.820 Y79.489 E133.78798
G1 X90.893 Y79.129 E133.83206
G1 X90.558 Y77.445 E134.03810
G1 X89.808 Y76.322 E134.20015
G1 X89.605 Y76.020 E134.24382
G1 X88.179 Y75.066 E134.44970
G1 X86.497 Y74.731 E134.65551
G1 X84.814 Y75.066 E134.86143
G0 F12000 X82.818 Y77.603
G0 X82.514 Y79.127
G0 X82.818 Y80.652
G0 X82.347 Y87.944
G1 F1200 X65.989 Y109.573 E138.11562
G1 X68.518 Y116.671 E139.01983
G1 X66.317 Y117.455 E139.30020
G1 X64.496 Y118.107 E139.53231
G1 X92.925 Y151.290 E144.77580
G1 X110.939 Y114.127 E149.73166
G1 X82.347 Y87.944 E154.38396
G0 F12000 X85.479 Y89.476
G1 F1200 X111.500 Y113.304 E158.61788
G1 X137.521 Y89.476 E162.85180
G1 X137.025 Y88.201 E163.01597
G1 X85.975 Y88.201 E169.14197
G1 X85.479 Y89.476 E169.30614
G0 F12000 X86.272 Y88.636
G0 X114.315 Y83.348
G1 F1200 X124.324 Y83.348 E170.50722
G1 X124.324 Y76.343 E171.34782
G1 X114.315 Y76.343 E172.54890
G1 X114.315 Y83.348 E173.38950
G0 F12000 X107.659 Y66.418
G1 F1200 X108.266 Y65.810 E173.49259
G1 X108.492 Y64.973 E173.59663
G1 X108.266 Y64.138 E173.70044
G1 X107.658 Y63.526 E173.80396
G1 X106.821 Y63.303 E173.90790
G1 X105.985 Y63.526 E174.01173
G1 X105.373 Y64.138 E174.11559
G1 X105.150 Y64.973 E174.21930
G1 X105.373 Y65.810 E174.32324
G1 X105.984 Y66.418 E174.42668
G1 X106.821 Y66.647 E174.53081
G1 X107.659 Y66.418 E174.63506
G0 F12000 X109.829 Y69.929
G1 F1200 X128.812 Y69.929 E176.91302
G1 X128.812 Y60.019 E178.10222
G1 X109.829 Y60.019 E180.38018
G1 X109.829 Y69.929 E181.56938
G0 F12000 X128.353 Y69.470
G0 X130.155 Y64.973
G1 F1200 X130.378 Y65.810 E181.67332
G1 X130.989 Y66.418 E181.77676
G1 X131.827 Y66.647 E181.88101
G1 X132.662 Y66.418 E181.98491
G1 X133.271 Y65.811 E182.08809
G1 X133.497 Y64.973 E182.19224
G1 X133.271 Y64.136 E182.29628
G1 X132.661 Y63.526 E182.39980
G1 X131.827 Y63.303 E182.50339
G1 X130.990 Y63.526 E182.60734
G1 X130.378 Y64.138 E182.71120
G1 X130.155 Y64.973 E182.81491
G0 F12000 X131.200 Y66.054
G0 X132.451 Y66.054
G0 X139.802 Y67.276
G1 F1200 X139.491 Y70.399 E183.19152
G1 X139.802 Y73.524 E183.56837
G1 X140.717 Y76.526 E183.94498
G1 X142.207 Y79.296 E184.32241
G1 X144.211 Y81.721 E184.69992
G1 X146.652 Y83.710 E185.07777
G1 X149.437 Y85.190 E185.45623
G1 X152.458 Y86.100 E185.83484
G1 X155.598 Y86.408 E186.21345
G1 X158.740 Y86.100 E186.59229
G1 X161.761 Y85.190 E186.97090
G1 X164.546 Y83.710 E187.34936
G1 X166.985 Y81.721 E187.72703
G1 X168.989 Y79.296 E188.10453
G1 X170.479 Y76.527 E188.48187
G1 X171.396 Y73.524 E188.85865
G1 X171.706 Y70.399 E189.23549
G1 X171.396 Y67.276 E189.61210
G1 X170.479 Y64.272 E189.98900
G1 X168.989 Y61.503 E190.36633
G1 X166.985 Y59.079 E190.74374
G1 X164.546 Y57.088 E191.12156
G1 X161.761 Y55.611 E191.49985
G1 X158.741 Y54.700 E191.87838
G1 X155.598 Y54.392 E192.25735
G1 X152.457 Y54.700 E192.63607
G1 X149.437 Y55.611 E193.01460
G1 X146.652 Y57.088 E193.39289
G1 X144.211 Y59.079 E193.77089
G1 X142.207 Y61.503 E194.14831
G1 X140.717 Y64.273 E194.52575
G1 X139.802 Y67.276 E194.90246
G0 F12000 X140.197 Y73.445
G0 X141.090 Y76.371
G0 X143.491 Y88.201
G1 F1200 X142.939 Y89.310 E195.05112
G1 X160.338 Y112.313 E198.51216
G1 X161.518 Y112.132 E198.65542
G1 X170.041 Y88.201 E201.70383
G1 X143.491 Y88.201 E204.88983
G0 F12000 X143.443 Y89.263
G0 X156.534 Y109.647
G0 X157.241 Y112.586
G1 F1200 X156.689 Y112.941 E204.96859
G1 X156.251 Y113.428 E205.04718
G1 X155.952 Y114.009 E205.12560
G1 X155.813 Y114.651 E205.20442
G1 X155.848 Y115.306 E205.28313
G1 X156.048 Y115.929 E205.36165
G1 X156.406 Y116.478 E205.44030
G1 X156.890 Y116.917 E205.51871
G1 X157.473 Y117.215 E205.59728
G1 X158.112 Y117.354 E205.67575
G1 X158.767 Y117.320 E205.75446
G1 X159.392 Y117.119 E205.83324
G1 X159.940 Y116.761 E205.91179
G1 X160.378 Y116.278 E205.99004
G1 X160.678 Y115.694 E206.06882
G1 X160.815 Y115.055 E206.14724
G1 X160.783 Y114.399 E206.22606
G1 X160.580 Y113.777 E206.30457
G1 X160.227 Y113.228 E206.38289
G1 X159.738 Y112.788 E206.46183
G1 X159.158 Y112.490 E206.54008
G1 X158.517 Y112.353 E206.61874
G1 X157.862 Y112.386 E206.69744
G1 X157.241 Y112.586 E206.77573
G0 F12000 X157.011 Y109.573
G1 F1200 X140.653 Y87.945 E210.02982
G1 X112.061 Y114.127 E214.68204
G1 X130.075 Y151.290 E219.63790
G1 X158.506 Y118.105 E224.88173
G1 X154.482 Y116.671 E225.39436
G1 X157.011 Y109.573 E226.29857
G0 F12000 X140.590 Y88.633
G0 X112.600 Y114.230
G0 X112.127 Y116.268
G1 F1200 X110.873 Y116.268 E226.44905
G1 X93.544 Y152.015 E231.21615
G1 X111.500 Y172.943 E234.52519
G1 X129.456 Y152.015 E237.83423
G1 X112.127 Y116.268 E242.60133
G0 F12000 X111.143 Y116.699
G0 X93.069 Y152.996
G1 F1200 X83.659 Y172.407 E245.18992
G1 X108.167 Y172.407 E248.13088
G1 X108.702 Y171.243 E248.28461
G1 X93.069 Y152.996 E251.16797
G0 F12000 X111.500 Y172.221
G0 X114.298 Y171.243
G1 F1200 X114.833 Y172.407 E251.32170
G1 X139.341 Y172.407 E254.26266
G1 X129.931 Y152.996 E256.85125
G1 X114.298 Y171.243 E259.73461
G0 F12000 X130.552 Y152.271
G1 F1200 X139.408 Y170.542 E262.17111
G1 X140.737 Y170.469 E262.33083
G1 X157.547 Y123.275 E268.34263
G1 X156.108 Y122.441 E268.54222
G1 X130.552 Y152.271 E273.25585
G0 F12000 X111.500 Y172.221
G0 X92.448 Y152.271
G1 F1200 X66.892 Y122.441 E277.96948
G1 X65.453 Y123.275 E278.16906
G1 X82.263 Y170.469 E284.18087
G1 X83.592 Y170.542 E284.34059
G1 X92.448 Y152.271 E286.77709
G0 F12000 X65.325 Y118.326
G0 X66.110 Y116.917
G1 F1200 X66.594 Y116.478 E286.85550
G1 X66.952 Y115.929 E286.93415
G1 X67.152 Y115.306 E287.01267
G1 X67.187 Y114.651 E287.09138
G1 X67.048 Y114.009 E287.17021
G1 X66.749 Y113.428 E287.24862
G1 X66.311 Y112.941 E287.32722
G1 X65.759 Y112.586 E287.40597
G1 X65.138 Y112.386 E287.48426
G1 X64.483 Y112.353 E287.56296
G1 X63.842 Y112.490 E287.64162
G1 X63.262 Y112.788 E287.71987
G1 X62.773 Y113.228 E287.79881
G1 X62.420 Y113.777 E287.87713
G1 X62.217 Y114.399 E287.95564
G1 X62.185 Y115.055 E288.03446
G1 X62.322 Y115.694 E288.11288
G1 X62.622 Y116.278 E288.19167
G1 X63.060 Y116.761 E288.26991
G1 X63.608 Y117.119 E288.34846
G1 X64.233 Y117.320 E288.42724
G1 X64.888 Y117.354 E288.50595
G1 X65.527 Y117.215 E288.58442
G1 X66.110 Y116.917 E288.66299
G0 F12000 X63.782 Y116.752
G0 X62.704 Y115.558
G0 X62.787 Y113.952
G0 X62.662 Y112.313
G1 F1200 X80.061 Y89.310 E292.12403
G1 X79.509 Y88.201 E292.27269
G1 X52.959 Y88.201 E295.45869
G1 X61.482 Y112.132 E298.50710
G1 X62.662 Y112.313 E298.65036
G0 F12000 X62.487 Y111.882
G1 F1200 X79.593 Y89.267 E302.05306
G1 X79.262 Y88.601 E302.14230
G1 X53.526 Y88.601 E305.23062
G1 X61.779 Y111.773 E308.18236
G1 X62.487 Y111.882 E308.26832
G0 F12000 X63.491 Y113.120
G1 F1200 X63.081 Y113.489 E308.33452
G1 X62.785 Y113.950 E308.40026
G1 X62.614 Y114.472 E308.46617
G1 X62.587 Y115.022 E308.53225
G1 X62.702 Y115.558 E308.59804
G1 X62.953 Y116.048 E308.66410
G1 X63.321 Y116.454 E308.72986
G1 X63.782 Y116.755 E308.79592
G1 X64.306 Y116.923 E308.86196
G1 X64.855 Y116.951 E308.92792
G1 X65.391 Y116.835 E308.99373
G1 X65.881 Y116.585 E309.05974
G1 X66.287 Y116.217 E309.12550
G1 X66.588 Y115.756 E309.19157
G1 X66.755 Y115.233 E309.25745
G1 X66.784 Y114.684 E309.32342
G1 X66.668 Y114.145 E309.38958
G1 X66.417 Y113.657 E309.45543
G1 X66.050 Y113.249 E309.52129
G1 X65.587 Y112.951 E309.58736
G1 X65.065 Y112.783 E309.65316
G1 X64.516 Y112.755 E309.71913
G1 X63.978 Y112.870 E309.78515
G1 X63.491 Y113.120 E309.85084
G0 F12000 X66.438 Y109.642
G1 F1200 X69.029 Y116.914 E310.77721
G1 X65.177 Y118.287 E311.26794
G1 X92.831 Y150.566 E316.36854
G1 X110.449 Y114.220 E321.21545
G1 X82.401 Y88.536 E325.77917
G1 X66.438 Y109.642 E328.95471
G0 F12000 X66.782 Y114.685
G0 X66.661 Y117.765
G0 X65.325 Y118.326
G0 X66.805 Y122.954
G1 F1200 X65.941 Y123.454 E329.07450
G1 X82.551 Y170.084 E335.01450
G1 X83.348 Y170.128 E335.11029
G1 X91.973 Y152.332 E337.48340
G1 X66.805 Y122.954 E342.12555
G0 F12000 X92.810 Y150.402
G0 X110.400 Y114.230
G0 X85.951 Y89.366
G1 F1200 X111.500 Y112.762 E346.28268
G1 X137.049 Y89.366 E350.43982
G1 X136.752 Y88.601 E350.53830
G1 X86.248 Y88.601 E356.59878
G1 X85.951 Y89.366 E356.69725
G0 F12000 X86.497 Y83.115
G1 F1200 X88.023 Y82.812 E356.88395
G1 X89.318 Y81.946 E357.07089
G1 X90.181 Y80.654 E357.25734
G1 X90.428 Y79.409 E357.40965
G1 X90.485 Y79.128 E357.44406
G1 X90.181 Y77.601 E357.63089
G1 X89.476 Y76.544 E357.78336
G1 X89.317 Y76.308 E357.81751
G1 X88.023 Y75.443 E358.00428
G1 X86.497 Y75.139 E358.19100
G1 X84.971 Y75.443 E358.37772
G1 X83.678 Y76.309 E358.56447
G1 X82.814 Y77.601 E358.75098
G1 X82.510 Y79.127 E358.93770
G1 X82.814 Y80.654 E359.12453
G1 X83.521 Y81.711 E359.27713
G1 X83.679 Y81.947 E359.31121
G1 X84.971 Y82.812 E359.49779
G1 X86.497 Y83.115 E359.68449
G0 F12000 X86.497 Y70.591
G1 F1200 X87.875 Y70.468 E359.85050
G1 X89.202 Y70.097 E360.01585
G1 X90.237 Y69.588 E360.15426
G1 X90.429 Y69.492 E360.18002
G1 X91.507 Y68.677 E360.34219
G1 X92.396 Y67.679 E360.50257
G1 X93.057 Y66.535 E360.66112
G1 X93.468 Y65.291 E360.81833
G1 X93.607 Y63.994 E360.97487
G1 X93.468 Y62.698 E361.13128
G1 X93.057 Y61.453 E361.28861
G1 X92.396 Y60.308 E361.44726
G1 X91.507 Y59.312 E361.60746
G1 X90.429 Y58.495 E361.76978
G1 X89.202 Y57.891 E361.93389
G1 X87.876 Y57.520 E362.09912
G1 X86.497 Y57.396 E362.26527
G1 X85.120 Y57.520 E362.43118
G1 X83.998 Y57.833 E362.57096
G1 X83.791 Y57.891 E362.59676
G1 X82.566 Y58.495 E362.76065
G1 X81.488 Y59.312 E362.92297
G1 X80.743 Y60.148 E363.05734
G1 X80.600 Y60.308 E363.08309
G1 X80.046 Y61.267 E363.21599
G1 X79.937 Y61.452 E363.24176
G1 X79.526 Y62.698 E363.39921
G1 X79.388 Y63.994 E363.55560
G1 X79.503 Y65.080 E363.68665
G1 X79.526 Y65.291 E363.71212
G1 X79.937 Y66.535 E363.86934
G1 X80.599 Y67.679 E364.02795
G1 X81.347 Y68.520 E364.16301
G1 X81.489 Y68.677 E364.18841
G1 X82.567 Y69.493 E364.35065
G1 X83.599 Y70.001 E364.48868
G1 X83.791 Y70.097 E364.51444
G1 X85.121 Y70.468 E364.68014
G1 X86.497 Y70.591 E364.84592
G10
G1 Z0.400
G0 F12000 X105.732 Y65.603
G1 Z0.300
G11
G1 F1200 X106.191 Y66.060 E364.92364
G1 X106.821 Y66.232 E365.00201
G1 X107.451 Y66.060 E365.08037
G1 X107.908 Y65.603 E365.15793
G1 X108.077 Y64.973 E365.23620
G1 X107.908 Y64.345 E365.31424
G1 X107.450 Y63.885 E365.39214
G1 X106.821 Y63.717 E365.47027
G1 X106.192 Y63.885 E365.54839
G1 X105.732 Y64.345 E365.62646
G1 X105.564 Y64.973 E365.70447
G1 X105.732 Y65.603 E365.78271
G0 F12000 X110.229 Y69.529
G1 F1200 X128.412 Y69.529 E367.96467
G1 X128.412 Y60.419 E369.05787
G1 X110.229 Y60.419 E371.23983
G1 X110.229 Y69.529 E372.33303
G0 F12000 X114.715 Y76.743
G1 F1200 X114.715 Y82.948 E373.07763
G1 X123.924 Y82.948 E374.18271
G1 X123.924 Y76.743 E374.92731
G1 X114.715 Y76.743 E376.03239
G0 F12000 X128.353 Y69.470
G0 X130.737 Y65.603
G1 F1200 X131.196 Y66.060 E376.11011
G1 X131.826 Y66.232 E376.18848
G1 X132.454 Y66.060 E376.26662
G1 X132.912 Y65.604 E376.34417
G1 X133.082 Y64.973 E376.42259
G1 X132.912 Y64.344 E376.50078
G1 X132.454 Y63.885 E376.57859
G1 X131.826 Y63.717 E376.65660
G1 X131.197 Y63.885 E376.73472
G1 X130.737 Y64.345 E376.81279
G1 X130.569 Y64.973 E376.89080
G1 X130.737 Y65.603 E376.96904
G0 F12000 X131.826 Y66.225
G0 X140.196 Y67.355
G1 F1200 X139.893 Y70.399 E377.33613
G1 X140.196 Y73.445 E377.70345
G1 X141.088 Y76.372 E378.07064
G1 X142.541 Y79.071 E378.43847
G1 X144.494 Y81.436 E378.80653
G1 X146.874 Y83.375 E379.17491
G1 X149.590 Y84.819 E379.54403
G1 X152.535 Y85.705 E379.91308
G1 X155.598 Y86.006 E380.28241
G1 X158.663 Y85.705 E380.65198
G1 X161.608 Y84.819 E381.02103
G1 X164.323 Y83.375 E381.39004
G1 X166.702 Y81.436 E381.75833
G1 X168.655 Y79.071 E382.12639
G1 X170.108 Y76.372 E382.49422
G1 X171.002 Y73.445 E382.86148
G1 X171.304 Y70.399 E383.22879
G1 X171.002 Y67.355 E383.59587
G1 X170.108 Y64.427 E383.96324
G1 X168.655 Y61.728 E384.33107
G1 X166.702 Y59.364 E384.69904
G1 X164.323 Y57.423 E385.06748
G1 X161.608 Y55.982 E385.43632
G1 X158.663 Y55.095 E385.80541
G1 X155.598 Y54.794 E386.17498
G1 X152.535 Y55.095 E386.54431
G1 X149.590 Y55.982 E386.91339
G1 X146.875 Y57.423 E387.28223
G1 X144.494 Y59.364 E387.65086
G1 X142.541 Y61.728 E388.01883
G1 X141.088 Y64.427 E388.38666
G1 X140.196 Y67.355 E388.75396
G0 F12000 X139.894 Y70.399
G0 X140.197 Y73.445
G0 X141.090 Y76.371
G0 X143.738 Y88.601
G1 F1200 X143.407 Y89.267 E388.84321
G1 X160.513 Y111.882 E392.24591
G1 X161.221 Y111.773 E392.33187
G1 X169.474 Y88.601 E395.28361
G1 X143.738 Y88.601 E398.37193
G0 F12000 X143.443 Y89.263
G0 X156.534 Y109.647
G0 X157.413 Y112.951
G1 F1200 X156.950 Y113.249 E398.43800
G1 X156.583 Y113.657 E398.50386
G1 X156.332 Y114.145 E398.56971
G1 X156.216 Y114.684 E398.63587
G1 X156.245 Y115.233 E398.70184
G1 X156.412 Y115.756 E398.76772
G1 X156.713 Y116.217 E398.83379
G1 X157.119 Y116.585 E398.89955
G1 X157.609 Y116.835 E398.96556
G1 X158.145 Y116.951 E399.03137
G1 X158.694 Y116.923 E399.09733
G1 X159.218 Y116.755 E399.16336
G1 X159.679 Y116.454 E399.22943
G1 X160.047 Y116.048 E399.29519
G1 X160.298 Y115.558 E399.36125
G1 X160.413 Y115.022 E399.42704
G1 X160.386 Y114.472 E399.49312
