;FLAVOR:UltiGCode
;TIME:8928
;MATERIAL:12149
;MATERIAL2:0
;NOZZLE_DIAMETER:0.400000
;NOZZLE_DIAMETER2:0.400000

;Layer count: 98
;LAYER:0
M107
G0 F12000 X55.143 Y59.187 Z0.300
;TYPE:SKIRT
G1 F1200 X187.944 Y4.169 E17.24959
G1 X191.985 Y6.501 E17.80947
G1 X192.869 Y7.012 E17.93199
G1 X219.140 Y22.180 E21.57224
G1 X104.823 Y220.182 E49.00823
G1 X3.962 Y147.834 E63.90330
G1 X35.489 Y93.228 E71.46975
G1 X37.217 Y90.238 E71.88416
G1 X40.575 Y92.284 E72.35602
G1 X43.043 Y93.781 E72.70240
G1 X44.139 Y94.447 E72.85630
G1 X44.139 Y94.446 E72.85642
G1 X45.439 Y95.235 E73.03891
G1 X74.828 Y113.066 E77.16394
G1 X80.413 Y103.392 E78.50439
G1 X49.757 Y86.574 E82.70033
G1 X48.426 Y85.842 E82.88261
G1 X44.919 Y83.918 E83.36263
G1 X41.832 Y82.243 E83.78408
G1 X55.143 Y59.187 E86.97879
G10
G1 Z0.400
G0 F12000 X58.067 Y62.522
;TYPE:WALL-INNER
G1 Z0.300
G11
G1 F1200 X121.441 Y36.267 E95.21047
G1 X121.190 Y36.710 E95.27157
G1 X121.026 Y37.345 E95.35027
G1 X121.032 Y37.999 E95.42875
G1 X121.203 Y38.612 E95.50512
G1 X121.537 Y39.191 E95.58533
G1 X122.007 Y39.653 E95.66442
G1 X122.578 Y39.976 E95.74314
G1 X123.212 Y40.138 E95.82167
G1 X123.586 Y40.135 E95.86655
G1 X122.754 Y40.420 E95.97208
G1 X121.355 Y39.931 E96.14992
G1 X120.268 Y37.883 E96.42815
G1 X115.088 Y40.062 E97.10251
G1 X117.301 Y48.321 E98.12855
G1 X161.341 Y36.521 E103.59977
G1 X157.857 Y23.517 E105.21528
G1 X154.655 Y24.843 E105.63116
G1 X154.338 Y23.798 E105.76221
G1 X126.019 Y35.529 E109.44052
G1 X126.591 Y37.666 E109.70599
G1 X125.554 Y39.461 E109.95475
G1 X125.036 Y39.639 E110.02048
G1 X125.061 Y39.624 E110.02398
G1 X125.521 Y39.157 E110.10264
G1 X125.842 Y38.587 E110.18114
G1 X126.006 Y37.952 E110.25984
G1 X126.000 Y37.299 E110.33820
G1 X125.826 Y36.669 E110.41663
G1 X125.492 Y36.102 E110.49560
G1 X125.024 Y35.644 E110.57418
G1 X124.454 Y35.321 E110.65280
G1 X124.003 Y35.206 E110.70865
G1 X185.496 Y9.730 E118.69601
G1 X185.397 Y9.858 E118.71543
G1 X185.147 Y10.463 E118.79398
G1 X185.061 Y11.112 E118.87254
G1 X185.147 Y11.761 E118.95110
G1 X185.397 Y12.366 E119.02966
G1 X184.831 Y12.041 E119.10798
G1 X183.949 Y11.530 E119.23030
G1 X159.892 Y21.497 E122.35510
G1 X160.212 Y22.540 E122.48602
G1 X159.706 Y22.749 E122.55171
G1 X158.790 Y23.137 E122.67109
G1 X162.306 Y36.262 E124.30162
G1 X205.500 Y24.689 E129.66772
G1 X207.396 Y21.404 E130.12287
G1 X191.107 Y11.999 E132.37997
G1 X189.520 Y12.656 E132.58609
G1 X189.743 Y12.366 E132.62998
G1 X189.993 Y11.761 E132.70854
G1 X190.079 Y11.112 E132.78710
G1 X189.993 Y10.463 E132.86566
G1 X189.851 Y10.119 E132.91032
G1 X213.403 Y23.717 E136.17379
G1 X103.504 Y214.067 E162.54949
G1 X9.502 Y146.638 E176.43170
G1 X38.703 Y96.061 E183.43988
G1 X76.319 Y118.883 E188.71961
G1 X86.196 Y101.775 E191.09015
G1 X47.624 Y80.611 E196.36976
G1 X58.067 Y62.522 E198.87620
G0 F12000 X58.515 Y65.108
G1 F1200 X51.215 Y77.751 E200.62810
G1 X68.191 Y87.063 E202.95158
G1 X69.230 Y86.248 E203.11004
G1 X63.227 Y63.846 E205.89312
G1 X58.515 Y65.108 E206.47849
G0 F12000 X64.193 Y63.587
G1 F1200 X70.879 Y88.538 E209.57824
G1 X95.930 Y102.284 E213.00719
G1 X128.395 Y93.584 E217.04045
G1 X116.594 Y49.546 E222.51146
G1 X64.193 Y63.587 E229.02141
G0 F12000 X68.394 Y61.426
G1 F1200 X116.336 Y48.580 E234.97739
G1 X114.155 Y40.444 E235.98818
G1 X67.792 Y59.653 E242.01036
G1 X68.394 Y61.426 E242.23505
G0 F12000 X64.755 Y63.911
G0 X71.235 Y88.259
G0 X90.223 Y104.847
G1 F1200 X87.108 Y110.240 E242.98241
G1 X138.988 Y140.193 E250.17111
G1 X139.718 Y140.615 E250.27230
G1 X140.779 Y139.802 E250.43270
G1 X128.653 Y94.550 E256.05452
G1 X90.223 Y104.847 E260.82879
G0 F12000 X84.799 Y110.771
G1 F1200 X84.345 Y110.379 E260.90077
G1 X83.903 Y110.145 E260.96078
G1 X83.482 Y110.014 E261.01369
G1 X83.156 Y109.965 E261.05325
G1 X82.793 Y109.958 E261.09682
G1 X82.219 Y110.061 E261.16680
G1 X81.770 Y110.247 E261.22512
G1 X81.282 Y110.585 E261.29636
G1 X80.950 Y110.947 E261.35530
G1 X80.689 Y111.373 E261.41525
G1 X80.503 Y111.910 E261.48345
G1 X80.455 Y112.239 E261.52334
G1 X80.444 Y112.487 E261.55313
G1 X80.542 Y113.186 E261.63783
G1 X80.860 Y113.848 E261.72596
G1 X81.182 Y114.235 E261.78638
G1 X81.449 Y114.464 E261.82859
G1 X81.848 Y114.709 E261.88477
G1 X82.260 Y114.866 E261.93768
G1 X82.584 Y114.935 E261.97743
G1 X82.943 Y114.964 E262.02065
G1 X83.523 Y114.898 E262.09070
G1 X83.997 Y114.734 E262.15089
G1 X84.494 Y114.430 E262.22080
G1 X84.852 Y114.083 E262.28063
G1 X85.130 Y113.690 E262.33840
G1 X85.360 Y113.132 E262.41082
G1 X85.437 Y112.696 E262.46395
G1 X85.449 Y112.449 E262.49363
G1 X85.390 Y111.903 E262.55953
G1 X85.248 Y111.476 E262.61353
G1 X85.091 Y111.166 E262.65523
G1 X84.799 Y110.771 E262.71417
G0 F12000 X84.972 Y113.018
G0 X84.247 Y114.111
G0 X83.109 Y117.169
G1 F1200 X79.995 Y122.561 E263.46136
G1 X90.293 Y160.994 E268.23601
G1 X135.544 Y148.868 E273.85772
G1 X135.719 Y147.543 E274.01810
G1 X83.109 Y117.169 E281.30793
G0 F12000 X80.441 Y122.619
G0 X79.880 Y125.994
G1 F1200 X58.737 Y113.165 E284.27562
G1 X31.243 Y120.649 E287.69495
G1 X43.609 Y168.110 E293.58041
G1 X49.083 Y172.035 E294.38870
G1 X89.328 Y161.252 E299.38845
G1 X79.880 Y125.994 E303.76868
G0 F12000 X58.673 Y113.614
G0 X55.946 Y112.889
G1 F1200 X56.130 Y111.584 E303.92683
G1 X38.024 Y100.599 E306.46816
G1 X29.752 Y114.926 E308.45338
G1 X30.991 Y119.681 E309.04304
G1 X55.946 Y112.889 E312.14657
G0 F12000 X30.278 Y120.912
G1 F1200 X25.554 Y122.197 E312.73405
G1 X11.374 Y146.758 E316.13730
G1 X41.228 Y168.173 E320.54616
G1 X42.386 Y167.378 E320.71472
G1 X30.278 Y120.912 E326.47683
G0 F12000 X43.971 Y167.862
G0 X49.766 Y172.888
G1 F1200 X49.539 Y174.134 E326.62881
G1 X98.812 Y209.478 E333.90543
G1 X101.159 Y205.411 E334.46891
G1 X89.586 Y162.218 E339.83489
G1 X49.766 Y172.888 E344.78186
G0 F12000 X90.552 Y161.959
G1 F1200 X102.125 Y205.152 E350.14785
G1 X103.482 Y205.935 E350.33585
G1 X104.499 Y206.524 E350.47688
G1 X136.616 Y150.894 E358.18514
G1 X135.803 Y149.834 E358.34545
G1 X90.552 Y161.959 E363.96712
G0 F12000 X135.152 Y148.523
G0 X135.250 Y147.774
G0 X141.744 Y139.542
G1 F1200 X143.069 Y139.717 E364.12750
G1 X174.435 Y85.392 E371.65508
G1 X173.971 Y83.658 E371.87048
G1 X173.654 Y82.493 E372.01537
G1 X129.619 Y94.291 E377.48594
G1 X141.744 Y139.542 E383.10761
G0 F12000 X129.361 Y93.325
G1 F1200 X172.263 Y81.830 E388.43745
G1 X173.401 Y81.530 E388.57867
G1 X161.599 Y37.486 E394.05041
G1 X117.560 Y49.287 E399.52154
G1 X129.361 Y93.325 E404.99255
G0 F12000 X174.366 Y81.266
G1 F1200 X177.265 Y80.491 E405.35265
G1 X208.133 Y27.025 E412.76108
G1 X206.269 Y25.949 E413.01935
G1 X205.759 Y25.654 E413.09005
G1 X162.565 Y37.228 E418.45618
G1 X174.366 Y81.266 E423.92719
G0 F12000 X174.649 Y80.777
G1 F1200 X177.001 Y80.147 E424.21938
G1 X207.587 Y27.171 E431.55997
G1 X205.702 Y26.083 E431.82115
G1 X163.055 Y37.511 E437.11934
G1 X174.649 Y80.777 E442.49444
G0 F12000 X172.910 Y81.246
G1 F1200 X161.316 Y37.976 E447.87000
G1 X118.050 Y49.570 E453.24510
G1 X129.644 Y92.835 E458.62009
G1 X172.163 Y81.443 E463.90233
G1 X172.910 Y81.246 E463.99503
G0 F12000 X173.373 Y82.983
G1 F1200 X130.109 Y94.574 E469.36980
G1 X142.061 Y139.181 E474.91146
G1 X142.856 Y139.285 E475.00767
G1 X174.006 Y85.335 E482.48332
G1 X173.585 Y83.763 E482.67861
G1 X173.373 Y82.983 E482.77560
G0 F12000 X128.370 Y95.040
G1 F1200 X90.487 Y105.191 E487.48194
G1 X87.654 Y110.094 E488.16145
G1 X139.687 Y140.135 E495.37134
G1 X140.323 Y139.647 E495.46754
G1 X128.370 Y95.040 E501.00922
G0 F12000 X127.905 Y93.301
G1 F1200 X116.311 Y50.036 E506.38421
G1 X64.683 Y63.870 E512.79813
G1 X71.221 Y88.270 E515.82942
G1 X95.982 Y101.856 E519.21862
G1 X127.905 Y93.301 E523.18455
G0 F12000 X115.846 Y48.297
G1 F1200 X113.887 Y40.988 E524.09259
G1 X68.291 Y59.879 E530.01513
G1 X68.652 Y60.943 E530.14996
G1 X115.846 Y48.297 E536.01303
G0 F12000 X115.624 Y40.324
G0 X120.062 Y38.461
G0 X122.250 Y39.330
G1 F1200 X122.729 Y39.601 E536.07907
G1 X123.261 Y39.738 E536.14499
G1 X123.810 Y39.733 E536.21087
G1 X124.340 Y39.586 E536.27687
G1 X124.813 Y39.307 E536.34277
G1 X125.199 Y38.914 E536.40888
G1 X125.468 Y38.436 E536.47470
G1 X125.606 Y37.903 E536.54076
G1 X125.600 Y37.355 E536.60653
G1 X125.454 Y36.826 E536.67238
G1 X125.175 Y36.351 E536.73849
G1 X124.782 Y35.966 E536.80451
G1 X124.303 Y35.696 E536.87049
G1 X123.771 Y35.559 E536.93641
G1 X123.222 Y35.564 E537.00229
G1 X122.692 Y35.711 E537.06830
G1 X122.219 Y35.991 E537.13425
G1 X121.834 Y36.383 E537.20019
G1 X121.564 Y36.861 E537.26607
G1 X121.426 Y37.394 E537.33214
G1 X121.432 Y37.943 E537.39802
G1 X121.574 Y38.456 E537.46189
G1 X121.856 Y38.944 E537.52953
G1 X122.250 Y39.330 E537.59572
G0 F12000 X121.076 Y40.257
G1 F1200 X120.086 Y38.394 E537.84888
G1 X115.565 Y40.296 E538.43746
G1 X117.584 Y47.831 E539.37355
G1 X160.851 Y36.238 E544.74874
G1 X157.588 Y24.061 E546.26153
G1 X154.400 Y25.382 E546.67563
G1 X154.083 Y24.336 E546.80679
G1 X126.496 Y35.765 E550.39008
G1 X127.020 Y37.722 E550.63319
G1 X125.826 Y39.791 E550.91985
G1 X122.752 Y40.843 E551.30973
G1 X121.076 Y40.257 E551.52279
G0 F12000 X125.902 Y39.735
G0 X126.556 Y35.795
G0 X154.041 Y24.426
G0 X157.542 Y24.154
G0 X162.589 Y35.772
G1 F1200 X205.236 Y24.345 E556.82096
G1 X206.850 Y21.550 E557.20826
G1 X191.078 Y12.444 E559.39370
G1 X187.383 Y13.975 E559.87365
G1 X183.919 Y11.975 E560.35364
G1 X160.381 Y21.727 E563.41103
G1 X160.700 Y22.771 E563.54202
G1 X159.860 Y23.118 E563.65109
G1 X159.267 Y23.370 E563.72840
G1 X162.589 Y35.772 E565.26911
G0 F12000 X205.226 Y24.332
G0 X206.769 Y21.572
G0 X191.076 Y12.468
G0 X187.380 Y13.999
G0 X186.081 Y12.601
G1 F1200 X186.518 Y12.935 E565.33511
G1 X187.025 Y13.146 E565.40101
G1 X187.570 Y13.217 E565.46696
G1 X188.115 Y13.146 E565.53292
G1 X188.622 Y12.935 E565.59881
G1 X189.059 Y12.601 E565.66482
G1 X189.393 Y12.164 E565.73082
G1 X189.604 Y11.657 E565.79672
G1 X189.675 Y11.112 E565.86267
G1 X189.604 Y10.567 E565.92862
G1 X189.393 Y10.060 E565.99452
G1 X189.059 Y9.623 E566.06052
G1 X188.622 Y9.289 E566.12653
G1 X188.115 Y9.078 E566.19243
G1 X187.570 Y9.007 E566.25838
G1 X187.025 Y9.078 E566.32433
G1 X186.518 Y9.289 E566.39023
G1 X186.081 Y9.623 E566.45623
G1 X185.747 Y10.060 E566.52224
G1 X185.536 Y10.567 E566.58813
G1 X185.465 Y11.112 E566.65409
G1 X185.536 Y11.657 E566.72004
G1 X185.747 Y12.164 E566.78594
G1 X186.081 Y12.601 E566.85194
G0 F12000 X185.467 Y11.112
G0 X186.083 Y9.625
G0 X187.667 Y8.397
G1 F1200 X213.949 Y23.571 E570.49369
G1 X103.630 Y214.649 E596.97023
G1 X8.975 Y146.752 E610.94885
G1 X38.561 Y95.508 E618.04945
G1 X76.177 Y118.329 E623.32912
G1 X85.645 Y101.929 E625.60154
G1 X47.073 Y80.765 E630.88115
G1 X57.789 Y62.204 E633.45303
G1 X187.667 Y8.397 E650.32295
G0 F12000 X185.749 Y10.060
G0 X185.538 Y11.655
G0 X187.380 Y13.999
G0 X191.076 Y12.468
G0 X206.769 Y21.572
G0 X205.226 Y24.332
G0 X163.127 Y37.552
G0 X172.838 Y81.203
G0 X130.181 Y94.615
G0 X140.285 Y139.634
G0 X139.683 Y140.094
G0 X135.287 Y147.756
G1 F1200 X83.255 Y117.715 E657.53273
G1 X80.424 Y122.617 E658.21202
G1 X90.576 Y160.504 E662.91885
G1 X135.183 Y148.551 E668.46053
G1 X135.287 Y147.756 E668.55675
G0 F12000 X135.648 Y150.290
G1 F1200 X91.042 Y162.242 E674.09829
G1 X102.469 Y204.888 E679.39633
G1 X104.354 Y205.977 E679.65757
G1 X136.136 Y150.926 E687.28556
G1 X135.648 Y150.290 E687.38176
G0 F12000 X89.303 Y162.708
G1 F1200 X50.114 Y173.209 E692.25034
G1 X49.978 Y173.956 E692.34145
G1 X98.687 Y208.896 E699.53482
G1 X100.730 Y205.355 E700.02539
G1 X89.303 Y162.708 E705.32355
G0 F12000 X88.838 Y160.969
G1 F1200 X79.535 Y126.253 E709.63646
G1 X58.676 Y113.596 E712.56431
G1 X31.730 Y120.931 E715.91548
G1 X43.960 Y167.869 E721.73610
G1 X49.162 Y171.600 E722.50430
G1 X88.838 Y160.969 E727.43337
G0 F12000 X80.441 Y122.619
G0 X83.278 Y117.796
G0 X83.434 Y114.506
G1 F1200 X83.825 Y114.370 E727.48305
G1 X84.248 Y114.112 E727.54250
G1 X84.547 Y113.822 E727.59249
G1 X84.777 Y113.496 E727.64036
G1 X84.974 Y113.020 E727.70218
G1 X85.039 Y112.652 E727.74703
G1 X85.048 Y112.461 E727.76997
G1 X84.997 Y111.989 E727.82694
G1 X84.877 Y111.630 E727.87236
G1 X84.750 Y111.377 E727.90633
G1 X84.504 Y111.044 E727.95602
G1 X84.118 Y110.712 E728.01711
G1 X83.749 Y110.516 E728.06725
G1 X83.393 Y110.405 E728.11200
G1 X83.123 Y110.365 E728.14475
G1 X82.825 Y110.359 E728.18052
G1 X82.332 Y110.447 E728.24062
G1 X81.963 Y110.600 E728.28855
G1 X81.546 Y110.889 E728.34943
G1 X81.271 Y111.189 E728.39827
G1 X81.052 Y111.545 E728.44843
G1 X80.893 Y112.005 E728.50683
G1 X80.854 Y112.277 E728.53980
G1 X80.845 Y112.468 E728.56275
G1 X80.930 Y113.069 E728.63559
G1 X81.199 Y113.631 E728.71036
G1 X81.468 Y113.953 E728.76070
G1 X81.685 Y114.140 E728.79508
G1 X82.025 Y114.349 E728.84297
G1 X82.373 Y114.481 E728.88763
G1 X82.642 Y114.538 E728.92063
G1 X82.937 Y114.562 E728.95615
G1 X83.434 Y114.506 E729.01617
G0 F12000 X76.155 Y118.246
G0 X55.697 Y111.789
G1 F1200 X38.166 Y101.153 E731.47678
G1 X30.180 Y114.984 E733.39330
G1 X31.276 Y119.189 E733.91476
G1 X55.587 Y112.572 E736.93821
G1 X55.697 Y111.789 E737.03309
G0 F12000 X55.557 Y112.546
G0 X29.993 Y121.404
G1 F1200 X25.818 Y122.540 E737.55231
G1 X11.902 Y146.644 E740.89223
G1 X41.233 Y167.684 E745.22386
G1 X41.928 Y167.207 E745.32502
G1 X29.993 Y121.404 E751.00491
G0 F12000 X30.197 Y114.987
G0 X38.188 Y101.237
G0 X76.155 Y118.246
G0 X85.562 Y101.953
G0 X51.766 Y77.597
G1 F1200 X68.152 Y86.586 E753.24767
G1 X68.775 Y86.097 E753.34270
G1 X62.944 Y64.336 E756.04615
G1 X58.779 Y65.452 E756.56358
G1 X51.766 Y77.597 E758.24650
G0 F12000 X52.317 Y77.443
;TYPE:WALL-OUTER
G1 F1200 X68.113 Y86.108 E760.40849
G1 X68.320 Y85.945 E760.44010
G1 X62.661 Y64.826 E763.06379
G1 X59.042 Y65.795 E763.51337
G1 X52.317 Y77.443 E765.12736
G0 F12000 X52.058 Y77.293
G0 X46.888 Y80.884
G0 X46.521 Y80.920
G1 F1200 X57.510 Y61.887 E767.76467
G1 X187.697 Y7.952 E784.67473
G1 X214.496 Y23.424 E788.38808
G1 X103.756 Y215.231 E814.96565
G1 X8.447 Y146.865 E829.04084
G1 X38.420 Y94.952 E836.23418
G1 X76.035 Y117.775 E841.51388
G1 X85.094 Y102.083 E843.68818
G1 X46.521 Y80.920 E848.96784
G0 F12000 X46.888 Y80.884
G0 X85.562 Y101.953
G0 X76.155 Y118.246
G0 X38.463 Y101.451
G0 X38.308 Y101.707
G1 F1200 X30.609 Y115.042 E850.81559
G1 X31.561 Y118.697 E851.26882
G1 X55.228 Y112.255 E854.21219
G1 X55.264 Y111.994 E854.24381
G1 X38.308 Y101.707 E856.62371
G0 F12000 X38.463 Y101.451
G0 X38.188 Y101.237
G0 X30.197 Y114.987
G0 X29.997 Y121.821
G0 X29.708 Y121.896
G1 F1200 X26.082 Y122.883 E857.07466
G1 X12.429 Y146.530 E860.35131
G1 X41.238 Y167.195 E864.60581
G1 X41.470 Y167.036 E864.63956
G1 X29.708 Y121.896 E870.23723
G0 F12000 X29.997 Y121.821
G0 X32.139 Y120.923
G0 X32.217 Y121.213
G1 F1200 X44.311 Y167.628 E875.99300
G1 X49.241 Y171.165 E876.72111
G1 X88.348 Y160.686 E881.57950
G1 X79.190 Y126.512 E885.82508
G1 X58.615 Y114.027 E888.71309
G1 X32.217 Y121.213 E891.99612
G0 F12000 X32.139 Y120.923
G0 X58.673 Y113.614
G0 X76.155 Y118.246
G0 X81.047 Y113.080
G0 X81.317 Y112.952
G1 F1200 X81.538 Y113.413 E892.05747
G1 X81.754 Y113.672 E892.09794
G1 X81.922 Y113.816 E892.12449
G1 X82.202 Y113.988 E892.16392
G1 X82.486 Y114.096 E892.20038
G1 X82.699 Y114.141 E892.22651
G1 X82.930 Y114.160 E892.25432
G1 X83.345 Y114.113 E892.30444
G1 X83.654 Y114.006 E892.34368
G1 X84.001 Y113.794 E892.39247
G1 X84.242 Y113.561 E892.43270
G1 X84.424 Y113.302 E892.47069
G1 X84.587 Y112.907 E892.52196
G1 X84.640 Y112.607 E892.55852
G1 X84.647 Y112.473 E892.57462
G1 X84.604 Y112.074 E892.62278
G1 X84.507 Y111.784 E892.65948
G1 X84.408 Y111.588 E892.68583
G1 X84.209 Y111.318 E892.72608
G1 X83.891 Y111.044 E892.77645
G1 X83.594 Y110.887 E892.81676
