;FLAVOR:UltiGCode
;TIME:4922
;MATERIAL:4385
;MATERIAL2:0
;NOZZLE_DIAMETER:0.400000
;NOZZLE_DIAMETER2:0.400000

;Layer count: 97
;LAYER:0
M106 S255
G0 F12000 X61.102 Y100.022 Z0.300
;TYPE:SKIRT
G1 F1200 X138.731 Y100.022 E9.31548
G1 X163.749 Y119.216 E13.09940
G1 X162.273 Y123.560 E13.64995
G1 X158.088 Y123.558 E14.15215
G1 X139.421 Y123.559 E16.39219
G1 X138.539 Y123.558 E16.49803
G1 X135.237 Y123.558 E16.89427
G1 X135.114 Y117.774 E17.58851
G1 X133.074 Y115.007 E18.00103
G1 X127.459 Y115.007 E18.67483
G1 X125.855 Y117.701 E19.05108
G1 X125.806 Y119.934 E19.31910
G1 X125.726 Y123.558 E19.75409
G1 X70.241 Y123.559 E26.41229
G1 X69.186 Y123.558 E26.53889
G1 X58.776 Y123.558 E27.78809
G1 X59.350 Y117.713 E28.49286
G1 X61.102 Y100.022 E30.62617
G10
G1 Z0.400
G0 F12000 X64.907 Y104.222
;TYPE:WALL-INNER
G1 Z0.300
G11
G1 F1200 X137.306 Y104.222 E39.31405
G1 X157.035 Y119.359 E42.29807
G1 X139.349 Y119.358 E44.42039
G1 X139.308 Y117.408 E44.65444
G1 X139.301 Y116.378 E44.77805
G1 X138.580 Y115.398 E44.92405
G1 X135.194 Y110.807 E45.60860
G1 X125.073 Y110.808 E46.82312
G1 X121.805 Y116.294 E47.58939
G1 X121.667 Y117.103 E47.68787
G1 X121.617 Y119.358 E47.95854
G1 X63.410 Y119.358 E54.94338
G1 X64.907 Y104.222 E56.76856
G0 F12000 X65.700 Y106.292
G1 F1200 X64.607 Y117.359 E58.10306
G1 X84.368 Y117.359 E60.47438
G1 X84.878 Y116.121 E60.63505
G1 X74.971 Y106.292 E62.30972
G1 X65.700 Y106.292 E63.42224
G0 F12000 X74.800 Y106.708
G0 X77.639 Y107.530
G1 F1200 X87.545 Y117.359 E65.09682
G1 X105.367 Y117.359 E67.23546
G1 X115.123 Y107.523 E68.89791
G1 X114.611 Y106.292 E69.05790
G1 X78.149 Y106.292 E73.43334
G1 X77.639 Y107.530 E73.59401
G0 F12000 X87.716 Y116.943
G0 X105.193 Y116.943
G0 X108.160 Y116.124
G1 F1200 X108.672 Y117.359 E73.75444
G1 X117.428 Y117.359 E74.80516
G1 X117.476 Y115.128 E75.07295
G1 X122.136 Y107.304 E76.16574
G1 X121.561 Y106.292 E76.30541
G1 X117.991 Y106.292 E76.73381
G1 X108.160 Y116.124 E78.40228
G0 F12000 X118.163 Y106.708
G0 X121.312 Y106.720
G0 X121.642 Y107.298
G0 X136.096 Y107.390
G1 F1200 X141.485 Y114.699 E79.49198
G1 X141.544 Y117.359 E79.81126
G1 X150.439 Y117.359 E80.87866
G1 X150.899 Y116.002 E81.05060
G1 X138.244 Y106.292 E82.96472
G1 X136.651 Y106.292 E83.15588
G1 X136.096 Y107.390 E83.30352
G0 F12000 X136.564 Y107.351
G1 F1200 X141.882 Y114.564 E84.37890
G1 X141.935 Y116.959 E84.66637
G1 X150.152 Y116.959 E85.65241
G1 X150.428 Y116.145 E85.75555
G1 X138.109 Y106.692 E87.61890
G1 X136.897 Y106.692 E87.76434
G1 X136.564 Y107.351 E87.85294
G0 F12000 X134.993 Y111.207
G1 F1200 X125.300 Y111.208 E89.01610
G1 X122.186 Y116.435 E89.74622
G1 X122.066 Y117.141 E89.83215
G1 X122.009 Y119.758 E90.14627
G1 X62.968 Y119.758 E97.23119
G1 X64.544 Y103.822 E99.15284
G1 X137.442 Y103.822 E107.90060
G1 X158.213 Y119.759 E111.04226
G1 X138.958 Y119.758 E113.35286
G1 X138.908 Y117.416 E113.63397
G1 X138.902 Y116.510 E113.74269
G1 X134.993 Y111.207 E114.53325
G0 F12000 X121.673 Y107.299
G1 F1200 X121.328 Y106.692 E114.61704
G1 X118.156 Y106.692 E114.99768
G1 X108.632 Y116.218 E116.61412
G1 X108.939 Y116.959 E116.71037
G1 X117.036 Y116.959 E117.68201
G1 X117.077 Y115.058 E117.91019
G1 X117.078 Y115.016 E117.91523
G1 X121.673 Y107.299 E118.99300
G0 F12000 X121.312 Y106.720
G0 X118.163 Y106.708
G0 X114.652 Y107.431
G1 F1200 X114.344 Y106.692 E119.08907
G1 X78.417 Y106.692 E123.40031
G1 X78.111 Y107.435 E123.49674
G1 X87.710 Y116.959 E125.11939
G1 X105.200 Y116.959 E127.21819
G1 X114.652 Y107.431 E128.82871
G0 F12000 X105.193 Y116.943
G0 X87.716 Y116.943
G0 X84.406 Y116.216
G1 F1200 X74.806 Y106.692 E130.45145
G1 X66.063 Y106.692 E131.50061
G1 X65.048 Y116.959 E132.73865
G1 X84.100 Y116.959 E135.02489
G1 X84.406 Y116.216 E135.12132
G0 F12000 X83.934 Y116.311
;TYPE:WALL-OUTER
G1 F1200 X74.641 Y107.092 E136.69213
G1 X66.426 Y107.092 E137.67793
G1 X65.489 Y116.559 E138.81952
G1 X83.832 Y116.559 E141.02068
G1 X83.934 Y116.311 E141.05286
G0 F12000 X84.145 Y116.100
G0 X87.875 Y116.859
G0 X87.875 Y116.559
G1 F1200 X105.033 Y116.559 E143.11182
G1 X114.180 Y107.338 E144.67041
G1 X114.077 Y107.092 E144.70241
G1 X78.685 Y107.092 E148.94945
G1 X78.583 Y107.340 E148.98163
G1 X87.875 Y116.559 E150.55235
G0 F12000 X87.875 Y116.859
G0 X105.193 Y116.943
G0 X108.827 Y116.426
G0 X109.104 Y116.312
G1 F1200 X109.206 Y116.559 E150.58442
G1 X116.645 Y116.559 E151.47710
G1 X116.681 Y114.900 E151.67623
G1 X121.210 Y107.294 E152.73850
G1 X121.095 Y107.092 E152.76639
G1 X118.322 Y107.092 E153.09915
G1 X109.104 Y116.312 E154.66367
G0 F12000 X108.827 Y116.426
G0 X108.672 Y116.227
G0 X118.163 Y106.708
G0 X121.312 Y106.720
G0 X121.642 Y107.298
G0 X136.790 Y107.488
G0 X137.032 Y107.312
G1 F1200 X142.279 Y114.429 E155.72472
G1 X142.326 Y116.559 E155.98038
G1 X149.865 Y116.559 E156.88506
G1 X149.957 Y116.288 E156.91941
G1 X137.973 Y107.092 E158.73209
G1 X137.143 Y107.092 E158.83169
G1 X137.032 Y107.312 E158.86126
G0 F12000 X136.790 Y107.488
G0 X136.599 Y107.347
G0 X137.500 Y103.722
G0 X137.576 Y103.422
G1 F1200 X159.391 Y120.159 E162.16076
G1 X138.566 Y120.158 E164.65976
G1 X138.508 Y117.425 E164.98780
G1 X138.503 Y116.643 E165.08164
G1 X134.790 Y111.607 E165.83246
G1 X125.527 Y111.608 E166.94402
G1 X122.568 Y116.576 E167.63791
G1 X122.465 Y117.179 E167.71132
G1 X122.400 Y120.158 E168.06888
G1 X62.527 Y120.158 E175.25364
G1 X64.182 Y103.422 E177.27176
G1 X137.576 Y103.422 E186.07904
G0 F12000 X136.888 Y104.361
;TYPE:SKIN
G1 F1200 X139.961 Y107.434 E186.60055
G0 F12000 X138.112 Y106.151
G1 F1200 X136.323 Y104.361 E186.90423
G0 F12000 X135.757 Y104.361
G1 F1200 X137.547 Y106.151 E187.20801
G0 F12000 X136.981 Y106.151
G1 F1200 X135.191 Y104.361 E187.51178
G0 F12000 X134.626 Y104.361
G1 F1200 X136.514 Y106.250 E187.83227
G0 F12000 X136.324 Y106.626
G1 F1200 X134.060 Y104.361 E188.21657
G0 F12000 X133.494 Y104.361
G1 F1200 X136.135 Y107.002 E188.66476
G0 F12000 X135.944 Y107.377
G1 F1200 X132.929 Y104.361 E189.17651
G0 F12000 X132.363 Y104.361
G1 F1200 X137.408 Y109.407 E190.03276
G0 F12000 X138.995 Y111.560
G1 F1200 X131.797 Y104.361 E191.25438
G0 F12000 X131.231 Y104.361
G1 F1200 X140.584 Y113.714 E192.84164
G0 F12000 X141.352 Y115.048
G1 F1200 X130.666 Y104.361 E194.65520
G0 F12000 X130.100 Y104.361
G1 F1200 X141.365 Y115.626 E196.56693
G0 F12000 X141.378 Y116.205
G1 F1200 X129.534 Y104.361 E198.57693
G0 F12000 X128.969 Y104.361
G1 F1200 X141.390 Y116.783 E200.68492
G0 F12000 X141.403 Y117.362
G1 F1200 X136.822 Y112.780 E201.46243
G0 F12000 X138.408 Y114.932
G1 F1200 X142.694 Y119.218 E202.18979
G0 F12000 X143.259 Y119.218
G1 F1200 X141.540 Y117.499 E202.48151
G0 F12000 X142.106 Y117.499
G1 F1200 X143.825 Y119.218 E202.77324
G0 F12000 X144.391 Y119.218
G1 F1200 X142.672 Y117.499 E203.06496
G0 F12000 X143.237 Y117.499
G1 F1200 X144.956 Y119.218 E203.35669
G0 F12000 X145.522 Y119.218
G1 F1200 X143.803 Y117.499 E203.64841
G0 F12000 X144.369 Y117.499
G1 F1200 X146.088 Y119.218 E203.94013
G0 F12000 X146.653 Y119.218
G1 F1200 X144.934 Y117.499 E204.23186
G0 F12000 X145.500 Y117.499
G1 F1200 X147.219 Y119.218 E204.52358
G0 F12000 X147.785 Y119.218
G1 F1200 X146.066 Y117.499 E204.81530
G0 F12000 X146.632 Y117.499
G1 F1200 X148.351 Y119.218 E205.10703
G0 F12000 X148.916 Y119.218
G1 F1200 X147.197 Y117.499 E205.39875
G0 F12000 X147.763 Y117.499
G1 F1200 X149.482 Y119.218 E205.69048
G0 F12000 X150.048 Y119.218
G1 F1200 X148.329 Y117.499 E205.98220
G0 F12000 X148.894 Y117.499
G1 F1200 X150.613 Y119.218 E206.27392
G0 F12000 X151.179 Y119.218
G1 F1200 X149.460 Y117.499 E206.56565
G0 F12000 X150.026 Y117.499
G1 F1200 X151.745 Y119.218 E206.85737
G0 F12000 X152.310 Y119.218
G1 F1200 X150.551 Y117.458 E207.15597
G0 F12000 X150.694 Y117.036
G1 F1200 X152.876 Y119.218 E207.52627
G0 F12000 X153.442 Y119.218
G1 F1200 X150.837 Y116.613 E207.96835
G0 F12000 X150.980 Y116.191
G1 F1200 X154.007 Y119.218 E208.48205
G0 F12000 X154.573 Y119.218
G1 F1200 X147.827 Y112.472 E209.62688
G0 F12000 X147.256 Y113.032
G1 F1200 X142.967 Y108.743 E210.35475
G0 F12000 X142.392 Y109.300
G1 F1200 X138.107 Y105.014 E211.08202
G0 F12000 X134.708 Y110.667
G1 F1200 X128.403 Y104.361 E212.15210
G0 F12000 X127.837 Y104.361
G1 F1200 X134.143 Y110.667 E213.22227
G0 F12000 X133.577 Y110.667
G1 F1200 X127.272 Y104.361 E214.29235
G0 F12000 X126.706 Y104.361
G1 F1200 X133.011 Y110.667 E215.36242
G0 F12000 X132.446 Y110.667
G1 F1200 X126.140 Y104.361 E216.43259
G0 F12000 X125.575 Y104.361
G1 F1200 X131.880 Y110.667 E217.50267
G0 F12000 X131.314 Y110.667
G1 F1200 X125.009 Y104.361 E218.57275
G0 F12000 X124.443 Y104.361
G1 F1200 X130.748 Y110.667 E219.64283
G0 F12000 X130.183 Y110.667
G1 F1200 X123.878 Y104.361 E220.71290
G0 F12000 X123.312 Y104.361
G1 F1200 X129.617 Y110.667 E221.78298
G0 F12000 X129.051 Y110.667
G1 F1200 X122.746 Y104.361 E222.85306
G0 F12000 X122.180 Y104.361
G1 F1200 X128.486 Y110.667 E223.92323
G0 F12000 X127.920 Y110.667
G1 F1200 X121.615 Y104.361 E224.99330
G0 F12000 X121.049 Y104.361
G1 F1200 X127.354 Y110.667 E226.06338
G0 F12000 X126.789 Y110.667
G1 F1200 X120.483 Y104.361 E227.13355
G0 F12000 X119.918 Y104.361
G1 F1200 X126.223 Y110.667 E228.20363
G0 F12000 X125.657 Y110.667
G1 F1200 X122.296 Y107.305 E228.77409
G0 F12000 X122.084 Y107.659
G1 F1200 X125.092 Y110.667 E229.28457
G0 F12000 X124.819 Y110.960
G1 F1200 X121.873 Y108.014 E229.78452
G0 F12000 X121.662 Y108.369
G1 F1200 X124.608 Y111.314 E230.28439
G0 F12000 X124.397 Y111.669
G1 F1200 X121.451 Y108.723 E230.78434
G0 F12000 X121.240 Y109.078
G1 F1200 X124.186 Y112.024 E231.28429
G0 F12000 X123.975 Y112.379
G1 F1200 X121.029 Y109.432 E231.78433
G0 F12000 X120.817 Y109.786
G1 F1200 X123.764 Y112.733 E232.28445
G0 F12000 X123.552 Y113.087
G1 F1200 X120.606 Y110.141 E232.78440
G0 F12000 X120.395 Y110.496
G1 F1200 X123.342 Y113.442 E233.28444
G0 F12000 X123.130 Y113.796
G1 F1200 X120.184 Y110.851 E233.78431
G0 F12000 X119.973 Y111.205
G1 F1200 X122.919 Y114.151 E234.28426
G0 F12000 X122.708 Y114.506
G1 F1200 X119.762 Y111.560 E234.78422
G0 F12000 X119.551 Y111.914
G1 F1200 X122.497 Y114.860 E235.28417
G0 F12000 X122.285 Y115.214
G1 F1200 X119.339 Y112.268 E235.78412
G0 F12000 X119.129 Y112.623
G1 F1200 X122.074 Y115.569 E236.28399
G0 F12000 X121.863 Y115.923
G1 F1200 X118.917 Y112.977 E236.78394
G0 F12000 X118.706 Y113.332
G1 F1200 X121.663 Y116.289 E237.28576
G0 F12000 X121.580 Y116.772
G1 F1200 X118.495 Y113.687 E237.80930
G0 F12000 X118.284 Y114.041
G1 F1200 X121.522 Y117.280 E238.35890
G0 F12000 X121.509 Y117.832
G1 F1200 X118.073 Y114.396 E238.94200
G0 F12000 X117.861 Y114.750
G1 F1200 X121.497 Y118.386 E239.55905
G0 F12000 X121.485 Y118.940
G1 F1200 X117.651 Y115.105 E240.20979
G0 F12000 X117.604 Y115.624
G1 F1200 X121.197 Y119.217 E240.81954
G0 F12000 X120.631 Y119.217
G1 F1200 X117.592 Y116.178 E241.33528
G0 F12000 X117.580 Y116.732
G1 F1200 X120.066 Y119.217 E241.75708
G0 F12000 X121.642 Y107.298
G0 X121.312 Y106.720
G0 X120.010 Y106.151
G1 F1200 X118.221 Y104.361 E242.06077
G0 F12000 X118.786 Y104.361
G1 F1200 X120.576 Y106.151 E242.36454
G0 F12000 X121.142 Y106.151
G1 F1200 X119.352 Y104.361 E242.66831
G0 F12000 X117.655 Y104.361
G1 F1200 X119.445 Y106.151 E242.97209
G0 F12000 X118.879 Y106.151
G1 F1200 X117.089 Y104.361 E243.27586
G0 F12000 X116.524 Y104.361
G1 F1200 X118.313 Y106.151 E243.57955
G0 F12000 X117.840 Y106.244
G1 F1200 X115.958 Y104.361 E243.89902
G0 F12000 X115.392 Y104.361
G1 F1200 X117.557 Y106.527 E244.26652
G0 F12000 X117.275 Y106.809
G1 F1200 X114.827 Y104.361 E244.68196
G0 F12000 X114.261 Y104.361
G1 F1200 X116.992 Y107.092 E245.14542
G0 F12000 X116.709 Y107.375
G1 F1200 X113.695 Y104.361 E245.65692
G0 F12000 X113.130 Y104.361
G1 F1200 X116.426 Y107.658 E246.21635
G0 F12000 X116.143 Y107.941
G1 F1200 X114.952 Y106.749 E246.41855
G0 F12000 X114.354 Y106.151
G1 F1200 X112.564 Y104.361 E246.72233
G0 F12000 X111.998 Y104.361
G1 F1200 X113.788 Y106.151 E247.02610
G0 F12000 X113.222 Y106.151
G1 F1200 X111.432 Y104.361 E247.32987
G0 F12000 X110.867 Y104.361
G1 F1200 X112.656 Y106.151 E247.63356
G0 F12000 X112.091 Y106.151
G1 F1200 X110.301 Y104.361 E247.93734
G0 F12000 X109.735 Y104.361
G1 F1200 X111.525 Y106.151 E248.24111
G0 F12000 X110.959 Y106.151
G1 F1200 X109.170 Y104.361 E248.54480
G0 F12000 X108.604 Y104.361
G1 F1200 X110.394 Y106.151 E248.84857
G0 F12000 X109.828 Y106.151
G1 F1200 X108.038 Y104.361 E249.15234
G0 F12000 X107.473 Y104.361
G1 F1200 X109.262 Y106.151 E249.45603
G0 F12000 X108.697 Y106.151
G1 F1200 X106.907 Y104.361 E249.75980
G0 F12000 X106.341 Y104.361
G1 F1200 X108.131 Y106.151 E250.06358
G0 F12000 X107.565 Y106.151
G1 F1200 X105.776 Y104.361 E250.36727
G0 F12000 X105.210 Y104.361
G1 F1200 X107.000 Y106.151 E250.67104
G0 F12000 X106.434 Y106.151
G1 F1200 X104.644 Y104.361 E250.97481
G0 F12000 X104.079 Y104.361
G1 F1200 X105.868 Y106.151 E251.27850
G0 F12000 X105.303 Y106.151
G1 F1200 X103.513 Y104.361 E251.58227
G0 F12000 X102.947 Y104.361
G1 F1200 X104.737 Y106.151 E251.88605
G0 F12000 X104.171 Y106.151
G1 F1200 X102.381 Y104.361 E252.18982
G0 F12000 X101.816 Y104.361
G1 F1200 X103.605 Y106.151 E252.49351
G0 F12000 X103.040 Y106.151
G1 F1200 X101.250 Y104.361 E252.79728
G0 F12000 X100.684 Y104.361
G1 F1200 X102.474 Y106.151 E253.10105
G0 F12000 X101.908 Y106.151
G1 F1200 X100.119 Y104.361 E253.40474
G0 F12000 X99.553 Y104.361
G1 F1200 X101.343 Y106.151 E253.70851
G0 F12000 X100.777 Y106.151
G1 F1200 X98.987 Y104.361 E254.01229
G0 F12000 X98.422 Y104.361
G1 F1200 X100.211 Y106.151 E254.31598
G0 F12000 X114.322 Y106.726
G0 X114.612 Y107.422
G0 X105.193 Y116.943
G0 X100.245 Y117.498
G1 F1200 X101.964 Y119.217 E254.60770
G0 F12000 X102.529 Y119.217
G1 F1200 X100.810 Y117.498 E254.89942
G0 F12000 X101.376 Y117.498
G1 F1200 X103.095 Y119.217 E255.19115
G0 F12000 X103.661 Y119.217
G1 F1200 X101.942 Y117.498 E255.48287
G0 F12000 X102.507 Y117.498
G1 F1200 X104.226 Y119.217 E255.77460
G0 F12000 X104.792 Y119.217
G1 F1200 X103.073 Y117.498 E256.06632
G0 F12000 X103.639 Y117.498
G1 F1200 X105.358 Y119.217 E256.35804
G0 F12000 X105.923 Y119.217
G1 F1200 X104.204 Y117.498 E256.64977
G0 F12000 X104.770 Y117.498
G1 F1200 X106.489 Y119.217 E256.94149
G0 F12000 X107.055 Y119.217
G1 F1200 X105.336 Y117.498 E257.23322
G0 F12000 X105.662 Y117.258
G1 F1200 X107.620 Y119.217 E257.56558
G0 F12000 X108.186 Y119.217
G1 F1200 X105.943 Y116.974 E257.94623
G0 F12000 X106.225 Y116.691
G1 F1200 X108.752 Y119.217 E258.37500
G0 F12000 X109.318 Y119.217
G1 F1200 X106.507 Y116.406 E258.85204
G0 F12000 X106.788 Y116.122
G1 F1200 X109.883 Y119.217 E259.37728
G0 F12000 X110.449 Y119.217
G1 F1200 X108.731 Y117.499 E259.66883
G0 F12000 X108.470 Y117.238
G1 F1200 X107.070 Y115.838 E259.90642
G0 F12000 X107.352 Y115.554
G1 F1200 X108.069 Y116.272 E260.02818
G0 F12000 X108.224 Y115.860
G1 F1200 X107.634 Y115.271 E260.12822
G0 F12000 X107.915 Y114.986
G1 F1200 X108.506 Y115.578 E260.22861
G0 F12000 X108.789 Y115.295
G1 F1200 X108.197 Y114.702 E260.32916
G0 F12000 X108.479 Y114.419
G1 F1200 X109.072 Y115.012 E260.42979
G0 F12000 X109.355 Y114.729
G1 F1200 X108.760 Y114.134 E260.53077
G0 F12000 X109.042 Y113.850
G1 F1200 X109.638 Y114.446 E260.63191
G0 F12000 X109.921 Y114.163
G1 F1200 X109.324 Y113.567 E260.73314
G0 F12000 X109.605 Y113.282
G1 F1200 X110.204 Y113.880 E260.83471
G0 F12000 X110.486 Y113.598
G1 F1200 X109.887 Y112.998 E260.93645
G0 F12000 X110.169 Y112.714
G1 F1200 X110.769 Y113.315 E261.03836
G0 F12000 X111.052 Y113.032
G1 F1200 X110.450 Y112.430 E261.14052
G0 F12000 X110.732 Y112.146
G1 F1200 X111.335 Y112.749 E261.24285
G0 F12000 X111.618 Y112.466
G1 F1200 X111.014 Y111.862 E261.34535
