;FLAVOR:UltiGCode
;TIME:14636
;MATERIAL:13100
;MATERIAL2:0
;NOZZLE_DIAMETER:0.400000
;NOZZLE_DIAMETER2:0.400000

;Layer count: 98
;LAYER:0
M106 S255
G0 F12000 X75.168 Y3.962 Z0.300
;TYPE:SKIRT
G1 F1200 X129.729 Y35.464 E7.56027
G1 X132.757 Y37.215 E7.98000
G1 X129.525 Y42.537 E8.72719
G1 X109.935 Y74.827 E13.25933
G1 X119.608 Y80.413 E14.59974
G1 X137.775 Y47.302 E19.13183
G1 X139.083 Y44.918 E19.45814
G1 X140.757 Y41.832 E19.87943
G1 X163.815 Y55.143 E23.07435
G1 X217.837 Y185.544 E40.01213
G1 X218.829 Y187.947 E40.32409
G1 X216.500 Y191.985 E40.88348
G1 X202.932 Y215.485 E44.13975
G1 X200.819 Y219.141 E44.64647
G1 X7.744 Y107.667 E71.39985
G1 X2.816 Y104.826 E72.08245
G1 X75.168 Y3.962 E86.97809
G10
G1 Z0.400
G0 F12000 X76.363 Y9.502
;TYPE:WALL-INNER
G1 Z0.300
G11
G1 F1200 X126.940 Y38.703 E93.98627
G1 X104.115 Y76.320 E99.26630
G1 X121.225 Y86.195 E101.63692
G1 X142.389 Y47.624 E106.91642
G1 X160.480 Y58.067 E109.42308
G1 X186.734 Y121.440 E117.65460
G1 X186.291 Y121.190 E117.71564
G1 X185.657 Y121.026 E117.79422
G1 X185.002 Y121.032 E117.87282
G1 X184.369 Y121.207 E117.95163
G1 X183.808 Y121.541 E118.02998
G1 X183.348 Y122.006 E118.10847
G1 X183.025 Y122.577 E118.18719
G1 X182.862 Y123.213 E118.26598
G1 X182.865 Y123.582 E118.31026
G1 X182.582 Y122.753 E118.41538
G1 X183.069 Y121.356 E118.59291
G1 X185.119 Y120.266 E118.87153
G1 X184.570 Y118.960 E119.04153
G1 X182.938 Y115.089 E119.54564
G1 X174.679 Y117.301 E120.57166
G1 X186.481 Y161.341 E126.04293
G1 X199.484 Y157.856 E127.65836
G1 X198.158 Y154.654 E128.07424
G1 X199.203 Y154.337 E128.20529
G1 X187.473 Y126.019 E131.88344
G1 X185.335 Y126.590 E132.14899
G1 X183.541 Y125.553 E132.39765
G1 X183.368 Y125.050 E132.46148
G1 X183.845 Y125.522 E132.54201
G1 X184.414 Y125.841 E132.62029
G1 X185.047 Y126.006 E132.69879
G1 X185.703 Y126.000 E132.77751
G1 X186.335 Y125.825 E132.85620
G1 X186.899 Y125.491 E132.93486
G1 X187.357 Y125.024 E133.01335
G1 X187.679 Y124.453 E133.09202
G1 X187.796 Y124.004 E133.14770
G1 X213.271 Y185.495 E141.13479
G1 X213.144 Y185.398 E141.15397
G1 X212.539 Y185.147 E141.23257
G1 X211.889 Y185.060 E141.31127
G1 X211.237 Y185.147 E141.39020
G1 X210.635 Y185.397 E141.46842
G1 X211.472 Y183.948 E141.66922
G1 X201.507 Y159.893 E144.79371
G1 X200.460 Y160.212 E144.92505
G1 X199.870 Y158.788 E145.11002
G1 X186.738 Y162.306 E146.74142
G1 X198.312 Y205.500 E152.10756
G1 X201.598 Y207.394 E152.56269
G1 X211.001 Y191.106 E154.81957
G1 X210.345 Y189.519 E155.02564
G1 X210.634 Y189.742 E155.06944
G1 X211.240 Y189.992 E155.14810
G1 X211.889 Y190.078 E155.22667
G1 X212.537 Y189.992 E155.30511
G1 X212.881 Y189.851 E155.34972
G1 X199.283 Y213.404 E158.61330
G1 X8.932 Y103.505 E184.98910
G1 X76.363 Y9.502 E198.87155
G0 F12000 X76.243 Y11.374
G1 F1200 X54.827 Y41.228 E203.28048
G1 X55.622 Y42.386 E203.44903
G1 X102.088 Y30.279 E209.21112
G1 X100.804 Y25.553 E209.79880
G1 X76.243 Y11.374 E213.20199
G0 F12000 X100.448 Y25.827
G0 X101.523 Y29.951
G0 X102.351 Y31.242
G1 F1200 X54.892 Y43.610 E219.08728
G1 X50.966 Y49.083 E219.89554
G1 X61.749 Y89.327 E224.89517
G1 X97.007 Y79.879 E229.27540
G1 X109.835 Y58.736 E232.24303
G1 X102.351 Y31.242 E235.66236
G0 F12000 X103.319 Y30.991
G1 F1200 X110.111 Y55.945 E238.76578
G1 X111.416 Y56.129 E238.92392
G1 X122.402 Y38.023 E241.46532
G1 X108.076 Y29.751 E243.45044
G1 X103.319 Y30.991 E244.04035
G0 F12000 X108.015 Y30.196
G0 X121.764 Y38.187
G0 X104.754 Y76.155
G0 X121.047 Y85.561
G0 X145.252 Y51.215
G1 F1200 X135.937 Y68.190 E246.36390
G1 X136.752 Y69.229 E246.52236
G1 X159.155 Y63.227 E249.30553
G1 X157.893 Y58.515 E249.89089
G1 X145.252 Y51.215 E251.64259
G0 F12000 X157.536 Y58.789
G0 X158.593 Y62.903
G0 X159.414 Y64.192
G1 F1200 X134.464 Y70.878 E254.74222
G1 X133.832 Y72.028 E254.89969
G1 X120.716 Y95.931 E258.17150
G1 X122.612 Y103.004 E259.05022
G1 X166.683 Y91.324 E264.52132
G1 X159.414 Y64.192 E267.89198
G0 F12000 X134.744 Y71.235
G0 X121.047 Y85.561
G0 X112.953 Y82.266
G1 F1200 X112.581 Y81.486 E267.99568
G1 X111.944 Y80.874 E268.10169
G1 X111.288 Y80.557 E268.18911
G1 X110.657 Y80.444 E268.26604
G1 X110.150 Y80.473 E268.32698
G1 X109.707 Y80.634 E268.38354
G1 X109.526 Y80.663 E268.40554
G1 X109.230 Y80.847 E268.44736
G1 X108.642 Y81.333 E268.53890
G1 X108.469 Y81.534 E268.57073
G1 X108.206 Y82.086 E268.64410
G1 X108.031 Y82.801 E268.73243
G1 X108.118 Y83.598 E268.82864
G1 X108.401 Y84.266 E268.91570
G1 X108.953 Y84.830 E269.01040
G1 X109.120 Y84.997 E269.03874
G1 X109.942 Y85.381 E269.14761
G1 X110.635 Y85.448 E269.23116
G1 X111.405 Y85.299 E269.32527
G1 X112.151 Y84.874 E269.42830
G1 X112.620 Y84.337 E269.51386
G1 X112.955 Y83.665 E269.60396
G1 X112.975 Y82.756 E269.71307
G1 X112.999 Y82.617 E269.73000
G1 X112.953 Y82.266 E269.77248
G0 F12000 X112.757 Y87.111
G1 F1200 X82.808 Y138.986 E276.96043
G1 X82.385 Y139.717 E277.06177
G1 X83.198 Y140.778 E277.22217
G1 X128.450 Y128.652 E282.84400
G1 X118.153 Y90.223 E287.61815
G1 X114.170 Y87.922 E288.17014
G1 X112.757 Y87.111 E288.36564
G0 F12000 X105.831 Y83.110
G1 F1200 X104.423 Y82.294 E288.56092
G1 X100.440 Y79.995 E289.11279
G1 X62.007 Y90.293 E293.88744
G1 X74.132 Y135.543 E299.50900
G1 X75.457 Y135.718 E299.66938
G1 X105.831 Y83.110 E306.95900
G0 F12000 X117.796 Y90.497
G0 X123.106 Y104.847
G1 F1200 X129.417 Y128.395 E309.88449
G1 X173.455 Y116.594 E315.35550
G1 X167.176 Y93.160 E318.26677
G1 X159.271 Y95.255 E319.24812
G1 X156.093 Y100.758 E320.01069
G1 X154.927 Y96.405 E320.55147
G1 X152.997 Y96.920 E320.79117
G1 X153.548 Y98.992 E321.04845
G1 X152.860 Y98.591 E321.14401
G1 X151.516 Y98.591 E321.30529
G1 X150.682 Y99.073 E321.42088
G1 X150.356 Y99.265 E321.46628
G1 X149.877 Y100.090 E321.58076
G1 X149.687 Y100.420 E321.62645
G1 X149.687 Y101.760 E321.78725
G1 X150.357 Y102.920 E321.94800
G1 X151.405 Y103.525 E322.09322
G1 X150.153 Y103.860 E322.24874
G1 X142.807 Y99.619 E323.26662
G1 X135.298 Y101.609 E324.19881
G1 X132.094 Y107.158 E324.96771
G1 X130.920 Y102.779 E325.51175
G1 X128.935 Y103.285 E325.75757
G1 X129.484 Y105.336 E326.01235
G1 X128.803 Y104.943 E326.10671
G1 X127.464 Y104.943 E326.26739
G1 X126.304 Y105.613 E326.42814
G1 X125.699 Y106.662 E326.57345
G1 X125.069 Y104.312 E326.86541
G1 X123.106 Y104.847 E327.10956
G0 F12000 X124.745 Y104.876
G0 X126.415 Y109.336
G1 F1200 X127.353 Y109.877 E327.23950
G1 X126.613 Y110.075 E327.33142
G1 X126.415 Y109.336 E327.42323
G0 F12000 X128.693 Y109.534
G0 X130.030 Y109.159
G1 F1200 X130.356 Y108.592 E327.50172
G1 X130.476 Y109.040 E327.55737
G1 X130.030 Y109.159 E327.61276
G0 F12000 X126.289 Y110.637
G0 X124.745 Y104.876
G0 X123.668 Y105.170
G0 X129.674 Y129.361
G1 F1200 X138.229 Y161.283 E331.57858
G1 X144.872 Y165.125 E332.49946
G1 X145.536 Y165.510 E332.59157
G1 X145.730 Y166.235 E332.68163
G1 X145.050 Y165.842 E332.77588
G1 X143.711 Y165.842 E332.93656
G1 X142.551 Y166.512 E333.09731
G1 X141.881 Y167.671 E333.25795
G1 X141.881 Y169.011 E333.41875
G1 X142.551 Y170.172 E333.57961
G1 X143.383 Y170.651 E333.69481
G1 X143.711 Y170.840 E333.74024
G1 X145.049 Y170.840 E333.90080
G1 X145.881 Y170.361 E334.01600
G1 X146.211 Y170.171 E334.06170
G1 X146.602 Y169.492 E334.15572
G1 X147.236 Y171.858 E334.44966
G1 X149.215 Y171.323 E334.69566
G1 X148.042 Y166.941 E335.24002
G1 X153.599 Y170.150 E336.01006
G1 X161.038 Y168.158 E336.93419
G1 X164.178 Y162.608 E337.69939
G1 X165.394 Y166.994 E338.24556
G1 X167.315 Y166.471 E338.48448
G1 X166.610 Y163.834 E338.81203
G1 X167.662 Y164.441 E338.95778
G1 X169.001 Y164.441 E339.11846
G1 X169.833 Y163.962 E339.23366
G1 X170.163 Y163.772 E339.27935
G1 X170.555 Y163.092 E339.37354
G1 X171.186 Y165.448 E339.66623
G1 X173.174 Y164.895 E339.91384
G1 X171.991 Y160.477 E340.46268
G1 X177.602 Y163.718 E341.24025
G1 X185.515 Y161.598 E342.22330
G1 X173.713 Y117.559 E347.69446
G1 X129.674 Y129.361 E353.16562
G0 F12000 X128.709 Y129.618
G1 F1200 X83.458 Y141.745 E358.78736
G1 X83.283 Y143.070 E358.94774
G1 X137.611 Y174.434 E366.47551
G1 X140.509 Y173.658 E366.83552
G1 X128.709 Y129.618 E372.30673
G0 F12000 X172.893 Y116.270
G0 X166.851 Y93.720
G0 X159.545 Y95.613
G0 X154.081 Y102.809
G1 F1200 X154.411 Y102.236 E372.38608
G1 X154.531 Y102.688 E372.44220
G1 X154.081 Y102.809 E372.49812
G0 F12000 X159.545 Y95.613
G0 X166.851 Y93.720
G0 X174.422 Y116.336
G1 F1200 X182.556 Y114.156 E373.50865
G1 X163.349 Y67.792 E379.53084
G1 X161.576 Y68.394 E379.75553
G1 X174.422 Y116.336 E385.71151
G0 F12000 X184.953 Y161.274
G0 X177.661 Y163.272
G0 X171.510 Y164.881
G0 X169.640 Y159.676
G1 F1200 X169.683 Y159.836 E385.73140
G1 X169.480 Y159.719 E385.75951
G1 X169.640 Y159.676 E385.77939
G0 F12000 X167.772 Y159.850
G0 X166.227 Y160.590
G1 F1200 X165.896 Y161.163 E385.85880
G1 X165.775 Y160.711 E385.91495
G1 X166.227 Y160.590 E385.97110
G0 F12000 X167.772 Y159.850
G0 X168.892 Y159.850
G0 X169.864 Y160.411
G0 X171.510 Y164.881
G0 X172.614 Y164.575
G0 X185.773 Y162.565
G1 F1200 X141.733 Y174.366 E391.44234
G1 X142.512 Y177.265 E391.80257
G1 X195.976 Y208.132 E399.21073
G1 X197.347 Y205.757 E399.53980
G1 X185.773 Y162.565 E404.90571
G0 F12000 X173.389 Y118.121
G0 X130.236 Y129.685
G0 X83.366 Y140.284
G0 X82.906 Y139.682
G0 X73.167 Y135.803
G1 F1200 X61.041 Y90.551 E410.52753
G1 X17.849 Y102.124 E415.89340
G1 X17.067 Y103.480 E416.08124
G1 X16.477 Y104.498 E416.22243
G1 X72.107 Y136.616 E423.93075
G1 X73.167 Y135.803 E424.09105
G0 F12000 X60.783 Y89.586
G1 F1200 X50.113 Y49.765 E429.03814
G1 X48.867 Y49.538 E429.19012
G1 X13.524 Y98.811 E436.46667
G1 X17.590 Y101.160 E437.03016
G1 X60.783 Y89.586 E442.39618
G0 F12000 X60.293 Y89.303
G1 F1200 X49.792 Y50.113 E447.26488
G1 X49.045 Y49.977 E447.35599
G1 X14.107 Y98.685 E454.54912
G1 X17.647 Y100.731 E455.03977
G1 X60.293 Y89.303 E460.33785
G0 F12000 X60.758 Y91.041
G1 F1200 X18.113 Y102.468 E465.63578
G1 X17.024 Y104.353 E465.89702
G1 X72.075 Y136.136 E473.52506
G1 X72.711 Y135.648 E473.62126
G1 X60.758 Y91.041 E479.16295
G0 F12000 X62.497 Y90.576
G1 F1200 X74.449 Y135.182 E484.70449
G1 X75.244 Y135.286 E484.80070
G1 X105.285 Y83.256 E492.01028
G1 X100.384 Y80.424 E492.68952
G1 X62.497 Y90.576 E497.39635
G0 F12000 X62.032 Y88.837
G1 F1200 X96.748 Y79.534 E501.70926
G1 X109.404 Y58.675 E504.63704
G1 X102.069 Y31.729 E507.98822
G1 X55.133 Y43.961 E513.80866
G1 X51.401 Y49.162 E514.57684
G1 X62.032 Y88.837 E519.50579
G0 F12000 X96.739 Y79.522
G0 X104.670 Y76.177
G1 F1200 X121.071 Y85.645 E521.77831
G1 X142.235 Y47.073 E527.05792
G1 X160.798 Y57.789 E529.63000
G1 X214.602 Y187.668 E546.49990
G1 X199.429 Y213.950 E550.14158
G1 X8.350 Y103.631 E576.61824
G1 X76.249 Y8.975 E590.59709
G1 X127.494 Y38.561 E597.69779
G1 X104.670 Y76.177 E602.97765
G0 F12000 X108.923 Y81.619
G1 F1200 X108.808 Y81.754 E602.99893
G1 X108.585 Y82.221 E603.06103
G1 X108.436 Y82.828 E603.13604
G1 X108.509 Y83.496 E603.21667
G1 X108.740 Y84.041 E603.28771
G1 X109.237 Y84.549 E603.37299
G1 X109.353 Y84.664 E603.39259
G1 X110.049 Y84.989 E603.48477
G1 X110.616 Y85.045 E603.55314
G1 X111.264 Y84.919 E603.63235
G1 X111.894 Y84.560 E603.71937
G1 X112.285 Y84.112 E603.79072
G1 X112.557 Y83.567 E603.86381
G1 X112.576 Y82.720 E603.96548
G1 X112.594 Y82.610 E603.97886
G1 X112.565 Y82.381 E604.00656
G1 X112.252 Y81.724 E604.09389
G1 X111.713 Y81.206 E604.18359
G1 X111.164 Y80.941 E604.25675
G1 X110.633 Y80.846 E604.32148
G1 X110.231 Y80.869 E604.36980
G1 X109.807 Y81.023 E604.42393
G1 X109.669 Y81.045 E604.44070
G1 X109.464 Y81.173 E604.46970
G1 X108.923 Y81.619 E604.55384
G0 F12000 X108.440 Y82.828
G0 X108.743 Y84.038
G0 X110.051 Y84.986
G0 X112.904 Y87.657
G1 F1200 X82.865 Y139.686 E611.76319
G1 X83.353 Y140.322 E611.85939
G1 X127.960 Y128.369 E617.40107
G1 X117.809 Y90.487 E622.10729
G1 X113.970 Y88.269 E622.63933
G1 X112.904 Y87.657 E622.78683
G0 F12000 X117.796 Y90.497
G0 X121.144 Y95.982
G1 F1200 X122.895 Y102.515 E623.59846
G1 X166.193 Y91.040 E628.97360
G1 X159.131 Y64.682 E632.24811
G1 X134.733 Y71.221 E635.27920
G1 X121.144 Y95.982 E638.66858
G0 F12000 X123.596 Y105.128
G1 F1200 X129.700 Y127.905 E641.49826
G1 X172.965 Y116.311 E646.87325
G1 X166.893 Y93.649 E649.68861
G1 X159.534 Y95.599 E650.60217
G1 X155.957 Y101.793 E651.46049
G1 X154.644 Y96.895 E652.06900
G1 X153.486 Y97.204 E652.21282
G1 X155.020 Y102.971 E652.92893
G1 X150.097 Y104.289 E653.54049
G1 X142.750 Y100.048 E654.55847
G1 X135.561 Y101.953 E655.45093
G1 X131.958 Y108.194 E656.31569
G1 X130.636 Y103.264 E656.92819
G1 X129.426 Y103.573 E657.07805
G1 X130.966 Y109.322 E657.79225
G1 X126.331 Y110.565 E658.36811
G1 X124.787 Y104.804 E659.08383
G1 X123.596 Y105.128 E659.23194
G0 F12000 X124.745 Y104.876
G0 X126.035 Y106.879
G1 F1200 X126.035 Y108.006 E659.36718
G1 X126.597 Y108.979 E659.50202
G1 X127.572 Y109.541 E659.63706
G1 X128.695 Y109.541 E659.77182
G1 X129.435 Y109.116 E659.87423
G1 X129.672 Y108.979 E659.90707
G1 X130.232 Y108.005 E660.04190
G1 X130.232 Y106.880 E660.17690
G1 X129.672 Y105.906 E660.31172
G1 X128.696 Y105.343 E660.44693
G1 X127.571 Y105.343 E660.58193
G1 X126.597 Y105.906 E660.71693
G1 X126.035 Y106.879 E660.85176
G0 F12000 X124.745 Y104.876
G0 X123.668 Y105.170
G0 X130.164 Y129.644
G1 F1200 X138.573 Y161.019 E664.74964
G1 X145.879 Y165.247 E665.76259
G1 X147.519 Y171.367 E666.52290
G1 X148.725 Y171.041 E666.67281
G1 X147.405 Y166.111 E667.28525
G1 X153.656 Y169.721 E668.15147
G1 X160.772 Y167.815 E669.03549
G1 X164.306 Y161.570 E669.89657
G1 X165.673 Y166.504 E670.51095
G1 X166.826 Y166.190 E670.65435
G1 X165.286 Y160.429 E671.36994
G1 X169.922 Y159.186 E671.94591
G1 X171.468 Y164.955 E672.66262
G1 X172.685 Y164.616 E672.81422
G1 X171.355 Y159.647 E673.43149
G1 X177.659 Y163.289 E674.30514
G1 X185.025 Y161.315 E675.22025
G1 X173.430 Y118.049 E680.59538
G1 X130.164 Y129.644 E685.97051
G0 F12000 X172.893 Y116.270
G0 X166.851 Y93.720
G0 X159.545 Y95.613
G0 X155.334 Y102.904
G0 X149.604 Y104.005
G0 X150.650 Y102.627
G1 F1200 X151.623 Y103.189 E686.10535
G1 X152.748 Y103.189 E686.24035
G1 X153.723 Y102.627 E686.37539
G1 X154.285 Y101.652 E686.51044
G1 X154.285 Y100.527 E686.64544
G1 X153.723 Y99.555 E686.78017
G1 X152.985 Y99.128 E686.88249
G1 X152.751 Y98.991 E686.91503
G1 X151.623 Y98.991 E687.05039
G1 X150.884 Y99.419 E687.15286
G1 X150.649 Y99.557 E687.18557
G1 X150.224 Y100.291 E687.28735
G1 X150.087 Y100.527 E687.32009
G1 X150.087 Y101.653 E687.45521
G1 X150.650 Y102.627 E687.59021
G0 F12000 X152.440 Y103.718
G0 X155.334 Y102.904
G0 X159.545 Y95.613
G0 X166.851 Y93.720
G0 X175.169 Y117.584
G1 F1200 X186.764 Y160.851 E692.96546
G1 X198.940 Y157.587 E694.47817
G1 X197.619 Y154.399 E694.89227
G1 X198.665 Y154.082 E695.02343
G1 X187.237 Y126.496 E698.60656
G1 X185.279 Y127.019 E698.84976
G1 X183.211 Y125.825 E699.13631
G1 X182.159 Y122.753 E699.52597
G1 X182.724 Y121.131 E699.73208
G1 X182.743 Y121.076 E699.73906
G1 X184.608 Y120.085 E699.99249
G1 X182.705 Y115.565 E700.58101
G1 X175.169 Y117.584 E701.51722
G0 F12000 X182.677 Y115.624
G0 X184.541 Y120.061
G0 X183.670 Y122.249
G1 F1200 X183.400 Y122.728 E701.58320
G1 X183.262 Y123.262 E701.64939
G1 X183.268 Y123.810 E701.71515
G1 X183.415 Y124.338 E701.78092
G1 X183.693 Y124.812 E701.84686
G1 X184.087 Y125.199 E701.91313
G1 X184.565 Y125.467 E701.97890
G1 X185.096 Y125.606 E702.04476
G1 X185.647 Y125.600 E702.11089
G1 X186.177 Y125.454 E702.17685
G1 X186.650 Y125.173 E702.24288
G1 X187.035 Y124.782 E702.30872
G1 X187.305 Y124.302 E702.37481
G1 X187.443 Y123.770 E702.44076
G1 X187.436 Y123.222 E702.50653
G1 X187.290 Y122.691 E702.57261
G1 X187.009 Y122.219 E702.63853
G1 X186.618 Y121.834 E702.70438
G1 X186.140 Y121.564 E702.77026
