;FLAVOR:UltiGCode
;TIME:5345
;MATERIAL:7769
;MATERIAL2:0
;NOZZLE_DIAMETER:0.400000
;NOZZLE_DIAMETER2:0.400000

;Layer count: 102
;LAYER:0
M107
G0 F12000 X79.743 Y44.599 Z0.300
;TYPE:SKIRT
G1 F1200 X143.257 Y44.598 E7.62168
G1 X190.973 Y178.556 E24.68598
G1 X32.027 Y178.557 E43.75950
G1 X79.743 Y44.599 E60.82381
G10
G1 Z0.400
G0 F12000 X82.705 Y48.799
;TYPE:WALL-INNER
G1 Z0.300
G11
G1 F1200 X140.295 Y48.798 E67.73461
G1 X185.018 Y174.356 E83.72884
G1 X37.982 Y174.357 E101.37316
G1 X82.705 Y48.799 E117.36739
G0 F12000 X83.660 Y50.593
G1 F1200 X93.069 Y70.003 E119.95582
G1 X108.701 Y51.757 E122.83901
G1 X108.166 Y50.593 E122.99274
G1 X83.660 Y50.593 E125.93346
G0 F12000 X83.592 Y52.457
G1 F1200 X82.263 Y52.530 E126.09318
G1 X65.453 Y99.724 E132.10499
G1 X66.892 Y100.558 E132.30457
G1 X92.448 Y70.728 E137.01820
G1 X83.592 Y52.457 E139.45470
G0 F12000 X93.545 Y70.984
G1 F1200 X110.873 Y106.732 E144.22186
G1 X112.127 Y106.732 E144.37234
G1 X129.455 Y70.984 E149.13949
G1 X111.500 Y50.057 E152.44836
G1 X93.545 Y70.984 E155.75724
G0 F12000 X92.924 Y71.709
G1 F1200 X64.493 Y104.894 E161.00107
G1 X68.518 Y106.327 E161.51376
G1 X65.989 Y113.427 E162.41820
G1 X82.346 Y135.054 E165.67212
G1 X110.939 Y108.872 E170.32443
G1 X92.924 Y71.709 E175.28035
G0 F12000 X111.500 Y50.779
G0 X114.299 Y51.757
G1 F1200 X129.931 Y70.003 E178.16353
G1 X139.340 Y50.593 E180.75197
G1 X114.834 Y50.593 E183.69269
G1 X114.299 Y51.757 E183.84642
G0 F12000 X130.551 Y70.728
G1 F1200 X156.108 Y100.558 E188.56012
G1 X157.547 Y99.724 E188.75971
G1 X140.737 Y52.530 E194.77152
G1 X139.408 Y52.457 E194.93124
G1 X130.551 Y70.728 E197.36779
G0 F12000 X130.076 Y71.709
G1 F1200 X112.061 Y108.872 E202.32370
G1 X140.654 Y135.055 E206.97609
G1 X157.011 Y113.427 E210.23011
G1 X154.482 Y106.328 E211.13443
G1 X156.684 Y105.544 E211.41492
G1 X158.505 Y104.892 E211.64703
G1 X130.076 Y71.709 E216.89052
G0 F12000 X111.500 Y109.696
G1 F1200 X82.944 Y135.844 E221.53680
G1 X107.884 Y168.818 E226.49803
G1 X115.117 Y168.818 E227.36599
G1 X140.056 Y135.844 E232.32714
G1 X111.500 Y109.696 E236.97342
G0 F12000 X140.796 Y136.523
G1 F1200 X115.500 Y169.969 E242.00559
G1 X115.500 Y171.650 E242.20731
G1 X176.699 Y171.650 E249.55119
G1 X176.699 Y169.400 E249.82119
G1 X140.796 Y136.523 E255.66301
G0 F12000 X141.394 Y135.733
G1 F1200 X177.522 Y168.815 E261.54136
G1 X180.382 Y168.815 E261.88456
G1 X182.160 Y168.820 E262.09792
G1 X161.518 Y110.867 E269.48026
G1 X160.338 Y110.686 E269.62351
G1 X141.394 Y135.733 E273.39202
G0 F12000 X156.534 Y113.353
G0 X157.238 Y110.413
G1 F1200 X157.862 Y110.614 E273.47069
G1 X158.516 Y110.647 E273.54927
G1 X159.156 Y110.510 E273.62781
G1 X159.740 Y110.212 E273.70649
G1 X160.225 Y109.772 E273.78507
G1 X160.581 Y109.223 E273.86359
G1 X160.782 Y108.600 E273.94214
G1 X160.815 Y107.946 E274.02072
G1 X160.678 Y107.305 E274.09938
G1 X160.379 Y106.722 E274.17800
G1 X159.941 Y106.237 E274.25642
G1 X159.390 Y105.881 E274.33514
G1 X158.767 Y105.680 E274.41370
G1 X158.113 Y105.647 E274.49228
G1 X157.473 Y105.784 E274.57082
G1 X156.890 Y106.082 E274.64939
G1 X156.403 Y106.522 E274.72815
G1 X156.049 Y107.071 E274.80654
G1 X155.847 Y107.694 E274.88513
G1 X155.815 Y108.350 E274.96394
G1 X155.952 Y108.988 E275.04225
G1 X156.250 Y109.572 E275.12092
G1 X156.689 Y110.057 E275.19942
G1 X157.238 Y110.413 E275.27794
G0 F12000 X156.534 Y113.353
G0 X140.591 Y134.366
G0 X114.907 Y168.397
G0 X107.500 Y169.969
G1 F1200 X82.204 Y136.523 E280.31011
G1 X46.301 Y169.400 E286.15193
G1 X46.301 Y171.650 E286.42193
G1 X107.500 Y171.650 E293.76581
G1 X107.500 Y169.969 E293.96753
G0 F12000 X81.606 Y135.733
G1 F1200 X62.662 Y110.686 E297.73604
G1 X61.482 Y110.867 E297.87930
G1 X40.841 Y168.817 E305.26125
G1 X45.478 Y168.815 E305.81770
G1 X81.606 Y135.733 E311.69604
G0 F12000 X66.466 Y113.353
G0 X65.762 Y110.413
G1 F1200 X66.311 Y110.057 E311.77456
G1 X66.750 Y109.572 E311.85306
G1 X67.048 Y108.988 E311.93174
G1 X67.185 Y108.350 E312.01004
G1 X67.153 Y107.694 E312.08886
G1 X66.951 Y107.071 E312.16745
G1 X66.597 Y106.522 E312.24584
G1 X66.110 Y106.082 E312.32460
G1 X65.527 Y105.784 E312.40317
G1 X64.887 Y105.647 E312.48171
G1 X64.233 Y105.680 E312.56029
G1 X63.610 Y105.881 E312.63884
G1 X63.059 Y106.237 E312.71756
G1 X62.621 Y106.722 E312.79598
G1 X62.322 Y107.305 E312.87461
G1 X62.185 Y107.946 E312.95326
G1 X62.218 Y108.600 E313.03184
G1 X62.419 Y109.223 E313.11040
G1 X62.775 Y109.772 E313.18892
G1 X63.260 Y110.212 E313.26750
G1 X63.844 Y110.510 E313.34617
G1 X64.484 Y110.647 E313.42471
G1 X65.138 Y110.614 E313.50329
G1 X65.762 Y110.413 E313.58196
G0 F12000 X65.589 Y110.049
G1 F1200 X66.049 Y109.750 E313.64780
G1 X66.418 Y109.343 E313.71372
G1 X66.668 Y108.853 E313.77974
G1 X66.783 Y108.317 E313.84552
G1 X66.756 Y107.767 E313.91160
G1 X66.587 Y107.244 E313.97755
G1 X66.289 Y106.783 E314.04343
G1 X65.881 Y106.414 E314.10944
G1 X65.392 Y106.164 E314.17534
G1 X64.854 Y106.049 E314.24136
G1 X64.306 Y106.077 E314.30721
G1 X63.783 Y106.245 E314.37313
G1 X63.321 Y106.544 E314.43916
G1 X62.953 Y106.951 E314.50501
G1 X62.702 Y107.441 E314.57107
G1 X62.587 Y107.979 E314.63709
G1 X62.615 Y108.527 E314.70294
G1 X62.783 Y109.050 E314.76886
G1 X63.082 Y109.511 E314.83479
G1 X63.489 Y109.880 E314.90072
G1 X63.979 Y110.130 E314.96673
G1 X64.517 Y110.245 E315.03275
G1 X65.065 Y110.217 E315.09859
G1 X65.589 Y110.049 E315.16463
G0 F12000 X62.487 Y111.118
G1 F1200 X61.779 Y111.226 E315.25057
G1 X41.408 Y168.416 E322.53574
G1 X45.322 Y168.415 E323.00542
G1 X81.067 Y135.684 E328.82143
G1 X62.487 Y111.118 E332.51755
G0 F12000 X66.438 Y113.358
G1 F1200 X82.400 Y134.463 E335.69292
G1 X110.449 Y108.779 E340.25673
G1 X92.830 Y72.433 E345.10369
G1 X65.176 Y104.712 E350.20430
G1 X69.030 Y106.085 E350.69525
G1 X66.438 Y113.358 E351.62178
G0 F12000 X66.781 Y108.317
G0 X66.661 Y105.229
G0 X65.324 Y104.673
G0 X66.805 Y100.045
G1 F1200 X91.974 Y70.667 E356.26400
G1 X83.348 Y52.871 E358.63717
G1 X82.551 Y52.915 E358.73295
G1 X65.941 Y99.545 E364.67295
G1 X66.805 Y100.045 E364.79274
G0 F12000 X92.809 Y72.597
G0 X110.400 Y108.769
G0 X83.483 Y135.893
G1 F1200 X108.083 Y168.418 E369.68638
G1 X114.918 Y168.418 E370.50658
G1 X139.517 Y135.893 E375.40015
G1 X111.500 Y110.238 E379.95878
G1 X83.483 Y135.893 E384.51741
G0 F12000 X82.150 Y137.114
G1 F1200 X46.701 Y169.576 E390.28542
G1 X46.701 Y171.250 E390.48630
G1 X107.100 Y171.250 E397.73418
G1 X107.100 Y170.104 E397.87170
G1 X82.150 Y137.114 E402.83518
G0 F12000 X112.551 Y108.779
G1 F1200 X140.600 Y134.463 E407.39899
G1 X156.562 Y113.358 E410.57436
G1 X153.970 Y106.085 E411.50089
G1 X157.825 Y104.713 E411.99191
G1 X130.170 Y72.433 E417.09268
G1 X112.551 Y108.779 E421.93965
G0 F12000 X111.876 Y106.332
G1 F1200 X128.980 Y71.046 E426.64519
G1 X111.500 Y50.672 E429.86658
G1 X94.020 Y71.046 E433.08797
G1 X111.124 Y106.332 E437.79352
G1 X111.876 Y106.332 E437.88376
G0 F12000 X131.026 Y70.667
G1 F1200 X156.195 Y100.045 E442.52598
G1 X157.059 Y99.545 E442.64577
G1 X140.449 Y52.915 E448.58577
G1 X139.652 Y52.871 E448.68156
G1 X131.026 Y70.667 E451.05472
G0 F12000 X129.837 Y69.279
G1 F1200 X138.702 Y50.993 E453.49331
G1 X115.091 Y50.993 E456.32663
G1 X114.769 Y51.691 E456.41887
G1 X129.837 Y69.279 E459.19806
G0 F12000 X111.500 Y50.779
G0 X108.231 Y51.691
G1 F1200 X107.909 Y50.993 E459.29031
G1 X84.298 Y50.993 E462.12363
G1 X93.163 Y69.279 E464.56222
G1 X108.231 Y51.691 E467.34141
G0 F12000 X93.184 Y69.115
G0 X84.449 Y51.087
G0 X82.423 Y48.399
G1 F1200 X140.577 Y48.398 E474.31989
G1 X185.586 Y174.756 E490.41607
G1 X37.414 Y174.757 E508.19671
G1 X82.423 Y48.399 E524.29289
G0 F12000 X107.889 Y51.025
G0 X108.193 Y51.686
G0 X111.500 Y50.779
G0 X128.941 Y71.052
G0 X157.676 Y104.673
G0 X156.711 Y106.783
G1 F1200 X156.413 Y107.244 E524.35876
G1 X156.244 Y107.767 E524.42471
G1 X156.217 Y108.317 E524.49079
G1 X156.332 Y108.853 E524.55658
G1 X156.582 Y109.343 E524.62259
G1 X156.951 Y109.750 E524.68851
G1 X157.411 Y110.049 E524.75435
G1 X157.935 Y110.217 E524.82038
G1 X158.483 Y110.245 E524.88623
G1 X159.021 Y110.130 E524.95225
G1 X159.511 Y109.880 E525.01826
G1 X159.918 Y109.511 E525.08418
G1 X160.217 Y109.050 E525.15012
G1 X160.385 Y108.527 E525.21604
G1 X160.413 Y107.979 E525.28188
G1 X160.298 Y107.441 E525.34790
G1 X160.047 Y106.951 E525.41397
G1 X159.679 Y106.544 E525.47981
G1 X159.217 Y106.245 E525.54585
G1 X158.694 Y106.077 E525.61177
G1 X158.146 Y106.049 E525.67761
G1 X157.608 Y106.164 E525.74363
G1 X157.119 Y106.414 E525.80954
G1 X156.711 Y106.783 E525.87555
G0 F12000 X156.219 Y108.317
G0 X156.953 Y109.748
G0 X158.483 Y110.243
G0 X160.513 Y111.118
G1 F1200 X141.933 Y135.684 E529.57168
G1 X177.678 Y168.415 E535.38768
G1 X180.383 Y168.415 E535.71228
G1 X181.592 Y168.418 E535.85736
G1 X161.221 Y111.226 E543.14276
G1 X160.513 Y111.118 E543.22870
G0 F12000 X140.850 Y137.114
G1 F1200 X115.900 Y170.104 E548.19218
G1 X115.900 Y171.250 E548.32970
G1 X176.299 Y171.250 E555.57758
G1 X176.299 Y169.576 E555.77846
G1 X140.850 Y137.114 E561.54647
G0 F12000 X140.904 Y137.706
;TYPE:WALL-OUTER
G1 F1200 X116.300 Y170.238 E566.44107
G1 X116.300 Y170.850 E566.51451
G1 X175.899 Y170.850 E573.66639
G1 X175.899 Y169.752 E573.79815
G1 X140.904 Y137.706 E579.49227
G0 F12000 X141.106 Y137.485
G0 X142.269 Y135.854
G0 X142.472 Y135.635
G1 F1200 X177.833 Y168.015 E585.24585
G1 X181.025 Y168.016 E585.62889
G1 X160.924 Y111.585 E592.81739
G1 X160.688 Y111.549 E592.84603
G1 X142.472 Y135.635 E596.46987
G0 F12000 X142.269 Y135.854
G0 X140.345 Y134.092
G0 X140.546 Y133.871
G1 F1200 X156.113 Y113.289 E599.56659
G1 X153.459 Y105.842 E600.51529
G1 X157.142 Y104.531 E600.98441
G1 X130.263 Y73.157 E605.94204
G1 X113.041 Y108.685 E610.67989
G1 X140.546 Y133.871 E615.15520
G0 F12000 X140.345 Y134.092
G0 X139.181 Y135.723
G0 X138.978 Y135.942
G1 F1200 X111.500 Y110.781 E619.62609
G1 X84.022 Y135.942 E624.09698
G1 X108.282 Y168.018 E628.92304
G1 X114.719 Y168.018 E629.69548
G1 X138.978 Y135.942 E634.52146
G0 F12000 X139.181 Y135.723
G0 X140.591 Y134.366
G0 X156.534 Y113.353
G0 X157.049 Y109.693
G0 X157.212 Y109.443
G1 F1200 X157.584 Y109.684 E634.57465
G1 X158.008 Y109.820 E634.62808
G1 X158.451 Y109.843 E634.68131
G1 X158.886 Y109.750 E634.73469
G1 X159.282 Y109.548 E634.78804
G1 X159.611 Y109.250 E634.84131
G1 X159.852 Y108.877 E634.89460
G1 X159.988 Y108.454 E634.94791
G1 X160.011 Y108.011 E635.00115
G1 X159.918 Y107.576 E635.05453
G1 X159.715 Y107.180 E635.10793
G1 X159.418 Y106.851 E635.16111
G1 X159.044 Y106.610 E635.21450
G1 X158.621 Y106.474 E635.26782
G1 X158.178 Y106.451 E635.32105
G1 X157.743 Y106.544 E635.37443
G1 X157.348 Y106.746 E635.42767
G1 X157.018 Y107.044 E635.48103
G1 X156.778 Y107.417 E635.53425
G1 X156.641 Y107.840 E635.58761
G1 X156.619 Y108.284 E635.64096
G1 X156.712 Y108.718 E635.69422
G1 X156.914 Y109.114 E635.74756
G1 X157.212 Y109.443 E635.80083
G0 F12000 X157.049 Y109.693
G0 X156.334 Y108.852
G0 X156.416 Y107.246
G0 X157.676 Y104.673
G0 X156.055 Y99.727
G0 X156.282 Y99.532
G1 F1200 X156.570 Y99.366 E635.84072
G1 X140.162 Y53.300 E641.70883
G1 X139.896 Y53.285 E641.74080
G1 X131.500 Y70.606 E644.05064
G1 X156.282 Y99.532 E648.62146
G0 F12000 X156.055 Y99.727
G0 X129.518 Y68.751
G0 X129.744 Y68.555
G1 F1200 X138.063 Y51.393 E650.91009
G1 X115.347 Y51.393 E653.63601
G1 X115.240 Y51.626 E653.66678
G1 X129.744 Y68.555 E656.34188
G0 F12000 X129.518 Y68.751
G0 X111.500 Y50.779
G0 X107.987 Y51.821
G0 X107.760 Y51.626
G1 F1200 X107.653 Y51.393 E656.37265
G1 X84.937 Y51.393 E659.09857
G1 X93.256 Y68.555 E661.38721
G1 X107.760 Y51.626 E664.06231
G0 F12000 X107.987 Y51.821
G0 X93.184 Y69.115
G0 X85.233 Y52.884
G0 X83.088 Y52.985
G0 X83.104 Y53.285
G1 F1200 X82.838 Y53.300 E664.09428
G1 X66.430 Y99.366 E669.96239
G1 X66.718 Y99.532 E670.00228
G1 X91.500 Y70.606 E674.57310
G1 X83.104 Y53.285 E676.88294
G0 F12000 X83.088 Y52.985
G0 X83.327 Y52.906
G0 X94.268 Y70.911
G0 X94.494 Y71.107
G1 F1200 X111.375 Y105.932 E681.52703
G1 X111.625 Y105.932 E681.55703
G1 X128.506 Y71.107 E686.20112
G1 X111.500 Y51.286 E689.33511
G1 X94.494 Y71.107 E692.46910
G0 F12000 X94.268 Y70.911
G0 X92.511 Y72.961
G0 X92.737 Y73.157
G1 F1200 X65.858 Y104.531 E697.42673
G1 X69.541 Y105.842 E697.89585
G1 X66.887 Y113.289 E698.84455
G1 X82.454 Y133.871 E701.94127
G1 X109.959 Y108.685 E706.41657
G1 X92.737 Y73.157 E711.15443
G0 F12000 X92.511 Y72.961
G0 X65.324 Y104.673
G0 X66.754 Y107.767
G0 X66.416 Y109.341
G0 X65.065 Y110.215
G0 X62.550 Y111.368
G0 X62.312 Y111.549
G1 F1200 X62.076 Y111.585 E711.18307
G1 X41.975 Y168.016 E718.37157
G1 X45.167 Y168.015 E718.75461
G1 X80.528 Y135.635 E724.50819
G1 X62.312 Y111.549 E728.13203
G0 F12000 X62.550 Y111.368
G0 X63.582 Y109.814
G0 X63.718 Y109.548
G1 F1200 X64.114 Y109.750 E728.18537
G1 X64.549 Y109.843 E728.23875
G1 X64.992 Y109.820 E728.29198
G1 X65.416 Y109.684 E728.34542
G1 X65.788 Y109.443 E728.39861
G1 X66.086 Y109.114 E728.45187
G1 X66.288 Y108.718 E728.50522
G1 X66.381 Y108.284 E728.55848
G1 X66.359 Y107.840 E728.61183
G1 X66.222 Y107.417 E728.66518
G1 X65.982 Y107.044 E728.71841
G1 X65.652 Y106.746 E728.77176
G1 X65.257 Y106.544 E728.82500
G1 X64.822 Y106.451 E728.87838
G1 X64.379 Y106.474 E728.93161
G1 X63.956 Y106.610 E728.98493
G1 X63.582 Y106.851 E729.03832
G1 X63.285 Y107.180 E729.09151
G1 X63.082 Y107.576 E729.14491
G1 X62.989 Y108.011 E729.19829
G1 X63.012 Y108.454 E729.25152
G1 X63.148 Y108.877 E729.30484
G1 X63.389 Y109.250 E729.35813
G1 X63.718 Y109.548 E729.41140
G0 F12000 X63.582 Y109.814
G0 X82.335 Y137.526
G0 X82.096 Y137.706
G1 F1200 X47.101 Y169.752 E735.10552
G1 X47.101 Y170.850 E735.23728
G1 X106.700 Y170.850 E742.38916
G1 X106.700 Y170.238 E742.46260
G1 X82.096 Y137.706 E747.35720
G10
G1 Z0.400
G0 F12000 X36.847 Y175.157
G1 Z0.300
G11
G1 F1200 X82.141 Y47.999 E763.55529
G1 X140.859 Y47.998 E770.60145
G1 X186.153 Y175.156 E786.79954
G1 X36.847 Y175.157 E804.71626
G10
G1 Z0.400
G0 F12000 X38.325 Y173.806
;TYPE:SKIN
G1 Z0.300
G11
G1 F1200 X38.733 Y174.215 E804.78558
G0 F12000 X39.299 Y174.215
G1 F1200 X38.474 Y173.390 E804.92559
G0 F12000 X38.622 Y172.973
G1 F1200 X39.865 Y174.215 E805.13645
G0 F12000 X40.430 Y174.215
G1 F1200 X38.771 Y172.555 E805.41808
G0 F12000 X38.919 Y172.138
G1 F1200 X40.996 Y174.215 E805.77055
G0 F12000 X41.562 Y174.215
G1 F1200 X39.068 Y171.721 E806.19380
G0 F12000 X39.216 Y171.304
G1 F1200 X42.128 Y174.215 E806.68790
G0 F12000 X42.693 Y174.215
G1 F1200 X39.365 Y170.887 E807.25268
G0 F12000 X39.513 Y170.470
G1 F1200 X43.259 Y174.215 E807.88831
G0 F12000 X43.825 Y174.215
G1 F1200 X39.662 Y170.052 E808.59480
G0 F12000 X39.811 Y169.636
G1 F1200 X44.390 Y174.215 E809.37188
G0 F12000 X44.956 Y174.215
G1 F1200 X39.960 Y169.219 E810.21973
G0 F12000 X40.108 Y168.801
G1 F1200 X45.522 Y174.215 E811.13851
G0 F12000 X46.087 Y174.215
G1 F1200 X40.828 Y168.956 E812.03099
G0 F12000 X40.691 Y168.819
G1 F1200 X40.331 Y168.175 E812.10470
G1 X40.914 Y168.193 E812.17837
G1 X40.627 Y167.341 E812.25200
G1 X41.212 Y167.359 E812.32574
G1 X40.924 Y166.506 E812.39948
G1 X41.509 Y166.525 E812.47340
G1 X41.222 Y165.673 E812.54704
G1 X41.806 Y165.690 E812.62065
G1 X41.519 Y164.838 E812.69428
G1 X42.103 Y164.856 E812.76808
G1 X41.816 Y164.004 E812.84171
G1 X42.400 Y164.022 E812.91550
G1 X42.113 Y163.170 E812.98913
G1 X42.697 Y163.188 E813.06293
G1 X42.411 Y162.336 E813.13653
G1 X42.994 Y162.354 E813.21020
G1 X42.708 Y161.502 E813.28381
G1 X43.291 Y161.519 E813.35747
G1 X43.005 Y160.667 E813.43108
G1 X43.588 Y160.685 E813.50474
G1 X43.302 Y159.833 E813.57835
G1 X43.812 Y160.060 E813.64534
G0 F12000 X41.529 Y168.331
G0 X45.317 Y168.401
