;FLAVOR:UltiGCode
;TIME:14629
;MATERIAL:13100
;MATERIAL2:0
;NOZZLE_DIAMETER:0.400000
;NOZZLE_DIAMETER2:0.400000

;Layer count: 98
;LAYER:0
M106 S255
G0 F12000 X7.746 Y115.332 Z0.300
;TYPE:SKIRT
G1 F1200 X200.819 Y3.859 E26.75311
G1 X202.932 Y7.515 E27.25984
G1 X216.500 Y31.015 E30.51611
G1 X218.829 Y35.053 E31.07549
G1 X217.837 Y37.456 E31.38746
G1 X163.815 Y167.857 E48.32523
G1 X140.757 Y181.169 E51.52021
G1 X139.075 Y178.068 E51.94354
G1 X119.609 Y142.587 E56.79995
G1 X109.935 Y148.173 E58.14046
G1 X129.525 Y180.463 E62.67261
G1 X132.757 Y185.785 E63.41979
G1 X129.730 Y187.536 E63.83943
G1 X75.168 Y219.038 E71.39980
G1 X2.815 Y118.174 E86.29551
G1 X7.746 Y115.332 E86.97848
G10
G1 Z0.400
G0 F12000 X8.932 Y119.494
;TYPE:WALL-INNER
G1 Z0.300
G11
G1 F1200 X199.283 Y9.596 E113.35422
G1 X212.881 Y33.149 E116.61780
G1 X212.537 Y33.008 E116.66241
G1 X211.889 Y32.922 E116.74085
G1 X211.240 Y33.008 E116.81941
G1 X210.634 Y33.258 E116.89808
G1 X210.345 Y33.481 E116.94188
G1 X211.001 Y31.894 E117.14795
G1 X201.598 Y15.605 E119.40493
G1 X198.312 Y17.500 E119.86012
G1 X186.738 Y60.694 E125.22626
G1 X199.870 Y64.212 E126.85766
G1 X200.460 Y62.788 E127.04263
G1 X201.507 Y63.107 E127.17397
G1 X211.472 Y39.052 E130.29845
G1 X210.635 Y37.603 E130.49926
G1 X211.237 Y37.853 E130.57748
G1 X211.889 Y37.940 E130.65641
G1 X212.539 Y37.853 E130.73511
G1 X213.144 Y37.602 E130.81371
G1 X213.271 Y37.505 E130.83289
G1 X187.796 Y98.996 E138.81998
G1 X187.679 Y98.547 E138.87566
G1 X187.357 Y97.976 E138.95433
G1 X186.899 Y97.509 E139.03282
G1 X186.335 Y97.175 E139.11148
G1 X185.703 Y97.000 E139.19017
G1 X185.047 Y96.994 E139.26889
G1 X184.414 Y97.159 E139.34739
G1 X183.845 Y97.478 E139.42567
G1 X183.374 Y97.940 E139.50484
G1 X183.368 Y97.950 E139.50624
G1 X183.541 Y97.447 E139.57007
G1 X185.335 Y96.410 E139.81873
G1 X187.472 Y96.981 E140.08417
G1 X199.203 Y68.663 E143.76237
G1 X198.158 Y68.346 E143.89341
G1 X199.484 Y65.144 E144.30929
G1 X186.481 Y61.659 E145.92472
G1 X174.679 Y105.699 E151.39600
G1 X182.938 Y107.911 E152.42201
G1 X184.570 Y104.040 E152.92612
G1 X185.119 Y102.734 E153.09613
G1 X183.069 Y101.644 E153.37474
G1 X182.582 Y100.247 E153.55228
G1 X182.865 Y99.418 E153.65739
G1 X182.862 Y99.787 E153.70167
G1 X183.025 Y100.423 E153.78046
G1 X183.348 Y100.994 E153.85918
G1 X183.808 Y101.459 E153.93767
G1 X184.369 Y101.793 E154.01602
G1 X185.002 Y101.968 E154.09483
G1 X185.657 Y101.974 E154.17343
G1 X186.291 Y101.810 E154.25202
G1 X186.734 Y101.560 E154.31306
G1 X160.480 Y164.933 E162.54458
G1 X142.389 Y175.376 E165.05123
G1 X121.225 Y136.804 E170.33084
G1 X104.116 Y146.681 E172.70148
G1 X126.940 Y184.297 E177.98134
G1 X76.363 Y213.498 E184.98952
G1 X8.932 Y119.494 E198.87207
G0 F12000 X13.524 Y124.188
G1 F1200 X48.867 Y173.462 E206.14871
G1 X50.113 Y173.235 E206.30069
G1 X60.783 Y133.414 E211.24778
G1 X17.591 Y121.840 E216.61368
G1 X13.524 Y124.188 E217.17722
G0 F12000 X17.849 Y120.876
G1 F1200 X61.041 Y132.449 E222.54309
G1 X73.167 Y87.197 E228.16491
G1 X72.107 Y86.384 E228.32521
G1 X16.477 Y118.502 E236.03353
G1 X17.066 Y119.519 E236.17456
G1 X17.849 Y120.876 E236.36257
G0 F12000 X62.007 Y132.707
G1 F1200 X100.440 Y143.005 E241.13722
G1 X104.423 Y140.706 E241.68908
G1 X105.831 Y139.890 E241.88436
G1 X75.457 Y87.282 E249.17399
G1 X74.132 Y87.457 E249.33437
G1 X62.007 Y132.707 E254.95593
G0 F12000 X61.749 Y133.673
G1 F1200 X50.966 Y173.917 E259.95556
G1 X54.892 Y179.390 E260.76382
G1 X102.351 Y191.758 E266.64911
G1 X109.835 Y164.264 E270.06844
G1 X97.006 Y143.121 E273.03613
G1 X61.749 Y133.673 E277.41624
G0 F12000 X100.382 Y142.559
G0 X105.205 Y139.722
G0 X108.118 Y139.402
G1 F1200 X108.031 Y140.199 E277.51245
G1 X108.206 Y140.914 E277.60078
G1 X108.469 Y141.466 E277.67416
G1 X108.642 Y141.667 E277.70598
G1 X109.230 Y142.153 E277.79752
G1 X109.526 Y142.337 E277.83935
G1 X109.707 Y142.366 E277.86134
G1 X110.150 Y142.527 E277.91791
G1 X110.657 Y142.556 E277.97885
G1 X111.288 Y142.443 E278.05577
G1 X111.944 Y142.126 E278.14320
G1 X112.581 Y141.514 E278.24920
G1 X112.953 Y140.734 E278.35290
G1 X112.999 Y140.383 E278.39538
G1 X112.975 Y140.244 E278.41231
G1 X112.955 Y139.335 E278.52142
G1 X112.620 Y138.663 E278.61152
G1 X112.151 Y138.126 E278.69708
G1 X111.405 Y137.701 E278.80010
G1 X110.635 Y137.552 E278.89422
G1 X109.942 Y137.619 E278.97777
G1 X109.120 Y138.003 E279.08664
G1 X108.401 Y138.734 E279.20968
G1 X108.118 Y139.402 E279.29674
G0 F12000 X82.906 Y83.318
G0 X83.366 Y82.716
G0 X127.888 Y94.672
G0 X120.716 Y127.069
G1 F1200 X133.832 Y150.971 E282.56844
G1 X134.464 Y152.122 E282.72601
G1 X159.414 Y158.808 E285.82565
G1 X166.683 Y131.676 E289.19631
G1 X122.613 Y119.996 E294.66729
G1 X120.716 Y127.069 E295.54605
G0 F12000 X123.106 Y118.153
G1 F1200 X125.069 Y118.688 E295.79020
G1 X125.699 Y116.338 E296.08216
G1 X126.304 Y117.387 E296.22747
G1 X127.464 Y118.057 E296.38823
G1 X128.803 Y118.057 E296.54891
G1 X129.484 Y117.664 E296.64326
G1 X128.935 Y119.715 E296.89804
G1 X130.920 Y120.221 E297.14386
G1 X132.094 Y115.842 E297.68790
G1 X135.298 Y121.391 E298.45680
G1 X142.807 Y123.381 E299.38899
G1 X150.153 Y119.140 E300.40687
G1 X151.405 Y119.475 E300.56239
G1 X150.357 Y120.080 E300.70761
G1 X149.687 Y121.240 E300.86836
G1 X149.687 Y122.580 E301.02916
G1 X150.356 Y123.735 E301.18933
G1 X151.516 Y124.409 E301.35032
G1 X152.860 Y124.409 E301.51160
G1 X153.548 Y124.008 E301.60716
G1 X152.997 Y126.079 E301.86432
G1 X154.927 Y126.595 E302.10406
G1 X156.093 Y122.243 E302.64472
G1 X158.540 Y126.479 E303.23176
G1 X159.271 Y127.745 E303.40718
G1 X167.176 Y129.840 E304.38853
G1 X173.455 Y106.406 E307.29981
G1 X129.417 Y94.605 E312.77082
G1 X123.106 Y118.153 E315.69630
G0 F12000 X124.744 Y118.124
G0 X126.415 Y113.664
G1 F1200 X126.613 Y112.925 E315.78811
G1 X127.353 Y113.123 E315.88003
G1 X126.415 Y113.664 E316.00997
G0 F12000 X128.693 Y113.466
G0 X130.030 Y113.841
G1 F1200 X130.476 Y113.960 E316.06537
G1 X130.356 Y114.408 E316.12102
G1 X130.030 Y113.841 E316.19951
G0 F12000 X126.289 Y112.363
G0 X124.744 Y118.124
G0 X123.668 Y117.830
G0 X129.674 Y93.639
G1 F1200 X173.713 Y105.441 E321.67066
G1 X185.515 Y61.402 E327.14182
G1 X177.603 Y59.282 E328.12476
G1 X171.991 Y62.523 E328.90243
G1 X173.174 Y58.106 E329.45115
G1 X171.187 Y57.552 E329.69869
G1 X170.555 Y59.909 E329.99152
G1 X170.163 Y59.228 E330.08581
G1 X169.001 Y58.559 E330.24671
G1 X167.662 Y58.559 E330.40739
G1 X166.611 Y59.166 E330.55303
G1 X167.316 Y56.529 E330.88059
G1 X165.395 Y56.005 E331.11953
G1 X164.178 Y60.393 E331.66596
G1 X161.038 Y54.843 E332.43117
G1 X153.600 Y52.850 E333.35521
G1 X148.042 Y56.059 E334.12536
G1 X149.215 Y51.677 E334.66971
G1 X147.237 Y51.142 E334.91560
G1 X146.603 Y53.509 E335.20965
G1 X146.211 Y52.829 E335.30384
G1 X145.049 Y52.160 E335.46474
G1 X143.711 Y52.160 E335.62530
G1 X142.551 Y52.828 E335.78593
G1 X141.881 Y53.989 E335.94678
G1 X141.881 Y55.329 E336.10758
G1 X142.551 Y56.488 E336.26823
G1 X143.711 Y57.158 E336.42898
G1 X145.050 Y57.158 E336.58966
G1 X145.730 Y56.765 E336.68391
G1 X145.536 Y57.490 E336.77397
G1 X139.599 Y60.926 E337.59712
G1 X138.229 Y61.717 E337.78696
G1 X129.674 Y93.639 E341.75277
G0 F12000 X172.893 Y106.730
G0 X166.851 Y129.280
G0 X159.545 Y127.387
G0 X154.081 Y120.191
G1 F1200 X154.531 Y120.312 E341.80869
G1 X154.411 Y120.764 E341.86481
G1 X154.081 Y120.191 E341.94416
G0 F12000 X159.545 Y127.387
G0 X166.851 Y129.280
G0 X174.422 Y106.664
G1 F1200 X161.576 Y154.606 E347.90014
G1 X163.349 Y155.208 E348.12483
G1 X182.556 Y108.844 E354.14703
G1 X174.422 Y106.664 E355.15756
G0 F12000 X159.155 Y159.773
G1 F1200 X136.752 Y153.771 E357.94072
G1 X135.937 Y154.810 E358.09918
G1 X145.252 Y171.785 E360.42273
G1 X157.893 Y164.485 E362.17442
G1 X159.155 Y159.773 E362.75979
G0 F12000 X157.536 Y164.210
G0 X145.430 Y171.151
G0 X121.047 Y137.438
G0 X104.754 Y146.845
G0 X122.402 Y184.977
G1 F1200 X111.416 Y166.871 E365.30118
G1 X110.111 Y167.055 E365.45933
G1 X103.319 Y192.009 E368.56275
G1 X108.076 Y193.249 E369.15266
G1 X122.402 Y184.977 E371.13778
G0 F12000 X108.015 Y192.804
G0 X102.088 Y192.721
G1 F1200 X55.622 Y180.614 E376.89987
G1 X54.827 Y181.772 E377.06842
G1 X76.244 Y211.626 E381.47742
G1 X100.804 Y197.447 E384.88051
G1 X102.088 Y192.721 E385.46819
G0 F12000 X109.386 Y164.328
G0 X104.754 Y146.845
G0 X112.249 Y141.274
G0 X112.575 Y140.278
G0 X112.757 Y135.889
G1 F1200 X114.170 Y135.078 E385.66369
G1 X118.153 Y132.777 E386.21568
G1 X128.450 Y94.348 E390.98983
G1 X83.198 Y82.222 E396.61166
G1 X82.385 Y83.283 E396.77206
G1 X82.807 Y84.013 E396.87324
G1 X112.757 Y135.889 E404.06135
G0 F12000 X117.796 Y132.503
G0 X128.709 Y93.382
G1 F1200 X140.509 Y49.341 E409.53268
G1 X137.610 Y48.566 E409.89278
G1 X83.283 Y79.930 E417.42045
G1 X83.458 Y81.255 E417.58083
G1 X128.709 Y93.382 E423.20256
G0 F12000 X141.733 Y48.634
G1 F1200 X185.773 Y60.435 E428.67381
G1 X197.347 Y17.243 E434.03971
G1 X195.976 Y14.868 E434.36879
G1 X142.512 Y45.735 E441.77695
G1 X141.733 Y48.634 E442.13717
G0 F12000 X148.654 Y52.001
G0 X160.762 Y55.199
G0 X166.754 Y56.852
G0 X165.896 Y61.837
G1 F1200 X166.227 Y62.410 E442.21658
G1 X165.775 Y62.289 E442.27273
G1 X165.896 Y61.837 E442.32888
G0 F12000 X167.772 Y63.150
G0 X169.640 Y63.324
G1 F1200 X169.480 Y63.281 E442.34876
G1 X169.683 Y63.164 E442.37687
G1 X169.640 Y63.324 E442.39675
G0 F12000 X169.923 Y63.814
G1 F1200 X165.286 Y62.571 E442.97284
G1 X166.826 Y56.810 E443.68843
G1 X165.674 Y56.496 E443.83172
G1 X164.306 Y61.431 E444.44625
G1 X160.772 Y55.186 E445.30732
G1 X153.656 Y53.279 E446.19137
G1 X147.405 Y56.888 E447.05753
G1 X148.726 Y51.959 E447.66989
G1 X147.519 Y51.633 E447.81992
G1 X145.879 Y57.753 E448.58023
G1 X138.573 Y61.981 E449.59317
G1 X130.164 Y93.356 E453.49105
G1 X173.430 Y104.951 E458.86618
G1 X185.025 Y61.685 E464.24131
G1 X177.659 Y59.711 E465.15642
G1 X171.355 Y63.353 E466.03007
G1 X172.685 Y58.385 E466.64723
G1 X171.469 Y58.045 E466.79874
G1 X169.923 Y63.814 E467.51545
G0 F12000 X168.895 Y63.157
G1 F1200 X169.869 Y62.594 E467.65045
G1 X170.431 Y61.621 E467.78529
G1 X170.431 Y60.495 E467.92041
G1 X169.869 Y59.521 E468.05535
G1 X168.895 Y58.959 E468.19029
G1 X167.769 Y58.959 E468.32541
G1 X166.796 Y59.521 E468.46025
G1 X166.233 Y60.495 E468.59525
G1 X166.233 Y61.621 E468.73037
G1 X166.796 Y62.594 E468.86527
G1 X167.769 Y63.157 E469.00016
G1 X168.895 Y63.157 E469.13528
G0 F12000 X170.186 Y62.906
G0 X171.510 Y58.119
G0 X172.614 Y58.425
G0 X185.490 Y59.945
G1 F1200 X196.918 Y17.299 E474.43336
G1 X195.830 Y15.414 E474.69454
G1 X142.855 Y45.999 E482.03496
G1 X142.223 Y48.351 E482.32721
G1 X185.490 Y59.945 E487.70243
G0 F12000 X187.228 Y60.411
G1 F1200 X199.635 Y63.735 E489.24378
G1 X200.229 Y62.300 E489.43015
G1 X201.276 Y62.619 E489.56149
G1 X211.027 Y39.081 E492.61883
G1 X209.027 Y35.618 E493.09871
G1 X210.557 Y31.924 E493.57851
G1 X201.452 Y16.151 E495.76399
G1 X198.656 Y17.764 E496.15134
G1 X187.228 Y60.411 E501.44953
G0 F12000 X186.764 Y62.149
G1 F1200 X175.169 Y105.416 E506.82478
G1 X182.705 Y107.435 E507.76099
G1 X184.609 Y102.916 E508.34944
G1 X182.743 Y101.924 E508.60303
G1 X182.159 Y100.247 E508.81613
G1 X183.211 Y97.175 E509.20578
G1 X185.279 Y95.981 E509.49234
G1 X187.237 Y96.504 E509.73553
G1 X198.665 Y68.918 E513.31867
G1 X197.619 Y68.601 E513.44982
G1 X198.941 Y65.413 E513.86397
G1 X186.764 Y62.149 E515.37680
G0 F12000 X199.605 Y63.675
G0 X201.246 Y62.554
G0 X211.003 Y39.083
G0 X210.402 Y36.918
G1 F1200 X210.835 Y37.253 E515.44249
G1 X211.342 Y37.463 E515.50834
G1 X211.889 Y37.536 E515.57457
G1 X212.434 Y37.463 E515.64055
G1 X212.942 Y37.253 E515.70651
G1 X213.376 Y36.918 E515.77230
G1 X213.713 Y36.484 E515.83824
G1 X213.921 Y35.975 E515.90422
G1 X213.994 Y35.431 E515.97009
G1 X213.921 Y34.886 E516.03607
G1 X213.713 Y34.379 E516.10183
G1 X213.377 Y33.942 E516.16798
G1 X212.942 Y33.607 E516.23387
G1 X212.433 Y33.397 E516.29994
G1 X211.889 Y33.326 E516.36578
G1 X211.344 Y33.397 E516.43173
G1 X210.836 Y33.607 E516.49769
G1 X210.401 Y33.942 E516.56358
G1 X210.065 Y34.379 E516.62973
G1 X209.857 Y34.886 E516.69549
G1 X209.784 Y35.431 E516.76147
G1 X209.857 Y35.975 E516.82734
G1 X210.065 Y36.484 E516.89332
G1 X210.402 Y36.918 E516.95926
G0 F12000 X211.889 Y37.535
G0 X213.375 Y36.917
G0 X214.602 Y35.331
G1 F1200 X160.797 Y165.211 E533.82931
G1 X142.235 Y175.927 E536.40129
G1 X121.071 Y137.355 E541.68090
G1 X104.670 Y146.823 E543.95342
G1 X127.494 Y184.439 E549.23328
G1 X76.249 Y214.025 E556.33398
G1 X8.350 Y119.369 E570.31284
G1 X199.430 Y9.050 E596.78959
G1 X214.602 Y35.331 E600.43111
G0 F12000 X187.207 Y96.445
G0 X186.177 Y97.546
G1 F1200 X185.647 Y97.400 E600.49708
G1 X185.096 Y97.394 E600.56321
G1 X184.565 Y97.533 E600.62907
G1 X184.087 Y97.801 E600.69483
G1 X183.693 Y98.188 E600.76111
G1 X183.415 Y98.662 E600.82705
G1 X183.268 Y99.190 E600.89282
G1 X183.262 Y99.738 E600.95858
G1 X183.400 Y100.272 E601.02477
G1 X183.670 Y100.751 E601.09075
G1 X184.056 Y101.141 E601.15660
G1 X184.528 Y101.422 E601.22251
G1 X185.058 Y101.568 E601.28848
G1 X185.608 Y101.574 E601.35449
G1 X186.140 Y101.436 E601.42044
G1 X186.618 Y101.166 E601.48632
G1 X187.009 Y100.781 E601.55217
G1 X187.290 Y100.309 E601.61808
G1 X187.436 Y99.778 E601.68417
G1 X187.443 Y99.230 E601.74993
G1 X187.305 Y98.698 E601.81589
G1 X187.035 Y98.218 E601.88197
G1 X186.650 Y97.827 E601.94782
G1 X186.177 Y97.546 E602.01384
G0 F12000 X187.303 Y98.699
G0 X187.288 Y100.308
G0 X186.139 Y101.434
G0 X182.012 Y109.113
G1 F1200 X174.705 Y107.154 E602.92165
G1 X162.059 Y154.347 E608.78460
G1 X163.123 Y154.709 E608.91947
G1 X182.012 Y109.113 E614.84192
G0 F12000 X172.965 Y106.689
G1 F1200 X129.700 Y95.095 E620.21690
G1 X123.596 Y117.872 E623.04659
G1 X124.787 Y118.196 E623.19470
G1 X126.331 Y112.435 E623.91042
G1 X130.966 Y113.678 E624.48627
G1 X129.426 Y119.427 E625.20047
G1 X130.636 Y119.736 E625.35033
G1 X131.957 Y114.805 E625.96292
G1 X135.561 Y121.047 E626.82785
G1 X142.750 Y122.952 E627.72030
G1 X150.097 Y118.711 E628.73828
G1 X155.020 Y120.029 E629.34985
G1 X153.486 Y125.796 E630.06595
G1 X154.644 Y126.105 E630.20978
G1 X155.957 Y121.206 E630.81840
G1 X159.534 Y127.401 E631.67683
G1 X166.893 Y129.351 E632.59038
G1 X172.965 Y106.689 E635.40575
G0 F12000 X166.851 Y129.280
G0 X159.545 Y127.387
G0 X153.723 Y120.373
G1 F1200 X152.749 Y119.811 E635.54069
G1 X151.623 Y119.811 E635.67581
G1 X150.650 Y120.373 E635.81065
G1 X150.087 Y121.347 E635.94565
G1 X150.087 Y122.473 E636.08077
G1 X150.649 Y123.443 E636.21529
G1 X151.623 Y124.009 E636.35047
G1 X152.751 Y124.009 E636.48583
G1 X153.723 Y123.445 E636.62069
G1 X154.285 Y122.473 E636.75542
G1 X154.285 Y121.347 E636.89054
G1 X153.723 Y120.373 E637.02548
G0 F12000 X159.545 Y127.387
G0 X166.193 Y131.960
G1 F1200 X122.896 Y120.485 E642.40050
G1 X121.144 Y127.017 E643.21204
G1 X134.732 Y151.779 E646.60147
G1 X159.131 Y158.318 E649.63267
G1 X166.193 Y131.960 E652.90719
G0 F12000 X158.665 Y160.056
G1 F1200 X136.904 Y154.226 E655.61060
G1 X136.414 Y154.849 E655.70571
G1 X145.406 Y171.234 E657.94854
G1 X157.549 Y164.221 E659.63126
G1 X158.665 Y160.056 E660.14869
G0 F12000 X157.536 Y164.210
G0 X145.430 Y171.151
G0 X121.047 Y137.438
G0 X104.754 Y146.845
G0 X121.848 Y184.835
G1 F1200 X111.211 Y167.304 E662.60937
G1 X110.428 Y167.414 E662.70425
G1 X103.811 Y191.724 E665.72758
G1 X108.018 Y192.821 E666.24930
G1 X121.848 Y184.835 E668.16572
G0 F12000 X108.015 Y192.804
G0 X101.596 Y193.006
G1 F1200 X55.793 Y181.072 E673.84558
G1 X55.316 Y181.767 E673.94674
G1 X76.357 Y211.098 E678.27844
G1 X100.461 Y197.183 E681.61830
G1 X101.596 Y193.006 E682.13771
G0 F12000 X102.069 Y191.271
