;FLAVOR:UltiGCode
;TIME:9695
;MATERIAL:14987
;MATERIAL2:0
;NOZZLE_DIAMETER:0.400000
;NOZZLE_DIAMETER2:0.400000

;Layer count: 102
;LAYER:0
M106 S255
G0 F12000 X79.744 Y44.600 Z0.300
;TYPE:SKIRT
G1 F1200 X143.257 Y44.599 E7.62156
G1 X186.598 Y166.275 E23.12131
G1 X186.597 Y166.275 E23.12143
G1 X187.809 Y169.672 E23.55424
G1 X188.066 Y170.396 E23.64643
G1 X188.982 Y172.965 E23.97372
G1 X190.970 Y178.557 E24.68590
G1 X32.027 Y178.557 E43.75906
G1 X33.934 Y173.205 E44.44086
G1 X34.349 Y172.036 E44.58971
G1 X79.744 Y44.600 E60.82330
G10
G1 Z0.400
G0 F12000 X82.705 Y48.800
;TYPE:WALL-INNER
G1 Z0.300
G11
G1 F1200 X140.295 Y48.799 E67.73410
G1 X185.018 Y174.357 E83.72833
G1 X37.982 Y174.357 E101.37265
G1 X82.705 Y48.800 E117.36676
G0 F12000 X83.659 Y50.593
G1 F1200 X93.069 Y70.004 E119.95536
G1 X108.702 Y51.757 E122.83872
G1 X108.167 Y50.593 E122.99244
G1 X83.659 Y50.593 E125.93340
G0 F12000 X83.592 Y52.458
G1 F1200 X82.263 Y52.531 E126.09312
G1 X65.453 Y99.725 E132.10493
G1 X66.892 Y100.559 E132.30452
G1 X92.448 Y70.729 E137.01815
G1 X83.592 Y52.458 E139.45464
G0 F12000 X93.544 Y70.985
G1 F1200 X110.873 Y106.732 E144.22175
G1 X112.127 Y106.732 E144.37223
G1 X129.456 Y70.985 E149.13933
G1 X111.500 Y50.057 E152.44837
G1 X93.544 Y70.985 E155.75741
G0 F12000 X92.925 Y71.710
G1 F1200 X64.494 Y104.895 E161.00124
G1 X68.518 Y106.329 E161.51386
G1 X65.989 Y113.427 E162.41807
G1 X82.347 Y135.055 E165.67216
G1 X110.939 Y108.873 E170.32439
G1 X92.925 Y71.710 E175.28025
G0 F12000 X111.500 Y50.779
G0 X114.298 Y51.757
G1 F1200 X129.931 Y70.004 E178.16360
G1 X139.341 Y50.593 E180.75220
G1 X114.833 Y50.593 E183.69316
G1 X114.298 Y51.757 E183.84688
G0 F12000 X130.552 Y70.729
G1 F1200 X156.108 Y100.559 E188.56051
G1 X157.547 Y99.725 E188.76010
G1 X140.737 Y52.531 E194.77191
G1 X139.408 Y52.458 E194.93163
G1 X130.552 Y70.729 E197.36813
G0 F12000 X130.075 Y71.710
G1 F1200 X112.061 Y108.873 E202.32398
G1 X140.653 Y135.056 E206.97629
G1 X157.011 Y113.427 E210.23048
G1 X154.482 Y106.329 E211.13469
G1 X156.683 Y105.545 E211.41506
G1 X158.504 Y104.893 E211.64717
G1 X130.075 Y71.710 E216.89066
G0 F12000 X111.500 Y109.696
G1 F1200 X85.479 Y133.524 E221.12458
G1 X85.975 Y134.799 E221.28875
G1 X137.024 Y134.799 E227.41463
G1 X137.520 Y133.524 E227.57880
G1 X111.500 Y109.696 E231.81263
G0 F12000 X137.006 Y133.644
G0 X136.727 Y134.364
G0 X119.592 Y149.576
G1 F1200 X118.519 Y149.902 E231.94720
G1 X118.285 Y149.974 E231.97658
G1 X117.085 Y150.616 E232.13989
G1 X116.031 Y151.480 E232.30343
G1 X115.165 Y152.533 E232.46704
G1 X114.522 Y153.738 E232.63094
G1 X114.125 Y155.042 E232.79451
G1 X114.016 Y156.152 E232.92835
G1 X113.991 Y156.398 E232.95802
G1 X114.126 Y157.757 E233.12190
G1 X114.522 Y159.063 E233.28567
G1 X115.165 Y160.265 E233.44925
G1 X115.876 Y161.131 E233.58371
G1 X116.031 Y161.320 E233.61304
G1 X117.085 Y162.184 E233.77658
G1 X118.286 Y162.826 E233.94000
G1 X119.591 Y163.222 E234.10365
G1 X120.701 Y163.333 E234.23752
G1 X120.948 Y163.358 E234.26731
G1 X122.308 Y163.222 E234.43132
G1 X123.612 Y162.826 E234.59486
G1 X124.813 Y162.184 E234.75828
G1 X125.680 Y161.475 E234.89268
G1 X125.870 Y161.319 E234.92218
G1 X126.735 Y160.265 E235.08580
G1 X127.377 Y159.062 E235.24943
G1 X127.701 Y157.995 E235.38324
G1 X127.773 Y157.759 E235.41285
G1 X127.907 Y156.400 E235.57672
G1 X127.798 Y155.284 E235.71128
G1 X127.773 Y155.040 E235.74071
G1 X127.377 Y153.738 E235.90402
G1 X126.735 Y152.534 E236.06776
G1 X126.024 Y151.669 E236.20212
G1 X125.869 Y151.480 E236.23145
G1 X124.814 Y150.615 E236.39517
G1 X123.611 Y149.973 E236.55880
G1 X122.545 Y149.649 E236.69249
G1 X122.309 Y149.577 E236.72210
G1 X120.949 Y149.443 E236.88609
G1 X119.592 Y149.576 E237.04971
G0 F12000 X132.398 Y145.698
G1 F1200 X132.398 Y167.103 E239.61831
G1 X147.402 Y167.103 E241.41879
G1 X147.402 Y145.698 E243.98739
G1 X132.398 Y145.698 E245.78787
G0 F12000 X146.943 Y146.157
G0 X152.375 Y153.691
G1 F1200 X151.940 Y155.018 E245.95545
G1 X151.820 Y156.145 E246.09146
G1 X151.792 Y156.399 E246.12212
G1 X151.940 Y157.780 E246.28879
G1 X152.295 Y158.867 E246.42601
G1 X152.376 Y159.107 E246.45640
G1 X153.080 Y160.320 E246.62470
G1 X154.020 Y161.378 E246.79454
G1 X155.161 Y162.242 E246.96628
G1 X156.227 Y162.766 E247.10882
G1 X156.453 Y162.879 E247.13914
G1 X157.853 Y163.270 E247.31357
G1 X159.303 Y163.400 E247.48827
G1 X160.503 Y163.293 E247.63284
G1 X160.754 Y163.269 E247.66310
G1 X161.909 Y162.947 E247.80698
G1 X162.151 Y162.879 E247.83715
G1 X163.444 Y162.242 E248.01011
G1 X164.584 Y161.378 E248.18176
G1 X165.355 Y160.512 E248.32090
G1 X165.526 Y160.321 E248.35167
G1 X166.229 Y159.105 E248.52022
G1 X166.666 Y157.781 E248.68753
G1 X166.786 Y156.655 E248.82341
G1 X166.814 Y156.401 E248.85408
G1 X166.693 Y155.269 E248.99069
G1 X166.666 Y155.016 E249.02122
G1 X166.229 Y153.692 E249.18853
G1 X165.526 Y152.479 E249.35677
G1 X164.750 Y151.607 E249.49685
G1 X164.583 Y151.420 E249.52693
G1 X163.443 Y150.557 E249.69851
G1 X162.150 Y149.921 E249.87142
G1 X160.752 Y149.530 E250.04562
G1 X159.556 Y149.421 E250.18974
G1 X159.304 Y149.398 E250.22010
G1 X157.853 Y149.530 E250.39494
G1 X156.696 Y149.853 E250.53909
G1 X156.454 Y149.921 E250.56926
G1 X155.386 Y150.445 E250.71201
G1 X155.159 Y150.558 E250.74244
G1 X154.020 Y151.421 E250.91392
G1 X153.247 Y152.290 E251.05349
G1 X153.079 Y152.480 E251.08392
G1 X152.505 Y153.469 E251.22114
G1 X152.375 Y153.691 E251.25201
G0 F12000 X143.491 Y134.799
G1 F1200 X170.042 Y134.799 E254.43813
G1 X161.518 Y110.868 E257.48659
G1 X160.338 Y110.687 E257.62984
G1 X142.939 Y133.690 E261.09089
G1 X143.491 Y134.799 E261.23954
G0 F12000 X143.443 Y133.737
G0 X156.534 Y113.353
G0 X157.241 Y110.414
G1 F1200 X157.862 Y110.614 E261.31783
G1 X158.517 Y110.647 E261.39653
G1 X159.158 Y110.510 E261.47519
G1 X159.738 Y110.212 E261.55344
G1 X160.227 Y109.772 E261.63237
G1 X160.580 Y109.223 E261.71070
G1 X160.783 Y108.601 E261.78921
G1 X160.815 Y107.945 E261.86803
G1 X160.678 Y107.306 E261.94645
G1 X160.378 Y106.722 E262.02523
G1 X159.940 Y106.239 E262.10348
G1 X159.392 Y105.881 E262.18203
G1 X158.767 Y105.680 E262.26081
G1 X158.112 Y105.646 E262.33951
G1 X157.473 Y105.785 E262.41799
G1 X156.890 Y106.083 E262.49656
G1 X156.406 Y106.522 E262.57497
G1 X156.048 Y107.071 E262.65362
G1 X155.848 Y107.694 E262.73214
G1 X155.813 Y108.349 E262.81085
G1 X155.952 Y108.991 E262.88967
G1 X156.251 Y109.572 E262.96808
G1 X156.689 Y110.059 E263.04668
G1 X157.241 Y110.414 E263.12544
G0 F12000 X156.534 Y113.353
G0 X140.590 Y134.367
G0 X113.337 Y109.406
G0 X109.761 Y109.324
G0 X82.410 Y134.367
G0 X66.466 Y113.353
G0 X67.187 Y108.349
G1 F1200 X67.152 Y107.694 E263.20415
G1 X66.952 Y107.071 E263.28267
G1 X66.594 Y106.522 E263.36132
G1 X66.110 Y106.083 E263.43973
G1 X65.527 Y105.785 E263.51830
G1 X64.888 Y105.646 E263.59677
G1 X64.233 Y105.680 E263.67548
G1 X63.608 Y105.881 E263.75426
G1 X63.060 Y106.239 E263.83281
G1 X62.622 Y106.722 E263.91105
G1 X62.322 Y107.306 E263.98984
G1 X62.185 Y107.945 E264.06826
G1 X62.217 Y108.601 E264.14708
G1 X62.420 Y109.223 E264.22559
G1 X62.773 Y109.772 E264.30391
G1 X63.262 Y110.212 E264.38285
G1 X63.842 Y110.510 E264.46110
G1 X64.483 Y110.647 E264.53976
G1 X65.138 Y110.614 E264.61846
G1 X65.759 Y110.414 E264.69675
G1 X66.311 Y110.059 E264.77550
G1 X66.749 Y109.572 E264.85410
G1 X67.048 Y108.991 E264.93251
G1 X67.187 Y108.349 E265.01134
G0 F12000 X65.585 Y110.047
G0 X64.516 Y110.243
G0 X62.662 Y110.687
G1 F1200 X61.482 Y110.868 E265.15459
G1 X52.959 Y134.799 E268.20301
G1 X79.509 Y134.799 E271.38901
G1 X80.061 Y133.690 E271.53766
G1 X62.662 Y110.687 E274.99870
G0 F12000 X62.487 Y111.118
G1 F1200 X61.779 Y111.227 E275.08467
G1 X53.526 Y134.399 E278.03641
G1 X79.262 Y134.399 E281.12473
G1 X79.593 Y133.733 E281.21397
G1 X62.487 Y111.118 E284.61667
G0 F12000 X63.491 Y109.880
G1 F1200 X63.978 Y110.130 E284.68236
G1 X64.516 Y110.245 E284.74838
G1 X65.065 Y110.217 E284.81435
G1 X65.587 Y110.049 E284.88015
G1 X66.050 Y109.751 E284.94622
G1 X66.417 Y109.343 E285.01208
G1 X66.668 Y108.855 E285.07793
G1 X66.784 Y108.316 E285.14409
G1 X66.755 Y107.767 E285.21006
G1 X66.588 Y107.244 E285.27594
G1 X66.287 Y106.783 E285.34201
G1 X65.881 Y106.415 E285.40777
G1 X65.391 Y106.165 E285.47378
G1 X64.855 Y106.049 E285.53959
G1 X64.306 Y106.077 E285.60555
G1 X63.782 Y106.245 E285.67159
G1 X63.321 Y106.546 E285.73765
G1 X62.953 Y106.952 E285.80341
G1 X62.702 Y107.442 E285.86947
G1 X62.587 Y107.978 E285.93526
G1 X62.614 Y108.528 E286.00134
G1 X62.785 Y109.050 E286.06725
G1 X63.081 Y109.511 E286.13299
G1 X63.491 Y109.880 E286.19919
G0 F12000 X66.438 Y113.358
G1 F1200 X82.401 Y134.464 E289.37472
G1 X110.449 Y108.780 E293.93845
G1 X92.831 Y72.434 E298.78536
G1 X65.177 Y104.713 E303.88596
G1 X69.029 Y106.086 E304.37668
G1 X66.438 Y113.358 E305.30306
G0 F12000 X66.782 Y108.315
G0 X66.661 Y105.231
G0 X65.325 Y104.674
G0 X66.805 Y100.046
G1 F1200 X91.973 Y70.668 E309.94521
G1 X83.348 Y52.872 E312.31832
G1 X82.551 Y52.916 E312.41411
G1 X65.941 Y99.546 E318.35411
G1 X66.805 Y100.046 E318.47390
G0 F12000 X92.810 Y72.598
G0 X110.400 Y108.770
G0 X85.951 Y133.634
G1 F1200 X86.248 Y134.399 E318.57237
G1 X136.751 Y134.399 E324.63273
G1 X137.048 Y133.634 E324.73121
G1 X111.500 Y110.238 E328.88825
G1 X85.951 Y133.634 E333.04539
G0 F12000 X86.272 Y134.364
G0 X115.499 Y152.757
G1 F1200 X114.893 Y153.891 E333.19968
G1 X114.520 Y155.120 E333.35381
G1 X114.414 Y156.193 E333.48319
G1 X114.393 Y156.399 E333.50804
G1 X114.520 Y157.679 E333.66240
G1 X114.893 Y158.909 E333.81663
G1 X115.499 Y160.042 E333.97082
G1 X116.315 Y161.036 E334.12514
G1 X117.308 Y161.849 E334.27915
G1 X118.440 Y162.455 E334.43323
G1 X119.670 Y162.828 E334.58746
G1 X120.742 Y162.935 E334.71674
G1 X120.948 Y162.956 E334.74159
G1 X122.229 Y162.828 E334.89608
G1 X123.458 Y162.455 E335.05020
G1 X124.590 Y161.850 E335.20422
G1 X125.427 Y161.166 E335.33394
G1 X125.586 Y161.035 E335.35866
G1 X126.400 Y160.042 E335.51274
G1 X127.006 Y158.909 E335.66692
G1 X127.318 Y157.877 E335.79630
G1 X127.379 Y157.680 E335.82105
G1 X127.505 Y156.400 E335.97539
G1 X127.400 Y155.324 E336.10512
G1 X127.379 Y155.119 E336.12985
G1 X127.006 Y153.891 E336.28386
G1 X126.400 Y152.757 E336.43815
G1 X125.585 Y151.764 E336.59231
G1 X124.591 Y150.950 E336.74648
G1 X123.458 Y150.344 E336.90066
G1 X122.427 Y150.032 E337.02993
G1 X122.230 Y149.971 E337.05467
G1 X120.949 Y149.845 E337.20913
G1 X119.671 Y149.971 E337.36324
G1 X118.636 Y150.284 E337.49299
G1 X118.439 Y150.345 E337.51774
G1 X117.308 Y150.950 E337.67166
G1 X116.315 Y151.764 E337.82574
G1 X115.499 Y152.757 E337.97997
G0 F12000 X117.309 Y150.951
G0 X119.672 Y149.972
G0 X132.798 Y146.098
G1 F1200 X132.798 Y166.703 E340.45257
G1 X147.002 Y166.703 E342.15705
G1 X147.002 Y146.098 E344.62965
G1 X132.798 Y146.098 E346.33413
G0 F12000 X143.738 Y134.399
G1 F1200 X169.475 Y134.399 E349.42257
G1 X161.221 Y111.227 E352.37435
G1 X160.513 Y111.119 E352.46029
G1 X143.407 Y133.733 E355.86290
G1 X143.738 Y134.399 E355.95214
G0 F12000 X155.371 Y150.900
G1 F1200 X154.293 Y151.716 E356.11439
G1 X153.546 Y152.556 E356.24928
G1 X153.405 Y152.715 E356.27478
G1 X152.850 Y153.671 E356.40743
G1 X152.742 Y153.856 E356.43314
G1 X152.333 Y155.102 E356.59051
G1 X152.217 Y156.189 E356.72169
G1 X152.195 Y156.399 E356.74702
G1 X152.333 Y157.696 E356.90354
G1 X152.675 Y158.741 E357.03549
G1 X152.742 Y158.942 E357.06091
G1 X153.405 Y160.084 E357.21937
G1 X154.293 Y161.083 E357.37977
G1 X155.372 Y161.900 E357.54218
G1 X156.405 Y162.408 E357.68032
G1 X156.597 Y162.504 E357.70607
G1 X157.926 Y162.875 E357.87165
G1 X159.303 Y162.998 E358.03755
G1 X160.467 Y162.894 E358.17779
G1 X160.681 Y162.874 E358.20358
G1 X161.801 Y162.562 E358.34310
G1 X162.008 Y162.504 E358.36889
G1 X163.233 Y161.900 E358.53279
G1 X164.311 Y161.083 E358.69510
G1 X165.057 Y160.245 E358.82974
G1 X165.200 Y160.085 E358.85549
G1 X165.862 Y158.941 E359.01410
G1 X166.273 Y157.696 E359.17143
G1 X166.389 Y156.611 E359.30237
G1 X166.411 Y156.401 E359.32771
G1 X166.296 Y155.312 E359.45911
G1 X166.273 Y155.101 E359.48458
G1 X165.862 Y153.857 E359.64180
G1 X165.201 Y152.715 E359.80014
G1 X164.452 Y151.873 E359.93537
G1 X164.311 Y151.716 E359.96069
G1 X163.232 Y150.899 E360.12310
G1 X162.007 Y150.296 E360.28695
G1 X160.680 Y149.925 E360.45229
G1 X159.516 Y149.819 E360.59255
G1 X159.304 Y149.799 E360.61810
G1 X157.925 Y149.925 E360.78427
G1 X156.804 Y150.238 E360.92394
G1 X156.598 Y150.296 E360.94962
G1 X155.563 Y150.804 E361.08797
G1 X155.371 Y150.900 E361.11373
G0 F12000 X143.443 Y133.737
G0 X157.627 Y115.079
G0 X157.935 Y110.217
G1 F1200 X158.484 Y110.245 E361.17970
G1 X159.022 Y110.130 E361.24572
G1 X159.509 Y109.880 E361.31141
G1 X159.919 Y109.511 E361.37760
G1 X160.215 Y109.050 E361.44334
G1 X160.386 Y108.528 E361.50926
G1 X160.413 Y107.978 E361.57534
G1 X160.298 Y107.442 E361.64112
G1 X160.047 Y106.952 E361.70719
G1 X159.679 Y106.546 E361.77294
G1 X159.218 Y106.245 E361.83901
G1 X158.694 Y106.077 E361.90504
G1 X158.145 Y106.049 E361.97101
G1 X157.609 Y106.165 E362.03682
G1 X157.119 Y106.415 E362.10283
G1 X156.713 Y106.783 E362.16858
G1 X156.412 Y107.244 E362.23465
G1 X156.245 Y107.767 E362.30053
G1 X156.216 Y108.316 E362.36650
G1 X156.332 Y108.855 E362.43267
G1 X156.583 Y109.343 E362.49852
G1 X156.950 Y109.751 E362.56437
G1 X157.413 Y110.049 E362.63044
G1 X157.935 Y110.217 E362.69625
G0 F12000 X156.562 Y113.358
G1 F1200 X153.971 Y106.086 E363.62262
G1 X157.823 Y104.713 E364.11335
G1 X130.169 Y72.434 E369.21395
G1 X112.551 Y108.780 E374.06086
G1 X140.599 Y134.464 E378.62458
G1 X156.562 Y113.358 E381.80012
G0 F12000 X140.590 Y134.367
G0 X112.600 Y108.770
G0 X111.876 Y106.332
G1 F1200 X128.981 Y71.047 E386.50561
G1 X111.500 Y50.672 E389.72717
G1 X94.019 Y71.047 E392.94873
G1 X111.124 Y106.332 E397.65422
G1 X111.876 Y106.332 E397.74446
G0 F12000 X131.027 Y70.668
G1 F1200 X156.195 Y100.046 E402.38661
G1 X157.059 Y99.546 E402.50640
G1 X140.449 Y52.916 E408.44639
G1 X139.652 Y52.872 E408.54218
G1 X131.027 Y70.668 E410.91529
G0 F12000 X129.837 Y69.280
G1 F1200 X138.703 Y50.993 E413.35404
G1 X115.090 Y50.993 E416.18760
G1 X114.768 Y51.691 E416.27985
G1 X129.837 Y69.280 E419.05921
G0 F12000 X111.500 Y50.779
G0 X108.232 Y51.691
G1 F1200 X107.910 Y50.993 E419.15145
G1 X84.297 Y50.993 E421.98501
G1 X93.163 Y69.280 E424.42376
G1 X108.232 Y51.691 E427.20312
G0 F12000 X93.184 Y69.116
G0 X84.447 Y51.087
G0 X82.423 Y48.400
G1 F1200 X140.577 Y48.399 E434.18160
G1 X185.586 Y174.757 E450.27778
G1 X37.414 Y174.757 E468.05842
G1 X82.423 Y48.400 E484.15449
G0 F12000 X82.141 Y48.000
;TYPE:WALL-OUTER
G1 F1200 X140.859 Y47.999 E491.20065
G1 X186.153 Y175.157 E507.39874
G1 X36.847 Y175.157 E525.31546
G1 X82.141 Y48.000 E541.51343
G0 F12000 X82.292 Y48.300
G0 X84.936 Y51.093
G0 X84.936 Y51.393
G1 F1200 X93.256 Y68.556 E543.80223
G1 X107.761 Y51.626 E546.47750
G1 X107.654 Y51.393 E546.50827
G1 X84.936 Y51.393 E549.23443
G0 F12000 X84.936 Y51.093
G0 X84.447 Y51.087
G0 X83.088 Y52.986
G0 X83.104 Y53.286
G1 F1200 X82.838 Y53.301 E549.26640
G1 X66.430 Y99.367 E555.13451
G1 X66.718 Y99.533 E555.17440
G1 X91.499 Y70.607 E559.74514
G1 X83.104 Y53.286 E562.05493
G0 F12000 X83.088 Y52.986
G0 X83.327 Y52.907
G0 X94.267 Y70.913
G0 X94.493 Y71.108
G1 F1200 X111.375 Y105.932 E566.69896
G1 X111.625 Y105.932 E566.72896
G1 X128.507 Y71.108 E571.37300
G1 X111.500 Y51.286 E574.50716
G1 X94.493 Y71.108 E577.64132
G0 F12000 X94.267 Y70.913
G0 X92.512 Y72.962
G0 X92.738 Y73.158
G1 F1200 X65.859 Y104.532 E582.59894
G1 X69.540 Y105.843 E583.06784
G1 X66.887 Y113.289 E584.01638
G1 X82.455 Y133.872 E587.11327
