;FLAVOR:UltiGCode
;TIME:8939
;MATERIAL:12146
;MATERIAL2:0
;NOZZLE_DIAMETER:0.400000
;NOZZLE_DIAMETER2:0.400000

;Layer count: 98
;LAYER:0
M107
G0 F12000 X2.818 Y118.177 Z0.300
;TYPE:SKIRT
G1 F1200 X200.822 Y3.859 E27.43626
G1 X202.762 Y7.224 E27.90236
G1 X218.830 Y35.055 E31.75872
G1 X163.814 Y167.856 E49.00822
G1 X144.521 Y178.995 E51.68155
G1 X143.752 Y179.440 E51.78817
G1 X140.764 Y181.148 E52.20117
G1 X119.607 Y142.586 E57.47933
G1 X109.934 Y148.172 E58.81974
G1 X130.626 Y182.276 E63.60658
G1 X131.014 Y182.915 E63.69629
G1 X132.795 Y185.765 E64.09958
G1 X75.168 Y219.036 E72.08461
G1 X71.605 Y214.073 E72.81775
G1 X2.818 Y118.177 E86.97963
G10
G1 Z0.400
G0 F12000 X8.933 Y119.496
;TYPE:WALL-INNER
G1 Z0.300
G11
G1 F1200 X199.283 Y9.597 E113.35532
G1 X212.880 Y33.149 E116.61874
G1 X212.537 Y33.007 E116.66329
G1 X211.888 Y32.921 E116.74185
G1 X211.239 Y33.007 E116.82041
G1 X210.634 Y33.257 E116.89896
G1 X210.343 Y33.480 E116.94296
G1 X211.001 Y31.893 E117.14912
G1 X201.596 Y15.604 E119.40622
G1 X198.941 Y17.136 E119.77405
G1 X198.311 Y17.501 E119.86143
G1 X186.738 Y60.693 E125.22730
G1 X199.871 Y64.213 E126.85888
G1 X200.460 Y62.788 E127.04391
G1 X201.504 Y63.107 E127.17491
G1 X211.470 Y39.052 E130.29944
G1 X210.633 Y37.602 E130.50035
G1 X211.239 Y37.853 E130.57906
G1 X211.888 Y37.939 E130.65762
G1 X212.537 Y37.853 E130.73618
G1 X213.142 Y37.603 E130.81474
G1 X213.268 Y37.506 E130.83382
G1 X187.794 Y98.997 E138.82087
G1 X187.679 Y98.546 E138.87672
G1 X187.356 Y97.976 E138.95534
G1 X186.898 Y97.508 E139.03392
G1 X186.331 Y97.174 E139.11288
G1 X185.701 Y97.000 E139.19131
G1 X185.048 Y96.994 E139.26968
G1 X184.413 Y97.158 E139.34838
G1 X183.843 Y97.479 E139.42688
G1 X183.376 Y97.939 E139.50554
G1 X183.361 Y97.964 E139.50904
G1 X183.539 Y97.446 E139.57477
G1 X185.334 Y96.409 E139.82353
G1 X187.470 Y96.981 E140.08888
G1 X199.200 Y68.666 E143.76670
G1 X198.157 Y68.347 E143.89758
G1 X199.481 Y65.151 E144.31271
G1 X196.885 Y64.448 E144.63545
G1 X186.479 Y61.659 E145.92824
G1 X174.679 Y105.699 E151.39946
G1 X182.938 Y107.912 E152.42550
G1 X185.117 Y102.733 E153.09975
G1 X183.069 Y101.645 E153.37803
G1 X182.580 Y100.246 E153.55587
G1 X182.865 Y99.414 E153.66141
G1 X182.862 Y99.788 E153.70629
G1 X183.024 Y100.422 E153.78481
G1 X183.347 Y100.993 E153.86354
G1 X183.806 Y101.459 E153.94203
G1 X184.369 Y101.792 E154.02052
G1 X185.001 Y101.968 E154.09925
G1 X185.655 Y101.974 E154.17773
G1 X186.290 Y101.810 E154.25643
G1 X186.732 Y101.560 E154.31737
G1 X160.479 Y164.932 E162.54873
G1 X142.389 Y175.378 E165.05546
G1 X121.224 Y136.803 E170.33544
G1 X104.116 Y146.680 E172.70598
G1 X126.940 Y184.296 E177.98584
G1 X76.362 Y213.497 E184.99412
G1 X8.933 Y119.496 E198.87623
G0 F12000 X13.522 Y124.188
G1 F1200 X48.866 Y173.461 E206.15285
G1 X50.112 Y173.234 E206.30483
G1 X60.782 Y133.414 E211.25181
G1 X17.589 Y121.841 E216.61779
G1 X13.522 Y124.188 E217.18127
G0 F12000 X17.553 Y120.364
G1 F1200 X17.849 Y120.875 E217.25213
G1 X61.041 Y132.448 E222.61800
G1 X73.166 Y87.197 E228.23968
G1 X72.106 Y86.384 E228.39998
G1 X16.477 Y118.500 E236.10808
G1 X17.553 Y120.364 E236.36635
G0 F12000 X62.006 Y132.707
G1 F1200 X100.440 Y143.005 E241.14111
G1 X105.832 Y139.892 E241.88825
G1 X75.879 Y88.012 E249.07696
G1 X75.456 Y87.281 E249.17830
G1 X74.132 Y87.456 E249.33857
G1 X62.006 Y132.707 E254.96027
G0 F12000 X61.748 Y133.672
G1 F1200 X50.965 Y173.917 E259.96001
G1 X54.890 Y179.391 E260.76830
G1 X102.351 Y191.757 E266.65377
G1 X109.835 Y164.263 E270.07310
G1 X97.005 Y143.120 E273.04085
G1 X61.748 Y133.672 E277.42096
G0 F12000 X100.381 Y142.559
G0 X105.205 Y139.723
G0 X108.043 Y139.917
G1 F1200 X108.040 Y140.138 E277.44749
G1 X108.091 Y140.572 E277.49992
G1 X108.226 Y141.010 E277.55492
G1 X108.462 Y141.450 E277.61484
G1 X108.762 Y141.818 E277.67181
G1 X109.214 Y142.178 E277.74116
G1 X109.649 Y142.393 E277.79938
G1 X110.105 Y142.518 E277.85612
G1 X110.419 Y142.551 E277.89401
G1 X110.623 Y142.554 E277.91849
G1 X111.062 Y142.504 E277.97151
G1 X111.500 Y142.365 E278.02666
G1 X111.836 Y142.196 E278.07179
G1 X112.305 Y141.834 E278.14288
G1 X112.667 Y141.378 E278.21275
G1 X112.888 Y140.929 E278.27280
G1 X113.006 Y140.486 E278.32782
G1 X113.043 Y140.140 E278.36957
G1 X113.015 Y139.657 E278.42763
G1 X112.859 Y139.096 E278.49751
G1 X112.547 Y138.550 E278.57297
G1 X112.204 Y138.180 E278.63351
G1 X111.809 Y137.891 E278.69224
G1 X111.264 Y137.654 E278.76356
G1 X110.814 Y137.564 E278.81863
G1 X110.455 Y137.552 E278.86173
G1 X110.002 Y137.606 E278.91648
G1 X109.425 Y137.807 E278.98980
G1 X108.943 Y138.128 E279.05929
G1 X108.758 Y138.297 E279.08936
G1 X108.425 Y138.715 E279.15349
G1 X108.250 Y139.046 E279.19842
G1 X108.102 Y139.481 E279.25356
G1 X108.043 Y139.917 E279.30636
G0 F12000 X109.191 Y138.445
G0 X117.796 Y132.503
G0 X120.717 Y127.069
G1 F1200 X134.461 Y152.120 E282.73519
G1 X159.413 Y158.807 E285.83509
G1 X173.454 Y106.406 E292.34504
G1 X129.416 Y94.605 E297.81605
G1 X120.717 Y127.069 E301.84916
G0 F12000 X134.740 Y151.764
G0 X136.752 Y153.770
G1 F1200 X135.937 Y154.809 E302.00762
G1 X145.249 Y171.786 E304.33120
G1 X157.892 Y164.485 E306.08316
G1 X159.154 Y159.773 E306.66853
G1 X136.752 Y153.770 E309.45161
G0 F12000 X159.089 Y158.245
G0 X161.574 Y154.606
G1 F1200 X163.347 Y155.208 E309.67630
G1 X182.556 Y108.844 E315.69859
G1 X176.846 Y107.315 E316.40793
G1 X174.420 Y106.663 E316.70938
G1 X161.574 Y154.606 E322.66548
G0 F12000 X159.089 Y158.245
G0 X136.916 Y154.263
G0 X136.454 Y154.852
G0 X121.046 Y137.437
G0 X104.754 Y146.844
G0 X122.401 Y184.976
G1 F1200 X111.804 Y167.509 E325.11710
G1 X111.414 Y166.869 E325.20704
G1 X110.111 Y167.055 E325.36498
G1 X103.319 Y192.009 E328.46840
G1 X108.074 Y193.248 E329.05805
G1 X122.401 Y184.976 E331.04328
G0 F12000 X108.013 Y192.803
G0 X102.088 Y192.722
G1 F1200 X55.622 Y180.614 E336.80539
G1 X54.827 Y181.772 E336.97395
G1 X76.242 Y211.626 E341.38281
G1 X100.803 Y197.446 E344.78606
G1 X102.088 Y192.722 E345.37354
G0 F12000 X109.386 Y164.327
G0 X104.754 Y146.844
G0 X112.326 Y141.162
G0 X112.617 Y139.724
G0 X112.759 Y135.891
G1 F1200 X117.248 Y133.300 E345.99551
G1 X118.153 Y132.776 E346.12100
G1 X128.450 Y94.347 E350.89516
G1 X83.198 Y82.221 E356.51698
G1 X82.385 Y83.281 E356.67728
G1 X112.759 Y135.891 E363.96711
G0 F12000 X117.796 Y132.503
G0 X128.709 Y93.381
G1 F1200 X140.508 Y49.342 E369.43818
G1 X137.609 Y48.565 E369.79834
G1 X83.283 Y79.931 E377.32602
G1 X83.458 Y81.256 E377.48640
G1 X128.709 Y93.381 E383.10808
G0 F12000 X129.675 Y93.639
G1 F1200 X173.713 Y105.440 E388.57909
G1 X185.514 Y61.401 E394.05022
G1 X141.474 Y49.600 E399.52146
G1 X129.675 Y93.639 E404.99253
G0 F12000 X141.734 Y48.634
G1 F1200 X185.772 Y60.435 E410.46354
G1 X197.346 Y17.242 E415.82956
G1 X196.563 Y15.885 E416.01756
G1 X195.974 Y14.868 E416.15859
G1 X142.509 Y45.735 E423.56685
G1 X141.734 Y48.634 E423.92695
G0 F12000 X142.223 Y48.351
G1 F1200 X185.489 Y59.945 E429.30205
G1 X196.917 Y17.298 E434.60025
G1 X195.829 Y15.413 E434.86142
G1 X142.853 Y45.999 E442.20201
G1 X142.223 Y48.351 E442.49420
G0 F12000 X141.757 Y50.090
G1 F1200 X130.165 Y93.356 E447.86923
G1 X173.430 Y104.950 E453.24422
G1 X185.024 Y61.684 E458.61932
G1 X141.757 Y50.090 E463.99453
G0 F12000 X140.018 Y49.625
G1 F1200 X137.665 Y48.994 E464.28687
G1 X83.715 Y80.144 E471.76252
G1 X83.819 Y80.939 E471.85873
G1 X128.426 Y92.891 E477.40039
G1 X140.018 Y49.625 E482.77542
G0 F12000 X127.960 Y94.630
G1 F1200 X83.353 Y82.677 E488.31711
G1 X82.865 Y83.313 E488.41331
G1 X112.905 Y135.345 E495.62303
G1 X117.809 Y132.513 E496.30259
G1 X127.960 Y94.630 E501.00892
G0 F12000 X129.699 Y95.095
G1 F1200 X121.145 Y127.017 E504.97471
G1 X134.729 Y151.778 E508.36379
G1 X159.130 Y158.317 E511.39523
G1 X172.964 Y106.689 E517.80915
G1 X129.699 Y95.095 E523.18413
G0 F12000 X174.703 Y107.154
G1 F1200 X162.057 Y154.348 E529.04721
G1 X163.121 Y154.709 E529.18203
G1 X182.012 Y109.112 E535.10468
G1 X174.703 Y107.154 E536.01269
G0 F12000 X182.675 Y107.376
G0 X184.539 Y102.938
G0 X183.670 Y100.750
G1 F1200 X184.054 Y101.142 E536.07854
G1 X184.527 Y101.421 E536.14444
G1 X185.057 Y101.568 E536.21044
G1 X185.606 Y101.574 E536.27632
G1 X186.139 Y101.436 E536.34239
G1 X186.617 Y101.166 E536.40827
G1 X187.009 Y100.781 E536.47420
G1 X187.289 Y100.308 E536.54016
G1 X187.436 Y99.778 E536.60616
G1 X187.441 Y99.229 E536.67205
G1 X187.304 Y98.697 E536.73797
G1 X187.034 Y98.218 E536.80395
G1 X186.649 Y97.825 E536.86997
G1 X186.174 Y97.546 E536.93608
G1 X185.645 Y97.400 E537.00193
G1 X185.097 Y97.394 E537.06769
G1 X184.564 Y97.532 E537.13376
G1 X184.086 Y97.801 E537.19958
G1 X183.693 Y98.187 E537.26568
G1 X183.414 Y98.660 E537.33158
G1 X183.267 Y99.190 E537.39758
G1 X183.262 Y99.739 E537.46347
G1 X183.399 Y100.271 E537.52939
G1 X183.670 Y100.750 E537.59543
G0 F12000 X182.742 Y101.924
G1 F1200 X182.157 Y100.248 E537.80845
G1 X183.209 Y97.174 E538.19833
G1 X185.278 Y95.980 E538.48499
G1 X187.235 Y96.504 E538.72810
G1 X198.662 Y68.919 E542.31108
G1 X197.619 Y68.600 E542.44196
G1 X198.938 Y65.418 E542.85531
G1 X196.781 Y64.835 E543.12344
G1 X186.762 Y62.149 E544.36817
G1 X175.169 Y105.416 E549.74336
G1 X182.704 Y107.435 E550.67945
G1 X184.607 Y102.914 E551.26808
G1 X182.742 Y101.924 E551.52145
G0 F12000 X183.263 Y97.097
G0 X187.205 Y96.444
G0 X198.573 Y68.961
G0 X198.845 Y65.464
G0 X187.228 Y60.410
G1 F1200 X199.635 Y63.736 E553.06286
G1 X200.229 Y62.299 E553.24945
G1 X201.274 Y62.618 E553.38057
G1 X211.025 Y39.081 E556.43779
G1 X209.025 Y35.617 E556.91778
G1 X210.556 Y31.922 E557.39774
G1 X201.450 Y16.151 E559.58307
G1 X199.141 Y17.483 E559.90295
G1 X198.655 Y17.764 E559.97031
G1 X187.228 Y60.410 E565.26836
G0 F12000 X198.669 Y17.774
G0 X201.428 Y16.231
G0 X210.532 Y31.924
G0 X209.001 Y35.620
G0 X210.399 Y36.919
G1 F1200 X210.836 Y37.253 E565.33436
G1 X211.343 Y37.464 E565.40026
G1 X211.888 Y37.535 E565.46621
G1 X212.433 Y37.464 E565.53217
G1 X212.940 Y37.253 E565.59807
G1 X213.377 Y36.919 E565.66407
G1 X213.711 Y36.482 E565.73007
G1 X213.922 Y35.975 E565.79597
G1 X213.993 Y35.430 E565.86192
G1 X213.922 Y34.885 E565.92787
G1 X213.711 Y34.378 E565.99377
G1 X213.377 Y33.941 E566.05978
G1 X212.940 Y33.607 E566.12578
G1 X212.433 Y33.396 E566.19168
G1 X211.888 Y33.325 E566.25763
G1 X211.343 Y33.396 E566.32358
G1 X210.836 Y33.607 E566.38948
G1 X210.399 Y33.941 E566.45548
G1 X210.065 Y34.378 E566.52149
G1 X209.854 Y34.885 E566.58738
G1 X209.783 Y35.430 E566.65334
G1 X209.854 Y35.975 E566.71929
G1 X210.065 Y36.482 E566.78519
G1 X210.399 Y36.919 E566.85119
G0 F12000 X211.888 Y37.533
G0 X213.375 Y36.917
G0 X214.602 Y35.332
G1 F1200 X160.797 Y165.210 E583.72102
G1 X142.234 Y175.928 E586.29322
G1 X121.070 Y137.354 E591.57304
G1 X104.670 Y146.822 E593.84546
G1 X127.493 Y184.438 E599.12526
G1 X76.248 Y214.024 E606.22596
G1 X8.351 Y119.371 E620.20438
G1 X199.429 Y9.051 E646.68099
G1 X214.602 Y35.332 E650.32257
G0 F12000 X212.940 Y37.251
G0 X211.345 Y37.462
G0 X209.001 Y35.620
G0 X210.532 Y31.924
G0 X201.428 Y16.231
G0 X198.669 Y17.774
G0 X185.448 Y59.873
G0 X141.798 Y50.162
G0 X128.385 Y92.819
G0 X83.366 Y82.715
G0 X82.906 Y83.317
G0 X75.244 Y87.713
G1 F1200 X74.449 Y87.817 E650.41879
G1 X62.496 Y132.424 E655.96047
G1 X100.383 Y142.576 E660.66730
G1 X105.285 Y139.745 E661.34659
G1 X75.244 Y87.713 E668.55637
G0 F12000 X72.710 Y87.352
G1 F1200 X72.074 Y86.864 E668.65257
G1 X17.023 Y118.646 E676.28056
G1 X18.112 Y120.531 E676.54180
G1 X60.758 Y131.958 E681.83984
G1 X72.710 Y87.352 E687.38138
G0 F12000 X60.292 Y133.697
G1 F1200 X17.645 Y122.270 E692.67955
G1 X14.104 Y124.313 E693.17012
G1 X49.044 Y173.022 E700.36348
G1 X49.791 Y172.886 E700.45460
G1 X60.292 Y133.697 E705.32318
G0 F12000 X62.031 Y134.162
G1 F1200 X51.400 Y173.838 E710.25225
G1 X55.131 Y179.040 E711.02045
G1 X102.069 Y191.270 E716.84107
G1 X109.404 Y164.324 E720.19225
G1 X96.747 Y143.465 E723.12009
G1 X62.031 Y134.162 E727.43300
G0 F12000 X100.381 Y142.559
G0 X105.205 Y139.723
G0 X108.442 Y139.946
G1 F1200 X108.441 Y140.117 E727.45352
G1 X108.484 Y140.489 E727.49845
G1 X108.597 Y140.855 E727.54442
G1 X108.797 Y141.227 E727.59510
G1 X109.045 Y141.532 E727.64227
G1 X109.430 Y141.838 E727.70129
G1 X109.792 Y142.017 E727.74975
G1 X110.179 Y142.123 E727.79790
G1 X110.443 Y142.152 E727.82977
G1 X110.603 Y142.153 E727.84897
G1 X110.978 Y142.111 E727.89425
G1 X111.349 Y141.994 E727.94093
G1 X111.622 Y141.856 E727.97764
G1 X112.022 Y141.547 E728.03830
G1 X112.327 Y141.163 E728.09714
G1 X112.511 Y140.788 E728.14727
G1 X112.612 Y140.413 E728.19387
G1 X112.642 Y140.131 E728.22790
G1 X112.618 Y139.723 E728.27695
G1 X112.487 Y139.251 E728.33573
G1 X112.223 Y138.788 E728.39969
G1 X111.937 Y138.481 E728.45003
G1 X111.609 Y138.240 E728.49888
G1 X111.143 Y138.038 E728.55982
G1 X110.768 Y137.963 E728.60572
G1 X110.472 Y137.953 E728.64126
G1 X110.093 Y137.998 E728.68706
G1 X109.605 Y138.168 E728.74907
G1 X109.190 Y138.444 E728.80888
G1 X109.051 Y138.571 E728.83147
G1 X108.761 Y138.935 E728.88732
G1 X108.618 Y139.205 E728.92398
G1 X108.493 Y139.573 E728.97062
G1 X108.442 Y139.946 E729.01580
G0 F12000 X104.754 Y146.844
G0 X111.209 Y167.302
G1 F1200 X110.428 Y167.414 E729.11047
G1 X103.811 Y191.724 E732.13381
G1 X108.016 Y192.820 E732.65527
G1 X121.847 Y184.834 E734.57179
G1 X111.463 Y167.717 E736.97424
G1 X111.209 Y167.302 E737.03263
G0 F12000 X110.454 Y167.443
G0 X101.596 Y193.007
G1 F1200 X55.793 Y181.072 E742.71252
G1 X55.316 Y181.767 E742.81368
G1 X76.356 Y211.098 E747.14531
G1 X100.460 Y197.182 E750.48523
G1 X101.596 Y193.007 E751.00444
G0 F12000 X108.013 Y192.803
G0 X121.763 Y184.812
G0 X104.754 Y146.844
G0 X121.046 Y137.437
G0 X145.403 Y171.235
G1 F1200 X157.548 Y164.221 E752.68743
G1 X158.664 Y160.056 E753.20486
G1 X136.904 Y154.225 E755.90819
G1 X136.414 Y154.848 E756.00330
G1 X145.403 Y171.235 E758.24616
G0 F12000 X145.557 Y170.684
;TYPE:WALL-OUTER
G1 F1200 X157.205 Y163.958 E759.86022
G1 X158.174 Y160.339 E760.30980
G1 X137.055 Y154.680 E762.93348
G1 X136.892 Y154.887 E762.96510
G1 X145.557 Y170.684 E765.12719
G0 F12000 X145.706 Y170.943
G0 X142.241 Y176.148
G0 X142.080 Y176.479
G1 F1200 X120.916 Y137.905 E770.40701
G1 X105.224 Y146.964 E772.58131
G1 X128.048 Y184.580 E777.86117
G1 X76.135 Y214.552 E785.05445
G1 X7.768 Y119.245 E799.12952
G1 X199.576 Y8.504 E825.70725
G1 X215.047 Y35.302 E829.42044
G1 X161.114 Y165.489 E846.33041
G1 X142.080 Y176.479 E848.96788
G0 F12000 X142.241 Y176.148
G0 X121.046 Y137.437
G0 X104.754 Y146.844
G0 X126.505 Y182.808
G0 X121.443 Y184.951
G0 X121.293 Y184.692
G1 F1200 X111.006 Y167.736 E851.34778
G1 X110.745 Y167.772 E851.37939
G1 X104.303 Y191.439 E854.32276
G1 X107.958 Y192.391 E854.77600
G1 X121.293 Y184.692 E856.62375
G0 F12000 X121.443 Y184.951
G0 X108.013 Y192.803
G0 X101.180 Y193.004
G0 X101.104 Y193.292
G1 F1200 X55.964 Y181.530 E862.22142
G1 X55.805 Y181.762 E862.25517
G1 X76.470 Y210.571 E866.50967
G1 X100.117 Y196.918 E869.78632
G1 X101.104 Y193.292 E870.23727
G0 F12000 X101.180 Y193.004
G0 X102.076 Y190.862
G0 X101.787 Y190.783
G1 F1200 X108.973 Y164.385 E873.52030
G1 X96.488 Y143.810 E876.40831
G1 X62.314 Y134.652 E880.65389
G1 X51.835 Y173.759 E885.51228
G1 X55.372 Y178.689 E886.24039
G1 X101.787 Y190.783 E891.99616
G0 F12000 X102.076 Y190.862
G0 X109.386 Y164.327
G0 X104.754 Y146.844
G0 X110.221 Y142.026
G0 X110.254 Y141.729
G1 F1200 X110.466 Y141.752 E892.02175
G1 X110.582 Y141.753 E892.03567
G1 X110.895 Y141.718 E892.07346
G1 X111.198 Y141.622 E892.11160
G1 X111.408 Y141.516 E892.13983
G1 X111.739 Y141.260 E892.19005
G1 X111.987 Y140.948 E892.23787
G1 X112.135 Y140.647 E892.27812
G1 X112.217 Y140.340 E892.31625
