;FLAVOR:UltiGCode
;TIME:1698
;MATERIAL:2179
;MATERIAL2:0
;NOZZLE_DIAMETER:0.400000
;NOZZLE_DIAMETER2:0.400000

;Layer count: 97
;LAYER:0
M107
G0 F12000 X84.269 Y100.023 Z0.300
;TYPE:SKIRT
G1 F1200 X161.899 Y100.022 E9.31560
G1 X163.862 Y119.866 E11.70850
G1 X164.243 Y123.559 E12.15401
G1 X97.273 Y123.558 E20.19041
G1 X97.149 Y117.760 E20.88633
G1 X97.148 Y117.703 E20.89317
G1 X95.543 Y115.008 E21.26958
G1 X89.928 Y115.007 E21.94338
G1 X87.887 Y117.776 E22.35617
G1 X87.835 Y120.165 E22.64292
G1 X87.771 Y123.558 E23.05015
G1 X64.911 Y123.559 E25.79335
G1 X60.727 Y123.557 E26.29543
G1 X59.254 Y119.215 E26.84564
G1 X84.269 Y100.023 E30.62913
G10
G1 Z0.400
G0 F12000 X85.694 Y104.223
;TYPE:WALL-INNER
G1 Z0.300
G11
G1 F1200 X158.094 Y104.222 E39.31713
G1 X159.592 Y119.359 E41.14244
G1 X101.384 Y119.358 E48.12740
G1 X101.335 Y117.103 E48.39807
G1 X101.196 Y116.294 E48.49657
G1 X98.610 Y111.951 E49.10312
G1 X97.928 Y110.808 E49.26284
G1 X89.448 Y110.807 E50.28044
G1 X87.804 Y110.808 E50.47772
G1 X83.698 Y116.381 E51.30839
G1 X83.698 Y117.238 E51.41123
G1 X83.652 Y119.358 E51.66569
G1 X65.967 Y119.358 E53.78789
G1 X85.694 Y104.223 E56.77158
G0 F12000 X86.349 Y106.292
G1 F1200 X84.757 Y106.292 E56.96262
G1 X72.102 Y116.002 E58.87674
G1 X72.562 Y117.359 E59.04868
G1 X81.458 Y117.359 E60.11620
G1 X81.515 Y114.699 E60.43547
G1 X86.904 Y107.390 E61.52518
G1 X86.349 Y106.292 E61.67282
G0 F12000 X100.865 Y107.304
G1 F1200 X105.525 Y115.127 E62.76551
G1 X105.547 Y116.182 E62.89214
G1 X105.577 Y117.359 E63.03342
G1 X114.329 Y117.359 E64.08366
G1 X114.841 Y116.124 E64.24409
G1 X105.010 Y106.292 E65.91255
G1 X101.440 Y106.292 E66.34095
G1 X100.865 Y107.304 E66.48063
G0 F12000 X101.689 Y106.720
G0 X104.838 Y106.708
G0 X107.878 Y107.523
G1 F1200 X117.634 Y117.359 E68.14308
G1 X135.456 Y117.359 E70.28172
G1 X145.362 Y107.530 E71.95630
G1 X144.852 Y106.292 E72.11697
G1 X108.390 Y106.292 E76.49241
G1 X107.878 Y107.523 E76.65240
G0 F12000 X117.808 Y116.943
G0 X135.285 Y116.943
G0 X138.123 Y116.121
G1 F1200 X138.633 Y117.359 E76.81307
G1 X158.394 Y117.359 E79.18439
G1 X157.301 Y106.292 E80.51889
G1 X148.029 Y106.292 E81.63153
G1 X138.123 Y116.121 E83.30612
G0 F12000 X138.595 Y116.216
G1 F1200 X138.901 Y116.959 E83.40254
G1 X157.953 Y116.959 E85.68878
G1 X156.938 Y106.692 E86.92683
G1 X148.194 Y106.692 E87.97611
G1 X138.595 Y116.216 E89.59876
G0 F12000 X135.291 Y116.959
G1 F1200 X144.890 Y107.435 E91.22141
G1 X144.584 Y106.692 E91.31784
G1 X108.657 Y106.692 E95.62908
G1 X108.349 Y107.431 E95.72515
G1 X117.801 Y116.959 E97.33567
G1 X135.291 Y116.959 E99.43447
G0 F12000 X117.808 Y116.943
G0 X114.369 Y116.218
G1 F1200 X104.845 Y106.692 E101.05092
G1 X101.673 Y106.692 E101.43156
G1 X101.328 Y107.299 E101.51534
G1 X105.922 Y115.015 E102.59295
G1 X105.947 Y116.173 E102.73194
G1 X105.967 Y116.959 E102.82629
G1 X114.062 Y116.959 E103.79769
G1 X114.369 Y116.218 E103.89394
G0 F12000 X104.838 Y106.708
G0 X101.689 Y106.720
G0 X101.359 Y107.298
G0 X86.436 Y107.351
G1 F1200 X86.103 Y106.692 E103.98254
G1 X84.892 Y106.692 E104.12786
G1 X72.573 Y116.145 E105.99122
G1 X72.849 Y116.959 E106.09436
G1 X81.066 Y116.959 E107.08040
G1 X81.118 Y114.564 E107.36787
G1 X86.436 Y107.351 E108.44325
G0 F12000 X88.007 Y111.208
G1 F1200 X84.098 Y116.512 E109.23391
G1 X84.098 Y117.247 E109.32211
G1 X84.043 Y119.758 E109.62350
G1 X64.788 Y119.758 E111.93410
G1 X85.558 Y103.823 E115.07553
G1 X158.457 Y103.822 E123.82341
G1 X160.033 Y119.759 E125.74517
G1 X100.992 Y119.758 E132.83009
G1 X100.936 Y117.141 E133.14421
G1 X100.814 Y116.435 E133.23018
G1 X97.701 Y111.208 E133.96023
G1 X88.007 Y111.208 E135.12351
G0 F12000 X88.209 Y111.608
;TYPE:WALL-OUTER
G1 F1200 X84.498 Y116.643 E135.87409
G1 X84.498 Y117.256 E135.94765
G1 X84.435 Y120.158 E136.29597
G1 X63.611 Y120.158 E138.79485
G1 X85.424 Y103.423 E142.09402
G1 X158.819 Y103.422 E150.90142
G1 X160.475 Y120.159 E152.91967
G1 X100.601 Y120.158 E160.10455
G1 X100.537 Y117.180 E160.46199
G1 X100.433 Y116.576 E160.53553
G1 X97.474 Y111.608 E161.22943
G1 X88.209 Y111.608 E162.34123
G0 F12000 X87.969 Y111.430
G0 X86.208 Y107.490
G0 X85.968 Y107.312
G1 F1200 X85.857 Y107.092 E162.37080
G1 X85.028 Y107.092 E162.47028
G1 X73.044 Y116.288 E164.28296
G1 X73.136 Y116.559 E164.31731
G1 X80.675 Y116.559 E165.22199
G1 X80.721 Y114.429 E165.47765
G1 X85.968 Y107.312 E166.53870
G0 F12000 X86.208 Y107.490
G0 X101.530 Y107.146
G0 X101.791 Y107.294
G1 F1200 X106.320 Y114.900 E167.60097
G1 X106.356 Y116.559 E167.80010
G1 X113.795 Y116.559 E168.69278
G1 X113.897 Y116.312 E168.72485
G1 X104.679 Y107.092 E170.28936
G1 X101.906 Y107.092 E170.62212
G1 X101.791 Y107.294 E170.65002
G0 F12000 X101.530 Y107.146
G0 X101.689 Y106.720
G0 X104.838 Y106.708
G0 X108.545 Y107.222
G0 X108.821 Y107.338
G1 F1200 X117.968 Y116.559 E172.20861
G1 X135.126 Y116.559 E174.26757
G1 X144.418 Y107.340 E175.83829
G1 X144.316 Y107.092 E175.87047
G1 X108.924 Y107.092 E180.11751
G1 X108.821 Y107.338 E180.14951
G0 F12000 X108.545 Y107.222
G0 X108.679 Y106.726
G0 X144.561 Y106.726
G0 X144.850 Y107.426
G0 X138.856 Y116.100
G0 X139.067 Y116.311
G1 F1200 X139.169 Y116.559 E180.18169
G1 X157.512 Y116.559 E182.38285
G1 X156.575 Y107.092 E183.52444
G1 X148.359 Y107.092 E184.51036
G1 X139.067 Y116.311 E186.08108
G0 F12000 X138.479 Y115.568
;TYPE:SKIN
G1 F1200 X137.828 Y115.200 E186.16746
G1 X138.195 Y115.850 E186.25703
G0 F12000 X138.020 Y116.241
G1 F1200 X137.402 Y115.623 E186.36191
G0 F12000 X137.118 Y115.905
G1 F1200 X138.416 Y117.203 E186.58219
G0 F12000 X138.712 Y117.499
G1 F1200 X140.431 Y119.218 E186.87391
G0 F12000 X140.997 Y119.218
G1 F1200 X139.278 Y117.499 E187.16563
G0 F12000 X139.843 Y117.499
G1 F1200 X141.562 Y119.218 E187.45736
G0 F12000 X142.128 Y119.218
G1 F1200 X140.409 Y117.499 E187.74908
G0 F12000 X140.975 Y117.499
G1 F1200 X142.694 Y119.218 E188.04081
G0 F12000 X143.259 Y119.218
G1 F1200 X141.540 Y117.499 E188.33253
G0 F12000 X142.106 Y117.499
G1 F1200 X143.825 Y119.218 E188.62425
G0 F12000 X144.391 Y119.218
G1 F1200 X142.672 Y117.499 E188.91598
G0 F12000 X143.237 Y117.499
G1 F1200 X144.956 Y119.218 E189.20770
G0 F12000 X145.522 Y119.218
G1 F1200 X143.803 Y117.499 E189.49943
G0 F12000 X144.369 Y117.499
G1 F1200 X146.088 Y119.218 E189.79115
G0 F12000 X146.653 Y119.218
G1 F1200 X144.934 Y117.499 E190.08287
G0 F12000 X145.500 Y117.499
G1 F1200 X147.219 Y119.218 E190.37460
G0 F12000 X147.785 Y119.218
G1 F1200 X146.066 Y117.499 E190.66632
G0 F12000 X146.632 Y117.499
G1 F1200 X148.351 Y119.218 E190.95805
G0 F12000 X148.916 Y119.218
G1 F1200 X147.197 Y117.499 E191.24977
G0 F12000 X147.763 Y117.499
G1 F1200 X149.482 Y119.218 E191.54149
G0 F12000 X150.048 Y119.218
G1 F1200 X148.329 Y117.499 E191.83322
G0 F12000 X148.894 Y117.499
G1 F1200 X150.613 Y119.218 E192.12494
G0 F12000 X151.179 Y119.218
G1 F1200 X149.460 Y117.499 E192.41667
G0 F12000 X150.026 Y117.499
G1 F1200 X151.745 Y119.218 E192.70839
G0 F12000 X152.310 Y119.218
G1 F1200 X150.591 Y117.499 E193.00011
G0 F12000 X151.157 Y117.499
G1 F1200 X152.876 Y119.218 E193.29184
G0 F12000 X153.442 Y119.218
G1 F1200 X151.723 Y117.499 E193.58356
G0 F12000 X152.288 Y117.499
G1 F1200 X154.007 Y119.218 E193.87529
G0 F12000 X154.573 Y119.218
G1 F1200 X152.854 Y117.499 E194.16701
G0 F12000 X153.420 Y117.499
G1 F1200 X155.139 Y119.218 E194.45873
G0 F12000 X155.704 Y119.218
G1 F1200 X153.985 Y117.499 E194.75046
G0 F12000 X154.551 Y117.499
G1 F1200 X156.270 Y119.218 E195.04218
G0 F12000 X156.836 Y119.218
G1 F1200 X155.117 Y117.499 E195.33391
G0 F12000 X155.682 Y117.499
G1 F1200 X157.401 Y119.218 E195.62563
G0 F12000 X157.967 Y119.218
G1 F1200 X156.248 Y117.499 E195.91735
G0 F12000 X156.814 Y117.499
G1 F1200 X158.533 Y119.218 E196.20908
G0 F12000 X159.099 Y119.218
G1 F1200 X157.380 Y117.499 E196.50080
G0 F12000 X157.945 Y117.499
G1 F1200 X159.411 Y118.965 E196.74959
G0 F12000 X159.349 Y118.337
G1 F1200 X158.511 Y117.499 E196.89180
G0 F12000 X158.488 Y116.910
G1 F1200 X159.287 Y117.709 E197.02740
G0 F12000 X159.224 Y117.081
G1 F1200 X158.427 Y116.283 E197.16274
G0 F12000 X158.365 Y115.655
G1 F1200 X159.163 Y116.454 E197.29825
G0 F12000 X159.101 Y115.826
G1 F1200 X158.302 Y115.027 E197.43384
G0 F12000 X158.240 Y114.399
G1 F1200 X159.038 Y115.198 E197.56935
G0 F12000 X158.976 Y114.570
G1 F1200 X158.179 Y113.772 E197.70469
G0 F12000 X158.116 Y113.144
G1 F1200 X158.914 Y113.942 E197.84012
G0 F12000 X158.852 Y113.314
G1 F1200 X158.054 Y112.516 E197.97554
G0 F12000 X157.992 Y111.889
G1 F1200 X158.790 Y112.686 E198.11088
G0 F12000 X158.728 Y112.059
G1 F1200 X157.930 Y111.261 E198.24631
G0 F12000 X157.868 Y110.633
G1 F1200 X158.666 Y111.431 E198.38173
G0 F12000 X158.604 Y110.803
G1 F1200 X157.806 Y110.006 E198.51707
G0 F12000 X157.744 Y109.378
G1 F1200 X158.541 Y110.175 E198.65233
G0 F12000 X158.479 Y109.547
G1 F1200 X157.682 Y108.750 E198.78758
G0 F12000 X157.620 Y108.122
G1 F1200 X158.417 Y108.919 E198.92284
G0 F12000 X158.355 Y108.291
G1 F1200 X157.558 Y107.495 E199.05801
G0 F12000 X157.496 Y106.867
G1 F1200 X158.293 Y107.664 E199.19327
G0 F12000 X158.231 Y107.036
G1 F1200 X157.434 Y106.239 E199.32852
G0 F12000 X157.346 Y106.151
G1 F1200 X155.557 Y104.362 E199.63213
G0 F12000 X156.122 Y104.362
G1 F1200 X158.169 Y106.408 E199.97943
G0 F12000 X158.106 Y105.781
G1 F1200 X156.688 Y104.362 E200.22016
G0 F12000 X157.254 Y104.362
G1 F1200 X158.044 Y105.153 E200.35431
G0 F12000 X157.982 Y104.525
G1 F1200 X157.819 Y104.362 E200.38197
G0 F12000 X156.780 Y106.151
G1 F1200 X154.991 Y104.362 E200.68557
G0 F12000 X154.425 Y104.362
G1 F1200 X156.214 Y106.151 E200.98918
G0 F12000 X155.649 Y106.151
G1 F1200 X153.860 Y104.362 E201.29278
G0 F12000 X153.294 Y104.362
G1 F1200 X155.083 Y106.151 E201.59638
G0 F12000 X154.517 Y106.151
G1 F1200 X152.728 Y104.362 E201.89999
G0 F12000 X152.163 Y104.362
G1 F1200 X153.951 Y106.151 E202.20350
G0 F12000 X153.386 Y106.151
G1 F1200 X151.597 Y104.362 E202.50711
G0 F12000 X151.031 Y104.362
G1 F1200 X152.820 Y106.151 E202.81071
G0 F12000 X152.254 Y106.151
G1 F1200 X150.465 Y104.362 E203.11431
G0 F12000 X149.900 Y104.362
G1 F1200 X151.689 Y106.151 E203.41792
G0 F12000 X151.123 Y106.151
G1 F1200 X149.334 Y104.362 E203.72152
G0 F12000 X148.768 Y104.362
G1 F1200 X150.557 Y106.151 E204.02512
G0 F12000 X149.992 Y106.151
G1 F1200 X148.203 Y104.362 E204.32873
G0 F12000 X147.637 Y104.362
G1 F1200 X149.426 Y106.151 E204.63233
G0 F12000 X148.860 Y106.151
G1 F1200 X147.071 Y104.362 E204.93594
G0 F12000 X146.506 Y104.362
G1 F1200 X148.295 Y106.151 E205.23954
G0 F12000 X147.849 Y106.271
G1 F1200 X145.940 Y104.362 E205.56351
G0 F12000 X145.374 Y104.362
G1 F1200 X147.565 Y106.553 E205.93533
G0 F12000 X147.281 Y106.835
G1 F1200 X144.809 Y104.362 E206.35493
G0 F12000 X144.243 Y104.362
G1 F1200 X146.997 Y107.116 E206.82230
G0 F12000 X146.714 Y107.398
G1 F1200 X143.677 Y104.362 E207.33761
G0 F12000 X143.112 Y104.362
G1 F1200 X144.901 Y106.152 E207.64130
G0 F12000 X144.975 Y106.226
G1 F1200 X146.429 Y107.680 E207.88805
G0 F12000 X146.145 Y107.961
G1 F1200 X145.371 Y107.187 E208.01940
G0 F12000 X145.353 Y107.735
G1 F1200 X145.719 Y108.384 E208.10546
G1 X144.927 Y108.157 E208.19172
G1 X145.151 Y108.947 E208.27794
G1 X144.359 Y108.720 E208.36395
G1 X144.584 Y109.511 E208.45030
G1 X143.791 Y109.284 E208.53667
G1 X144.016 Y110.075 E208.62277
G1 X143.223 Y109.848 E208.70913
G1 X143.448 Y110.638 E208.79538
G1 X142.655 Y110.411 E208.88149
G1 X142.880 Y111.202 E208.96760
G1 X142.087 Y110.975 E209.05396
G1 X142.312 Y111.765 E209.13996
G1 X141.519 Y111.538 E209.22632
G1 X141.744 Y112.329 E209.31243
G1 X140.951 Y112.102 E209.39879
G1 X141.176 Y112.892 E209.48479
G1 X140.383 Y112.665 E209.57115
G1 X140.608 Y113.455 E209.65740
G1 X139.816 Y113.228 E209.74341
G1 X140.183 Y113.878 E209.83299
G0 F12000 X144.850 Y107.426
G0 X144.561 Y106.726
G0 X140.376 Y106.152
G1 F1200 X138.586 Y104.362 E210.13676
G0 F12000 X138.020 Y104.362
G1 F1200 X139.810 Y106.152 E210.44053
G0 F12000 X139.244 Y106.152
G1 F1200 X137.455 Y104.362 E210.74422
G0 F12000 X136.889 Y104.362
G1 F1200 X138.679 Y106.152 E211.04800
G0 F12000 X138.113 Y106.152
G1 F1200 X136.323 Y104.362 E211.35177
G0 F12000 X135.758 Y104.362
G1 F1200 X137.547 Y106.152 E211.65546
G0 F12000 X136.982 Y106.152
G1 F1200 X135.192 Y104.362 E211.95923
G0 F12000 X134.626 Y104.362
G1 F1200 X136.416 Y106.152 E212.26300
G0 F12000 X135.850 Y106.152
G1 F1200 X134.061 Y104.362 E212.56669
G0 F12000 X133.495 Y104.362
G1 F1200 X135.285 Y106.152 E212.87046
G0 F12000 X134.719 Y106.152
G1 F1200 X132.929 Y104.362 E213.17424
G0 F12000 X132.364 Y104.362
G1 F1200 X134.153 Y106.152 E213.47793
G0 F12000 X133.588 Y106.152
G1 F1200 X131.798 Y104.362 E213.78170
G0 F12000 X131.232 Y104.362
G1 F1200 X133.022 Y106.152 E214.08547
G0 F12000 X132.456 Y106.152
G1 F1200 X130.666 Y104.362 E214.38925
G0 F12000 X130.101 Y104.362
G1 F1200 X131.890 Y106.152 E214.69293
G0 F12000 X131.325 Y106.152
G1 F1200 X129.535 Y104.362 E214.99671
G0 F12000 X128.969 Y104.362
G1 F1200 X130.759 Y106.152 E215.30048
G0 F12000 X130.193 Y106.152
G1 F1200 X128.404 Y104.362 E215.60417
G0 F12000 X127.838 Y104.362
G1 F1200 X129.628 Y106.152 E215.90794
G0 F12000 X129.062 Y106.152
G1 F1200 X127.272 Y104.362 E216.21171
G0 F12000 X126.707 Y104.362
G1 F1200 X128.496 Y106.152 E216.51540
G0 F12000 X127.931 Y106.152
G1 F1200 X126.141 Y104.362 E216.81918
G0 F12000 X125.575 Y104.362
G1 F1200 X127.365 Y106.152 E217.12295
G0 F12000 X126.799 Y106.152
G1 F1200 X125.010 Y104.362 E217.42664
G0 F12000 X124.444 Y104.362
G1 F1200 X126.234 Y106.152 E217.73041
G0 F12000 X125.668 Y106.152
G1 F1200 X123.878 Y104.362 E218.03418
G0 F12000 X123.313 Y104.362
G1 F1200 X125.102 Y106.152 E218.33787
G0 F12000 X124.537 Y106.152
G1 F1200 X122.747 Y104.362 E218.64164
G0 F12000 X122.181 Y104.362
G1 F1200 X123.971 Y106.152 E218.94542
G0 F12000 X123.405 Y106.152
G1 F1200 X121.616 Y104.362 E219.24911
G0 F12000 X121.050 Y104.362
G1 F1200 X122.840 Y106.152 E219.55288
G0 F12000 X122.274 Y106.152
G1 F1200 X120.484 Y104.362 E219.85665
G0 F12000 X119.918 Y104.362
G1 F1200 X121.708 Y106.152 E220.16042
G0 F12000 X121.142 Y106.152
G1 F1200 X119.353 Y104.362 E220.46411
G0 F12000 X118.787 Y104.362
G1 F1200 X120.577 Y106.152 E220.76789
G0 F12000 X120.011 Y106.152
G1 F1200 X118.221 Y104.362 E221.07166
G0 F12000 X117.656 Y104.362
G1 F1200 X119.445 Y106.152 E221.37535
G0 F12000 X118.880 Y106.152
G1 F1200 X117.090 Y104.362 E221.67912
G0 F12000 X116.524 Y104.362
G1 F1200 X118.314 Y106.152 E221.98289
G0 F12000 X117.748 Y106.152
G1 F1200 X115.959 Y104.362 E222.28658
G0 F12000 X115.393 Y104.362
G1 F1200 X117.183 Y106.152 E222.59035
G0 F12000 X116.617 Y106.152
G1 F1200 X114.827 Y104.362 E222.89413
G0 F12000 X114.262 Y104.362
G1 F1200 X116.051 Y106.152 E223.19782
G0 F12000 X115.486 Y106.152
G1 F1200 X113.696 Y104.362 E223.50159
G0 F12000 X113.130 Y104.362
G1 F1200 X114.920 Y106.152 E223.80536
G0 F12000 X114.354 Y106.152
G1 F1200 X112.565 Y104.362 E224.10905
G0 F12000 X111.999 Y104.362
G1 F1200 X113.789 Y106.152 E224.41282
G0 F12000 X113.223 Y106.152
G1 F1200 X111.433 Y104.362 E224.71660
G0 F12000 X110.867 Y104.362
G1 F1200 X112.657 Y106.152 E225.02037
G0 F12000 X112.091 Y106.152
G1 F1200 X110.302 Y104.362 E225.32406
G0 F12000 X109.736 Y104.362
G1 F1200 X111.526 Y106.152 E225.62783
G0 F12000 X110.960 Y106.152
G1 F1200 X109.170 Y104.362 E225.93160
G0 F12000 X108.605 Y104.362
G1 F1200 X110.394 Y106.152 E226.23529
G0 F12000 X109.829 Y106.152
G1 F1200 X108.039 Y104.362 E226.53907
G0 F12000 X107.473 Y104.362
G1 F1200 X109.263 Y106.152 E226.84284
G0 F12000 X108.697 Y106.152
G1 F1200 X106.908 Y104.362 E227.14653
G0 F12000 X106.342 Y104.362
