;FLAVOR:UltiGCode
;TIME:2092
;MATERIAL:3044
;MATERIAL2:0
;NOZZLE_DIAMETER:0.400000
;NOZZLE_DIAMETER2:0.400000

;Layer count: 132
;LAYER:0
M107
G0 F12000 X87.689 Y118.434 Z0.300
;TYPE:SKIRT
G1 F1200 X125.795 Y89.196 E5.76366
G1 X129.811 Y91.176 E6.30097
G1 X129.811 Y127.876 E10.70497
G1 X117.013 Y127.875 E12.24073
G1 X117.013 Y133.686 E12.93805
G1 X91.864 Y133.686 E15.95593
G1 X87.689 Y133.693 E16.45693
G1 X87.689 Y118.434 E18.28801
G0 F12000 X88.089 Y118.631
G1 F1200 X125.842 Y89.665 E23.99819
G1 X129.411 Y91.425 E24.47571
G1 X129.411 Y127.476 E28.80183
G1 X116.613 Y127.475 E30.33759
G1 X116.613 Y133.286 E31.03491
G1 X91.864 Y133.286 E34.00479
G1 X88.089 Y133.293 E34.45780
G1 X88.089 Y118.631 E36.21724
G10
G1 Z0.400
G0 F12000 X92.289 Y120.702
;TYPE:WALL-INNER
G1 Z0.300
G11
G1 F1200 X125.211 Y95.443 E41.19669
G1 X125.211 Y123.276 E44.53665
G1 X112.413 Y123.275 E46.07241
G1 X112.413 Y129.086 E46.76973
G1 X92.289 Y129.086 E49.18461
G1 X92.289 Y120.702 E50.19069
G0 F12000 X91.889 Y120.505
G1 F1200 X125.611 Y94.631 E55.29124
G1 X125.611 Y123.676 E58.77664
G1 X112.813 Y123.675 E60.31240
G1 X112.813 Y129.486 E61.00972
G1 X91.889 Y129.486 E63.52060
G1 X91.889 Y120.505 E64.59832
G0 F12000 X91.489 Y120.308
;TYPE:WALL-OUTER
G1 F1200 X126.011 Y93.821 E69.81981
G1 X126.011 Y124.076 E73.45041
G1 X113.213 Y124.075 E74.98617
G1 X113.213 Y129.886 E75.68349
G1 X91.489 Y129.887 E78.29037
G1 X91.489 Y120.308 E79.43985
G0 F12000 X92.428 Y120.995
;TYPE:SKIN
G1 F1200 X100.378 Y128.945 E80.78901
G0 F12000 X100.943 Y128.945
G1 F1200 X92.621 Y120.623 E82.20130
G0 F12000 X92.942 Y120.377
G1 F1200 X101.509 Y128.945 E83.65525
G0 F12000 X102.075 Y128.945
G1 F1200 X93.261 Y120.131 E85.15104
G0 F12000 X92.428 Y121.561
G1 F1200 X99.812 Y128.945 E86.40414
G0 F12000 X99.246 Y128.945
G1 F1200 X92.428 Y122.127 E87.56120
G0 F12000 X92.428 Y122.692
G1 F1200 X98.680 Y128.945 E88.62228
G0 F12000 X98.115 Y128.945
G1 F1200 X92.428 Y123.258 E89.58740
G0 F12000 X92.428 Y123.824
G1 F1200 X97.549 Y128.945 E90.45646
G0 F12000 X96.983 Y128.945
G1 F1200 X92.428 Y124.389 E91.22955
G0 F12000 X92.428 Y124.955
G1 F1200 X96.418 Y128.945 E91.90668
G0 F12000 X95.852 Y128.945
G1 F1200 X92.428 Y125.521 E92.48775
G0 F12000 X92.428 Y126.087
G1 F1200 X95.286 Y128.945 E92.97277
G0 F12000 X94.721 Y128.945
G1 F1200 X92.428 Y126.652 E93.36190
G0 F12000 X92.428 Y127.218
G1 F1200 X94.155 Y128.945 E93.65499
G0 F12000 X93.589 Y128.945
G1 F1200 X92.428 Y127.784 E93.85201
G0 F12000 X92.428 Y128.349
G1 F1200 X93.024 Y128.945 E93.95316
G0 F12000 X93.582 Y119.886
G1 F1200 X102.640 Y128.945 E95.49044
G0 F12000 X103.206 Y128.945
G1 F1200 X93.902 Y119.641 E97.06938
G0 F12000 X94.222 Y119.395
G1 F1200 X103.772 Y128.945 E98.69007
G0 F12000 X104.337 Y128.945
G1 F1200 X94.542 Y119.149 E100.35242
G0 F12000 X94.862 Y118.904
G1 F1200 X104.903 Y128.945 E102.05643
G0 F12000 X105.469 Y128.945
G1 F1200 X95.182 Y118.658 E103.80219
G0 F12000 X95.502 Y118.412
G1 F1200 X106.034 Y128.945 E105.58962
G0 F12000 X106.600 Y128.945
G1 F1200 X95.822 Y118.167 E107.41871
G0 F12000 X96.143 Y117.922
G1 F1200 X107.166 Y128.945 E109.28937
G0 F12000 X107.731 Y128.945
G1 F1200 X96.462 Y117.676 E111.20178
G0 F12000 X96.783 Y117.430
G1 F1200 X108.297 Y128.945 E113.15586
G0 F12000 X108.863 Y128.945
G1 F1200 X97.103 Y117.185 E115.15160
G0 F12000 X97.423 Y116.939
G1 F1200 X109.429 Y128.945 E117.18908
G0 F12000 X109.994 Y128.945
G1 F1200 X97.743 Y116.693 E119.26823
G0 F12000 X98.063 Y116.448
G1 F1200 X110.560 Y128.945 E121.38904
G0 F12000 X111.126 Y128.945
G1 F1200 X98.384 Y116.203 E123.55143
G0 F12000 X98.703 Y115.957
G1 F1200 X111.691 Y128.945 E125.75557
G0 F12000 X112.257 Y128.945
G1 F1200 X99.023 Y115.711 E128.00145
G0 F12000 X99.344 Y115.466
G1 F1200 X112.273 Y128.395 E130.19558
G0 F12000 X112.273 Y127.829
G1 F1200 X99.663 Y115.220 E132.33548
G0 F12000 X99.984 Y114.974
G1 F1200 X112.273 Y127.263 E134.42099
G0 F12000 X112.273 Y126.697
G1 F1200 X100.304 Y114.729 E136.45211
G0 F12000 X100.624 Y114.483
G1 F1200 X112.273 Y126.132 E138.42902
G0 F12000 X112.273 Y125.566
G1 F1200 X100.944 Y114.238 E140.35153
G0 F12000 X101.264 Y113.992
G1 F1200 X112.273 Y125.000 E142.21973
G0 F12000 X112.273 Y124.435
G1 F1200 X101.584 Y113.746 E144.03371
G0 F12000 X101.904 Y113.501
G1 F1200 X112.273 Y123.869 E145.79331
G0 F12000 X112.273 Y123.303
G1 F1200 X102.225 Y113.255 E147.49851
G0 F12000 X102.545 Y113.010
G1 F1200 X112.668 Y123.134 E149.21652
G0 F12000 X113.234 Y123.134
G1 F1200 X102.864 Y112.764 E150.97637
G0 F12000 X103.185 Y112.519
G1 F1200 X113.800 Y123.134 E152.77780
G0 F12000 X114.366 Y123.134
G1 F1200 X103.505 Y112.273 E154.62097
G0 F12000 X103.825 Y112.027
G1 F1200 X114.931 Y123.134 E156.50580
G0 F12000 X115.497 Y123.134
G1 F1200 X104.145 Y111.782 E158.43230
G0 F12000 X104.465 Y111.536
G1 F1200 X116.063 Y123.134 E160.40055
G0 F12000 X116.628 Y123.134
G1 F1200 X104.785 Y111.290 E162.41046
G0 F12000 X105.105 Y111.045
G1 F1200 X117.194 Y123.134 E164.46203
G0 F12000 X117.760 Y123.134
G1 F1200 X105.426 Y110.800 E166.55518
G0 F12000 X105.745 Y110.554
G1 F1200 X118.325 Y123.134 E168.69007
G0 F12000 X118.892 Y123.134
G1 F1200 X106.066 Y110.308 E170.86672
G0 F12000 X106.386 Y110.063
G1 F1200 X119.457 Y123.134 E173.08494
G0 F12000 X120.023 Y123.134
G1 F1200 X106.706 Y109.817 E175.34491
G0 F12000 X107.026 Y109.571
G1 F1200 X120.589 Y123.134 E177.64663
G0 F12000 X121.154 Y123.134
G1 F1200 X107.346 Y109.326 E179.98992
G0 F12000 X107.666 Y109.081
G1 F1200 X121.720 Y123.134 E182.37488
G0 F12000 X122.286 Y123.134
G1 F1200 X107.986 Y108.835 E184.80159
G0 F12000 X108.306 Y108.589
G1 F1200 X122.852 Y123.134 E187.27004
G0 F12000 X123.417 Y123.134
G1 F1200 X108.627 Y108.344 E189.77999
G0 F12000 X108.946 Y108.098
G1 F1200 X123.983 Y123.134 E192.33177
G0 F12000 X124.549 Y123.134
G1 F1200 X109.267 Y107.852 E194.92521
G0 F12000 X109.587 Y107.607
G1 F1200 X125.070 Y123.090 E197.55276
G0 F12000 X125.070 Y122.524
G1 F1200 X109.907 Y107.361 E200.12601
G0 F12000 X110.227 Y107.116
G1 F1200 X125.070 Y121.958 E202.64486
G0 F12000 X125.070 Y121.393
G1 F1200 X110.547 Y106.870 E205.10950
G0 F12000 X110.867 Y106.625
G1 F1200 X125.070 Y120.827 E207.51974
G0 F12000 X125.070 Y120.261
G1 F1200 X111.187 Y106.379 E209.87568
G0 F12000 X111.507 Y106.133
G1 F1200 X125.070 Y119.696 E212.17740
G0 F12000 X125.070 Y119.130
G1 F1200 X111.828 Y105.888 E214.42464
G0 F12000 X112.147 Y105.642
G1 F1200 X125.070 Y118.564 E216.61766
G0 F12000 X125.070 Y117.999
G1 F1200 X112.468 Y105.397 E218.75629
G0 F12000 X112.788 Y105.151
G1 F1200 X125.070 Y117.433 E220.84061
G0 F12000 X125.070 Y116.867
G1 F1200 X113.108 Y104.905 E222.87063
G0 F12000 X113.428 Y104.660
G1 F1200 X125.070 Y116.302 E224.84635
G0 F12000 X125.070 Y115.736
G1 F1200 X113.748 Y104.414 E226.76775
G0 F12000 X114.068 Y104.168
G1 F1200 X125.070 Y115.170 E228.63485
G0 F12000 X125.070 Y114.605
G1 F1200 X114.388 Y103.923 E230.44765
G0 F12000 X114.708 Y103.678
G1 F1200 X125.070 Y114.039 E232.20605
G0 F12000 X125.070 Y113.473
G1 F1200 X115.029 Y103.432 E233.91007
G0 F12000 X115.348 Y103.186
G1 F1200 X125.070 Y112.907 E235.55986
G0 F12000 X125.070 Y112.342
G1 F1200 X115.669 Y102.941 E237.15526
G0 F12000 X115.989 Y102.695
G1 F1200 X125.070 Y111.776 E238.69636
G0 F12000 X125.070 Y111.210
G1 F1200 X116.309 Y102.449 E240.18315
G0 F12000 X116.629 Y102.204
G1 F1200 X125.070 Y110.645 E241.61564
G0 F12000 X125.070 Y110.079
G1 F1200 X116.949 Y101.959 E242.99373
G0 F12000 X117.269 Y101.713
G1 F1200 X125.070 Y109.513 E244.31752
G0 F12000 X125.070 Y108.948
G1 F1200 X117.589 Y101.467 E245.58709
G0 F12000 X117.910 Y101.222
G1 F1200 X125.070 Y108.382 E246.80218
G0 F12000 X125.070 Y107.816
G1 F1200 X118.229 Y100.976 E247.96305
G0 F12000 X118.549 Y100.730
G1 F1200 X125.070 Y107.251 E249.06970
G0 F12000 X125.070 Y106.685
G1 F1200 X118.870 Y100.485 E250.12188
G0 F12000 X119.189 Y100.239
G1 F1200 X125.070 Y106.119 E251.11983
G0 F12000 X125.070 Y105.554
G1 F1200 X119.510 Y99.994 E252.06339
G0 F12000 X119.830 Y99.748
G1 F1200 X125.070 Y104.988 E252.95265
G0 F12000 X125.070 Y104.422
G1 F1200 X120.150 Y99.503 E253.78752
G0 F12000 X120.470 Y99.257
G1 F1200 X125.070 Y103.857 E254.56817
G0 F12000 X125.070 Y103.291
G1 F1200 X120.790 Y99.011 E255.29451
G0 F12000 X121.111 Y98.766
G1 F1200 X125.070 Y102.725 E255.96637
G0 F12000 X125.070 Y102.159
G1 F1200 X121.430 Y98.520 E256.58401
G0 F12000 X121.751 Y98.275
G1 F1200 X125.070 Y101.594 E257.14727
G0 F12000 X125.070 Y101.028
G1 F1200 X122.071 Y98.029 E257.65621
G0 F12000 X122.390 Y97.783
G1 F1200 X125.070 Y100.462 E258.11094
G0 F12000 X125.070 Y99.897
G1 F1200 X122.711 Y97.538 E258.51128
G0 F12000 X123.031 Y97.292
G1 F1200 X125.070 Y99.331 E258.85731
G0 F12000 X125.070 Y98.765
G1 F1200 X123.351 Y97.046 E259.14903
G0 F12000 X123.671 Y96.801
G1 F1200 X125.070 Y98.200 E259.38645
G0 F12000 X125.070 Y97.634
G1 F1200 X123.991 Y96.556 E259.56947
G0 F12000 X124.312 Y96.310
G1 F1200 X125.070 Y97.068 E259.69811
G0 F12000 X125.070 Y96.503
G1 F1200 X124.791 Y95.941 E259.77246
G1 X125.070 Y95.937 E259.80595
;LAYER:1
M106 S5
G0 F12000 X125.214 Y95.401 Z0.400
;TYPE:WALL-INNER
G1 F1620 X125.214 Y123.243 E260.91684
G1 X112.416 Y123.242 E261.42748
G1 X112.416 Y129.053 E261.65934
G1 X92.286 Y129.053 E262.46253
G1 X92.286 Y120.665 E262.79721
G1 X125.214 Y95.401 E264.45319
G0 F12000 X125.613 Y94.591
G1 F1620 X125.613 Y123.642 E265.61233
G1 X112.815 Y123.641 E266.12297
G1 X112.815 Y129.452 E266.35483
G1 X91.887 Y129.453 E267.18985
G1 X91.887 Y120.467 E267.54839
G1 X125.613 Y94.591 E269.24450
G0 F12000 X126.012 Y93.783
;TYPE:WALL-OUTER
G1 F1620 X126.012 Y124.041 E270.45180
G1 X113.214 Y124.040 E270.96244
G1 X113.214 Y129.851 E271.19429
G1 X91.488 Y129.852 E272.06116
G1 X91.488 Y120.271 E272.44344
G1 X126.012 Y93.783 E274.17968
G10
G1 Z0.500
G0 F12000 X125.073 Y95.839
;TYPE:SKIN
G1 Z0.400
G11
G1 F1620 X92.425 Y128.486 E276.02188
G0 F12000 X92.564 Y128.912
G1 F1620 X125.073 Y96.404 E277.85624
G0 F12000 X125.073 Y96.968
G1 F1620 X93.128 Y128.912 E279.65878
G0 F12000 X93.693 Y128.912
G1 F1620 X125.073 Y97.532 E281.42946
G0 F12000 X125.073 Y98.096
G1 F1620 X94.257 Y128.912 E283.16832
G0 F12000 X94.821 Y128.912
G1 F1620 X125.073 Y98.661 E284.87532
G0 F12000 X125.073 Y99.225
G1 F1620 X95.385 Y128.912 E286.55050
G0 F12000 X95.950 Y128.912
G1 F1620 X125.073 Y99.789 E288.19383
G0 F12000 X123.312 Y97.036
G1 F1620 X92.425 Y127.922 E289.93667
G0 F12000 X92.425 Y127.358
G1 F1620 X120.888 Y98.895 E291.54275
G0 F12000 X118.464 Y100.755
G1 F1620 X92.425 Y126.794 E293.01206
G0 F12000 X92.425 Y126.229
G1 F1620 X116.040 Y102.615 E294.34456
G0 F12000 X113.616 Y104.475
G1 F1620 X92.425 Y125.665 E295.54028
G0 F12000 X92.425 Y125.101
G1 F1620 X111.192 Y106.334 E296.59924
G0 F12000 X108.768 Y108.194
G1 F1620 X92.425 Y124.537 E297.52143
G0 F12000 X92.425 Y123.972
G1 F1620 X106.344 Y110.054 E298.30681
G0 F12000 X103.920 Y111.913
G1 F1620 X92.425 Y123.408 E298.95544
G0 F12000 X92.425 Y122.844
G1 F1620 X101.496 Y113.773 E299.46729
G0 F12000 X99.072 Y115.633
G1 F1620 X92.425 Y122.279 E299.84234
G0 F12000 X92.425 Y121.715
G1 F1620 X96.648 Y117.492 E300.08063
G0 F12000 X94.224 Y119.352
G1 F1620 X92.425 Y121.151 E300.18214
G0 F12000 X96.514 Y128.912
G1 F1620 X125.073 Y100.354 E301.79361
G0 F12000 X125.073 Y100.918
G1 F1620 X97.078 Y128.912 E303.37326
G0 F12000 X97.642 Y128.912
G1 F1620 X125.073 Y101.482 E304.92109
G0 F12000 X125.073 Y102.046
G1 F1620 X98.207 Y128.912 E306.43706
G0 F12000 X98.771 Y128.912
G1 F1620 X125.073 Y102.611 E307.92118
G0 F12000 X125.073 Y103.175
G1 F1620 X99.335 Y128.912 E309.37347
G0 F12000 X99.900 Y128.912
G1 F1620 X125.073 Y103.739 E310.79391
G0 F12000 X125.073 Y104.303
G1 F1620 X100.464 Y128.912 E312.18252
G0 F12000 X101.028 Y128.912
G1 F1620 X125.073 Y104.868 E313.53929
G0 F12000 X125.073 Y105.432
G1 F1620 X101.592 Y128.912 E314.86422
G0 F12000 X102.157 Y128.912
G1 F1620 X125.073 Y105.996 E316.15731
G0 F12000 X125.073 Y106.560
G1 F1620 X102.721 Y128.912 E317.41857
G0 F12000 X103.285 Y128.912
G1 F1620 X125.073 Y107.125 E318.64797
G0 F12000 X125.073 Y107.689
G1 F1620 X103.849 Y128.912 E319.84555
G0 F12000 X104.414 Y128.912
G1 F1620 X125.073 Y108.253 E321.01128
G0 F12000 X125.073 Y108.818
G1 F1620 X104.978 Y128.912 E322.14516
G0 F12000 X105.542 Y128.912
G1 F1620 X125.073 Y109.382 E323.24721
G0 F12000 X125.073 Y109.946
G1 F1620 X106.107 Y128.912 E324.31740
G0 F12000 X106.671 Y128.912
G1 F1620 X112.275 Y123.308 E324.63362
G0 F12000 X112.481 Y123.102
G1 F1620 X125.073 Y110.510 E325.34415
G0 F12000 X125.073 Y111.075
G1 F1620 X113.045 Y123.102 E326.02283
G0 F12000 X113.610 Y123.102
G1 F1620 X125.073 Y111.639 E326.66965
G0 F12000 X125.073 Y112.203
G1 F1620 X114.174 Y123.102 E327.28465
G0 F12000 X114.738 Y123.102
G1 F1620 X125.073 Y112.767 E327.86782
G0 F12000 X125.073 Y113.332
G1 F1620 X115.302 Y123.102 E328.41915
G0 F12000 X115.867 Y123.102
G1 F1620 X125.073 Y113.896 E328.93861
G0 F12000 X125.073 Y114.460
G1 F1620 X116.431 Y123.102 E329.42626
G0 F12000 X116.995 Y123.102
G1 F1620 X125.073 Y115.025 E329.88205
G0 F12000 X125.073 Y115.589
G1 F1620 X117.560 Y123.102 E330.30598
G0 F12000 X118.124 Y123.102
G1 F1620 X125.073 Y116.153 E330.69810
G0 F12000 X125.073 Y116.717
G1 F1620 X118.687 Y123.103 E331.05844
G0 F12000 X119.252 Y123.103
G1 F1620 X125.073 Y117.282 E331.38690
G0 F12000 X125.073 Y117.846
G1 F1620 X119.816 Y123.103 E331.68354
G0 F12000 X112.275 Y123.872
G1 F1620 X107.235 Y128.912 E331.96793
G0 F12000 X107.799 Y128.912
G1 F1620 X112.275 Y124.436 E332.22050
G0 F12000 X112.275 Y125.000
G1 F1620 X108.364 Y128.912 E332.44121
G0 F12000 X108.928 Y128.912
G1 F1620 X112.275 Y125.565 E332.63008
G0 F12000 X112.275 Y126.129
G1 F1620 X109.492 Y128.912 E332.78711
G0 F12000 X110.056 Y128.912
G1 F1620 X112.275 Y126.693 E332.91232
G0 F12000 X112.275 Y127.258
G1 F1620 X110.621 Y128.912 E333.00566
G0 F12000 X111.185 Y128.912
G1 F1620 X112.275 Y127.822 E333.06716
G0 F12000 X112.275 Y128.386
G1 F1620 X111.749 Y128.912 E333.09684
G0 F12000 X112.873 Y123.699
G0 X120.380 Y123.103
G1 F1620 X125.073 Y118.410 E333.36165
G0 F12000 X125.073 Y118.974
G1 F1620 X120.944 Y123.103 E333.59464
G0 F12000 X121.509 Y123.103
G1 F1620 X125.073 Y119.539 E333.79575
G0 F12000 X125.073 Y120.103
G1 F1620 X122.073 Y123.103 E333.96503
G0 F12000 X122.637 Y123.103
G1 F1620 X125.073 Y120.667 E334.10249
G0 F12000 X125.073 Y121.232
G1 F1620 X123.202 Y123.103 E334.20806
G0 F12000 X123.766 Y123.103
G1 F1620 X125.073 Y121.796 E334.28181
G0 F12000 X125.073 Y122.360
G1 F1620 X124.330 Y123.103 E334.32374
G0 F12000 X124.894 Y123.103
G1 F1620 X125.073 Y122.924 E334.33384
;LAYER:2
M106 S10
G0 F12000 X125.214 Y123.207 Z0.500
;TYPE:WALL-INNER
G1 F2100 X112.416 Y123.206 E334.84448
G1 X112.416 Y129.017 E335.07634
G1 X92.286 Y129.018 E335.87952
G1 X92.286 Y120.629 E336.21424
G1 X125.214 Y95.365 E337.87023
G1 X125.214 Y123.207 E338.98112
G0 F12000 X125.613 Y123.606
G1 F2100 X112.815 Y123.605 E339.49176
G1 X112.815 Y129.416 E339.72362
G1 X91.887 Y129.417 E340.55865
G1 X91.887 Y120.431 E340.91719
G1 X125.613 Y94.555 E342.61330
G1 X125.613 Y123.606 E343.77243
G0 F12000 X126.012 Y124.005
;TYPE:WALL-OUTER
G1 F2100 X113.214 Y124.004 E344.28307
G1 X113.214 Y129.815 E344.51493
G1 X91.488 Y129.816 E345.38180
G1 X91.488 Y120.235 E345.76408
G1 X126.012 Y93.747 E347.50031
G1 X126.012 Y124.005 E348.70761
G0 F12000 X125.040 Y123.066
;TYPE:SKIN
G1 F2100 X109.541 Y107.567 E349.58217
G0 F12000 X109.221 Y107.811
G1 F2100 X124.476 Y123.066 E350.44297
G0 F12000 X123.911 Y123.066
G1 F2100 X108.902 Y108.057 E351.28988
G0 F12000 X108.583 Y108.301
G1 F2100 X123.347 Y123.066 E352.12300
G0 F12000 X122.783 Y123.066
