;FLAVOR:UltiGCode
;TIME:13728
;MATERIAL:12298
;MATERIAL2:0
;NOZZLE_DIAMETER:0.400000
;NOZZLE_DIAMETER2:0.400000

;Layer count: 98
;LAYER:0
M106 S255
G0 F12000 X3.962 Y75.169 Z0.300
;TYPE:SKIRT
G1 F1200 X104.823 Y2.818 E14.89529
G1 X219.140 Y200.823 E42.33159
G1 X215.774 Y202.764 E42.79785
G1 X187.945 Y218.831 E46.65395
G1 X55.144 Y163.815 E63.90345
G1 X44.005 Y144.522 E66.57678
G1 X43.560 Y143.753 E66.68339
G1 X41.852 Y140.765 E67.09640
G1 X80.414 Y119.608 E72.37455
G1 X74.827 Y109.934 E73.71513
G1 X40.084 Y131.014 E78.59168
G1 X37.234 Y132.795 E78.99497
G1 X3.962 Y75.169 E86.97996
G10
G1 Z0.400
G0 F12000 X9.502 Y76.363
;TYPE:WALL-INNER
G1 Z0.300
G11
G1 F1200 X103.504 Y8.934 E100.86217
G1 X213.402 Y199.284 E127.23780
G1 X189.851 Y212.882 E130.50117
G1 X189.993 Y212.538 E130.54583
G1 X190.079 Y211.889 E130.62439
G1 X189.993 Y211.240 E130.70295
G1 X189.742 Y210.634 E130.78166
G1 X189.518 Y210.343 E130.82573
G1 X191.107 Y211.001 E131.03211
G1 X207.396 Y201.597 E133.28916
G1 X205.863 Y198.941 E133.65716
G1 X205.498 Y198.312 E133.74442
G1 X162.305 Y186.739 E139.11041
G1 X158.787 Y199.872 E140.74193
G1 X160.212 Y200.461 E140.92696
G1 X159.893 Y201.505 E141.05796
G1 X183.947 Y211.471 E144.18238
G1 X185.398 Y210.633 E144.38345
G1 X185.147 Y211.240 E144.46228
G1 X185.061 Y211.889 E144.54084
G1 X185.147 Y212.538 E144.61940
G1 X185.397 Y213.143 E144.69795
G1 X185.494 Y213.269 E144.71703
G1 X124.003 Y187.795 E152.70408
G1 X124.454 Y187.680 E152.75993
G1 X125.025 Y187.357 E152.83866
G1 X125.492 Y186.898 E152.91723
G1 X125.824 Y186.333 E152.99587
G1 X126.000 Y185.704 E153.07425
G1 X126.006 Y185.049 E153.15286
G1 X125.842 Y184.413 E153.23167
G1 X125.520 Y183.843 E153.31023
G1 X125.061 Y183.377 E153.38872
G1 X125.036 Y183.362 E153.39222
G1 X125.554 Y183.540 E153.45795
G1 X126.591 Y185.335 E153.70671
G1 X126.018 Y187.471 E153.97209
G1 X154.334 Y199.201 E157.65003
G1 X154.653 Y198.158 E157.78091
G1 X157.848 Y199.483 E158.19597
G1 X158.551 Y196.886 E158.51883
G1 X161.340 Y186.480 E159.81162
G1 X117.301 Y174.680 E165.28272
G1 X115.089 Y182.938 E166.30861
G1 X120.266 Y185.118 E166.98268
G1 X121.356 Y183.070 E167.26109
G1 X122.754 Y182.581 E167.43881
G1 X123.585 Y182.865 E167.54419
G1 X123.212 Y182.862 E167.58896
G1 X122.577 Y183.026 E167.66766
G1 X122.008 Y183.348 E167.74611
G1 X121.540 Y183.806 E167.82469
G1 X121.206 Y184.372 E167.90355
G1 X121.032 Y184.995 E167.98117
G1 X121.026 Y185.656 E168.06050
G1 X121.190 Y186.290 E168.13908
G1 X121.440 Y186.733 E168.20012
G1 X58.068 Y160.480 E176.43148
G1 X47.622 Y142.390 E178.93821
G1 X86.197 Y121.224 E184.21825
G1 X76.319 Y104.116 E186.58885
G1 X38.703 Y126.940 E191.86871
G1 X9.502 Y76.363 E198.87689
G0 F12000 X11.374 Y76.243
G1 F1200 X25.553 Y100.804 E202.28008
G1 X30.278 Y102.089 E202.86767
G1 X42.386 Y55.623 E208.62979
G1 X41.228 Y54.828 E208.79835
G1 X11.374 Y76.243 E213.20721
G0 F12000 X25.827 Y100.448
G0 X29.950 Y101.524
G0 X31.243 Y102.352
G1 F1200 X58.736 Y109.836 E216.62642
G1 X79.880 Y97.006 E219.59427
G1 X89.327 Y61.749 E223.97436
G1 X49.083 Y50.966 E228.97398
G1 X43.609 Y54.891 E229.78227
G1 X31.243 Y102.352 E235.66774
G0 F12000 X30.990 Y103.320
G1 F1200 X29.752 Y108.075 E236.25736
G1 X38.023 Y122.401 E238.24242
G1 X55.490 Y111.805 E240.69398
G1 X56.130 Y111.415 E240.78392
G1 X55.944 Y110.112 E240.94186
G1 X30.990 Y103.320 E244.04528
G0 F12000 X30.197 Y108.014
G0 X38.187 Y121.763
G0 X76.155 Y104.754
G0 X85.563 Y121.046
G0 X51.214 Y145.250
G1 F1200 X58.514 Y157.893 E245.79718
G1 X63.227 Y159.155 E246.38266
G1 X69.230 Y136.753 E249.16575
G1 X68.191 Y135.938 E249.32421
G1 X51.214 Y145.250 E251.64779
G0 F12000 X58.789 Y157.536
G0 X62.903 Y158.593
G0 X64.192 Y159.414
G1 F1200 X116.594 Y173.455 E258.15785
G1 X128.394 Y129.416 E263.62895
G1 X95.930 Y120.717 E267.66206
G1 X70.880 Y134.462 E271.09084
G1 X64.192 Y159.414 E274.19078
G0 F12000 X71.236 Y134.741
G0 X85.563 Y121.046
G0 X82.076 Y112.889
G1 F1200 X82.531 Y113.011 E274.24730
G1 X83.018 Y113.044 E274.30588
G1 X83.481 Y112.986 E274.36187
G1 X83.917 Y112.852 E274.41661
G1 X84.448 Y112.548 E274.49003
G1 X84.818 Y112.206 E274.55049
G1 X85.145 Y111.740 E274.61881
G1 X85.251 Y111.513 E274.64887
G1 X85.385 Y111.112 E274.69961
G1 X85.444 Y110.677 E274.75228
G1 X85.447 Y110.443 E274.78037
G1 X85.396 Y110.019 E274.83161
G1 X85.254 Y109.568 E274.88835
G1 X85.023 Y109.143 E274.94640
G1 X84.743 Y108.799 E274.99962
G1 X84.465 Y108.550 E275.04441
G1 X83.978 Y108.258 E275.11255
G1 X83.518 Y108.103 E275.17080
G1 X83.082 Y108.044 E275.22360
G1 X82.862 Y108.041 E275.25000
G1 X82.428 Y108.092 E275.30244
G1 X81.948 Y108.250 E275.36308
G1 X81.653 Y108.398 E275.40268
G1 X81.192 Y108.750 E275.47229
G1 X80.830 Y109.203 E275.54187
G1 X80.647 Y109.550 E275.58895
G1 X80.477 Y110.109 E275.65906
G1 X80.443 Y110.594 E275.71740
G1 X80.496 Y111.063 E275.77404
G1 X80.639 Y111.515 E275.83093
G1 X80.878 Y111.956 E275.89112
G1 X81.261 Y112.394 E275.96094
G1 X81.661 Y112.691 E276.02073
G1 X82.076 Y112.889 E276.07590
G0 F12000 X87.108 Y112.759
G1 F1200 X89.699 Y117.248 E276.69788
G1 X90.223 Y118.153 E276.82337
G1 X128.653 Y128.450 E281.59764
G1 X140.778 Y83.199 E287.21931
G1 X139.718 Y82.386 E287.37962
G1 X87.108 Y112.759 E294.66939
G0 F12000 X83.107 Y105.833
G1 F1200 X134.987 Y75.880 E301.85810
G1 X135.718 Y75.457 E301.95944
G1 X135.543 Y74.133 E302.11971
G1 X90.293 Y62.007 E307.74130
G1 X79.994 Y100.441 E312.51609
G1 X83.107 Y105.833 E313.26322
G0 F12000 X80.440 Y100.382
G0 X90.551 Y61.042
G1 F1200 X135.803 Y73.167 E318.88502
G1 X136.616 Y72.107 E319.04532
G1 X104.499 Y16.478 E326.75348
G1 X102.636 Y17.553 E327.01158
G1 X102.125 Y17.849 E327.08245
G1 X90.551 Y61.042 E332.44847
G0 F12000 X89.586 Y60.783
G1 F1200 X101.159 Y17.590 E337.81445
G1 X98.811 Y13.523 E338.37799
G1 X49.539 Y48.867 E345.65451
G1 X49.766 Y50.113 E345.80649
G1 X89.586 Y60.783 E350.75346
G0 F12000 X135.151 Y74.478
G0 X135.249 Y75.227
G0 X141.744 Y83.458
G1 F1200 X129.619 Y128.709 E356.37514
G1 X173.658 Y140.509 E361.84623
G1 X174.435 Y137.610 E362.20639
G1 X143.069 Y83.283 E369.73418
G1 X141.744 Y83.458 E369.89456
G0 F12000 X129.360 Y129.675
G1 F1200 X117.560 Y173.714 E375.36566
G1 X161.599 Y185.514 E380.83675
G1 X173.399 Y141.475 E386.30785
G1 X129.360 Y129.675 E391.77895
G0 F12000 X174.365 Y141.735
G1 F1200 X162.565 Y185.773 E397.24993
G1 X205.758 Y197.346 E402.61591
G1 X207.114 Y196.564 E402.80375
G1 X208.131 Y195.975 E402.94478
G1 X177.264 Y142.510 E410.35305
G1 X174.365 Y141.735 E410.71314
G0 F12000 X161.275 Y184.952
G0 X116.335 Y174.421
G1 F1200 X68.393 Y161.575 E416.66913
G1 X67.791 Y163.348 E416.89382
G1 X114.155 Y182.557 E422.91611
G1 X116.335 Y174.421 E423.92686
G0 F12000 X115.845 Y174.704
G1 F1200 X68.651 Y162.058 E429.78994
G1 X68.290 Y163.122 E429.92477
G1 X113.887 Y182.013 E435.84741
G1 X115.845 Y174.704 E436.75542
G0 F12000 X117.584 Y175.170
G1 F1200 X115.565 Y182.705 E437.69152
G1 X120.084 Y184.608 E438.27992
G1 X121.076 Y182.743 E438.53341
G1 X122.752 Y182.158 E438.74643
G1 X125.826 Y183.210 E439.13631
G1 X127.020 Y185.279 E439.42297
G1 X126.495 Y187.236 E439.66611
G1 X154.081 Y198.663 E443.24920
G1 X154.400 Y197.620 E443.38008
G1 X157.581 Y198.939 E443.79332
G1 X158.164 Y196.782 E444.06144
G1 X160.850 Y186.763 E445.30618
G1 X117.584 Y175.170 E450.68125
G0 F12000 X118.050 Y173.431
G1 F1200 X161.316 Y185.024 E456.05632
G1 X172.909 Y141.758 E461.43139
G1 X129.643 Y130.165 E466.80645
G1 X118.050 Y173.431 E472.18152
G0 F12000 X116.311 Y172.965
G1 F1200 X127.904 Y129.699 E477.55659
G1 X95.982 Y121.145 E481.52238
G1 X71.222 Y134.730 E484.91142
G1 X64.682 Y159.131 E487.94288
G1 X116.311 Y172.965 E494.35692
G0 F12000 X115.624 Y182.676
G0 X120.061 Y184.540
G0 X122.250 Y183.670
G1 F1200 X121.858 Y184.055 E494.42285
G1 X121.577 Y184.529 E494.48897
G1 X121.432 Y185.054 E494.55433
G1 X121.426 Y185.607 E494.62070
G1 X121.564 Y186.139 E494.68665
G1 X121.833 Y186.618 E494.75257
G1 X122.219 Y187.011 E494.81868
G1 X122.692 Y187.290 E494.88458
G1 X123.222 Y187.437 E494.95058
G1 X123.771 Y187.442 E495.01646
G1 X124.303 Y187.305 E495.08238
G1 X124.782 Y187.034 E495.14842
G1 X125.174 Y186.650 E495.21427
G1 X125.453 Y186.176 E495.28027
G1 X125.600 Y185.647 E495.34616
G1 X125.606 Y185.098 E495.41204
G1 X125.468 Y184.564 E495.47823
G1 X125.197 Y184.086 E495.54417
G1 X124.813 Y183.694 E495.61002
G1 X124.340 Y183.415 E495.67591
G1 X123.811 Y183.268 E495.74180
G1 X123.261 Y183.262 E495.80780
G1 X122.728 Y183.400 E495.87387
G1 X122.250 Y183.670 E495.93975
G0 F12000 X123.811 Y183.270
G0 X125.195 Y184.087
G0 X126.555 Y187.206
G0 X154.039 Y198.574
G0 X159.264 Y199.636
G1 F1200 X160.701 Y200.230 E496.12634
G1 X160.382 Y201.275 E496.25746
G1 X183.918 Y211.026 E499.31457
G1 X187.383 Y209.025 E499.79473
G1 X191.078 Y210.556 E500.27468
G1 X206.850 Y201.451 E502.46005
G1 X205.235 Y198.656 E502.84742
G1 X162.588 Y187.229 E508.14558
G1 X159.264 Y199.636 E509.68693
G0 F12000 X163.055 Y185.490
G1 F1200 X205.702 Y196.917 E514.98509
G1 X207.586 Y195.830 E515.24610
G1 X177.000 Y142.854 E522.58669
G1 X174.648 Y142.224 E522.87888
G1 X163.055 Y185.490 E528.25395
G0 F12000 X205.225 Y198.670
G0 X206.769 Y201.428
G0 X191.076 Y210.533
G0 X187.379 Y209.002
G0 X186.081 Y210.400
G1 F1200 X185.747 Y210.837 E528.31995
G1 X185.536 Y211.344 E528.38585
G1 X185.465 Y211.889 E528.45180
G1 X185.536 Y212.434 E528.51776
G1 X185.747 Y212.941 E528.58365
G1 X186.081 Y213.378 E528.64966
G1 X186.518 Y213.712 E528.71566
G1 X187.025 Y213.923 E528.78156
G1 X187.570 Y213.994 E528.84751
G1 X188.115 Y213.923 E528.91346
G1 X188.623 Y213.712 E528.97947
G1 X189.058 Y213.378 E529.04529
G1 X189.393 Y212.942 E529.11127
G1 X189.604 Y212.434 E529.17728
G1 X189.675 Y211.889 E529.24323
G1 X189.604 Y211.344 E529.30918
G1 X189.393 Y210.836 E529.37519
G1 X189.058 Y210.400 E529.44117
G1 X188.623 Y210.066 E529.50698
G1 X188.115 Y209.855 E529.57299
G1 X187.570 Y209.784 E529.63894
G1 X187.025 Y209.855 E529.70490
G1 X186.518 Y210.066 E529.77080
G1 X186.081 Y210.400 E529.83680
G0 F12000 X187.379 Y209.002
G0 X191.076 Y210.533
G0 X206.769 Y201.428
G0 X205.225 Y198.670
G0 X163.127 Y185.449
G0 X173.375 Y140.019
G1 F1200 X174.006 Y137.666 E530.12913
G1 X142.856 Y83.715 E537.60489
G1 X142.061 Y83.819 E537.70110
G1 X130.109 Y128.426 E543.24276
G1 X173.375 Y140.019 E548.61782
G0 F12000 X128.370 Y127.960
G1 F1200 X140.322 Y83.354 E554.15936
G1 X139.686 Y82.866 E554.25556
G1 X87.654 Y112.905 E561.46522
G1 X90.486 Y117.809 E562.14478
G1 X128.370 Y127.960 E566.85123
G0 F12000 X90.496 Y117.796
G0 X87.735 Y112.928
G0 X84.879 Y111.364
G1 F1200 X84.994 Y111.021 E566.89464
G1 X85.045 Y110.648 E566.93982
G1 X85.046 Y110.465 E566.96178
G1 X85.003 Y110.103 E567.00553
G1 X84.884 Y109.725 E567.05308
G1 X84.690 Y109.367 E567.10194
G1 X84.453 Y109.076 E567.14698
G1 X84.226 Y108.874 E567.18344
G1 X83.809 Y108.623 E567.24185
G1 X83.426 Y108.494 E567.29034
G1 X83.053 Y108.443 E567.33552
G1 X82.883 Y108.442 E567.35592
G1 X82.511 Y108.485 E567.40086
G1 X82.115 Y108.613 E567.45080
G1 X81.866 Y108.738 E567.48423
G1 X81.474 Y109.038 E567.54347
G1 X81.166 Y109.424 E567.60273
G1 X81.018 Y109.703 E567.64063
G1 X80.873 Y110.182 E567.70068
G1 X80.845 Y110.586 E567.74928
G1 X80.889 Y110.979 E567.79673
G1 X81.009 Y111.358 E567.84444
G1 X81.208 Y111.727 E567.89475
G1 X81.534 Y112.099 E567.95410
G1 X81.868 Y112.346 E568.00395
G1 X82.215 Y112.512 E568.05011
G1 X82.597 Y112.615 E568.09759
G1 X83.007 Y112.643 E568.14690
G1 X83.397 Y112.594 E568.19407
G1 X83.757 Y112.483 E568.23928
G1 X84.210 Y112.223 E568.30195
G1 X84.515 Y111.941 E568.35180
G1 X84.797 Y111.539 E568.41073
G1 X84.879 Y111.364 E568.43392
G0 F12000 X84.883 Y109.726
G0 X83.254 Y105.286
G1 F1200 X135.286 Y75.245 E575.64370
G1 X135.182 Y74.450 E575.73992
G1 X90.576 Y62.497 E581.28149
G1 X80.423 Y100.384 E585.98834
G1 X83.254 Y105.286 E586.66763
G0 F12000 X80.440 Y100.382
G0 X79.535 Y96.748
G1 F1200 X88.837 Y62.032 E590.98051
G1 X49.162 Y51.401 E595.90946
G1 X43.960 Y55.132 E596.67766
G1 X31.730 Y102.070 E602.49828
G1 X58.675 Y109.405 E605.84934
G1 X79.535 Y96.748 E608.77729
G0 F12000 X58.672 Y109.387
G0 X55.585 Y110.429
G1 F1200 X31.275 Y103.812 E611.80063
G1 X30.180 Y108.017 E612.32205
G1 X38.165 Y121.847 E614.23841
G1 X55.282 Y111.464 E616.64080
G1 X55.697 Y111.210 E616.69919
G1 X55.585 Y110.429 E616.79387
G0 F12000 X29.993 Y101.597
G1 F1200 X41.928 Y55.794 E622.47376
G1 X41.233 Y55.317 E622.57491
G1 X11.902 Y76.357 E626.90655
G1 X25.817 Y100.461 E630.24641
G1 X29.993 Y101.597 E630.76574
G0 F12000 X30.197 Y108.014
G0 X38.561 Y127.493
G1 F1200 X8.975 Y76.249 E637.86633
G1 X103.629 Y8.352 E651.84485
G1 X213.948 Y199.430 E678.32140
G1 X187.668 Y214.603 E681.96288
G1 X57.790 Y160.798 E698.83271
G1 X47.072 Y142.235 E701.40491
G1 X85.646 Y121.070 E706.68479
G1 X76.177 Y104.670 E708.95727
G1 X38.561 Y127.493 E714.23707
G0 F12000 X76.155 Y104.754
G0 X85.563 Y121.046
G0 X51.765 Y145.404
G1 F1200 X58.778 Y157.549 E715.91999
G1 X62.944 Y158.665 E716.43754
G1 X68.775 Y136.905 E719.14087
G1 X68.152 Y136.415 E719.23598
G1 X51.765 Y145.404 E721.47884
G0 F12000 X85.563 Y121.046
G0 X76.155 Y104.754
G0 X79.523 Y96.739
G0 X88.765 Y62.073
G0 X89.303 Y60.293
G1 F1200 X100.730 Y17.646 E726.77701
G1 X98.685 Y14.105 E727.26770
G1 X49.978 Y49.045 E734.46087
G1 X50.114 Y49.792 E734.55198
G1 X89.303 Y60.293 E739.42057
G0 F12000 X91.041 Y60.759
G1 F1200 X135.648 Y72.711 E744.96222
G1 X136.136 Y72.075 E745.05842
G1 X104.353 Y17.025 E752.68636
G1 X102.469 Y18.112 E752.94738
G1 X91.041 Y60.759 E758.24557
G0 F12000 X91.531 Y60.476
;TYPE:WALL-OUTER
G1 F1200 X135.493 Y72.256 E763.70712
G1 X135.656 Y72.044 E763.73921
G1 X104.206 Y17.571 E771.28721
G1 X102.812 Y18.375 E771.48032
G1 X91.531 Y60.476 E776.71066
G0 F12000 X91.242 Y60.400
G0 X90.936 Y62.698
G0 X90.859 Y62.987
G1 F1200 X80.852 Y100.327 E781.34958
G1 X83.400 Y104.740 E781.96107
G1 X134.855 Y75.032 E789.09091
G1 X134.820 Y74.767 E789.12299
G1 X90.859 Y62.987 E794.58443
G0 F12000 X90.936 Y62.698
G0 X88.636 Y62.391
G0 X88.347 Y62.315
G1 F1200 X49.241 Y51.836 E799.44270
G1 X44.311 Y55.373 E800.17081
G1 X32.217 Y101.788 E805.92658
G1 X58.614 Y108.974 E809.20950
G1 X79.190 Y96.489 E812.09760
G1 X88.347 Y62.315 E816.34315
G0 F12000 X88.636 Y62.391
G0 X88.942 Y60.091
G0 X89.020 Y59.803
G1 F1200 X100.301 Y17.703 E821.57338
G1 X98.560 Y14.688 E821.99116
G1 X50.417 Y49.222 E829.10094
G1 X50.462 Y49.471 E829.13131
G1 X89.020 Y59.803 E833.92150
G0 F12000 X88.942 Y60.091
G0 X88.765 Y62.073
G0 X79.523 Y96.739
G0 X76.294 Y105.073
G0 X76.035 Y105.224
G1 F1200 X38.419 Y128.048 E839.20136
G1 X8.447 Y76.136 E846.39454
G1 X103.755 Y7.769 E860.46970
G1 X214.495 Y199.577 E887.04738
G1 X187.698 Y215.048 E890.76046
G1 X57.511 Y161.115 E907.67043
G1 X46.521 Y142.081 E910.30790
G1 X85.095 Y120.916 E915.58778
G1 X76.035 Y105.224 E917.76214
G0 F12000 X76.294 Y105.073
G0 X81.268 Y109.457
G0 X81.502 Y109.644
G1 F1200 X81.390 Y109.856 E917.79091
G1 X81.269 Y110.255 E917.84094
G1 X81.246 Y110.577 E917.87968
G1 X81.282 Y110.896 E917.91820
G1 X81.379 Y111.201 E917.95661
G1 X81.539 Y111.497 E917.99699
G1 X81.807 Y111.803 E918.04580
G1 X82.075 Y112.002 E918.08586
G1 X82.354 Y112.135 E918.12295
G1 X82.663 Y112.218 E918.16134
G1 X82.996 Y112.241 E918.20140
G1 X83.312 Y112.201 E918.23962
G1 X83.596 Y112.114 E918.27526
G1 X83.972 Y111.898 E918.32730
G1 X84.212 Y111.676 E918.36653
G1 X84.450 Y111.338 E918.41613
G1 X84.603 Y110.930 E918.46842
G1 X84.645 Y110.619 E918.50608
G1 X84.646 Y110.487 E918.52192
G1 X84.610 Y110.188 E918.55806
G1 X84.514 Y109.882 E918.59655
G1 X84.356 Y109.590 E918.63639
G1 X84.163 Y109.353 E918.67306
