;FLAVOR:UltiGCode
;TIME:13742
;MATERIAL:12299
;MATERIAL2:0
;NOZZLE_DIAMETER:0.400000
;NOZZLE_DIAMETER2:0.400000

;Layer count: 98
;LAYER:0
M106 S255
G0 F12000 X75.167 Y3.961 Z0.300
;TYPE:SKIRT
G1 F1200 X129.015 Y35.051 E7.46145
G1 X129.774 Y35.490 E7.56667
G1 X132.768 Y37.201 E7.98048
G1 X130.714 Y40.578 E8.45479
G1 X129.219 Y43.043 E8.80074
G1 X128.553 Y44.139 E8.95464
G1 X128.554 Y44.139 E8.95476
G1 X127.765 Y45.439 E9.13724
G1 X109.934 Y74.827 E13.26217
G1 X119.608 Y80.413 E14.60268
G1 X136.427 Y49.758 E18.79858
G1 X137.777 Y47.300 E19.13510
G1 X139.077 Y44.932 E19.45926
G1 X139.076 Y44.932 E19.45938
G1 X140.758 Y41.832 E19.88261
G1 X163.814 Y55.143 E23.07732
G1 X218.832 Y187.944 E40.32691
G1 X216.500 Y191.985 E40.88679
G1 X215.988 Y192.870 E41.00948
G1 X200.821 Y219.139 E44.64945
G1 X2.819 Y104.823 E72.08538
G1 X75.167 Y3.961 E86.98056
G10
G1 Z0.400
G0 F12000 X76.363 Y9.501
;TYPE:WALL-INNER
G1 Z0.300
G11
G1 F1200 X126.939 Y38.703 E93.98869
G1 X104.117 Y76.318 E99.26832
G1 X121.225 Y86.196 E101.63892
G1 X142.390 Y47.624 E106.91859
G1 X160.479 Y58.067 E109.42503
G1 X186.734 Y121.440 E117.65660
G1 X186.290 Y121.190 E117.71774
G1 X185.656 Y121.026 E117.79633
G1 X185.002 Y121.032 E117.87481
G1 X184.397 Y121.191 E117.94987
G1 X183.806 Y121.540 E118.03224
G1 X183.348 Y122.008 E118.11082
G1 X183.026 Y122.577 E118.18927
G1 X182.862 Y123.212 E118.26797
G1 X182.865 Y123.585 E118.31273
G1 X182.581 Y122.754 E118.41812
G1 X183.070 Y121.356 E118.59584
G1 X185.118 Y120.266 E118.87424
G1 X182.939 Y115.088 E119.54838
G1 X174.680 Y117.301 E120.57442
G1 X186.480 Y161.340 E126.04552
G1 X199.484 Y157.856 E127.66103
G1 X198.158 Y154.655 E128.07681
G1 X199.203 Y154.338 E128.20785
G1 X187.471 Y126.018 E131.88632
G1 X185.335 Y126.591 E132.15170
G1 X183.540 Y125.554 E132.40046
G1 X183.362 Y125.036 E132.46619
G1 X183.377 Y125.061 E132.46969
G1 X183.843 Y125.520 E132.54818
G1 X184.413 Y125.842 E132.62674
G1 X185.049 Y126.006 E132.70556
G1 X185.704 Y126.000 E132.78416
G1 X186.332 Y125.824 E132.86242
G1 X186.898 Y125.492 E132.94116
G1 X187.357 Y125.025 E133.01974
G1 X187.680 Y124.454 E133.09846
G1 X187.795 Y124.003 E133.15432
G1 X213.271 Y185.496 E141.14168
G1 X213.143 Y185.397 E141.16110
G1 X212.538 Y185.147 E141.23965
G1 X211.889 Y185.061 E141.31821
G1 X211.240 Y185.147 E141.39677
G1 X210.635 Y185.397 E141.47533
G1 X210.959 Y184.831 E141.55359
G1 X211.471 Y183.948 E141.67607
G1 X201.504 Y159.892 E144.80076
G1 X200.461 Y160.212 E144.93168
G1 X200.252 Y159.706 E144.99737
G1 X199.864 Y158.790 E145.11675
G1 X186.739 Y162.305 E146.74725
G1 X198.312 Y205.499 E152.11335
G1 X201.597 Y207.396 E152.56856
G1 X211.002 Y191.107 E154.82566
G1 X210.344 Y189.519 E155.03193
G1 X210.634 Y189.742 E155.07583
G1 X211.240 Y189.993 E155.15454
G1 X211.889 Y190.079 E155.23310
G1 X212.538 Y189.993 E155.31166
G1 X212.882 Y189.851 E155.35632
G1 X199.284 Y213.402 E158.61970
G1 X8.934 Y103.504 E184.99533
G1 X76.363 Y9.501 E198.87764
G0 F12000 X76.243 Y11.374
G1 F1200 X54.828 Y41.228 E203.28650
G1 X55.623 Y42.386 E203.45505
G1 X102.089 Y30.278 E209.21717
G1 X100.804 Y25.553 E209.80476
G1 X76.243 Y11.374 E213.20796
G0 F12000 X100.448 Y25.827
G0 X101.524 Y29.950
G0 X102.352 Y31.243
G1 F1200 X54.891 Y43.609 E219.09342
G1 X50.966 Y49.083 E219.90171
G1 X61.749 Y89.327 E224.90134
G1 X97.007 Y79.880 E229.28154
G1 X109.836 Y58.736 E232.24933
G1 X102.352 Y31.243 E235.66854
G0 F12000 X103.320 Y30.990
G1 F1200 X110.112 Y55.945 E238.77208
G1 X111.417 Y56.129 E238.93023
G1 X122.401 Y38.024 E241.47139
G1 X108.075 Y29.752 E243.45651
G1 X103.320 Y30.990 E244.04614
G0 F12000 X108.014 Y30.197
G0 X121.763 Y38.188
G0 X104.755 Y76.154
G0 X121.047 Y85.562
G0 X145.250 Y51.215
G1 F1200 X135.938 Y68.191 E246.36961
G1 X136.753 Y69.230 E246.52807
G1 X159.155 Y63.227 E249.31115
G1 X157.893 Y58.514 E249.89664
G1 X145.250 Y51.215 E251.64848
G0 F12000 X157.536 Y58.788
G0 X158.593 Y62.903
G0 X159.414 Y64.192
G1 F1200 X134.463 Y70.879 E254.74826
G1 X120.716 Y95.929 E258.17716
G1 X129.416 Y128.394 E262.21042
G1 X173.455 Y116.594 E267.68152
G1 X159.414 Y64.192 E274.19158
G0 F12000 X134.743 Y71.235
G0 X121.047 Y85.562
G0 X112.942 Y82.225
G1 F1200 X112.752 Y81.768 E274.25097
G1 X112.414 Y81.283 E274.32191
G1 X112.056 Y80.951 E274.38050
G1 X111.628 Y80.689 E274.44072
G1 X111.091 Y80.503 E274.50892
G1 X110.762 Y80.455 E274.54881
G1 X110.528 Y80.444 E274.57692
G1 X109.986 Y80.505 E274.64238
G1 X109.654 Y80.605 E274.68398
G1 X109.230 Y80.811 E274.74055
G1 X108.789 Y81.161 E274.80811
G1 X108.618 Y81.345 E274.83825
G1 X108.304 Y81.818 E274.90638
G1 X108.135 Y82.259 E274.96306
G1 X108.066 Y82.583 E275.00281
G1 X108.038 Y82.943 E275.04614
G1 X108.101 Y83.506 E275.11412
G1 X108.207 Y83.848 E275.15709
G1 X108.385 Y84.215 E275.20603
G1 X108.590 Y84.514 E275.24954
G1 X108.924 Y84.859 E275.30716
G1 X109.358 Y85.154 E275.37013
G1 X109.860 Y85.355 E275.43502
G1 X110.181 Y85.422 E275.47437
G1 X110.536 Y85.450 E275.51710
G1 X111.098 Y85.390 E275.58493
G1 X111.548 Y85.240 E275.64185
G1 X111.983 Y84.994 E275.70182
G1 X112.331 Y84.697 E275.75672
G1 X112.628 Y84.331 E275.81328
G1 X112.855 Y83.903 E275.87141
G1 X112.986 Y83.479 E275.92467
G1 X113.033 Y83.158 E275.96360
G1 X113.042 Y82.828 E276.00321
G1 X112.942 Y82.225 E276.07656
G0 F12000 X112.760 Y87.107
G1 F1200 X82.809 Y138.986 E283.26505
G1 X82.386 Y139.717 E283.36639
G1 X83.199 Y140.778 E283.52679
G1 X128.450 Y128.653 E289.14847
G1 X118.153 Y90.222 E293.92285
G1 X112.760 Y87.107 E294.67021
G0 F12000 X105.832 Y83.108
G1 F1200 X100.440 Y79.994 E295.41741
G1 X62.007 Y90.293 E300.19209
G1 X74.133 Y135.543 E305.81368
G1 X75.458 Y135.718 E305.97406
G1 X105.832 Y83.108 E313.26389
G0 F12000 X100.381 Y80.440
G0 X61.042 Y90.551
G1 F1200 X17.848 Y102.125 E318.63002
G1 X17.067 Y103.480 E318.81770
G1 X16.477 Y104.498 E318.95889
G1 X72.107 Y136.616 E326.66721
G1 X73.167 Y135.803 E326.82751
G1 X61.042 Y90.551 E332.44931
G0 F12000 X60.783 Y89.586
G1 F1200 X50.113 Y49.766 E337.39628
G1 X48.867 Y49.539 E337.54826
G1 X13.523 Y98.811 E344.82478
G1 X17.590 Y101.159 E345.38832
G1 X60.783 Y89.586 E350.75430
G0 F12000 X74.478 Y135.151
G0 X75.227 Y135.249
G0 X83.458 Y141.744
G1 F1200 X83.283 Y143.069 E350.91468
G1 X137.609 Y174.435 E358.44237
G1 X139.343 Y173.971 E358.65777
G1 X140.508 Y173.654 E358.80265
G1 X128.709 Y129.619 E364.27325
G1 X83.458 Y141.744 E369.89493
G0 F12000 X129.675 Y129.360
G1 F1200 X141.171 Y172.268 E375.22549
G1 X141.478 Y173.398 E375.36600
G1 X185.514 Y161.599 E380.83672
G1 X173.714 Y117.560 E386.30782
G1 X129.675 Y129.360 E391.77891
G0 F12000 X141.735 Y174.365
G1 F1200 X142.510 Y177.264 E392.13901
G1 X195.976 Y208.132 E399.54744
G1 X197.050 Y206.270 E399.80538
G1 X197.346 Y205.759 E399.87625
G1 X185.773 Y162.565 E405.24235
G1 X141.735 Y174.365 E410.71333
G0 F12000 X184.952 Y161.275
G0 X174.421 Y116.334
G1 F1200 X182.558 Y114.156 E411.72414
G1 X163.348 Y67.791 E417.74659
G1 X161.575 Y68.393 E417.97128
G1 X174.421 Y116.334 E423.92714
G0 F12000 X174.704 Y115.844
G1 F1200 X182.013 Y113.887 E424.83512
G1 X163.122 Y68.290 E430.75777
G1 X162.058 Y68.651 E430.89260
G1 X174.704 Y115.844 E436.75555
G0 F12000 X172.965 Y116.311
G1 F1200 X159.131 Y64.682 E443.16959
G1 X134.731 Y71.221 E446.20091
G1 X121.144 Y95.980 E449.58996
G1 X129.699 Y127.904 E453.55601
G1 X172.965 Y116.311 E458.93108
G0 F12000 X173.431 Y118.050
G1 F1200 X130.165 Y129.643 E464.30614
G1 X141.558 Y172.164 E469.58865
G1 X141.759 Y172.908 E469.68113
G1 X185.024 Y161.316 E475.05605
G1 X173.431 Y118.050 E480.43112
G0 F12000 X175.170 Y117.584
G1 F1200 X186.763 Y160.850 E485.80619
G1 X198.940 Y157.587 E487.31898
G1 X197.620 Y154.400 E487.73292
G1 X198.665 Y154.083 E487.86397
G1 X187.236 Y126.495 E491.44737
G1 X185.279 Y127.020 E491.69051
G1 X183.210 Y125.826 E491.97717
G1 X182.158 Y122.752 E492.36705
G1 X182.743 Y121.076 E492.58007
G1 X184.607 Y120.084 E492.83345
G1 X182.705 Y115.565 E493.42181
G1 X175.170 Y117.584 E494.35791
G0 F12000 X182.677 Y115.624
G0 X184.540 Y120.061
G0 X183.670 Y122.250
G1 F1200 X183.400 Y122.728 E494.42378
G1 X183.262 Y123.261 E494.48985
G1 X183.268 Y123.811 E494.55586
G1 X183.415 Y124.340 E494.62174
G1 X183.694 Y124.813 E494.68764
G1 X184.086 Y125.197 E494.75349
G1 X184.564 Y125.468 E494.81943
G1 X185.098 Y125.606 E494.88561
G1 X185.647 Y125.600 E494.95150
G1 X186.174 Y125.453 E495.01715
G1 X186.649 Y125.174 E495.08326
G1 X187.034 Y124.782 E495.14919
G1 X187.305 Y124.303 E495.21523
G1 X187.442 Y123.771 E495.28115
G1 X187.437 Y123.222 E495.34704
G1 X187.290 Y122.692 E495.41304
G1 X187.011 Y122.219 E495.47894
G1 X186.618 Y121.833 E495.54504
G1 X186.139 Y121.564 E495.61096
G1 X185.607 Y121.426 E495.67692
G1 X185.058 Y121.432 E495.74280
G1 X184.544 Y121.569 E495.80663
G1 X184.055 Y121.858 E495.87479
G1 X183.670 Y122.250 E495.94073
G0 F12000 X183.270 Y123.811
G0 X184.087 Y125.195
G0 X187.206 Y126.555
G0 X198.575 Y154.041
G0 X199.631 Y159.267
G1 F1200 X187.229 Y162.588 E497.48140
G1 X198.656 Y205.235 E502.77957
G1 X201.451 Y206.850 E503.16693
G1 X210.557 Y191.078 E505.35236
G1 X209.026 Y187.382 E505.83243
G1 X211.026 Y183.918 E506.31242
G1 X201.274 Y160.381 E509.36969
G1 X200.230 Y160.700 E509.50069
G1 X199.883 Y159.860 E509.60975
G1 X199.631 Y159.267 E509.68707
G0 F12000 X185.490 Y163.055
G1 F1200 X142.224 Y174.648 E515.06214
G1 X142.854 Y177.000 E515.35433
G1 X195.830 Y207.586 E522.69492
G1 X196.917 Y205.702 E522.95593
G1 X185.490 Y163.055 E528.25409
G0 F12000 X198.669 Y205.224
G0 X201.428 Y206.770
G0 X210.533 Y191.076
G0 X209.002 Y187.379
G0 X210.400 Y186.081
G1 F1200 X210.066 Y186.518 E528.32010
G1 X209.855 Y187.025 E528.38599
G1 X209.784 Y187.570 E528.45195
G1 X209.855 Y188.115 E528.51790
G1 X210.066 Y188.623 E528.58391
G1 X210.400 Y189.058 E528.64972
G1 X210.836 Y189.393 E528.71570
G1 X211.344 Y189.604 E528.78171
G1 X211.889 Y189.675 E528.84766
G1 X212.434 Y189.604 E528.91362
G1 X212.942 Y189.393 E528.97962
G1 X213.378 Y189.058 E529.04561
G1 X213.712 Y188.623 E529.11142
G1 X213.923 Y188.115 E529.17743
G1 X213.994 Y187.570 E529.24338
G1 X213.923 Y187.025 E529.30933
G1 X213.712 Y186.518 E529.37523
G1 X213.378 Y186.081 E529.44123
G1 X212.941 Y185.747 E529.50724
G1 X212.434 Y185.536 E529.57313
G1 X211.889 Y185.465 E529.63909
G1 X211.344 Y185.536 E529.70504
G1 X210.837 Y185.747 E529.77094
G1 X210.400 Y186.081 E529.83694
G0 F12000 X209.002 Y187.379
G0 X210.533 Y191.076
G0 X201.428 Y206.770
G0 X198.669 Y205.224
G0 X185.449 Y163.127
G0 X140.018 Y173.373
G1 F1200 X128.426 Y130.109 E535.21175
G1 X83.819 Y142.061 E540.75340
G1 X83.715 Y142.856 E540.84961
G1 X137.666 Y174.006 E548.32537
G1 X139.238 Y173.585 E548.52065
G1 X140.018 Y173.373 E548.61765
G0 F12000 X127.960 Y128.370
G1 F1200 X117.809 Y90.486 E553.32410
G1 X112.906 Y87.653 E554.00361
G1 X82.866 Y139.686 E561.21344
G1 X83.354 Y140.322 E561.30964
G1 X127.960 Y128.370 E566.85118
G0 F12000 X117.796 Y90.497
G0 X112.929 Y87.733
G0 X111.385 Y84.873
G1 F1200 X111.753 Y84.665 E566.90190
G1 X112.044 Y84.416 E566.94786
G1 X112.293 Y84.109 E566.99530
G1 X112.484 Y83.749 E567.04420
G1 X112.595 Y83.390 E567.08929
G1 X112.634 Y83.124 E567.12155
G1 X112.641 Y82.856 E567.15373
G1 X112.555 Y82.336 E567.21697
G1 X112.399 Y81.961 E567.26571
G1 X112.110 Y81.547 E567.32630
G1 X111.813 Y81.272 E567.37487
G1 X111.456 Y81.052 E567.42519
G1 X110.996 Y80.893 E567.48360
G1 X110.724 Y80.854 E567.51657
G1 X110.541 Y80.845 E567.53856
G1 X110.067 Y80.899 E567.59580
G1 X109.800 Y80.979 E567.62925
G1 X109.444 Y81.152 E567.67675
G1 X109.061 Y81.455 E567.73535
G1 X108.933 Y81.594 E567.75803
G1 X108.661 Y82.002 E567.81687
G1 X108.520 Y82.373 E567.86450
G1 X108.463 Y82.641 E567.89738
G1 X108.439 Y82.937 E567.93301
G1 X108.494 Y83.424 E567.99182
G1 X108.580 Y83.701 E568.02663
G1 X108.732 Y84.014 E568.06838
G1 X108.900 Y84.260 E568.10413
G1 X109.183 Y84.551 E568.15284
G1 X109.547 Y84.799 E568.20570
G1 X109.976 Y84.971 E568.26116
G1 X110.238 Y85.025 E568.29326
G1 X110.530 Y85.049 E568.32842
G1 X111.012 Y84.997 E568.38659
G1 X111.385 Y84.873 E568.43376
G0 F12000 X109.976 Y84.969
G0 X105.286 Y83.254
G1 F1200 X100.384 Y80.423 E569.11305
G1 X62.497 Y90.576 E573.81991
G1 X74.450 Y135.182 E579.36148
G1 X75.245 Y135.286 E579.45769
G1 X105.286 Y83.254 E586.66748
G0 F12000 X100.381 Y80.440
G0 X96.748 Y79.535
G1 F1200 X109.405 Y58.675 E589.59543
G1 X102.070 Y31.730 E592.94649
G1 X55.132 Y43.960 E598.76711
G1 X51.401 Y49.162 E599.53531
G1 X62.032 Y88.837 E604.46426
G1 X96.748 Y79.535 E608.77713
G0 F12000 X109.387 Y58.672
G0 X110.429 Y55.586
G1 F1200 X111.212 Y55.696 E608.87202
G1 X121.847 Y38.166 E611.33247
G1 X108.017 Y30.180 E613.24888
G1 X103.812 Y31.275 E613.77031
G1 X110.429 Y55.586 E616.79376
G0 F12000 X101.597 Y29.993
G1 F1200 X100.461 Y25.817 E617.31309
G1 X76.357 Y11.902 E620.65295
G1 X55.317 Y41.233 E624.98459
G1 X55.794 Y41.928 E625.08574
G1 X101.597 Y29.993 E630.76563
G0 F12000 X108.014 Y30.197
G0 X121.763 Y38.188
G0 X125.304 Y42.169
G1 F1200 X104.671 Y76.176 E635.53885
G1 X121.071 Y85.645 E637.81133
G1 X142.236 Y47.073 E643.09100
G1 X160.797 Y57.789 E645.66287
G1 X214.604 Y187.667 E662.53280
G1 X199.430 Y213.948 E666.17444
G1 X8.352 Y103.630 E692.65092
G1 X76.249 Y8.974 E706.62964
G1 X127.493 Y38.561 E713.73030
G1 X125.304 Y42.169 E714.23671
G0 F12000 X104.755 Y76.154
G0 X121.047 Y85.562
G0 X145.404 Y51.766
G1 F1200 X136.415 Y68.152 E716.47947
G1 X136.904 Y68.775 E716.57451
G1 X158.665 Y62.944 E719.27795
G1 X157.549 Y58.778 E719.79550
G1 X145.404 Y51.766 E721.47836
G0 F12000 X121.047 Y85.562
G0 X104.755 Y76.154
G0 X96.739 Y79.523
G0 X62.073 Y88.765
G0 X60.293 Y89.303
G1 F1200 X49.792 Y50.114 E726.34694
G1 X49.045 Y49.978 E726.43806
G1 X14.105 Y98.685 E733.63123
G1 X17.646 Y100.730 E734.12192
G1 X60.293 Y89.303 E739.42009
G0 F12000 X60.759 Y91.041
G1 F1200 X18.112 Y102.469 E744.71828
G1 X17.025 Y104.353 E744.97929
G1 X72.075 Y136.136 E752.60723
G1 X72.711 Y135.648 E752.70343
G1 X60.759 Y91.041 E758.24509
G0 F12000 X60.476 Y91.531
;TYPE:WALL-OUTER
G1 F1200 X18.375 Y102.812 E763.47543
G1 X17.571 Y104.206 E763.66854
G1 X72.044 Y135.656 E771.21654
G1 X72.256 Y135.493 E771.24863
G1 X60.476 Y91.531 E776.71018
G0 F12000 X60.400 Y91.241
G0 X62.911 Y90.569
G0 X62.987 Y90.859
G1 F1200 X74.767 Y134.820 E782.17161
G1 X75.032 Y134.855 E782.20369
G1 X104.739 Y83.401 E789.33337
G1 X100.327 Y80.852 E789.94481
G1 X62.987 Y90.859 E794.58374
G0 F12000 X62.911 Y90.569
G0 X62.025 Y88.423
G0 X62.315 Y88.347
G1 F1200 X96.489 Y79.190 E798.82928
G1 X108.974 Y58.614 E801.71739
G1 X101.788 Y32.217 E805.00030
G1 X55.373 Y44.311 E810.75607
G1 X51.836 Y49.241 E811.48418
G1 X62.315 Y88.347 E816.34246
G0 F12000 X62.025 Y88.423
G0 X60.093 Y88.944
G0 X59.803 Y89.020
G1 F1200 X49.471 Y50.462 E821.13265
G1 X49.222 Y50.417 E821.16302
G1 X14.688 Y98.560 E828.27280
G1 X17.703 Y100.301 E828.69059
G1 X59.803 Y89.020 E833.92081
G0 F12000 X60.093 Y88.944
G0 X62.073 Y88.765
G0 X96.739 Y79.523
G0 X104.970 Y75.878
G0 X105.225 Y76.034
G1 F1200 X120.917 Y85.094 E836.09517
G1 X142.081 Y46.521 E841.37489
G1 X161.114 Y57.510 E844.01220
G1 X215.049 Y187.697 E860.92225
G1 X199.577 Y214.495 E864.63550
G1 X7.770 Y103.756 E891.21301
G1 X76.136 Y8.446 E905.28830
G1 X128.048 Y38.419 E912.48154
G1 X105.225 Y76.034 E917.76123
G0 F12000 X104.970 Y75.878
G0 X104.755 Y76.154
G0 X109.114 Y81.547
G0 X109.334 Y81.750
G1 F1200 X109.248 Y81.842 E917.77634
G1 X109.019 Y82.187 E917.82603
G1 X108.905 Y82.486 E917.86443
G1 X108.860 Y82.698 E917.89044
G1 X108.841 Y82.930 E917.91837
G1 X108.887 Y83.341 E917.96800
G1 X108.953 Y83.554 E917.99476
G1 X109.079 Y83.813 E918.02932
G1 X109.211 Y84.005 E918.05728
