;FLAVOR:UltiGCode
;TIME:13922
;MATERIAL:7839
;MATERIAL2:0
;NOZZLE_DIAMETER:0.400000
;NOZZLE_DIAMETER2:0.400000

;Layer count: 220
;LAYER:0
M106 S255
G0 F12000 X93.189 Y91.171 Z0.300
;TYPE:SKIRT
G1 F1200 X97.204 Y89.190 E0.53725
G1 X135.311 Y118.426 E6.30086
G1 X135.311 Y133.679 E8.13122
G1 X110.208 Y133.679 E11.14358
G1 X105.987 Y133.686 E11.65010
G1 X105.987 Y127.869 E12.34814
G1 X97.236 Y127.868 E13.39826
G1 X93.189 Y127.877 E13.88390
G1 X93.189 Y91.171 E18.28862
G0 F12000 X93.589 Y91.419
G1 F1200 X97.158 Y89.659 E18.76615
G1 X134.911 Y118.624 E24.47626
G1 X134.911 Y133.279 E26.23486
G1 X110.207 Y133.279 E29.19934
G1 X106.387 Y133.285 E29.65774
G1 X106.387 Y127.469 E30.35566
G1 X97.235 Y127.468 E31.45390
G1 X93.589 Y127.476 E31.89142
G1 X93.589 Y91.419 E36.21826
G10
G1 Z0.400
G0 F12000 X97.789 Y95.436
;TYPE:WALL-INNER
G1 Z0.300
G11
G1 F1200 X130.711 Y120.695 E41.19772
G1 X130.711 Y129.079 E42.20380
G1 X110.587 Y129.079 E44.61868
G1 X110.587 Y123.269 E45.31588
G1 X97.789 Y123.268 E46.85164
G1 X97.789 Y95.436 E50.19148
G0 F12000 X97.389 Y94.625
G1 F1200 X131.111 Y120.498 E55.29195
G1 X131.111 Y129.479 E56.36967
G1 X110.187 Y129.480 E58.88055
G1 X110.187 Y123.669 E59.57787
G1 X97.389 Y123.668 E61.11363
G1 X97.389 Y94.625 E64.59879
G0 F12000 X96.989 Y93.815
;TYPE:WALL-OUTER
G1 F1200 X131.511 Y120.301 E69.82021
G1 X131.511 Y129.879 E70.96957
G1 X109.787 Y129.880 E73.57645
G1 X109.787 Y124.069 E74.27377
G1 X96.989 Y124.069 E75.80953
G1 X96.989 Y93.815 E79.44001
G10
G1 Z0.400
G0 F12000 X97.927 Y95.948
;TYPE:SKIN
G1 Z0.300
G11
G1 F1200 X130.570 Y128.590 E84.97962
G0 F12000 X130.353 Y128.938
G1 F1200 X97.927 Y96.513 E90.48241
G0 F12000 X97.927 Y97.079
G1 F1200 X129.787 Y128.938 E95.88915
G0 F12000 X129.221 Y128.938
G1 F1200 X97.927 Y97.645 E101.19983
G0 F12000 X97.927 Y98.210
G1 F1200 X128.655 Y128.938 E106.41455
G0 F12000 X128.090 Y128.938
G1 F1200 X97.927 Y98.776 E111.53329
G0 F12000 X97.927 Y99.342
G1 F1200 X127.524 Y128.938 E116.55598
G0 F12000 X126.958 Y128.938
G1 F1200 X97.927 Y99.907 E121.48271
G0 F12000 X99.380 Y96.834
G1 F1200 X130.570 Y128.024 E126.77583
G0 F12000 X130.570 Y127.458
G1 F1200 X101.810 Y98.699 E131.65648
G0 F12000 X104.240 Y100.564
G1 F1200 X130.570 Y126.893 E136.12474
G0 F12000 X130.570 Y126.327
G1 F1200 X106.670 Y102.427 E140.18071
G0 F12000 X109.100 Y104.292
G1 F1200 X130.570 Y125.761 E143.82420
G0 F12000 X130.570 Y125.196
G1 F1200 X111.531 Y106.157 E147.05523
G0 F12000 X113.960 Y108.021
G1 F1200 X130.570 Y124.630 E149.87395
G0 F12000 X130.570 Y124.064
G1 F1200 X116.391 Y109.885 E152.28021
G0 F12000 X118.820 Y111.749
G1 F1200 X130.570 Y123.499 E154.27425
G0 F12000 X130.570 Y122.933
G1 F1200 X121.251 Y113.614 E155.85574
G0 F12000 X123.681 Y115.479
G1 F1200 X130.570 Y122.367 E157.02475
G0 F12000 X130.570 Y121.801
G1 F1200 X126.111 Y117.342 E157.78147
G0 F12000 X128.541 Y119.207
G1 F1200 X130.570 Y121.236 E158.12580
G0 F12000 X126.393 Y128.938
G1 F1200 X97.927 Y100.473 E162.95656
G0 F12000 X97.927 Y101.039
G1 F1200 X125.827 Y128.938 E167.69126
G0 F12000 X125.261 Y128.938
G1 F1200 X97.927 Y101.604 E172.32999
G0 F12000 X97.927 Y102.170
G1 F1200 X124.696 Y128.938 E176.87276
G0 F12000 X124.130 Y128.938
G1 F1200 X97.927 Y102.736 E181.31947
G0 F12000 X97.927 Y103.301
G1 F1200 X123.564 Y128.938 E185.67021
G0 F12000 X122.999 Y128.938
G1 F1200 X97.927 Y103.867 E189.92499
G0 F12000 X97.927 Y104.433
G1 F1200 X122.433 Y128.938 E194.08371
G0 F12000 X121.867 Y128.938
G1 F1200 X97.927 Y104.998 E198.14646
G0 F12000 X97.927 Y105.564
G1 F1200 X121.302 Y128.938 E202.11325
G0 F12000 X120.736 Y128.938
G1 F1200 X97.927 Y106.130 E205.98398
G0 F12000 X97.927 Y106.696
G1 F1200 X120.169 Y128.938 E209.75857
G0 F12000 X119.604 Y128.938
G1 F1200 X97.927 Y107.261 E213.43728
G0 F12000 X97.927 Y107.827
G1 F1200 X119.038 Y128.938 E217.01993
G0 F12000 X118.472 Y128.938
G1 F1200 X97.927 Y108.393 E220.50654
G0 F12000 X97.927 Y108.958
G1 F1200 X117.907 Y128.938 E223.89725
G0 F12000 X117.341 Y128.938
G1 F1200 X97.927 Y109.524 E227.19192
G0 F12000 X97.927 Y110.090
G1 F1200 X116.775 Y128.938 E230.39053
G0 F12000 X116.210 Y128.938
G1 F1200 X110.727 Y123.455 E231.32103
G0 F12000 X110.399 Y123.127
G1 F1200 X97.927 Y110.655 E233.43760
G0 F12000 X97.927 Y111.221
G1 F1200 X109.834 Y123.127 E235.45820
G0 F12000 X109.268 Y123.127
G1 F1200 X97.927 Y111.787 E237.38274
G0 F12000 X97.927 Y112.352
G1 F1200 X108.702 Y123.127 E239.21132
G0 F12000 X108.137 Y123.127
G1 F1200 X97.927 Y112.918 E240.94393
G0 F12000 X97.927 Y113.484
G1 F1200 X107.571 Y123.127 E242.58049
G0 F12000 X107.005 Y123.127
G1 F1200 X97.927 Y114.049 E244.12107
G0 F12000 X97.927 Y114.615
G1 F1200 X106.440 Y123.127 E245.56569
G0 F12000 X105.874 Y123.127
G1 F1200 X97.927 Y115.181 E246.91426
G0 F12000 X97.927 Y115.747
G1 F1200 X105.308 Y123.127 E248.16677
G0 F12000 X104.743 Y123.127
G1 F1200 X97.927 Y116.312 E249.32340
G0 F12000 X97.927 Y116.878
G1 F1200 X104.176 Y123.127 E250.38389
G0 F12000 X103.610 Y123.127
G1 F1200 X97.927 Y117.444 E251.34833
G0 F12000 X97.927 Y118.009
G1 F1200 X103.045 Y123.127 E252.21688
G0 F12000 X102.479 Y123.127
G1 F1200 X97.927 Y118.575 E252.98938
G0 F12000 X97.927 Y119.141
G1 F1200 X101.913 Y123.127 E253.66583
G0 F12000 X101.348 Y123.127
G1 F1200 X97.927 Y119.706 E254.24639
G0 F12000 X97.927 Y120.272
G1 F1200 X100.782 Y123.127 E254.73090
G0 F12000 X100.216 Y123.127
G1 F1200 X97.927 Y120.838 E255.11936
G0 F12000 X97.927 Y121.403
G1 F1200 X99.651 Y123.127 E255.41193
G0 F12000 X99.085 Y123.127
G1 F1200 X97.927 Y121.969 E255.60845
G0 F12000 X97.927 Y122.535
G1 F1200 X98.519 Y123.127 E255.70891
G0 F12000 X110.128 Y123.728
G0 X110.727 Y124.020
G1 F1200 X115.644 Y128.938 E256.54344
G0 F12000 X115.078 Y128.938
G1 F1200 X110.727 Y124.586 E257.28192
G0 F12000 X110.727 Y125.152
G1 F1200 X114.513 Y128.938 E257.92442
G0 F12000 X113.947 Y128.938
G1 F1200 X110.727 Y125.717 E258.47096
G0 F12000 X110.727 Y126.283
G1 F1200 X113.381 Y128.938 E258.92144
G0 F12000 X112.816 Y128.938
G1 F1200 X110.727 Y126.849 E259.27596
G0 F12000 X110.727 Y127.414
G1 F1200 X112.250 Y128.938 E259.53450
G0 F12000 X111.684 Y128.938
G1 F1200 X110.727 Y127.980 E259.69700
G0 F12000 X110.727 Y128.546
G1 F1200 X111.119 Y128.938 E259.76352
;LAYER:1
G0 F12000 X110.584 Y129.060 Z0.360
;TYPE:WALL-INNER
G1 F1260 X110.584 Y123.250 E259.90261
G1 X97.786 Y123.249 E260.20900
G1 X97.786 Y95.409 E260.87549
G1 X130.714 Y120.672 E261.86906
G1 X130.714 Y129.060 E262.06987
G1 X110.584 Y129.060 E262.55178
G0 F12000 X110.185 Y129.460
G1 F1260 X110.185 Y123.649 E262.69090
G1 X97.387 Y123.648 E262.99728
G1 X97.387 Y94.599 E263.69271
G1 X131.113 Y120.474 E264.71036
G1 X131.113 Y129.459 E264.92546
G1 X110.185 Y129.460 E265.42648
G0 F12000 X109.786 Y129.859
;TYPE:WALL-OUTER
G1 F1260 X109.786 Y124.048 E265.56560
G1 X96.988 Y124.048 E265.87198
G1 X96.988 Y93.791 E266.59633
G1 X131.512 Y120.278 E267.63806
G1 X131.512 Y129.858 E267.86740
G1 X109.786 Y129.859 E268.38752
G0 F12000 X110.723 Y128.810
;TYPE:SKIN
G1 F1260 X123.907 Y115.626 E268.83388
G0 F12000 X124.226 Y115.871
G1 F1260 X111.178 Y128.919 E269.27564
G0 F12000 X111.742 Y128.919
G1 F1260 X124.545 Y116.116 E269.70910
G0 F12000 X124.865 Y116.361
G1 F1260 X112.306 Y128.919 E270.13429
G0 F12000 X112.871 Y128.919
G1 F1260 X125.184 Y116.606 E270.55116
G0 F12000 X125.503 Y116.851
G1 F1260 X113.435 Y128.919 E270.95974
G0 F12000 X113.999 Y128.919
G1 F1260 X125.823 Y117.096 E271.36004
G0 F12000 X126.142 Y117.341
G1 F1260 X114.564 Y128.919 E271.75202
G0 F12000 X115.128 Y128.919
G1 F1260 X126.461 Y117.586 E272.13572
G0 F12000 X126.780 Y117.831
G1 F1260 X115.692 Y128.919 E272.51112
G0 F12000 X116.256 Y128.919
G1 F1260 X127.100 Y118.076 E272.87824
G0 F12000 X127.419 Y118.321
G1 F1260 X116.821 Y128.919 E273.23704
G0 F12000 X117.385 Y128.919
G1 F1260 X127.738 Y118.566 E273.58756
G0 F12000 X128.057 Y118.811
G1 F1260 X117.949 Y128.919 E273.92978
G0 F12000 X118.513 Y128.919
G1 F1260 X128.377 Y119.056 E274.26372
G0 F12000 X128.696 Y119.300
G1 F1260 X119.078 Y128.919 E274.58937
G0 F12000 X119.642 Y128.919
G1 F1260 X129.015 Y119.546 E274.90670
G0 F12000 X129.335 Y119.790
G1 F1260 X120.206 Y128.919 E275.21577
G0 F12000 X120.771 Y128.919
G1 F1260 X129.654 Y120.036 E275.51652
G0 F12000 X129.974 Y120.280
G1 F1260 X121.335 Y128.919 E275.80900
G0 F12000 X121.899 Y128.919
G1 F1260 X130.292 Y120.526 E276.09316
G0 F12000 X130.572 Y120.810
G1 F1260 X122.463 Y128.919 E276.36770
G0 F12000 X123.028 Y128.919
G1 F1260 X130.572 Y121.374 E276.62313
G0 F12000 X130.572 Y121.939
G1 F1260 X123.592 Y128.919 E276.85945
G0 F12000 X124.156 Y128.919
G1 F1260 X130.572 Y122.503 E277.07667
G0 F12000 X130.572 Y123.067
G1 F1260 X124.720 Y128.919 E277.27479
G0 F12000 X125.285 Y128.919
G1 F1260 X130.572 Y123.631 E277.45381
G0 F12000 X130.572 Y124.196
G1 F1260 X125.849 Y128.919 E277.61371
G0 F12000 X126.413 Y128.919
G1 F1260 X130.572 Y124.760 E277.75452
G0 F12000 X130.572 Y125.324
G1 F1260 X126.977 Y128.919 E277.87623
G0 F12000 X127.542 Y128.919
G1 F1260 X130.572 Y125.889 E277.97882
G0 F12000 X130.572 Y126.453
G1 F1260 X128.106 Y128.919 E278.06231
G0 F12000 X128.670 Y128.919
G1 F1260 X130.572 Y127.017 E278.12670
G0 F12000 X130.572 Y127.581
G1 F1260 X129.235 Y128.919 E278.17199
G0 F12000 X129.799 Y128.919
G1 F1260 X130.572 Y128.146 E278.19816
G0 F12000 X130.572 Y128.710
G1 F1260 X130.363 Y128.919 E278.20523
G0 F12000 X123.588 Y115.381
G1 F1260 X110.723 Y128.245 E278.64078
G0 F12000 X110.723 Y127.681
G1 F1260 X123.268 Y115.136 E279.06550
G0 F12000 X122.949 Y114.891
G1 F1260 X110.723 Y127.117 E279.47943
G0 F12000 X110.723 Y126.553
G1 F1260 X122.629 Y114.646 E279.88254
G0 F12000 X122.310 Y114.402
G1 F1260 X110.723 Y125.988 E280.27482
G0 F12000 X110.723 Y125.424
G1 F1260 X121.991 Y114.156 E280.65631
G0 F12000 X121.671 Y113.912
G1 F1260 X110.723 Y124.860 E281.02697
G0 F12000 X110.723 Y124.295
G1 F1260 X121.352 Y113.666 E281.38683
G0 F12000 X121.033 Y113.422
G1 F1260 X110.723 Y123.731 E281.73587
G0 F12000 X110.723 Y123.167
G1 F1260 X120.714 Y113.176 E282.07412
G0 F12000 X120.394 Y112.932
G1 F1260 X110.217 Y123.109 E282.41868
G0 F12000 X109.653 Y123.109
G1 F1260 X120.075 Y112.686 E282.77155
G0 F12000 X119.756 Y112.441
G1 F1260 X109.088 Y123.109 E283.13273
G0 F12000 X108.524 Y123.109
G1 F1260 X119.436 Y112.197 E283.50217
G0 F12000 X119.117 Y111.951
G1 F1260 X107.960 Y123.109 E283.87992
G0 F12000 X107.396 Y123.109
G1 F1260 X118.798 Y111.707 E284.26595
G0 F12000 X118.479 Y111.461
G1 F1260 X106.831 Y123.109 E284.66030
G0 F12000 X106.267 Y123.109
G1 F1260 X118.159 Y111.217 E285.06292
G0 F12000 X117.840 Y110.971
G1 F1260 X105.703 Y123.109 E285.47385
G0 F12000 X105.139 Y123.109
G1 F1260 X117.521 Y110.727 E285.89306
G0 F12000 X117.202 Y110.481
G1 F1260 X104.574 Y123.109 E286.32060
G0 F12000 X104.010 Y123.109
G1 F1260 X116.882 Y110.237 E286.75640
G0 F12000 X116.563 Y109.992
G1 F1260 X103.446 Y123.109 E287.20049
G0 F12000 X102.881 Y123.109
G1 F1260 X116.244 Y109.747 E287.65289
G0 F12000 X115.924 Y109.502
G1 F1260 X102.317 Y123.109 E288.11358
G0 F12000 X101.753 Y123.109
G1 F1260 X115.605 Y109.257 E288.58255
G0 F12000 X115.285 Y109.012
G1 F1260 X101.189 Y123.109 E289.05981
G0 F12000 X100.624 Y123.109
G1 F1260 X114.967 Y108.767 E289.54539
G0 F12000 X114.647 Y108.522
G1 F1260 X100.060 Y123.109 E290.03925
G0 F12000 X99.496 Y123.109
G1 F1260 X114.328 Y108.277 E290.54141
G0 F12000 X114.008 Y108.032
G1 F1260 X98.932 Y123.109 E291.05184
G0 F12000 X98.367 Y123.109
G1 F1260 X113.689 Y107.787 E291.57059
G0 F12000 X113.370 Y107.542
G1 F1260 X97.925 Y122.987 E292.09350
G0 F12000 X97.925 Y122.422
G1 F1260 X113.050 Y107.297 E292.60558
G0 F12000 X112.731 Y107.052
G1 F1260 X97.925 Y121.858 E293.10685
G0 F12000 X97.925 Y121.294
G1 F1260 X112.412 Y106.807 E293.59733
G0 F12000 X112.093 Y106.562
G1 F1260 X97.925 Y120.729 E294.07699
G0 F12000 X97.925 Y120.165
G1 F1260 X111.773 Y106.317 E294.54583
G0 F12000 X111.454 Y106.073
G1 F1260 X97.925 Y119.601 E295.00385
G0 F12000 X97.925 Y119.037
G1 F1260 X111.135 Y105.827 E295.45109
G0 F12000 X110.815 Y105.583
G1 F1260 X97.925 Y118.472 E295.88748
G0 F12000 X97.925 Y117.908
G1 F1260 X110.496 Y105.337 E296.31309
G0 F12000 X110.177 Y105.093
G1 F1260 X97.925 Y117.344 E296.72788
G0 F12000 X97.925 Y116.780
G1 F1260 X109.858 Y104.847 E297.13189
G0 F12000 X109.538 Y104.603
G1 F1260 X97.925 Y116.215 E297.52504
G0 F12000 X97.925 Y115.651
G1 F1260 X109.219 Y104.357 E297.90742
G0 F12000 X108.900 Y104.112
G1 F1260 X97.925 Y115.087 E298.27899
G0 F12000 X97.925 Y114.523
G1 F1260 X108.580 Y103.868 E298.63973
G0 F12000 X108.261 Y103.622
G1 F1260 X97.925 Y113.958 E298.98967
G0 F12000 X97.925 Y113.394
G1 F1260 X107.941 Y103.378 E299.32877
G0 F12000 X107.623 Y103.132
G1 F1260 X97.925 Y112.830 E299.65711
G0 F12000 X97.925 Y112.265
G1 F1260 X107.303 Y102.888 E299.97460
G0 F12000 X106.984 Y102.642
G1 F1260 X97.925 Y111.701 E300.28130
G0 F12000 X97.925 Y111.137
G1 F1260 X106.664 Y102.398 E300.57717
G0 F12000 X106.346 Y102.152
G1 F1260 X97.925 Y110.573 E300.86227
G0 F12000 X97.925 Y110.008
G1 F1260 X106.026 Y101.908 E301.13653
G0 F12000 X105.706 Y101.663
G1 F1260 X97.925 Y109.444 E301.39996
G0 F12000 X97.925 Y108.880
G1 F1260 X105.387 Y101.418 E301.65260
G0 F12000 X105.068 Y101.173
G1 F1260 X97.925 Y108.316 E301.89443
G0 F12000 X97.925 Y107.751
G1 F1260 X104.749 Y100.928 E302.12545
G0 F12000 X104.429 Y100.683
G1 F1260 X97.925 Y107.187 E302.34565
G0 F12000 X97.925 Y106.623
G1 F1260 X104.110 Y100.438 E302.55505
G0 F12000 X103.791 Y100.193
G1 F1260 X97.925 Y106.058 E302.75364
G0 F12000 X97.925 Y105.494
G1 F1260 X103.472 Y99.948 E302.94142
G0 F12000 X103.152 Y99.703
G1 F1260 X97.925 Y104.930 E303.11839
G0 F12000 X97.925 Y104.366
G1 F1260 X102.833 Y99.458 E303.28455
G0 F12000 X102.514 Y99.213
G1 F1260 X97.925 Y103.801 E303.43990
G0 F12000 X97.925 Y103.237
G1 F1260 X102.194 Y98.968 E303.58444
G0 F12000 X101.875 Y98.723
G1 F1260 X97.925 Y102.673 E303.71817
G0 F12000 X97.925 Y102.109
G1 F1260 X101.556 Y98.478 E303.84110
G0 F12000 X101.237 Y98.233
G1 F1260 X97.925 Y101.544 E303.95322
G0 F12000 X97.925 Y100.980
G1 F1260 X100.917 Y97.988 E304.05451
G0 F12000 X100.598 Y97.743
G1 F1260 X97.925 Y100.416 E304.14501
G0 F12000 X97.925 Y99.851
G1 F1260 X100.279 Y97.498 E304.22469
G0 F12000 X99.959 Y97.254
G1 F1260 X97.925 Y99.287 E304.29354
G0 F12000 X97.925 Y98.723
G1 F1260 X99.640 Y97.008 E304.35160
G0 F12000 X99.320 Y96.764
G1 F1260 X97.925 Y98.159 E304.39883
G0 F12000 X97.925 Y97.594
G1 F1260 X99.002 Y96.518 E304.43528
G0 F12000 X98.682 Y96.274
G1 F1260 X97.925 Y97.030 E304.46089
G0 F12000 X97.925 Y96.466
G1 F1260 X98.203 Y95.905 E304.47569
G1 X97.925 Y95.902 E304.48235
;LAYER:2
G0 F12000 X97.786 Y95.388 Z0.420
;TYPE:WALL-INNER
G1 F1320 X130.714 Y120.651 E305.47592
G1 X130.714 Y129.039 E305.67673
G1 X110.584 Y129.039 E306.15864
G1 X110.584 Y123.229 E306.29773
G1 X97.786 Y123.228 E306.60412
G1 X97.786 Y95.388 E307.27061
G0 F12000 X97.387 Y94.578
G1 F1320 X131.113 Y120.453 E308.28826
G1 X131.113 Y129.438 E308.50336
G1 X110.185 Y129.439 E309.00437
G1 X110.185 Y123.628 E309.14349
G1 X97.387 Y123.628 E309.44987
G1 X97.387 Y94.578 E310.14533
G0 F12000 X96.988 Y93.770
;TYPE:WALL-OUTER
G1 F1320 X131.512 Y120.257 E311.18706
G1 X131.512 Y129.837 E311.41640
G1 X109.786 Y129.838 E311.93652
G1 X109.786 Y124.027 E312.07564
G1 X96.988 Y124.027 E312.38202
G1 X96.988 Y93.770 E313.10637
G10
G1 Z0.520
G0 F12000 X97.925 Y95.951
;TYPE:SKIN
G1 Z0.420
G11
G1 F1320 X130.573 Y128.599 E314.21171
G0 F12000 X130.308 Y128.898
G1 F1320 X97.925 Y96.515 E315.30808
G0 F12000 X97.925 Y97.080
G1 F1320 X129.744 Y128.898 E316.38534
G0 F12000 X129.179 Y128.898
