;FLAVOR:UltiGCode
;TIME:396
;MATERIAL:229
;MATERIAL2:0
;NOZZLE_DIAMETER:0.400000
;NOZZLE_DIAMETER2:0.400000

;Layer count: 41
;LAYER:0
M106 S255
G0 F12000 X100.868 Y101.285 Z0.300
;TYPE:SKIRT
G1 F1200 X112.005 Y101.285 E1.33644
G1 X119.287 Y114.315 E3.12765
G1 X126.571 Y101.285 E4.91898
G1 X137.706 Y101.285 E6.25518
G1 X135.674 Y108.032 E7.10074
G1 X131.550 Y121.715 E8.81566
G1 X107.025 Y121.715 E11.75866
G1 X100.868 Y101.285 E14.31917
G0 F12000 X101.407 Y101.685
G1 F1200 X111.770 Y101.685 E15.56273
G1 X119.287 Y115.135 E17.41170
G1 X126.806 Y101.685 E19.26078
G1 X137.167 Y101.685 E20.50410
G1 X131.253 Y121.315 E22.96428
G1 X107.322 Y121.315 E25.83600
G1 X101.407 Y101.685 E28.29622
G10
G1 Z0.400
G0 F12000 X105.982 Y105.085
;TYPE:WALL-OUTER
G1 Z0.300
G11
G1 F1200 X106.564 Y105.085 E28.36606
G1 X109.497 Y114.815 E29.58555
G1 X113.262 Y114.815 E30.03735
G1 X113.262 Y117.915 E30.40935
G1 X112.662 Y117.915 E30.48135
G1 X112.662 Y115.415 E30.78135
G1 X109.665 Y115.415 E31.14099
G1 X109.665 Y117.307 E31.36803
G1 X105.982 Y105.085 E32.89982
G0 F12000 X106.210 Y105.361
;TYPE:SKIN
G1 F1200 X106.540 Y105.974 E32.97041
G1 X106.784 Y106.784 E33.04096
G1 X107.028 Y107.593 E33.11144
G1 X107.272 Y108.403 E33.18199
G1 X107.516 Y109.213 E33.25254
G1 X107.760 Y110.023 E33.32309
G1 X108.004 Y110.832 E33.39382
G1 X108.248 Y111.642 E33.46437
G1 X108.492 Y112.452 E33.53492
G1 X108.736 Y113.261 E33.60565
G1 X108.980 Y114.072 E33.67628
G1 X109.445 Y114.819 E33.74703
G1 X110.022 Y115.113 E33.80104
G1 X110.588 Y115.113 E33.85503
G1 X111.154 Y115.113 E33.90903
G1 X111.720 Y115.113 E33.96302
G1 X112.285 Y115.113 E34.01709
G1 X112.764 Y115.310 E34.07117
G1 X112.961 Y115.790 E34.12549
G1 X112.961 Y116.355 E34.17956
G1 X112.961 Y116.921 E34.23373
G1 X112.961 Y117.487 E34.28789
G1 X112.965 Y117.774 E34.32234
G0 F12000 X112.965 Y117.615
G0 X112.962 Y115.101
G0 X113.121 Y115.101
G1 F1200 X112.974 Y114.954 E34.34728
G0 F12000 X112.974 Y115.115
G0 X109.324 Y115.074
G0 X109.365 Y115.464
G0 X109.525 Y115.464
G1 F1200 X109.138 Y115.078 E34.41287
G0 F12000 X109.382 Y115.887
G1 F1200 X109.500 Y116.005 E34.43290
G10
G1 Z0.400
G0 F12000 X116.405 Y117.915
;TYPE:WALL-OUTER
G1 Z0.300
G11
G1 F1200 X109.235 Y105.085 E36.19661
G1 X109.775 Y105.085 E36.26141
G1 X116.945 Y117.915 E38.02511
G1 X116.405 Y117.915 E38.08991
G0 F12000 X116.425 Y117.274
;TYPE:SKIN
G1 F1200 X115.931 Y116.780 E38.17375
G0 F12000 X115.708 Y115.991
G1 F1200 X115.215 Y115.498 E38.25741
G0 F12000 X114.992 Y114.709
G1 F1200 X114.498 Y114.216 E38.34116
G0 F12000 X114.275 Y113.426
G1 F1200 X113.781 Y112.933 E38.42491
G0 F12000 X113.558 Y112.144
G1 F1200 X113.065 Y111.651 E38.50857
G0 F12000 X112.842 Y110.862
G1 F1200 X112.349 Y110.369 E38.59224
G0 F12000 X112.125 Y109.579
G1 F1200 X111.632 Y109.086 E38.67590
G0 F12000 X111.408 Y108.296
G1 F1200 X110.916 Y107.804 E38.75940
G0 F12000 X110.691 Y107.014
G1 F1200 X110.199 Y106.522 E38.84289
G0 F12000 X109.974 Y105.732
G1 F1200 X109.482 Y105.240 E38.92639
G10
G1 Z0.400
G0 F12000 X121.629 Y117.915
;TYPE:WALL-OUTER
G1 Z0.300
G11
G1 F1200 X128.801 Y105.085 E40.69021
G1 X129.341 Y105.085 E40.75501
G1 X122.169 Y117.915 E42.51883
G1 X121.629 Y117.915 E42.58363
G0 F12000 X121.921 Y117.678
;TYPE:SKIN
G1 F1200 X122.140 Y117.615 E42.59984
G1 X122.295 Y117.204 E42.62369
G1 X122.498 Y116.841 E42.64752
G1 X122.700 Y116.478 E42.67132
G1 X122.903 Y116.115 E42.69491
G1 X123.106 Y115.752 E42.71849
G1 X123.309 Y115.389 E42.74207
G1 X123.512 Y115.027 E42.76560
G1 X123.715 Y114.664 E42.78943
G1 X123.917 Y114.300 E42.81329
G1 X124.120 Y113.938 E42.83682
G1 X124.323 Y113.575 E42.86040
G1 X124.526 Y113.212 E42.88398
G1 X124.729 Y112.849 E42.90756
G1 X124.932 Y112.487 E42.93110
G1 X125.135 Y112.124 E42.95468
G1 X125.337 Y111.761 E42.97823
G1 X125.540 Y111.398 E43.00182
G1 X125.743 Y111.035 E43.02540
G1 X125.946 Y110.672 E43.04898
G1 X126.149 Y110.310 E43.07251
G1 X126.352 Y109.947 E43.09609
G1 X126.555 Y109.584 E43.11955
G1 X126.757 Y109.221 E43.14310
G1 X126.960 Y108.858 E43.16669
G1 X127.163 Y108.495 E43.19027
G1 X127.366 Y108.132 E43.21385
G1 X127.569 Y107.769 E43.23743
G1 X127.771 Y107.407 E43.26106
G1 X127.974 Y107.044 E43.28464
G1 X128.177 Y106.681 E43.30822
G1 X128.380 Y106.318 E43.33181
G1 X128.583 Y105.955 E43.35539
G1 X128.785 Y105.592 E43.37894
G1 X128.817 Y105.341 E43.40931
G10
G1 Z0.400
G0 F12000 X132.011 Y105.085
;TYPE:WALL-OUTER
G1 Z0.300
G11
G1 F1200 X132.592 Y105.085 E43.47903
G1 X128.812 Y117.629 E45.05117
G1 X128.812 Y115.415 E45.31685
G1 X125.813 Y115.415 E45.67673
G1 X125.813 Y117.915 E45.97673
G1 X125.213 Y117.915 E46.04873
G1 X125.213 Y114.815 E46.42073
G1 X129.079 Y114.815 E46.88465
G1 X132.011 Y105.085 E48.10410
G0 F12000 X132.108 Y105.238
;TYPE:SKIN
G1 F1200 X132.154 Y105.567 E48.14198
G1 X132.024 Y106.002 E48.17984
G1 X131.893 Y106.437 E48.21759
G1 X131.762 Y106.872 E48.25534
G1 X131.631 Y107.307 E48.29310
G1 X131.500 Y107.741 E48.33077
G1 X131.369 Y108.176 E48.36852
G1 X131.238 Y108.610 E48.40633
G1 X131.107 Y109.045 E48.44408
G1 X130.976 Y109.480 E48.48183
G1 X130.845 Y109.915 E48.51959
G1 X130.714 Y110.349 E48.55726
G1 X130.583 Y110.784 E48.59501
G1 X130.452 Y111.219 E48.63276
G1 X130.321 Y111.654 E48.67051
G1 X130.190 Y112.089 E48.70813
G1 X130.059 Y112.523 E48.74567
G1 X129.928 Y112.958 E48.78315
G1 X129.797 Y113.392 E48.82068
G1 X129.666 Y113.827 E48.85816
G1 X129.535 Y114.262 E48.89578
G1 X129.404 Y114.696 E48.93332
G1 X129.384 Y115.242 E48.97085
G1 X128.691 Y115.114 E49.05647
G1 X128.125 Y115.114 E49.11047
G1 X127.559 Y115.114 E49.16447
G1 X126.994 Y115.114 E49.21854
G1 X126.428 Y115.114 E49.27253
G1 X125.862 Y115.114 E49.32653
G1 X125.386 Y115.203 E49.38057
G1 X125.511 Y115.895 E49.43458
G1 X125.511 Y116.461 E49.48857
G1 X125.511 Y117.026 E49.54265
G1 X125.541 Y117.621 E49.59680
G1 X125.352 Y117.715 E49.62213
G10
G1 Z0.400
G0 F12000 X128.951 Y116.223
G1 Z0.300
G11
G1 F1200 X129.122 Y116.111 E49.64004
G1 X128.951 Y115.657 E49.69825
;LAYER:1
G10
G1 Z0.400
G0 F12000 X113.263 Y114.814 Z0.360
;TYPE:WALL-OUTER
G1 Z0.360
G11
G1 F1260 X113.263 Y117.916 E49.77251
G1 X112.661 Y117.916 E49.78693
G1 X112.661 Y115.416 E49.84678
G1 X109.666 Y115.416 E49.91848
G1 X109.666 Y117.311 E49.96384
G1 X105.981 Y105.084 E50.26956
G1 X106.565 Y105.084 E50.28354
G1 X109.498 Y114.814 E50.52683
G1 X113.263 Y114.814 E50.61697
G0 F12000 X113.122 Y115.125
;TYPE:SKIN
G1 F1260 X112.961 Y115.568 E50.62783
G1 X112.961 Y116.132 E50.63869
G1 X112.961 Y116.696 E50.64952
G1 X112.961 Y117.261 E50.66037
G1 X112.801 Y117.704 E50.67164
G0 F12000 X112.961 Y117.704
G0 X113.002 Y115.075
G0 X112.408 Y115.116
G0 X112.408 Y115.275
G1 F1260 X112.448 Y114.952 E50.68256
G1 X111.723 Y115.113 E50.69347
G1 X111.159 Y115.113 E50.70437
G1 X110.594 Y115.113 E50.71529
G1 X110.030 Y115.113 E50.72618
G1 X109.556 Y115.305 E50.73711
G1 X109.407 Y115.737 E50.74511
G1 X109.419 Y116.007 E50.75158
G0 F12000 X109.158 Y115.140
G1 F1260 X109.204 Y114.811 E50.75914
G1 X109.073 Y114.377 E50.76665
G1 X108.943 Y113.944 E50.77419
G1 X108.812 Y113.510 E50.78172
G1 X108.681 Y113.077 E50.78924
G1 X108.551 Y112.643 E50.79680
G1 X108.420 Y112.209 E50.80433
G1 X108.289 Y111.776 E50.81188
G1 X108.158 Y111.342 E50.81938
G1 X108.028 Y110.909 E50.82690
G1 X107.897 Y110.475 E50.83443
G1 X107.767 Y110.041 E50.84199
G1 X107.636 Y109.608 E50.84953
G1 X107.505 Y109.174 E50.85707
G1 X107.374 Y108.741 E50.86459
G1 X107.243 Y108.307 E50.87210
G1 X107.113 Y107.874 E50.87961
G1 X106.982 Y107.440 E50.88714
G1 X106.852 Y107.006 E50.89467
G1 X106.721 Y106.573 E50.90219
G1 X106.590 Y106.139 E50.90973
G1 X106.459 Y105.706 E50.91724
G1 X106.505 Y105.378 E50.92517
G10
G1 Z0.460
G0 F12000 X109.776 Y105.084
;TYPE:WALL-OUTER
G1 Z0.360
G11
G1 F1260 X116.948 Y117.916 E51.27710
G1 X116.404 Y117.916 E51.29012
G1 X109.232 Y105.084 E51.64205
G1 X109.776 Y105.084 E51.65507
G0 F12000 X109.819 Y105.450
;TYPE:SKIN
G1 F1260 X109.848 Y105.702 E51.65991
G1 X110.050 Y106.064 E51.66473
G1 X110.253 Y106.426 E51.66957
G1 X110.455 Y106.788 E51.67439
G1 X110.658 Y107.150 E51.67920
G1 X110.860 Y107.512 E51.68402
G1 X111.062 Y107.874 E51.68885
G1 X111.264 Y108.236 E51.69367
G1 X111.467 Y108.598 E51.69848
G1 X111.669 Y108.960 E51.70330
G1 X111.872 Y109.322 E51.70814
G1 X112.074 Y109.683 E51.71298
G1 X112.276 Y110.045 E51.71780
G1 X112.479 Y110.407 E51.72263
G1 X112.681 Y110.770 E51.72747
G1 X112.883 Y111.132 E51.73227
G1 X113.086 Y111.493 E51.73706
G1 X113.288 Y111.855 E51.74189
G1 X113.490 Y112.217 E51.74671
G1 X113.693 Y112.579 E51.75152
G1 X113.895 Y112.941 E51.75635
G1 X114.097 Y113.303 E51.76117
G1 X114.300 Y113.665 E51.76600
G1 X114.502 Y114.027 E51.77085
G1 X114.704 Y114.389 E51.77568
G1 X114.907 Y114.751 E51.78048
G1 X115.109 Y115.113 E51.78528
G1 X115.311 Y115.475 E51.79008
G1 X115.514 Y115.836 E51.79488
G1 X115.716 Y116.198 E51.79971
G1 X115.919 Y116.561 E51.80455
G1 X116.121 Y116.923 E51.80940
G1 X116.323 Y117.285 E51.81425
G1 X116.353 Y117.537 E51.82032
G10
G1 Z0.460
G0 F12000 X121.626 Y117.916
;TYPE:WALL-OUTER
G1 Z0.360
G11
G1 F1260 X128.800 Y105.084 E52.17227
G1 X129.344 Y105.084 E52.18529
G1 X122.170 Y117.916 E52.53724
G1 X121.626 Y117.916 E52.55026
G0 F12000 X121.998 Y117.535
;TYPE:SKIN
G1 F1260 X122.504 Y117.029 E52.56740
G0 F12000 X122.713 Y116.256
G1 F1260 X123.221 Y115.748 E52.58460
G0 F12000 X123.429 Y114.976
G1 F1260 X123.936 Y114.468 E52.60178
G0 F12000 X124.144 Y113.696
G1 F1260 X124.652 Y113.188 E52.61898
G0 F12000 X124.859 Y112.417
G1 F1260 X125.367 Y111.908 E52.63619
G0 F12000 X125.575 Y111.137
G1 F1260 X126.083 Y110.628 E52.65341
G0 F12000 X126.290 Y109.857
G1 F1260 X126.799 Y109.349 E52.67062
G0 F12000 X127.005 Y108.578
G1 F1260 X127.514 Y108.069 E52.68786
G0 F12000 X127.721 Y107.298
G1 F1260 X128.230 Y106.789 E52.70509
G0 F12000 X128.436 Y106.018
G1 F1260 X128.945 Y105.509 E52.72232
G10
G1 Z0.460
G0 F12000 X132.010 Y105.084
;TYPE:WALL-OUTER
G1 Z0.360
G11
G1 F1260 X132.594 Y105.084 E52.73630
G1 X128.811 Y117.637 E53.05017
G1 X128.811 Y115.416 E53.10334
G1 X125.814 Y115.416 E53.17509
G1 X125.814 Y117.916 E53.23494
G1 X125.212 Y117.916 E53.24935
G1 X125.212 Y114.814 E53.32361
G1 X129.078 Y114.814 E53.41617
G1 X132.010 Y105.084 E53.65945
G0 F12000 X132.312 Y105.528
;TYPE:SKIN
G1 F1260 X131.982 Y106.140 E53.67351
G1 X131.739 Y106.947 E53.68757
G1 X131.496 Y107.755 E53.70159
G1 X131.252 Y108.562 E53.71560
G1 X131.009 Y109.370 E53.72962
G1 X130.766 Y110.177 E53.74363
G1 X130.522 Y110.985 E53.75766
G1 X130.279 Y111.793 E53.77168
G1 X130.035 Y112.601 E53.78571
G1 X129.792 Y113.408 E53.79972
G1 X129.549 Y114.216 E53.81374
G1 X129.157 Y114.890 E53.82778
G1 X128.650 Y115.114 E53.83868
G1 X128.086 Y115.114 E53.84958
G1 X127.522 Y115.114 E53.86048
G1 X126.958 Y115.114 E53.87137
G1 X126.393 Y115.114 E53.88229
G1 X125.811 Y115.414 E53.89321
G1 X125.512 Y115.996 E53.90408
G1 X125.512 Y116.560 E53.91495
G1 X125.512 Y117.124 E53.92581
G1 X125.351 Y117.567 E53.93709
G0 F12000 X125.512 Y117.567
G0 X125.512 Y115.310
G0 X125.351 Y115.310
G1 F1260 X125.708 Y114.953 E53.94918
G0 F12000 X125.708 Y115.114
G0 X129.152 Y115.075
G0 X129.111 Y115.662
G0 X128.950 Y115.662
G1 F1260 X129.392 Y115.220 E53.96415
G0 F12000 X129.148 Y116.027
G1 F1260 X128.950 Y116.226 E53.97087
;LAYER:2
G10
G1 Z0.460
G0 F12000 X113.263 Y114.814 Z0.420
;TYPE:WALL-OUTER
G1 Z0.420
G11
G1 F1320 X113.263 Y117.916 E54.04513
G1 X112.661 Y117.916 E54.05954
G1 X112.661 Y115.416 E54.11939
G1 X109.666 Y115.416 E54.19109
G1 X109.666 Y117.311 E54.23646
G1 X105.981 Y105.084 E54.54218
G1 X106.565 Y105.084 E54.55616
G1 X109.498 Y114.814 E54.79945
G1 X113.263 Y114.814 E54.88958
G0 F12000 X113.122 Y115.098
;TYPE:SKIN
G1 F1320 X112.856 Y115.114 E54.89449
G1 X112.292 Y115.114 E54.90535
G1 X111.727 Y115.114 E54.91623
G1 X111.163 Y115.114 E54.92710
G1 X110.599 Y115.114 E54.93796
G1 X110.035 Y115.114 E54.94882
G1 X109.449 Y114.810 E54.95971
G1 X108.976 Y114.055 E54.97383
G1 X108.733 Y113.247 E54.98790
G1 X108.489 Y112.440 E55.00196
G1 X108.246 Y111.632 E55.01604
G1 X108.002 Y110.824 E55.03011
G1 X107.759 Y110.017 E55.04422
G1 X107.515 Y109.208 E55.05832
G1 X107.272 Y108.401 E55.07243
G1 X107.028 Y107.593 E55.08650
G1 X106.785 Y106.785 E55.10058
G1 X106.541 Y105.978 E55.11469
G1 X106.211 Y105.365 E55.13136
G0 F12000 X106.365 Y105.321
G0 X109.286 Y115.015
G0 X109.133 Y115.059
G1 F1320 X109.451 Y115.659 E55.14464
G1 X109.520 Y116.010 E55.15320
G10
G1 Z0.520
G0 F12000 X112.800 Y115.904
G1 Z0.420
G11
G1 F1320 X112.961 Y116.347 E55.16412
G1 X112.961 Y116.912 E55.17504
G1 X112.961 Y117.476 E55.18590
G1 X112.977 Y117.774 E55.19304
G0 F12000 X112.977 Y117.616
G0 X112.963 Y115.662
G0 X113.122 Y115.662
G1 F1320 X112.800 Y115.340 E55.20394
G10
G1 Z0.520
G0 F12000 X116.404 Y117.916
;TYPE:WALL-OUTER
G1 Z0.420
G11
G1 F1320 X109.232 Y105.084 E55.55587
G1 X109.776 Y105.084 E55.56889
G1 X116.948 Y117.916 E55.92082
G1 X116.404 Y117.916 E55.93384
G0 F12000 X116.434 Y117.281
;TYPE:SKIN
G1 F1320 X115.821 Y116.386 E55.95109
G1 X115.105 Y115.106 E55.96834
G1 X114.494 Y114.212 E55.99426
G0 F12000 X114.287 Y113.441
G1 F1320 X113.778 Y112.932 E56.01149
G0 F12000 X113.571 Y112.161
G1 F1320 X113.063 Y111.653 E56.02869
G0 F12000 X112.856 Y110.882
G1 F1320 X112.347 Y110.373 E56.04592
G0 F12000 X112.140 Y109.602
G1 F1320 X111.633 Y109.094 E56.06311
G0 F12000 X111.425 Y108.322
G1 F1320 X110.917 Y107.814 E56.08031
G0 F12000 X110.710 Y107.043
G1 F1320 X110.201 Y106.534 E56.09754
G0 F12000 X109.994 Y105.763
G1 F1320 X109.486 Y105.255 E56.11474
G10
G1 Z0.520
G0 F12000 X121.626 Y117.916
;TYPE:WALL-OUTER
G1 Z0.420
G11
G1 F1320 X128.800 Y105.084 E56.46668
G1 X129.344 Y105.084 E56.47971
G1 X122.170 Y117.916 E56.83166
G1 X121.626 Y117.916 E56.84468
G0 F12000 X121.915 Y117.683
;TYPE:SKIN
G1 F1320 X122.134 Y117.620 E56.84780
G1 X122.290 Y117.212 E56.85265
G1 X122.492 Y116.850 E56.85750
G1 X122.694 Y116.488 E56.86237
G1 X122.897 Y116.126 E56.86723
G1 X123.099 Y115.764 E56.87208
G1 X123.302 Y115.403 E56.87692
G1 X123.504 Y115.041 E56.88177
G1 X123.706 Y114.679 E56.88662
G1 X123.908 Y114.317 E56.89150
G1 X124.111 Y113.955 E56.89635
G1 X124.313 Y113.593 E56.90125
G1 X124.515 Y113.231 E56.90613
G1 X124.718 Y112.869 E56.91098
G1 X124.920 Y112.507 E56.91586
G1 X125.123 Y112.145 E56.92072
G1 X125.325 Y111.783 E56.92557
G1 X125.527 Y111.421 E56.93047
G1 X125.729 Y111.059 E56.93537
G1 X125.932 Y110.697 E56.94027
G1 X126.134 Y110.336 E56.94516
G1 X126.337 Y109.974 E56.95002
G1 X126.539 Y109.612 E56.95487
G1 X126.741 Y109.250 E56.95974
G1 X126.944 Y108.887 E56.96466
G1 X127.146 Y108.525 E56.96956
G1 X127.348 Y108.163 E56.97446
G1 X127.551 Y107.802 E56.97930
G1 X127.753 Y107.440 E56.98415
G1 X127.955 Y107.078 E56.98905
G1 X128.158 Y106.716 E56.99396
G1 X128.360 Y106.354 E56.99886
G1 X128.562 Y105.992 E57.00376
G1 X128.765 Y105.630 E57.00866
G1 X128.794 Y105.378 E57.01474
G10
G1 Z0.520
G0 F12000 X132.010 Y105.084
;TYPE:WALL-OUTER
G1 Z0.420
G11
G1 F1320 X132.594 Y105.084 E57.02872
G1 X128.811 Y117.637 E57.34259
G1 X128.811 Y115.416 E57.39576
G1 X125.814 Y115.416 E57.46751
G1 X125.814 Y117.916 E57.52736
G1 X125.212 Y117.916 E57.54177
G1 X125.212 Y114.814 E57.61603
G1 X129.078 Y114.814 E57.70858
G1 X132.010 Y105.084 E57.95186
G0 F12000 X132.093 Y105.291
;TYPE:SKIN
G1 F1320 X132.139 Y105.619 E57.95942
G1 X132.008 Y106.052 E57.96696
G1 X131.877 Y106.486 E57.97455
G1 X131.747 Y106.920 E57.98211
G1 X131.616 Y107.354 E57.98967
G1 X131.486 Y107.787 E57.99721
G1 X131.355 Y108.220 E58.00476
G1 X131.225 Y108.655 E58.01233
G1 X131.094 Y109.088 E58.01987
G1 X130.963 Y109.522 E58.02744
