;FLAVOR:UltiGCode
;TIME:245
;MATERIAL:126
;MATERIAL2:0
;NOZZLE_DIAMETER:0.400000
;NOZZLE_DIAMETER2:0.400000

;Layer count: 41
;LAYER:0
M107
G0 F12000 X110.761 Y100.885 Z0.300
;TYPE:SKIRT
G1 F1200 X122.668 Y100.885 E1.42884
G1 X120.482 Y108.149 E2.33914
G1 X116.272 Y122.116 E4.08966
G1 X98.896 Y122.116 E6.17478
G1 X110.761 Y100.885 E9.09336
G0 F12000 X110.996 Y101.285
G1 F1200 X122.130 Y101.285 E10.42944
G1 X120.099 Y108.033 E11.27508
G1 X115.975 Y121.716 E12.98999
G1 X99.578 Y121.716 E14.95763
G1 X110.996 Y101.285 E17.76624
G0 F12000 X111.230 Y101.685
G1 F1200 X121.592 Y101.685 E19.00968
G1 X119.716 Y107.918 E19.79078
G1 X115.678 Y121.316 E21.46998
G1 X100.260 Y121.316 E23.32014
G1 X111.230 Y101.685 E26.01872
G10
G1 Z0.400
G0 F12000 X113.226 Y105.085
;TYPE:WALL-OUTER
G1 Z0.300
G11
G1 F1200 X113.766 Y105.085 E26.08352
G1 X106.595 Y117.916 E27.84739
G1 X106.055 Y117.916 E27.91219
G1 X113.226 Y105.085 E29.67605
G0 F12000 X113.427 Y105.225
;TYPE:SKIN
G1 F1200 X113.318 Y105.399 E29.68671
G1 X113.115 Y105.761 E29.71024
G1 X112.912 Y106.124 E29.73382
G1 X112.710 Y106.488 E29.75768
G1 X112.507 Y106.850 E29.78121
G1 X112.304 Y107.213 E29.80479
G1 X112.101 Y107.576 E29.82837
G1 X111.899 Y107.939 E29.85193
G1 X111.696 Y108.302 E29.87551
G1 X111.493 Y108.665 E29.89909
G1 X111.290 Y109.028 E29.92267
G1 X111.087 Y109.390 E29.94621
G1 X110.885 Y109.754 E29.97006
G1 X110.682 Y110.117 E29.99364
G1 X110.479 Y110.479 E30.01717
G1 X110.276 Y110.842 E30.04076
G1 X110.074 Y111.205 E30.06431
G1 X109.871 Y111.568 E30.08789
G1 X109.668 Y111.931 E30.11147
G1 X109.465 Y112.294 E30.13506
G1 X109.263 Y112.657 E30.15861
G1 X109.060 Y113.020 E30.18207
G1 X108.857 Y113.383 E30.20565
G1 X108.654 Y113.745 E30.22918
G1 X108.451 Y114.108 E30.25276
G1 X108.249 Y114.471 E30.27632
G1 X108.046 Y114.834 E30.29990
G1 X107.843 Y115.197 E30.32348
G1 X107.640 Y115.560 E30.34706
G1 X107.438 Y115.923 E30.37062
G1 X107.235 Y116.286 E30.39407
G1 X107.032 Y116.649 E30.41753
G1 X106.829 Y117.012 E30.44111
G1 X106.626 Y117.374 E30.46465
G1 X106.595 Y117.626 E30.49511
G10
G1 Z0.400
G0 F12000 X109.639 Y117.916
;TYPE:WALL-OUTER
G1 Z0.300
G11
G1 F1200 X109.639 Y114.816 E30.86711
G1 X113.503 Y114.816 E31.33079
G1 X116.436 Y105.085 E32.55040
G1 X117.017 Y105.085 E32.62012
G1 X113.238 Y117.627 E34.19200
G1 X113.238 Y115.416 E34.45732
G1 X110.239 Y115.416 E34.81720
G1 X110.239 Y117.916 E35.11720
G1 X109.639 Y117.916 E35.18920
G0 F12000 X110.099 Y117.736
;TYPE:SKIN
G1 F1200 X109.939 Y117.292 E35.24357
G1 X109.939 Y116.727 E35.29781
G1 X109.939 Y116.161 E35.35197
G1 X109.939 Y115.595 E35.40631
G1 X109.963 Y115.054 E35.46057
G1 X110.590 Y115.115 E35.51481
G1 X111.155 Y115.115 E35.56888
G1 X111.721 Y115.115 E35.62305
G1 X112.287 Y115.115 E35.67721
G1 X112.852 Y115.115 E35.73128
G1 X113.336 Y115.316 E35.78552
G1 X113.530 Y115.793 E35.83759
G1 X113.552 Y116.098 E35.87428
G0 F12000 X113.815 Y115.229
G1 F1200 X113.632 Y114.763 E35.92069
G1 X114.011 Y114.576 E35.95847
G1 X114.030 Y114.030 E35.99617
G1 X114.161 Y113.596 E36.03384
G1 X114.292 Y113.161 E36.07173
G1 X114.423 Y112.726 E36.10948
G1 X114.554 Y112.292 E36.14702
G1 X114.685 Y111.857 E36.18477
G1 X114.816 Y111.422 E36.22252
G1 X114.947 Y110.987 E36.26028
G1 X115.078 Y110.552 E36.29816
G1 X115.209 Y110.117 E36.33605
G1 X115.339 Y109.682 E36.37392
G1 X115.471 Y109.248 E36.41175
G1 X115.602 Y108.813 E36.44950
G1 X115.733 Y108.379 E36.48731
G1 X115.863 Y107.944 E36.52517
G1 X115.994 Y107.509 E36.56306
G1 X116.125 Y107.074 E36.60082
G1 X116.256 Y106.639 E36.63857
G1 X116.387 Y106.205 E36.67651
G1 X116.518 Y105.770 E36.71440
G1 X116.472 Y105.441 E36.75426
;LAYER:1
M106 S2
G10
G1 Z0.400
G0 F12000 X113.225 Y105.084 Z0.360
;TYPE:WALL-OUTER
G1 Z0.360
G11
G1 F1080 X113.769 Y105.084 E36.76729
G1 X106.596 Y117.917 E37.11924
G1 X106.052 Y117.917 E37.13227
G1 X113.225 Y105.084 E37.48422
G0 F12000 X113.431 Y105.223
;TYPE:SKIN
G1 F1080 X113.146 Y105.508 E37.49387
G0 F12000 X112.939 Y106.280
G1 F1080 X112.432 Y106.787 E37.51104
G0 F12000 X112.224 Y107.559
G1 F1080 X111.717 Y108.067 E37.52822
G0 F12000 X111.509 Y108.839
G1 F1080 X111.001 Y109.346 E37.54540
G0 F12000 X110.794 Y110.118
G1 F1080 X110.286 Y110.626 E37.56260
G0 F12000 X110.078 Y111.398
G1 F1080 X109.571 Y111.905 E37.57977
G0 F12000 X109.363 Y112.677
G1 F1080 X108.856 Y113.184 E37.59693
G0 F12000 X108.648 Y113.957
G1 F1080 X108.141 Y114.464 E37.61410
G0 F12000 X107.932 Y115.237
G1 F1080 X107.426 Y115.743 E37.63123
G0 F12000 X107.217 Y116.516
G1 F1080 X106.711 Y117.022 E37.64836
G10
G1 Z0.460
G0 F12000 X110.240 Y115.417
;TYPE:WALL-OUTER
G1 Z0.360
G11
G1 F1080 X110.240 Y117.917 E37.70821
G1 X109.638 Y117.917 E37.72262
G1 X109.638 Y114.815 E37.79688
G1 X113.502 Y114.815 E37.88939
G1 X116.435 Y105.084 E38.13270
G1 X117.019 Y105.084 E38.14668
G1 X113.237 Y117.634 E38.46047
G1 X113.237 Y115.417 E38.51355
G1 X110.240 Y115.417 E38.58530
G0 F12000 X110.100 Y115.326
;TYPE:SKIN
G1 F1080 X109.939 Y115.769 E38.59619
G1 X109.939 Y116.333 E38.60705
G1 X109.939 Y116.898 E38.61793
G1 X109.939 Y117.462 E38.62879
G1 X109.907 Y117.776 E38.63635
G0 F12000 X109.907 Y117.617
G0 X109.899 Y115.076
G0 X110.150 Y115.117
G0 X110.150 Y115.276
G1 F1080 X110.593 Y115.115 E38.64724
G1 X111.157 Y115.115 E38.65810
G1 X111.722 Y115.115 E38.66898
G1 X112.286 Y115.115 E38.67984
G1 X112.850 Y115.115 E38.69071
G1 X113.335 Y115.194 E38.70159
G1 X113.827 Y114.701 E38.71976
G1 X114.071 Y113.894 E38.73383
G1 X114.314 Y113.086 E38.74790
G1 X114.558 Y112.279 E38.76196
G1 X114.801 Y111.471 E38.77599
G1 X115.044 Y110.664 E38.79004
G1 X115.287 Y109.856 E38.80412
G1 X115.530 Y109.049 E38.81813
G1 X115.774 Y108.241 E38.83215
G1 X116.017 Y107.434 E38.84616
G1 X116.260 Y106.626 E38.86018
G1 X116.503 Y105.818 E38.87421
G1 X116.817 Y105.223 E38.89031
G10
G1 Z0.460
G0 F12000 X113.671 Y115.705
G1 Z0.360
G11
G1 F1080 X113.377 Y115.999 E38.90027
G0 F12000 X109.908 Y114.954
G1 F1080 X109.778 Y115.084 E38.90467
;LAYER:2
M106 S5
G0 F12000 X106.596 Y117.917 Z0.420
;TYPE:WALL-OUTER
G1 F1080 X106.052 Y117.917 E38.91769
G1 X113.225 Y105.084 E39.26965
G1 X113.769 Y105.084 E39.28267
G1 X106.596 Y117.917 E39.63463
G0 F12000 X106.606 Y117.610
;TYPE:SKIN
G1 F1080 X106.635 Y117.357 E39.63949
G1 X106.837 Y116.995 E39.64436
G1 X107.040 Y116.633 E39.64922
G1 X107.242 Y116.271 E39.65407
G1 X107.444 Y115.909 E39.65892
G1 X107.647 Y115.548 E39.66374
G1 X107.849 Y115.186 E39.66861
G1 X108.052 Y114.824 E39.67347
G1 X108.254 Y114.462 E39.67832
G1 X108.456 Y114.100 E39.68317
G1 X108.658 Y113.738 E39.68802
G1 X108.860 Y113.375 E39.69293
G1 X109.063 Y113.013 E39.69781
G1 X109.265 Y112.651 E39.70271
G1 X109.468 Y112.290 E39.70756
G1 X109.670 Y111.928 E39.71241
G1 X109.872 Y111.566 E39.71728
G1 X110.075 Y111.204 E39.72214
G1 X110.277 Y110.842 E39.72699
G1 X110.479 Y110.480 E39.73184
G1 X110.681 Y110.118 E39.73671
G1 X110.884 Y109.756 E39.74159
G1 X111.086 Y109.394 E39.74649
G1 X111.289 Y109.032 E39.75138
G1 X111.491 Y108.670 E39.75625
G1 X111.693 Y108.308 E39.76113
G1 X111.895 Y107.946 E39.76603
G1 X112.098 Y107.584 E39.77091
G1 X112.300 Y107.222 E39.77581
G1 X112.502 Y106.860 E39.78071
G1 X112.704 Y106.498 E39.78561
G1 X112.907 Y106.136 E39.79049
G1 X113.109 Y105.774 E39.79539
G1 X113.272 Y105.373 E39.80024
G1 X113.485 Y105.304 E39.80560
G10
G1 Z0.520
G0 F12000 X116.435 Y105.084
;TYPE:WALL-OUTER
G1 Z0.420
G11
G1 F1080 X117.019 Y105.084 E39.81958
G1 X113.237 Y117.634 E40.13338
G1 X113.237 Y115.417 E40.18645
G1 X110.240 Y115.417 E40.25820
G1 X110.240 Y117.917 E40.31805
G1 X109.638 Y117.917 E40.33246
G1 X109.638 Y114.815 E40.40672
G1 X113.502 Y114.815 E40.49923
G1 X116.435 Y105.084 E40.74254
G0 F12000 X116.466 Y105.463
;TYPE:SKIN
G1 F1080 X116.512 Y105.792 E40.75010
G1 X116.381 Y106.225 E40.75764
G1 X116.250 Y106.658 E40.76519
G1 X116.120 Y107.093 E40.77276
G1 X115.989 Y107.526 E40.78031
G1 X115.858 Y107.960 E40.78787
G1 X115.728 Y108.393 E40.79543
G1 X115.597 Y108.826 E40.80298
G1 X115.467 Y109.261 E40.81055
G1 X115.336 Y109.694 E40.81810
G1 X115.205 Y110.127 E40.82565
G1 X115.074 Y110.561 E40.83323
G1 X114.944 Y110.995 E40.84085
G1 X114.813 Y111.429 E40.84841
G1 X114.683 Y111.862 E40.85598
G1 X114.552 Y112.295 E40.86352
G1 X114.422 Y112.730 E40.87112
G1 X114.291 Y113.163 E40.87867
G1 X114.160 Y113.597 E40.88623
G1 X114.029 Y114.030 E40.89377
G1 X113.899 Y114.464 E40.90139
G1 X113.744 Y114.873 E40.90900
G1 X113.750 Y115.444 E40.91821
G1 X113.338 Y115.314 E40.92863
G1 X112.857 Y115.115 E40.93953
G1 X112.292 Y115.115 E40.95041
G1 X111.728 Y115.115 E40.96128
G1 X111.164 Y115.115 E40.97214
G1 X110.600 Y115.115 E40.98300
G1 X109.967 Y115.046 E40.99389
G1 X109.938 Y115.582 E41.00481
G1 X109.938 Y116.146 E41.01571
G1 X109.938 Y116.710 E41.02660
G1 X109.938 Y117.274 E41.03750
G1 X110.100 Y117.718 E41.04881
G0 F12000 X109.940 Y117.707
G0 X109.899 Y115.076
G0 X113.578 Y115.076
G0 X113.537 Y115.916
G0 X113.376 Y115.916
G1 F1080 X113.554 Y116.094 E41.05484
;LAYER:3
M106 S7
G10
G1 Z0.520
G0 F12000 X106.596 Y117.917 Z0.480
;TYPE:WALL-OUTER
G1 Z0.480
G11
G1 F1080 X106.052 Y117.917 E41.06786
G1 X113.225 Y105.084 E41.41982
G1 X113.769 Y105.084 E41.43284
G1 X106.596 Y117.917 E41.78480
G0 F12000 X106.711 Y117.022
;TYPE:SKIN
G1 F1080 X107.217 Y116.516 E41.80193
G0 F12000 X107.426 Y115.743
G1 F1080 X107.932 Y115.237 E41.81906
G0 F12000 X108.141 Y114.464
G1 F1080 X108.648 Y113.957 E41.83623
G0 F12000 X108.856 Y113.184
G1 F1080 X109.363 Y112.677 E41.85339
G0 F12000 X109.571 Y111.905
G1 F1080 X110.078 Y111.398 E41.87056
G0 F12000 X110.286 Y110.626
G1 F1080 X110.794 Y110.118 E41.88776
G0 F12000 X111.001 Y109.346
G1 F1080 X111.509 Y108.839 E41.90494
G0 F12000 X111.717 Y108.067
G1 F1080 X112.224 Y107.559 E41.92212
G0 F12000 X112.432 Y106.787
G1 F1080 X112.939 Y106.280 E41.93929
G0 F12000 X113.146 Y105.508
G1 F1080 X113.431 Y105.223 E41.94894
G10
G1 Z0.580
G0 F12000 X116.435 Y105.084
;TYPE:WALL-OUTER
G1 Z0.480
G11
G1 F1080 X117.019 Y105.084 E41.96292
G1 X113.237 Y117.634 E42.27671
G1 X113.237 Y115.417 E42.32978
G1 X110.240 Y115.417 E42.40153
G1 X110.240 Y117.917 E42.46138
G1 X109.638 Y117.917 E42.47579
G1 X109.638 Y114.815 E42.55006
G1 X113.502 Y114.815 E42.64256
G1 X116.435 Y105.084 E42.88587
G0 F12000 X116.817 Y105.223
;TYPE:SKIN
G1 F1080 X116.503 Y105.818 E42.89936
G1 X116.260 Y106.626 E42.91338
G1 X116.017 Y107.434 E42.92740
G1 X115.774 Y108.241 E42.94141
G1 X115.530 Y109.049 E42.95544
G1 X115.287 Y109.856 E42.96944
G1 X115.044 Y110.664 E42.98352
G1 X114.801 Y111.471 E42.99758
G1 X114.558 Y112.279 E43.01160
G1 X114.314 Y113.086 E43.02566
G1 X114.071 Y113.894 E43.03973
G1 X113.827 Y114.701 E43.05380
G1 X113.524 Y115.570 E43.07196
G1 X113.377 Y115.999 E43.08282
G0 F12000 X112.972 Y115.276
G1 F1080 X113.011 Y114.954 E43.09372
G1 X112.286 Y115.115 E43.10459
G1 X111.722 Y115.115 E43.11545
G1 X111.157 Y115.115 E43.12634
G1 X110.593 Y115.115 E43.13720
G1 X110.125 Y115.301 E43.14808
G1 X109.939 Y115.769 E43.15895
G1 X109.939 Y116.333 E43.16982
G1 X109.939 Y116.898 E43.18070
G1 X109.939 Y117.462 E43.19156
G1 X109.907 Y117.776 E43.19912
G0 F12000 X109.907 Y117.617
G0 X109.938 Y115.084
G0 X109.778 Y115.084
G1 F1080 X109.908 Y114.954 E43.20352
;LAYER:4
M106 S12
G10
G1 Z0.580
G0 F12000 X106.596 Y117.917 Z0.540
;TYPE:WALL-OUTER
G1 Z0.540
G11
G1 F1080 X106.052 Y117.917 E43.21654
G1 X113.225 Y105.084 E43.56850
G1 X113.769 Y105.084 E43.58152
G1 X106.596 Y117.917 E43.93348
G0 F12000 X106.606 Y117.610
;TYPE:SKIN
G1 F1080 X106.635 Y117.357 E43.93834
G1 X106.837 Y116.995 E43.94321
G1 X107.040 Y116.633 E43.94807
G1 X107.242 Y116.271 E43.95292
G1 X107.444 Y115.909 E43.95777
G1 X107.647 Y115.548 E43.96259
G1 X107.849 Y115.186 E43.96747
G1 X108.052 Y114.824 E43.97232
G1 X108.254 Y114.462 E43.97717
G1 X108.456 Y114.100 E43.98202
G1 X108.658 Y113.738 E43.98687
G1 X108.860 Y113.375 E43.99178
G1 X109.063 Y113.013 E43.99666
G1 X109.265 Y112.651 E44.00156
G1 X109.468 Y112.290 E44.00641
G1 X109.670 Y111.928 E44.01126
G1 X109.872 Y111.566 E44.01613
G1 X110.075 Y111.204 E44.02099
G1 X110.277 Y110.842 E44.02584
G1 X110.479 Y110.480 E44.03069
G1 X110.681 Y110.118 E44.03557
G1 X110.884 Y109.756 E44.04045
G1 X111.086 Y109.394 E44.04535
G1 X111.289 Y109.032 E44.05023
G1 X111.491 Y108.670 E44.05510
G1 X111.693 Y108.308 E44.05998
G1 X111.895 Y107.946 E44.06488
G1 X112.098 Y107.584 E44.06976
G1 X112.300 Y107.222 E44.07466
G1 X112.502 Y106.860 E44.07956
G1 X112.704 Y106.498 E44.08446
G1 X112.907 Y106.136 E44.08934
G1 X113.109 Y105.774 E44.09424
G1 X113.272 Y105.373 E44.09909
G1 X113.485 Y105.304 E44.10445
G10
G1 Z0.640
G0 F12000 X116.435 Y105.084
;TYPE:WALL-OUTER
G1 Z0.540
G11
G1 F1080 X117.019 Y105.084 E44.11844
G1 X113.237 Y117.634 E44.43223
G1 X113.237 Y115.417 E44.48530
G1 X110.240 Y115.417 E44.55705
G1 X110.240 Y117.917 E44.61690
G1 X109.638 Y117.917 E44.63131
G1 X109.638 Y114.815 E44.70558
G1 X113.502 Y114.815 E44.79808
G1 X116.435 Y105.084 E45.04139
G0 F12000 X116.466 Y105.463
;TYPE:SKIN
G1 F1080 X116.512 Y105.792 E45.04895
G1 X116.381 Y106.225 E45.05649
G1 X116.250 Y106.658 E45.06404
G1 X116.120 Y107.093 E45.07161
G1 X115.989 Y107.526 E45.07916
G1 X115.858 Y107.960 E45.08672
G1 X115.728 Y108.393 E45.09429
G1 X115.597 Y108.826 E45.10183
G1 X115.467 Y109.261 E45.10940
G1 X115.336 Y109.694 E45.11695
G1 X115.205 Y110.127 E45.12450
G1 X115.074 Y110.561 E45.13209
G1 X114.944 Y110.995 E45.13970
G1 X114.813 Y111.429 E45.14726
G1 X114.683 Y111.862 E45.15483
G1 X114.552 Y112.295 E45.16237
G1 X114.422 Y112.730 E45.16997
G1 X114.291 Y113.163 E45.17752
G1 X114.160 Y113.597 E45.18508
G1 X114.029 Y114.030 E45.19263
G1 X113.899 Y114.464 E45.20024
G1 X113.744 Y114.873 E45.20785
G1 X113.750 Y115.444 E45.21706
G1 X113.338 Y115.314 E45.22748
G1 X112.857 Y115.115 E45.23838
G1 X112.292 Y115.115 E45.24927
G1 X111.728 Y115.115 E45.26013
G1 X111.164 Y115.115 E45.27099
G1 X110.600 Y115.115 E45.28185
G1 X109.967 Y115.046 E45.29274
G1 X109.938 Y115.582 E45.30366
G1 X109.938 Y116.146 E45.31456
G1 X109.938 Y116.710 E45.32545
G1 X109.938 Y117.274 E45.33635
G1 X110.100 Y117.718 E45.34766
G0 F12000 X109.940 Y117.707
G0 X109.899 Y115.076
G0 X113.578 Y115.076
G0 X113.537 Y115.916
G0 X113.376 Y115.916
G1 F1080 X113.554 Y116.094 E45.35369
;LAYER:5
M106 S15
G10
G1 Z0.640
G0 F12000 X106.596 Y117.917 Z0.600
;TYPE:WALL-OUTER
G1 Z0.600
G11
G1 F1080 X106.052 Y117.917 E45.36671
G1 X113.225 Y105.084 E45.71867
G1 X113.769 Y105.084 E45.73169
G1 X106.596 Y117.917 E46.08365
G0 F12000 X106.711 Y117.022
;TYPE:SKIN
G1 F1080 X107.217 Y116.516 E46.10078
G0 F12000 X107.426 Y115.743
G1 F1080 X107.932 Y115.237 E46.11791
G0 F12000 X108.141 Y114.464
G1 F1080 X108.648 Y113.957 E46.13508
G0 F12000 X108.856 Y113.184
G1 F1080 X109.363 Y112.677 E46.15224
G0 F12000 X109.571 Y111.905
G1 F1080 X110.078 Y111.398 E46.16941
G0 F12000 X110.286 Y110.626
G1 F1080 X110.794 Y110.118 E46.18661
G0 F12000 X111.001 Y109.346
G1 F1080 X111.509 Y108.839 E46.20379
G0 F12000 X111.717 Y108.067
G1 F1080 X112.224 Y107.559 E46.22097
G0 F12000 X112.432 Y106.787
G1 F1080 X112.939 Y106.280 E46.23814
G0 F12000 X113.146 Y105.508
G1 F1080 X113.431 Y105.223 E46.24779
G10
G1 Z0.700
G0 F12000 X116.435 Y105.084
;TYPE:WALL-OUTER
G1 Z0.600
G11
G1 F1080 X117.019 Y105.084 E46.26177
G1 X113.237 Y117.634 E46.57556
G1 X113.237 Y115.417 E46.62864
G1 X110.240 Y115.417 E46.70038
G1 X110.240 Y117.917 E46.76023
G1 X109.638 Y117.917 E46.77465
G1 X109.638 Y114.815 E46.84891
G1 X113.502 Y114.815 E46.94141
G1 X116.435 Y105.084 E47.18472
G0 F12000 X116.817 Y105.223
;TYPE:SKIN
G1 F1080 X116.503 Y105.818 E47.19821
G1 X116.260 Y106.626 E47.21223
