;FLAVOR:UltiGCode
;TIME:2957
;MATERIAL:2281
;MATERIAL2:0
;NOZZLE_DIAMETER:0.400000
;NOZZLE_DIAMETER2:0.400000

;Layer count: 25
;LAYER:0
M106 S255
G0 F12000 X75.097 Y30.545 Z0.300
;TYPE:SKIRT
G1 F1200 X87.006 Y30.545 E1.42908
G1 X93.935 Y42.945 E3.13363
G1 X98.874 Y51.776 E4.34783
G1 X81.495 Y51.776 E6.43331
G1 X75.097 Y30.545 E9.09420
G0 F12000 X75.635 Y30.945
G1 F1200 X86.771 Y30.945 E10.43052
G1 X93.586 Y43.140 E12.10693
G1 X98.192 Y51.376 E13.23930
G1 X81.792 Y51.376 E15.20730
G1 X75.635 Y30.945 E17.76793
G0 F12000 X76.174 Y31.345
G1 F1200 X86.537 Y31.345 E19.01149
G1 X97.508 Y50.976 E21.71013
G1 X82.089 Y50.976 E23.56041
G1 X76.174 Y31.345 E26.02074
G10
G1 Z0.400
G0 F12000 X80.749 Y34.745
;TYPE:WALL-OUTER
G1 Z0.300
G11
G1 F1200 X81.332 Y34.745 E26.09070
G1 X84.264 Y44.476 E27.31027
G1 X88.028 Y44.476 E27.76195
G1 X88.028 Y47.576 E28.13395
G1 X87.428 Y47.576 E28.20595
G1 X87.428 Y45.076 E28.50595
G1 X84.432 Y45.076 E28.86547
G1 X84.432 Y46.968 E29.09251
G1 X80.749 Y34.745 E30.62441
G0 F12000 X80.988 Y34.885
;TYPE:SKIN
G1 F1200 X81.244 Y35.423 E30.68268
G1 X81.488 Y36.233 E30.75374
G1 X81.731 Y37.042 E30.82470
G1 X81.975 Y37.852 E30.89550
G1 X82.219 Y38.661 E30.96648
G1 X82.463 Y39.471 E31.03729
G1 X82.707 Y40.280 E31.10827
G1 X82.951 Y41.090 E31.17908
G1 X83.194 Y41.899 E31.24978
G1 X83.438 Y42.709 E31.32033
G1 X83.682 Y43.519 E31.39114
G1 X83.926 Y44.328 E31.46186
G1 X84.187 Y45.155 E31.53809
G1 X84.291 Y45.541 E31.58606
G0 F12000 X84.816 Y44.935
G1 F1200 X84.779 Y44.616 E31.64011
G1 X85.505 Y44.775 E31.69407
G1 X86.071 Y44.775 E31.74806
G1 X86.636 Y44.775 E31.80213
G1 X87.202 Y44.775 E31.85613
G1 X87.727 Y45.300 E31.95146
G1 X87.727 Y45.866 E32.00563
G1 X87.727 Y46.432 E32.05979
G1 X87.727 Y46.997 E32.11386
G1 X87.882 Y47.436 E32.16973
G10
G1 Z0.400
G0 F12000 X91.172 Y47.576
;TYPE:WALL-OUTER
G1 Z0.300
G11
G1 F1200 X84.001 Y34.745 E33.93360
G1 X84.541 Y34.745 E33.99840
G1 X91.712 Y47.576 E35.76227
G1 X91.172 Y47.576 E35.82707
G0 F12000 X91.002 Y46.596
;TYPE:SKIN
G1 F1200 X90.508 Y46.101 E35.91099
G0 F12000 X90.285 Y45.313
G1 F1200 X89.791 Y44.819 E35.99482
G0 F12000 X89.569 Y44.031
G1 F1200 X89.074 Y43.537 E36.07874
G0 F12000 X88.852 Y42.748
G1 F1200 X88.358 Y42.255 E36.16249
G0 F12000 X88.135 Y41.466
G1 F1200 X87.641 Y40.972 E36.24633
G0 F12000 X87.419 Y40.184
G1 F1200 X86.925 Y39.690 E36.33016
G0 F12000 X86.702 Y38.902
G1 F1200 X86.208 Y38.407 E36.41408
G0 F12000 X85.986 Y37.620
G1 F1200 X85.492 Y37.125 E36.49800
G0 F12000 X85.269 Y36.337
G1 F1200 X84.775 Y35.843 E36.58183
G0 F12000 X84.553 Y35.055
G1 F1200 X84.382 Y34.885 E36.61077
;LAYER:1
G10
G1 Z0.400
G0 F12000 X81.332 Y34.744 Z0.400
;TYPE:WALL-OUTER
G1 Z0.400
G11
G1 F1080 X84.265 Y44.475 E37.01629
G1 X88.029 Y44.475 E37.16647
G1 X88.029 Y47.577 E37.29024
G1 X87.427 Y47.577 E37.31426
G1 X87.427 Y45.077 E37.41401
G1 X84.433 Y45.077 E37.53347
G1 X84.433 Y46.972 E37.60908
G1 X80.748 Y34.744 E38.11865
G1 X81.332 Y34.744 E38.14196
G0 F12000 X81.074 Y34.883
;TYPE:SKIN
G1 F1080 X81.145 Y35.094 E38.14790
G1 X81.276 Y35.528 E38.16046
G1 X81.406 Y35.962 E38.17305
G1 X81.536 Y36.395 E38.18562
G1 X81.667 Y36.829 E38.19813
G1 X81.798 Y37.262 E38.21062
G1 X81.929 Y37.696 E38.22318
G1 X82.059 Y38.130 E38.23577
G1 X82.190 Y38.563 E38.24830
G1 X82.321 Y38.997 E38.26086
G1 X82.451 Y39.430 E38.27338
G1 X82.582 Y39.864 E38.28589
G1 X82.712 Y40.298 E38.29844
G1 X82.843 Y40.731 E38.31093
G1 X82.974 Y41.165 E38.32349
G1 X83.104 Y41.599 E38.33604
G1 X83.235 Y42.032 E38.34852
G1 X83.366 Y42.466 E38.36108
G1 X83.497 Y42.899 E38.37361
G1 X83.627 Y43.333 E38.38616
G1 X83.758 Y43.767 E38.39863
G1 X83.888 Y44.200 E38.41111
G1 X83.908 Y44.745 E38.42359
G1 X84.442 Y44.775 E38.44322
G1 X85.006 Y44.775 E38.46138
G1 X85.571 Y44.775 E38.47958
G1 X86.135 Y44.775 E38.49774
G1 X86.699 Y44.775 E38.51590
G1 X87.263 Y44.775 E38.53406
G1 X87.797 Y44.806 E38.55225
G1 X87.726 Y45.441 E38.57033
G1 X87.726 Y46.005 E38.58838
G1 X87.726 Y46.569 E38.60642
G1 X87.726 Y47.133 E38.62447
G1 X87.706 Y47.436 E38.63659
G0 F12000 X87.706 Y47.277
G0 X87.768 Y44.736
G0 X84.092 Y44.736
G0 X84.133 Y45.208
G0 X84.292 Y45.208
G1 F1080 X84.104 Y45.396 E38.64720
G10
G1 Z0.500
G0 F12000 X91.171 Y47.577
;TYPE:WALL-OUTER
G1 Z0.400
G11
G1 F1080 X83.998 Y34.744 E39.23379
G1 X84.542 Y34.744 E39.25550
G1 X91.715 Y47.577 E39.84209
G1 X91.171 Y47.577 E39.86380
G0 F12000 X91.194 Y47.334
;TYPE:SKIN
G1 F1080 X91.164 Y47.081 E39.87187
G1 X90.962 Y46.719 E39.87992
G1 X90.760 Y46.357 E39.88796
G1 X90.557 Y45.995 E39.89597
G1 X90.355 Y45.633 E39.90401
G1 X90.153 Y45.271 E39.91205
G1 X89.951 Y44.909 E39.92009
G1 X89.749 Y44.547 E39.92814
G1 X89.546 Y44.185 E39.93619
G1 X89.343 Y43.823 E39.94420
G1 X89.141 Y43.461 E39.95224
G1 X88.939 Y43.099 E39.96028
G1 X88.737 Y42.737 E39.96833
G1 X88.534 Y42.375 E39.97634
G1 X88.332 Y42.013 E39.98438
G1 X88.130 Y41.651 E39.99242
G1 X87.927 Y41.290 E40.00037
G1 X87.725 Y40.928 E40.00841
G1 X87.523 Y40.566 E40.01646
G1 X87.320 Y40.204 E40.02447
G1 X87.118 Y39.842 E40.03251
G1 X86.916 Y39.480 E40.04055
G1 X86.714 Y39.118 E40.04855
G1 X86.511 Y38.756 E40.05652
G1 X86.309 Y38.394 E40.06448
G1 X86.106 Y38.032 E40.07245
G1 X85.904 Y37.670 E40.08049
G1 X85.702 Y37.308 E40.08853
G1 X85.500 Y36.946 E40.09657
G1 X85.297 Y36.584 E40.10463
G1 X85.095 Y36.222 E40.11267
G1 X84.893 Y35.860 E40.12071
G1 X84.691 Y35.499 E40.12869
G1 X84.488 Y35.137 E40.13666
G1 X84.458 Y34.885 E40.14679
;LAYER:2
G10
G1 Z0.500
G0 F12000 X81.332 Y34.744 Z0.500
;TYPE:WALL-OUTER
G1 Z0.500
G11
G1 F1080 X84.265 Y44.475 E40.55231
G1 X88.029 Y44.475 E40.70249
G1 X88.029 Y47.577 E40.82626
G1 X87.427 Y47.577 E40.85028
G1 X87.427 Y45.077 E40.95003
G1 X84.433 Y45.077 E41.06949
G1 X84.433 Y46.972 E41.14510
G1 X80.748 Y34.744 E41.65467
G1 X81.332 Y34.744 E41.67797
G0 F12000 X80.963 Y34.976
;TYPE:SKIN
G1 F1080 X81.293 Y35.588 E41.70155
G1 X81.537 Y36.396 E41.72509
G1 X81.781 Y37.204 E41.74856
G1 X82.024 Y38.011 E41.77207
G1 X82.267 Y38.819 E41.79553
G1 X82.510 Y39.626 E41.81904
G1 X82.754 Y40.434 E41.84251
G1 X82.997 Y41.241 E41.86602
G1 X83.240 Y42.049 E41.88948
G1 X83.483 Y42.856 E41.91291
G1 X83.727 Y43.664 E41.93637
G1 X83.970 Y44.472 E41.95983
G1 X84.210 Y45.276 E41.98273
G1 X84.292 Y45.640 E41.99762
G0 F12000 X84.717 Y44.937
G1 F1080 X84.677 Y44.614 E42.01581
G1 X85.402 Y44.775 E42.03401
G1 X85.967 Y44.775 E42.05220
G1 X86.531 Y44.775 E42.07036
G1 X87.095 Y44.775 E42.08852
G1 X87.552 Y44.950 E42.10673
G1 X87.726 Y45.407 E42.12492
G1 X87.726 Y45.971 E42.14308
G1 X87.726 Y46.536 E42.16127
G1 X87.726 Y47.100 E42.17943
G1 X87.781 Y47.436 E42.19302
G0 F12000 X87.781 Y47.277
G0 X87.729 Y44.722
G0 X87.888 Y44.722
G1 F1080 X87.780 Y44.614 E42.19911
G0 F12000 X89.364 Y43.730
G0 X91.371 Y47.321
G0 X91.171 Y47.577
;TYPE:WALL-OUTER
G1 F1080 X83.998 Y34.744 E42.78571
G1 X84.542 Y34.744 E42.80741
G1 X91.715 Y47.577 E43.39401
G1 X91.171 Y47.577 E43.41571
G0 F12000 X91.152 Y46.857
;TYPE:SKIN
G1 F1080 X90.644 Y46.349 E43.44438
G0 F12000 X90.436 Y45.577
G1 F1080 X89.929 Y45.070 E43.47299
G0 F12000 X89.721 Y44.298
G1 F1080 X89.214 Y43.791 E43.50160
G0 F12000 X89.006 Y43.018
G1 F1080 X88.498 Y42.511 E43.53023
G0 F12000 X88.291 Y41.739
G1 F1080 X87.783 Y41.232 E43.55887
G0 F12000 X87.576 Y40.460
G1 F1080 X87.068 Y39.952 E43.58753
G0 F12000 X86.860 Y39.180
G1 F1080 X86.353 Y38.673 E43.61614
G0 F12000 X86.146 Y37.901
G1 F1080 X85.638 Y37.393 E43.64481
G0 F12000 X85.430 Y36.621
G1 F1080 X84.923 Y36.114 E43.67342
G0 F12000 X84.715 Y35.342
G1 F1080 X84.256 Y34.883 E43.69932
;LAYER:3
G10
G1 Z0.600
G0 F12000 X81.332 Y34.744 Z0.600
;TYPE:WALL-OUTER
G1 Z0.600
G11
G1 F1080 X84.265 Y44.475 E44.10484
G1 X88.029 Y44.475 E44.25502
G1 X88.029 Y47.577 E44.37879
G1 X87.427 Y47.577 E44.40281
G1 X87.427 Y45.077 E44.50256
G1 X84.433 Y45.077 E44.62202
G1 X84.433 Y46.972 E44.69763
G1 X80.748 Y34.744 E45.20720
G1 X81.332 Y34.744 E45.23050
G0 F12000 X81.074 Y34.883
;TYPE:SKIN
G1 F1080 X81.145 Y35.094 E45.23645
G1 X81.276 Y35.528 E45.24900
G1 X81.406 Y35.962 E45.26160
G1 X81.536 Y36.395 E45.27417
G1 X81.667 Y36.829 E45.28668
G1 X81.798 Y37.262 E45.29917
G1 X81.929 Y37.696 E45.31172
G1 X82.059 Y38.130 E45.32432
G1 X82.190 Y38.563 E45.33685
G1 X82.321 Y38.997 E45.34941
G1 X82.451 Y39.430 E45.36193
G1 X82.582 Y39.864 E45.37444
G1 X82.712 Y40.298 E45.38699
G1 X82.843 Y40.731 E45.39948
G1 X82.974 Y41.165 E45.41203
G1 X83.104 Y41.599 E45.42458
G1 X83.235 Y42.032 E45.43707
G1 X83.366 Y42.466 E45.44963
G1 X83.497 Y42.899 E45.46216
G1 X83.627 Y43.333 E45.47471
G1 X83.758 Y43.767 E45.48717
G1 X83.888 Y44.200 E45.49965
G1 X83.908 Y44.745 E45.51214
G1 X84.442 Y44.775 E45.53177
G1 X85.006 Y44.775 E45.54993
G1 X85.571 Y44.775 E45.56812
G1 X86.135 Y44.775 E45.58628
G1 X86.699 Y44.775 E45.60445
G1 X87.263 Y44.775 E45.62261
G1 X87.797 Y44.806 E45.64079
G1 X87.726 Y45.441 E45.65888
G1 X87.726 Y46.005 E45.67692
G1 X87.726 Y46.569 E45.69497
G1 X87.726 Y47.133 E45.71302
G1 X87.706 Y47.436 E45.72514
G0 F12000 X87.706 Y47.277
G0 X87.768 Y44.736
G0 X84.092 Y44.736
G0 X84.133 Y45.208
G0 X84.292 Y45.208
G1 F1080 X84.104 Y45.396 E45.73574
G10
G1 Z0.700
G0 F12000 X91.171 Y47.577
;TYPE:WALL-OUTER
G1 Z0.600
G11
G1 F1080 X83.998 Y34.744 E46.32234
G1 X84.542 Y34.744 E46.34404
G1 X91.715 Y47.577 E46.93064
G1 X91.171 Y47.577 E46.95234
G0 F12000 X91.194 Y47.334
;TYPE:SKIN
G1 F1080 X91.164 Y47.081 E46.96042
G1 X90.962 Y46.719 E46.96846
G1 X90.760 Y46.357 E46.97651
G1 X90.557 Y45.995 E46.98452
G1 X90.355 Y45.633 E46.99256
G1 X90.153 Y45.271 E47.00060
G1 X89.951 Y44.909 E47.00864
G1 X89.749 Y44.547 E47.01668
G1 X89.546 Y44.185 E47.02474
G1 X89.343 Y43.823 E47.03275
G1 X89.141 Y43.461 E47.04079
G1 X88.939 Y43.099 E47.04883
G1 X88.737 Y42.737 E47.05687
G1 X88.534 Y42.375 E47.06488
G1 X88.332 Y42.013 E47.07292
G1 X88.130 Y41.651 E47.08097
G1 X87.927 Y41.290 E47.08892
G1 X87.725 Y40.928 E47.09696
G1 X87.523 Y40.566 E47.10500
G1 X87.320 Y40.204 E47.11301
G1 X87.118 Y39.842 E47.12106
G1 X86.916 Y39.480 E47.12910
G1 X86.714 Y39.118 E47.13710
G1 X86.511 Y38.756 E47.14507
G1 X86.309 Y38.394 E47.15303
G1 X86.106 Y38.032 E47.16099
G1 X85.904 Y37.670 E47.16904
G1 X85.702 Y37.308 E47.17708
G1 X85.500 Y36.946 E47.18512
G1 X85.297 Y36.584 E47.19317
G1 X85.095 Y36.222 E47.20122
G1 X84.893 Y35.860 E47.20926
G1 X84.691 Y35.499 E47.21724
G1 X84.488 Y35.137 E47.22521
G1 X84.458 Y34.885 E47.23534
;LAYER:4
G10
G1 Z0.700
G0 F12000 X81.332 Y34.744 Z0.700
;TYPE:WALL-OUTER
G1 Z0.700
G11
G1 F1080 X84.265 Y44.475 E47.64086
G1 X88.029 Y44.475 E47.79104
G1 X88.029 Y47.577 E47.91481
G1 X87.427 Y47.577 E47.93883
G1 X87.427 Y45.077 E48.03858
G1 X84.433 Y45.077 E48.15804
G1 X84.433 Y46.972 E48.23365
G1 X80.748 Y34.744 E48.74322
G1 X81.332 Y34.744 E48.76652
G0 F12000 X80.963 Y34.976
;TYPE:SKIN
G1 F1080 X81.293 Y35.588 E48.79009
G1 X81.537 Y36.396 E48.81364
G1 X81.781 Y37.204 E48.83711
G1 X82.024 Y38.011 E48.86062
G1 X82.267 Y38.819 E48.88408
G1 X82.510 Y39.626 E48.90759
G1 X82.754 Y40.434 E48.93105
G1 X82.997 Y41.241 E48.95457
G1 X83.240 Y42.049 E48.97802
G1 X83.483 Y42.856 E49.00145
G1 X83.727 Y43.664 E49.02492
G1 X83.970 Y44.472 E49.04837
G1 X84.210 Y45.276 E49.07128
G1 X84.292 Y45.640 E49.08617
G0 F12000 X84.717 Y44.937
G1 F1080 X84.677 Y44.614 E49.10436
G1 X85.402 Y44.775 E49.12256
G1 X85.967 Y44.775 E49.14075
G1 X86.531 Y44.775 E49.15891
G1 X87.095 Y44.775 E49.17707
G1 X87.552 Y44.950 E49.19528
G1 X87.726 Y45.407 E49.21347
G1 X87.726 Y45.971 E49.23163
G1 X87.726 Y46.536 E49.24982
G1 X87.726 Y47.100 E49.26798
G1 X87.781 Y47.436 E49.28157
G0 F12000 X87.781 Y47.277
G0 X87.729 Y44.722
G0 X87.888 Y44.722
G1 F1080 X87.780 Y44.614 E49.28766
G0 F12000 X89.364 Y43.730
G0 X91.371 Y47.321
G0 X91.171 Y47.577
;TYPE:WALL-OUTER
G1 F1080 X83.998 Y34.744 E49.87426
G1 X84.542 Y34.744 E49.89596
G1 X91.715 Y47.577 E50.48256
G1 X91.171 Y47.577 E50.50426
G0 F12000 X91.152 Y46.857
;TYPE:SKIN
G1 F1080 X90.644 Y46.349 E50.53293
G0 F12000 X90.436 Y45.577
G1 F1080 X89.929 Y45.070 E50.56153
G0 F12000 X89.721 Y44.298
G1 F1080 X89.214 Y43.791 E50.59014
G0 F12000 X89.006 Y43.018
G1 F1080 X88.498 Y42.511 E50.61878
G0 F12000 X88.291 Y41.739
G1 F1080 X87.783 Y41.232 E50.64742
G0 F12000 X87.576 Y40.460
G1 F1080 X87.068 Y39.952 E50.67608
G0 F12000 X86.860 Y39.180
G1 F1080 X86.353 Y38.673 E50.70469
G0 F12000 X86.146 Y37.901
G1 F1080 X85.638 Y37.393 E50.73336
G0 F12000 X85.430 Y36.621
G1 F1080 X84.923 Y36.114 E50.76196
G0 F12000 X84.715 Y35.342
G1 F1080 X84.256 Y34.883 E50.78786
;LAYER:5
G10
G1 Z0.800
G0 F12000 X81.332 Y34.744 Z0.800
;TYPE:WALL-OUTER
G1 Z0.800
G11
G1 F1080 X84.265 Y44.475 E51.19338
G1 X88.029 Y44.475 E51.34357
G1 X88.029 Y47.577 E51.46734
G1 X87.427 Y47.577 E51.49136
G1 X87.427 Y45.077 E51.59111
G1 X84.433 Y45.077 E51.71057
G1 X84.433 Y46.972 E51.78618
G1 X80.748 Y34.744 E52.29575
G1 X81.332 Y34.744 E52.31905
G0 F12000 X81.074 Y34.883
;TYPE:SKIN
G1 F1080 X81.145 Y35.094 E52.32499
G1 X81.276 Y35.528 E52.33755
G1 X81.406 Y35.962 E52.35015
G1 X81.536 Y36.395 E52.36271
G1 X81.667 Y36.829 E52.37523
G1 X81.798 Y37.262 E52.38771
G1 X81.929 Y37.696 E52.40027
G1 X82.059 Y38.130 E52.41287
G1 X82.190 Y38.563 E52.42540
G1 X82.321 Y38.997 E52.43795
G1 X82.451 Y39.430 E52.45048
G1 X82.582 Y39.864 E52.46299
G1 X82.712 Y40.298 E52.47554
G1 X82.843 Y40.731 E52.48802
G1 X82.974 Y41.165 E52.50058
G1 X83.104 Y41.599 E52.51313
G1 X83.235 Y42.032 E52.52562
G1 X83.366 Y42.466 E52.53817
G1 X83.497 Y42.899 E52.55071
G1 X83.627 Y43.333 E52.56325
G1 X83.758 Y43.767 E52.57572
G1 X83.888 Y44.200 E52.58820
G1 X83.908 Y44.745 E52.60069
G1 X84.442 Y44.775 E52.62032
G1 X85.006 Y44.775 E52.63848
G1 X85.571 Y44.775 E52.65667
G1 X86.135 Y44.775 E52.67483
G1 X86.699 Y44.775 E52.69299
G1 X87.263 Y44.775 E52.71115
G1 X87.797 Y44.806 E52.72934
G1 X87.726 Y45.441 E52.74742
G1 X87.726 Y46.005 E52.76547
G1 X87.726 Y46.569 E52.78352
G1 X87.726 Y47.133 E52.80157
G1 X87.706 Y47.436 E52.81368
G0 F12000 X87.706 Y47.277
G0 X87.768 Y44.736
G0 X84.092 Y44.736
G0 X84.133 Y45.208
G0 X84.292 Y45.208
G1 F1080 X84.104 Y45.396 E52.82429
G10
G1 Z0.900
G0 F12000 X91.171 Y47.577
;TYPE:WALL-OUTER
G1 Z0.800
G11
G1 F1080 X83.998 Y34.744 E53.41089
G1 X84.542 Y34.744 E53.43259
G1 X91.715 Y47.577 E54.01919
G1 X91.171 Y47.577 E54.04089
G0 F12000 X91.194 Y47.334
;TYPE:SKIN
G1 F1080 X91.164 Y47.081 E54.04897
G1 X90.962 Y46.719 E54.05701
G1 X90.760 Y46.357 E54.06505
G1 X90.557 Y45.995 E54.07306
G1 X90.355 Y45.633 E54.08110
G1 X90.153 Y45.271 E54.08915
G1 X89.951 Y44.909 E54.09719
G1 X89.749 Y44.547 E54.10523
G1 X89.546 Y44.185 E54.11328
G1 X89.343 Y43.823 E54.12129
G1 X89.141 Y43.461 E54.12934
G1 X88.939 Y43.099 E54.13738
G1 X88.737 Y42.737 E54.14542
G1 X88.534 Y42.375 E54.15343
G1 X88.332 Y42.013 E54.16147
G1 X88.130 Y41.651 E54.16951
G1 X87.927 Y41.290 E54.17747
G1 X87.725 Y40.928 E54.18551
G1 X87.523 Y40.566 E54.19355
G1 X87.320 Y40.204 E54.20156
G1 X87.118 Y39.842 E54.20960
G1 X86.916 Y39.480 E54.21764
G1 X86.714 Y39.118 E54.22565
G1 X86.511 Y38.756 E54.23361
G1 X86.309 Y38.394 E54.24157
G1 X86.106 Y38.032 E54.24954
G1 X85.904 Y37.670 E54.25758
G1 X85.702 Y37.308 E54.26563
G1 X85.500 Y36.946 E54.27367
G1 X85.297 Y36.584 E54.28172
G1 X85.095 Y36.222 E54.28976
G1 X84.893 Y35.860 E54.29780
G1 X84.691 Y35.499 E54.30579
G1 X84.488 Y35.137 E54.31376
G1 X84.458 Y34.885 E54.32388
;LAYER:6
G10
G1 Z0.900
G0 F12000 X81.332 Y34.744 Z0.900
;TYPE:WALL-OUTER
G1 Z0.900
G11
G1 F1080 X84.265 Y44.475 E54.72940
G1 X88.029 Y44.475 E54.87959
G1 X88.029 Y47.577 E55.00336
G1 X87.427 Y47.577 E55.02738
G1 X87.427 Y45.077 E55.12713
G1 X84.433 Y45.077 E55.24659
