;FLAVOR:UltiGCode
;TIME:220
;MATERIAL:131
;MATERIAL2:0
;NOZZLE_DIAMETER:0.400000
;NOZZLE_DIAMETER2:0.400000

;Layer count: 25
;LAYER:0
M106 S255
G0 F3000 X110.762 Y100.885 Z0.300
;TYPE:SKIRT
G1 F900 X122.669 Y100.885 E1.42884
G1 X120.529 Y107.992 E2.31950
G1 X116.272 Y122.116 E4.08969
G1 X98.894 Y122.116 E6.17505
G1 X110.762 Y100.885 E9.09381
G0 F3000 X110.996 Y101.285
G1 F900 X122.130 Y101.285 E10.42989
G1 X120.146 Y107.876 E11.25586
G1 X115.975 Y121.716 E12.99044
G1 X99.576 Y121.716 E14.95832
G1 X110.996 Y101.285 E17.76705
G0 F3000 X111.231 Y101.685
G1 F900 X121.592 Y101.685 E19.01037
G1 X115.678 Y121.316 E21.47067
G1 X100.258 Y121.316 E23.32107
G1 X111.231 Y101.685 E26.01982
G10
G1 Z1.300
G0 F3000 X113.406 Y105.225
;TYPE:FILL
G1 Z0.300
G11
G1 F900 X113.311 Y105.412 E26.03266
G1 X113.109 Y105.774 E26.05629
G1 X112.907 Y106.136 E26.07991
G1 X112.704 Y106.498 E26.10345
G1 X112.502 Y106.860 E26.12708
G1 X112.300 Y107.222 E26.15070
G1 X112.098 Y107.584 E26.17433
G1 X111.895 Y107.946 E26.19787
G1 X111.693 Y108.308 E26.22150
G1 X111.490 Y108.670 E26.24503
G1 X111.288 Y109.032 E26.26891
G1 X111.086 Y109.394 E26.29253
G1 X110.884 Y109.756 E26.31616
G1 X110.681 Y110.118 E26.33970
G1 X110.479 Y110.480 E26.36333
G1 X110.277 Y110.842 E26.38695
G1 X110.075 Y111.204 E26.41058
G1 X109.872 Y111.566 E26.43412
G1 X109.670 Y111.928 E26.45775
G1 X109.468 Y112.290 E26.48137
G1 X109.266 Y112.652 E26.50500
G1 X109.064 Y113.014 E26.52863
G1 X108.861 Y113.376 E26.55216
G1 X108.659 Y113.738 E26.57579
G1 X108.456 Y114.100 E26.59933
G1 X108.254 Y114.462 E26.62296
G1 X108.052 Y114.824 E26.64658
G1 X107.849 Y115.186 E26.67012
G1 X107.647 Y115.548 E26.69375
G1 X107.445 Y115.910 E26.71738
G1 X107.243 Y116.272 E26.74100
G1 X107.040 Y116.634 E26.76454
G1 X106.838 Y116.996 E26.78829
G1 X106.636 Y117.358 E26.81192
G1 X106.605 Y117.609 E26.84227
G0 F3000 X106.595 Y117.916
;TYPE:WALL-OUTER
G1 F900 X106.055 Y117.916 E26.90707
G1 X113.226 Y105.085 E28.67094
G1 X113.766 Y105.085 E28.73574
G1 X106.595 Y117.916 E30.49961
G0 F3000 X106.595 Y117.626
;TYPE:SKIN
G1 F900 X106.626 Y117.374 E30.52329
G1 X106.829 Y117.012 E30.54683
G1 X107.032 Y116.649 E30.57041
G1 X107.235 Y116.286 E30.59387
G1 X107.438 Y115.923 E30.61732
G1 X107.640 Y115.560 E30.64088
G1 X107.843 Y115.197 E30.66446
G1 X108.046 Y114.834 E30.68804
G1 X108.249 Y114.471 E30.71162
G1 X108.451 Y114.108 E30.73518
G1 X108.654 Y113.745 E30.75876
G1 X108.857 Y113.383 E30.78229
G1 X109.060 Y113.020 E30.80587
G1 X109.263 Y112.657 E30.82933
G1 X109.465 Y112.294 E30.85288
G1 X109.668 Y111.931 E30.87647
G1 X109.871 Y111.568 E30.90005
G1 X110.074 Y111.205 E30.92363
G1 X110.276 Y110.842 E30.94718
G1 X110.479 Y110.479 E30.97077
G1 X110.682 Y110.117 E30.99430
G1 X110.885 Y109.754 E31.01788
G1 X111.087 Y109.390 E31.04173
G1 X111.290 Y109.028 E31.06527
G1 X111.493 Y108.665 E31.08885
G1 X111.696 Y108.302 E31.11243
G1 X111.899 Y107.939 E31.13601
G1 X112.101 Y107.576 E31.15957
G1 X112.304 Y107.213 E31.18315
G1 X112.507 Y106.850 E31.20673
G1 X112.710 Y106.488 E31.23026
G1 X112.912 Y106.124 E31.25412
G1 X113.115 Y105.761 E31.27770
G1 X113.287 Y105.367 E31.30130
G1 X113.490 Y105.288 E31.32744
G10
G1 Z1.300
G0 F3000 X116.435 Y105.085
;TYPE:WALL-OUTER
G1 Z0.300
G11
G1 F900 X117.017 Y105.085 E31.39728
G1 X113.238 Y117.627 E32.96915
G1 X113.238 Y115.416 E33.23447
G1 X110.239 Y115.416 E33.59435
G1 X110.239 Y117.916 E33.89435
G1 X109.639 Y117.916 E33.96635
G1 X109.639 Y114.816 E34.33835
G1 X113.503 Y114.816 E34.80203
G1 X116.435 Y105.085 E36.02161
G0 F3000 X116.471 Y105.440
;TYPE:SKIN
G1 F900 X116.517 Y105.770 E36.05959
G1 X116.387 Y106.204 E36.09751
G1 X116.256 Y106.639 E36.13540
G1 X116.125 Y107.074 E36.17315
G1 X115.994 Y107.509 E36.21091
G1 X115.863 Y107.944 E36.24879
G1 X115.733 Y108.379 E36.28666
G1 X115.601 Y108.813 E36.32449
G1 X115.470 Y109.248 E36.36238
G1 X115.339 Y109.682 E36.40032
G1 X115.209 Y110.117 E36.43819
G1 X115.078 Y110.552 E36.47608
G1 X114.947 Y110.987 E36.51396
G1 X114.816 Y111.422 E36.55172
G1 X114.685 Y111.857 E36.58947
G1 X114.554 Y112.291 E36.62728
G1 X114.423 Y112.726 E36.66503
G1 X114.292 Y113.161 E36.70278
G1 X114.161 Y113.596 E36.74067
G1 X114.030 Y114.030 E36.77834
G1 X113.899 Y114.465 E36.81596
G1 X113.743 Y114.874 E36.85378
G1 X113.749 Y115.446 E36.90011
G1 X113.336 Y115.316 E36.95220
G1 X112.852 Y115.115 E37.00644
G1 X112.287 Y115.115 E37.06051
G1 X111.721 Y115.115 E37.11468
G1 X111.155 Y115.115 E37.16885
G1 X110.590 Y115.115 E37.22292
G1 X109.963 Y115.054 E37.27716
G1 X109.939 Y115.595 E37.33142
G1 X109.939 Y116.161 E37.38575
G1 X109.939 Y116.727 E37.43992
G1 X109.939 Y117.292 E37.49416
G1 X110.099 Y117.736 E37.55079
G0 F3000 X109.939 Y117.706
G0 X109.898 Y115.075
G0 X113.579 Y115.075
G0 X113.538 Y115.923
G0 X113.377 Y115.923
G1 F900 X113.552 Y116.098 E37.58049
;LAYER:1
G10
G1 Z1.300
G0 F3000 X108.648 Y113.957 Z0.400
;TYPE:FILL
G1 Z0.400
G11
G1 F900 X108.141 Y114.464 E37.60910
G0 F3000 X107.932 Y115.237
G1 F900 X107.426 Y115.743 E37.63765
G0 F3000 X107.217 Y116.516
G1 F900 X106.711 Y117.022 E37.66620
G0 F3000 X106.851 Y117.101
G0 X108.996 Y113.263
G0 X108.856 Y113.184
G1 F900 X109.363 Y112.677 E37.69481
G0 F3000 X109.571 Y111.905
G1 F900 X110.078 Y111.398 E37.72342
G0 F3000 X110.286 Y110.626
G1 F900 X110.794 Y110.118 E37.75209
G0 F3000 X111.001 Y109.346
G1 F900 X111.509 Y108.839 E37.78072
G0 F3000 X111.717 Y108.067
G1 F900 X112.224 Y107.559 E37.80936
G0 F3000 X112.432 Y106.787
G1 F900 X112.939 Y106.280 E37.83797
G0 F3000 X113.146 Y105.508
G1 F900 X113.431 Y105.223 E37.85405
G0 F3000 X113.225 Y105.084
;TYPE:WALL-OUTER
G1 F900 X113.769 Y105.084 E37.87576
G1 X106.596 Y117.917 E38.46235
G1 X106.052 Y117.917 E38.48406
G1 X113.225 Y105.084 E39.07065
G0 F3000 X113.431 Y105.223
;TYPE:SKIN
G1 F900 X113.146 Y105.508 E39.08673
G0 F3000 X112.939 Y106.280
G1 F900 X112.432 Y106.787 E39.11534
G0 F3000 X112.224 Y107.559
G1 F900 X111.717 Y108.067 E39.14398
G0 F3000 X111.509 Y108.839
G1 F900 X111.001 Y109.346 E39.17262
G0 F3000 X110.794 Y110.118
G1 F900 X110.286 Y110.626 E39.20128
G0 F3000 X110.078 Y111.398
G1 F900 X109.571 Y111.905 E39.22989
G0 F3000 X109.363 Y112.677
G1 F900 X108.856 Y113.184 E39.25850
G0 F3000 X108.648 Y113.957
G1 F900 X108.141 Y114.464 E39.28711
G0 F3000 X107.932 Y115.237
G1 F900 X107.426 Y115.743 E39.31566
G0 F3000 X107.217 Y116.516
G1 F900 X106.711 Y117.022 E39.34421
G10
G1 Z1.400
G0 F3000 X110.240 Y115.417
;TYPE:WALL-OUTER
G1 Z0.400
G11
G1 F900 X110.240 Y117.917 E39.44396
G1 X109.638 Y117.917 E39.46798
G1 X109.638 Y114.815 E39.59175
G1 X113.502 Y114.815 E39.74592
G1 X116.435 Y105.084 E40.15144
G1 X117.019 Y105.084 E40.17475
G1 X113.237 Y117.634 E40.69773
G1 X113.237 Y115.417 E40.78619
G1 X110.240 Y115.417 E40.90577
G0 F3000 X110.100 Y115.326
;TYPE:SKIN
G1 F900 X109.939 Y115.769 E40.92392
G1 X109.939 Y116.333 E40.94202
G1 X109.939 Y116.898 E40.96016
G1 X109.939 Y117.462 E40.97826
G1 X109.907 Y117.776 E40.99086
G0 F3000 X109.907 Y117.617
G0 X109.899 Y115.076
G0 X110.150 Y115.117
G0 X110.150 Y115.276
G1 F900 X110.593 Y115.115 E41.00900
G1 X111.157 Y115.115 E41.02711
G1 X111.722 Y115.115 E41.04525
G1 X112.286 Y115.115 E41.06335
G1 X112.850 Y115.115 E41.08145
G1 X113.335 Y115.194 E41.09959
G1 X113.827 Y114.701 E41.12988
G1 X114.071 Y113.894 E41.15332
G1 X114.314 Y113.086 E41.17678
G1 X114.558 Y112.279 E41.20022
G1 X114.801 Y111.471 E41.22359
G1 X115.044 Y110.664 E41.24702
G1 X115.287 Y109.856 E41.27047
G1 X115.530 Y109.049 E41.29382
G1 X115.774 Y108.241 E41.31720
G1 X116.017 Y107.434 E41.34054
G1 X116.260 Y106.626 E41.36392
G1 X116.503 Y105.818 E41.38729
G1 X116.817 Y105.223 E41.41413
G10
G1 Z1.400
G0 F3000 X113.671 Y115.705
G1 Z0.400
G11
G1 F900 X113.377 Y115.999 E41.43072
G0 F3000 X109.908 Y114.954
G1 F900 X109.778 Y115.084 E41.43806
;LAYER:2
G0 F3000 X108.299 Y114.257 Z0.500
G0 X108.289 Y114.275
G0 X108.427 Y114.353
;TYPE:FILL
G1 F900 X108.456 Y114.100 E41.44615
G1 X108.658 Y113.738 E41.45424
G1 X108.860 Y113.375 E41.46242
G1 X109.063 Y113.013 E41.47056
G1 X109.265 Y112.651 E41.47872
G1 X109.468 Y112.290 E41.48680
G1 X109.670 Y111.928 E41.49488
G1 X109.872 Y111.566 E41.50301
G1 X110.075 Y111.204 E41.51110
G1 X110.277 Y110.842 E41.51919
G1 X110.479 Y110.480 E41.52727
G1 X110.681 Y110.118 E41.53539
G1 X110.884 Y109.756 E41.54353
G1 X111.086 Y109.394 E41.55170
G1 X111.289 Y109.032 E41.55983
G1 X111.491 Y108.670 E41.56795
G1 X111.693 Y108.308 E41.57608
G1 X111.895 Y107.946 E41.58425
G1 X112.098 Y107.584 E41.59238
G1 X112.300 Y107.222 E41.60055
G1 X112.502 Y106.860 E41.60871
G1 X112.704 Y106.498 E41.61688
G1 X112.907 Y106.136 E41.62502
G1 X113.109 Y105.774 E41.63318
G1 X113.272 Y105.373 E41.64128
G1 X113.485 Y105.304 E41.65021
G10
G1 Z1.500
G0 F3000 X108.081 Y114.571
G1 Z0.500
G11
G1 F900 X108.052 Y114.824 E41.65831
G1 X107.849 Y115.186 E41.66640
G1 X107.647 Y115.548 E41.67453
G1 X107.444 Y115.909 E41.68256
G1 X107.242 Y116.271 E41.69064
G1 X107.040 Y116.633 E41.69873
G1 X106.837 Y116.995 E41.70682
G1 X106.635 Y117.357 E41.71495
G1 X106.606 Y117.610 E41.72511
G0 F3000 X106.596 Y117.917
;TYPE:WALL-OUTER
G1 F900 X106.052 Y117.917 E41.74681
G1 X113.225 Y105.084 E42.33341
G1 X113.769 Y105.084 E42.35511
G1 X106.596 Y117.917 E42.94171
G0 F3000 X106.606 Y117.610
;TYPE:SKIN
G1 F900 X106.635 Y117.357 E42.94981
G1 X106.837 Y116.995 E42.95793
G1 X107.040 Y116.633 E42.96602
G1 X107.242 Y116.271 E42.97411
G1 X107.444 Y115.909 E42.98219
G1 X107.647 Y115.548 E42.99023
G1 X107.849 Y115.186 E42.99835
G1 X108.052 Y114.824 E43.00644
G1 X108.254 Y114.462 E43.01453
G1 X108.456 Y114.100 E43.02261
G1 X108.658 Y113.738 E43.03070
G1 X108.860 Y113.375 E43.03888
G1 X109.063 Y113.013 E43.04701
G1 X109.265 Y112.651 E43.05518
G1 X109.468 Y112.290 E43.06326
G1 X109.670 Y111.928 E43.07134
G1 X109.872 Y111.566 E43.07947
G1 X110.075 Y111.204 E43.08756
G1 X110.277 Y110.842 E43.09564
G1 X110.479 Y110.480 E43.10373
G1 X110.681 Y110.118 E43.11185
G1 X110.884 Y109.756 E43.11999
G1 X111.086 Y109.394 E43.12815
G1 X111.289 Y109.032 E43.13629
G1 X111.491 Y108.670 E43.14441
G1 X111.693 Y108.308 E43.15254
G1 X111.895 Y107.946 E43.16070
G1 X112.098 Y107.584 E43.16884
G1 X112.300 Y107.222 E43.17701
G1 X112.502 Y106.860 E43.18517
G1 X112.704 Y106.498 E43.19334
G1 X112.907 Y106.136 E43.20147
G1 X113.109 Y105.774 E43.20964
G1 X113.272 Y105.373 E43.21773
G1 X113.485 Y105.304 E43.22667
G10
G1 Z1.500
G0 F3000 X116.435 Y105.084
;TYPE:WALL-OUTER
G1 Z0.500
G11
G1 F900 X117.019 Y105.084 E43.24997
G1 X113.237 Y117.634 E43.77296
G1 X113.237 Y115.417 E43.86142
G1 X110.240 Y115.417 E43.98100
G1 X110.240 Y117.917 E44.08075
G1 X109.638 Y117.917 E44.10477
G1 X109.638 Y114.815 E44.22854
G1 X113.502 Y114.815 E44.38271
G1 X116.435 Y105.084 E44.78823
G0 F3000 X116.466 Y105.463
;TYPE:SKIN
G1 F900 X116.512 Y105.792 E44.80082
G1 X116.381 Y106.225 E44.81340
G1 X116.250 Y106.658 E44.82597
G1 X116.120 Y107.093 E44.83859
G1 X115.989 Y107.526 E44.85117
G1 X115.858 Y107.960 E44.86377
G1 X115.728 Y108.393 E44.87639
G1 X115.597 Y108.826 E44.88896
G1 X115.467 Y109.261 E44.90158
G1 X115.336 Y109.694 E44.91416
G1 X115.205 Y110.127 E44.92674
G1 X115.074 Y110.561 E44.93938
G1 X114.944 Y110.995 E44.95207
G1 X114.813 Y111.429 E44.96467
G1 X114.683 Y111.862 E44.97729
G1 X114.552 Y112.295 E44.98986
G1 X114.422 Y112.730 E45.00253
G1 X114.291 Y113.163 E45.01511
G1 X114.160 Y113.597 E45.02771
G1 X114.029 Y114.030 E45.04028
G1 X113.899 Y114.464 E45.05297
G1 X113.744 Y114.873 E45.06565
G1 X113.750 Y115.444 E45.08101
G1 X113.338 Y115.314 E45.09838
G1 X112.857 Y115.115 E45.11655
G1 X112.292 Y115.115 E45.13469
G1 X111.728 Y115.115 E45.15279
G1 X111.164 Y115.115 E45.17089
G1 X110.600 Y115.115 E45.18900
G1 X109.967 Y115.046 E45.20715
G1 X109.938 Y115.582 E45.22534
G1 X109.938 Y116.146 E45.24350
G1 X109.938 Y116.710 E45.26166
G1 X109.938 Y117.274 E45.27983
G1 X110.100 Y117.718 E45.29868
G0 F3000 X109.940 Y117.707
G0 X109.899 Y115.076
G0 X113.578 Y115.076
G0 X113.537 Y115.916
G0 X113.376 Y115.916
G1 F900 X113.554 Y116.094 E45.30873
;LAYER:3
G10
G1 Z1.500
G0 F3000 X108.648 Y113.957 Z0.600
;TYPE:FILL
G1 Z0.600
G11
G1 F900 X108.141 Y114.464 E45.33734
G0 F3000 X107.932 Y115.237
G1 F900 X107.426 Y115.743 E45.36589
G0 F3000 X107.217 Y116.516
G1 F900 X106.711 Y117.022 E45.39444
G0 F3000 X106.851 Y117.101
G0 X108.996 Y113.263
G0 X108.856 Y113.184
G1 F900 X109.363 Y112.677 E45.42305
G0 F3000 X109.571 Y111.905
G1 F900 X110.078 Y111.398 E45.45166
G0 F3000 X110.286 Y110.626
G1 F900 X110.794 Y110.118 E45.48032
G0 F3000 X111.001 Y109.346
G1 F900 X111.509 Y108.839 E45.50896
G0 F3000 X111.717 Y108.067
G1 F900 X112.224 Y107.559 E45.53760
G0 F3000 X112.432 Y106.787
G1 F900 X112.939 Y106.280 E45.56620
G0 F3000 X113.146 Y105.508
G1 F900 X113.431 Y105.223 E45.58229
G0 F3000 X113.225 Y105.084
;TYPE:WALL-OUTER
G1 F900 X113.769 Y105.084 E45.60399
G1 X106.596 Y117.917 E46.19059
G1 X106.052 Y117.917 E46.21229
G1 X113.225 Y105.084 E46.79889
G0 F3000 X113.431 Y105.223
;TYPE:SKIN
G1 F900 X113.146 Y105.508 E46.81497
G0 F3000 X112.939 Y106.280
G1 F900 X112.432 Y106.787 E46.84358
G0 F3000 X112.224 Y107.559
G1 F900 X111.717 Y108.067 E46.87221
G0 F3000 X111.509 Y108.839
G1 F900 X111.001 Y109.346 E46.90085
G0 F3000 X110.794 Y110.118
G1 F900 X110.286 Y110.626 E46.92952
G0 F3000 X110.078 Y111.398
G1 F900 X109.571 Y111.905 E46.95812
G0 F3000 X109.363 Y112.677
G1 F900 X108.856 Y113.184 E46.98673
G0 F3000 X108.648 Y113.957
G1 F900 X108.141 Y114.464 E47.01534
G0 F3000 X107.932 Y115.237
G1 F900 X107.426 Y115.743 E47.04389
G0 F3000 X107.217 Y116.516
G1 F900 X106.711 Y117.022 E47.07245
G10
G1 Z1.600
G0 F3000 X110.240 Y115.417
;TYPE:WALL-OUTER
G1 Z0.600
G11
G1 F900 X110.240 Y117.917 E47.17220
G1 X109.638 Y117.917 E47.19622
G1 X109.638 Y114.815 E47.31999
G1 X113.502 Y114.815 E47.47416
G1 X116.435 Y105.084 E47.87968
G1 X117.019 Y105.084 E47.90298
G1 X113.237 Y117.634 E48.42597
G1 X113.237 Y115.417 E48.51443
G1 X110.240 Y115.417 E48.63401
G0 F3000 X110.100 Y115.326
;TYPE:SKIN
G1 F900 X109.939 Y115.769 E48.65215
G1 X109.939 Y116.333 E48.67026
G1 X109.939 Y116.898 E48.68840
G1 X109.939 Y117.462 E48.70650
G1 X109.907 Y117.776 E48.71909
G0 F3000 X109.907 Y117.617
G0 X109.899 Y115.076
G0 X110.150 Y115.117
G0 X110.150 Y115.276
G1 F900 X110.593 Y115.115 E48.73724
G1 X111.157 Y115.115 E48.75534
G1 X111.722 Y115.115 E48.77348
G1 X112.286 Y115.115 E48.79159
G1 X112.850 Y115.115 E48.80969
G1 X113.335 Y115.194 E48.82782
G1 X113.827 Y114.701 E48.85812
G1 X114.071 Y113.894 E48.88156
G1 X114.314 Y113.086 E48.90501
G1 X114.558 Y112.279 E48.92845
G1 X114.801 Y111.471 E48.95182
G1 X115.044 Y110.664 E48.97525
G1 X115.287 Y109.856 E48.99871
G1 X115.530 Y109.049 E49.02205
G1 X115.774 Y108.241 E49.04543
G1 X116.017 Y107.434 E49.06878
G1 X116.260 Y106.626 E49.09215
G1 X116.503 Y105.818 E49.11552
G1 X116.817 Y105.223 E49.14237
G10
G1 Z1.600
G0 F3000 X113.671 Y115.705
G1 Z0.600
G11
G1 F900 X113.377 Y115.999 E49.15896
G0 F3000 X109.908 Y114.954
G1 F900 X109.778 Y115.084 E49.16629
;LAYER:4
G0 F3000 X108.299 Y114.257 Z0.700
G0 X108.289 Y114.275
G0 X108.427 Y114.353
;TYPE:FILL
G1 F900 X108.456 Y114.100 E49.17439
G1 X108.658 Y113.738 E49.18247
G1 X108.860 Y113.375 E49.19066
G1 X109.063 Y113.013 E49.19879
G1 X109.265 Y112.651 E49.20696
G1 X109.468 Y112.290 E49.21504
G1 X109.670 Y111.928 E49.22312
G1 X109.872 Y111.566 E49.23124
G1 X110.075 Y111.204 E49.23934
G1 X110.277 Y110.842 E49.24742
G1 X110.479 Y110.480 E49.25550
G1 X110.681 Y110.118 E49.26363
G1 X110.884 Y109.756 E49.27176
G1 X111.086 Y109.394 E49.27993
G1 X111.289 Y109.032 E49.28807
G1 X111.491 Y108.670 E49.29619
