;FLAVOR:UltiGCode
;TIME:6519
;MATERIAL:5426
;MATERIAL2:0
;NOZZLE_DIAMETER:0.400000
;NOZZLE_DIAMETER2:0.400000

;Layer count: 38
;LAYER:0
M106 S255
G0 F12000 X20.983 Y48.732 Z0.300
;TYPE:SKIRT
G1 F1200 X32.397 Y48.732 E1.36968
G1 X34.144 Y51.859 E1.79951
G1 X45.648 Y72.441 E4.62897
G1 X46.051 Y73.160 E4.72788
G1 X47.930 Y76.521 E5.18995
G1 X50.711 Y81.519 E5.87630
G1 X32.830 Y81.519 E8.02202
G1 X27.487 Y63.786 E10.24447
G1 X27.321 Y63.239 E10.31307
G1 X26.716 Y61.230 E10.56484
G1 X26.664 Y61.230 E10.57108
G1 X21.308 Y79.006 E12.79893
G1 X20.543 Y81.519 E13.11415
G1 X2.658 Y81.519 E15.26035
G1 X6.641 Y74.391 E16.24019
G1 X7.116 Y73.542 E16.35693
G1 X18.390 Y53.371 E19.12987
G1 X19.236 Y51.858 E19.33789
G1 X19.237 Y51.858 E19.33801
G1 X20.983 Y48.732 E19.76768
G10
G1 Z0.400
G0 F12000 X22.979 Y52.132
;TYPE:WALL-OUTER
G1 Z0.300
G11
G1 F1200 X30.401 Y52.132 E20.65832
G1 X44.926 Y78.119 E24.23081
G1 X35.356 Y78.119 E25.37921
G1 X29.243 Y57.830 E27.92200
G1 X24.137 Y57.830 E28.53472
G1 X18.023 Y78.119 E31.07754
G1 X8.454 Y78.119 E32.22582
G1 X22.979 Y52.132 E35.79832
G0 F12000 X23.185 Y52.732
G1 F1200 X9.306 Y77.561 E39.21169
G1 X17.610 Y77.561 E40.20817
G1 X23.736 Y57.230 E42.75624
G1 X29.644 Y57.230 E43.46520
G1 X35.770 Y77.561 E46.01326
G1 X44.074 Y77.561 E47.00974
G1 X30.195 Y52.732 E50.42312
G1 X23.185 Y52.732 E51.26432
G0 F12000 X23.028 Y52.726
;TYPE:SKIN
G1 F1200 X23.012 Y52.427 E51.28830
G1 X23.581 Y52.431 E51.34241
G1 X24.146 Y52.431 E51.39648
G1 X24.712 Y52.431 E51.45048
G1 X25.278 Y52.431 E51.50465
G1 X25.844 Y52.431 E51.55881
G1 X26.409 Y52.431 E51.61288
G1 X26.975 Y52.431 E51.66705
G1 X27.541 Y52.431 E51.72122
G1 X28.106 Y52.431 E51.77529
G1 X28.672 Y52.431 E51.82945
G1 X29.238 Y52.431 E51.88362
G1 X29.803 Y52.431 E51.93769
G1 X30.280 Y52.624 E51.99187
G1 X30.815 Y53.159 E52.08267
G0 F12000 X31.031 Y53.941
G1 F1200 X31.531 Y54.441 E52.16752
G0 F12000 X31.748 Y55.224
G1 F1200 X32.248 Y55.724 E52.25237
G0 F12000 X32.465 Y56.507
G1 F1200 X32.965 Y57.006 E52.33714
G0 F12000 X33.182 Y57.789
G1 F1200 X33.681 Y58.288 E52.42182
G0 F12000 X33.900 Y59.073
G1 F1200 X34.398 Y59.571 E52.50634
G10
G1 Z0.400
G0 F12000 X30.346 Y60.044
G1 Z0.300
G11
G1 F1200 X30.017 Y59.433 E52.57649
G1 X29.773 Y58.624 E52.64646
G1 X29.530 Y57.814 E52.71648
G1 X29.245 Y57.529 E52.75844
G1 X28.679 Y57.529 E52.81260
G1 X28.113 Y57.529 E52.86677
G1 X27.548 Y57.529 E52.92084
G1 X26.982 Y57.529 E52.97501
G1 X26.416 Y57.529 E53.02917
G1 X25.851 Y57.529 E53.08324
G1 X25.285 Y57.529 E53.13741
G1 X24.719 Y57.529 E53.19158
G1 X24.154 Y57.529 E53.24565
G1 X23.743 Y57.684 E53.28347
G1 X23.724 Y58.231 E53.32123
G1 X23.593 Y58.665 E53.35904
G1 X23.462 Y59.100 E53.39679
G1 X23.331 Y59.535 E53.43455
G1 X23.377 Y59.864 E53.47441
G10
G1 Z0.400
G0 F12000 X20.188 Y57.806
G1 Z0.300
G11
G1 F1200 X20.219 Y57.554 E53.49833
G1 X20.421 Y57.190 E53.52231
G1 X20.624 Y56.828 E53.54609
G1 X20.827 Y56.465 E53.56992
G1 X21.030 Y56.102 E53.59375
G1 X21.233 Y55.739 E53.61771
G1 X21.436 Y55.377 E53.64149
G1 X21.638 Y55.014 E53.66542
G1 X21.841 Y54.650 E53.68955
G1 X22.044 Y54.288 E53.71333
G1 X22.247 Y53.925 E53.73716
G1 X22.450 Y53.562 E53.76112
G1 X22.653 Y53.199 E53.78507
G1 X22.683 Y52.948 E53.81541
G0 F12000 X22.821 Y53.026
G0 X19.982 Y58.105
G0 X19.844 Y58.028
G1 F1200 X19.813 Y58.279 E53.83931
G1 X19.610 Y58.642 E53.86326
G1 X19.407 Y59.005 E53.88709
G1 X19.204 Y59.367 E53.91088
G1 X19.001 Y59.731 E53.93501
G1 X18.799 Y60.094 E53.95894
G1 X18.596 Y60.456 E53.98272
G1 X18.393 Y60.819 E54.00667
G1 X18.190 Y61.182 E54.03063
G1 X17.987 Y61.545 E54.05446
G1 X17.784 Y61.907 E54.07824
G1 X17.581 Y62.271 E54.10237
G1 X17.379 Y62.634 E54.12630
G1 X17.176 Y62.996 E54.15008
G1 X16.973 Y63.359 E54.17404
G1 X16.770 Y63.722 E54.19800
G1 X16.567 Y64.085 E54.22195
G1 X16.364 Y64.447 E54.24586
G1 X16.162 Y64.811 E54.26984
G1 X15.959 Y65.174 E54.29367
G1 X15.756 Y65.536 E54.31745
G1 X15.554 Y65.900 E54.34143
G1 X15.351 Y66.262 E54.36508
G1 X15.148 Y66.625 E54.38892
G1 X14.945 Y66.989 E54.41267
G1 X14.743 Y67.351 E54.43643
G1 X14.540 Y67.714 E54.46026
G1 X14.337 Y68.077 E54.48409
G1 X14.134 Y68.440 E54.50792
G1 X13.931 Y68.802 E54.53145
G1 X13.728 Y69.165 E54.55503
G1 X13.526 Y69.529 E54.57889
G1 X13.323 Y69.891 E54.60254
G1 X13.120 Y70.254 E54.62638
G1 X12.917 Y70.617 E54.65021
G1 X12.714 Y70.980 E54.67379
G1 X12.511 Y71.342 E54.69732
G1 X12.308 Y71.705 E54.72090
G1 X12.106 Y72.069 E54.74476
G1 X11.903 Y72.431 E54.76841
G1 X11.700 Y72.794 E54.79225
G1 X11.497 Y73.157 E54.81583
G1 X11.294 Y73.519 E54.83936
G1 X11.091 Y73.882 E54.86294
G1 X10.889 Y74.246 E54.88680
G1 X10.686 Y74.608 E54.91045
G1 X10.483 Y74.971 E54.93428
G1 X10.280 Y75.334 E54.95787
G1 X10.077 Y75.697 E54.98145
G1 X9.874 Y76.059 E55.00498
G1 X9.671 Y76.422 E55.02856
G1 X9.469 Y76.786 E55.05242
G1 X9.266 Y77.148 E55.07595
G1 X9.063 Y77.511 E55.09953
G1 X9.391 Y77.839 E55.15979
G1 X9.957 Y77.839 E55.20682
G1 X10.522 Y77.839 E55.25377
G1 X11.088 Y77.839 E55.30081
G1 X11.654 Y77.839 E55.34784
G1 X12.219 Y77.839 E55.39479
G1 X12.785 Y77.839 E55.44183
G1 X13.351 Y77.839 E55.48886
G1 X13.916 Y77.839 E55.53598
G1 X14.482 Y77.839 E55.58302
G1 X15.048 Y77.839 E55.63005
G1 X15.613 Y77.839 E55.67717
G1 X16.179 Y77.839 E55.72421
G1 X16.745 Y77.839 E55.77124
G1 X17.310 Y77.839 E55.81836
G1 X17.869 Y77.832 E55.86549
G1 X17.961 Y77.358 E55.90301
G1 X18.092 Y76.923 E55.94049
G1 X18.223 Y76.489 E55.97802
G1 X18.354 Y76.054 E56.01550
G1 X18.485 Y75.620 E56.05304
G1 X18.616 Y75.185 E56.09052
G1 X18.747 Y74.750 E56.12800
G1 X18.878 Y74.315 E56.16548
G1 X19.009 Y73.881 E56.20301
G1 X19.140 Y73.446 E56.24049
G1 X19.271 Y73.011 E56.27797
G1 X19.402 Y72.576 E56.31545
G1 X19.533 Y72.142 E56.35299
G1 X19.664 Y71.707 E56.39074
G1 X19.795 Y71.272 E56.42822
G1 X19.926 Y70.837 E56.46570
G1 X20.057 Y70.403 E56.50324
G1 X20.188 Y69.968 E56.54085
G1 X20.319 Y69.533 E56.57833
G1 X20.450 Y69.099 E56.61587
G1 X20.580 Y68.664 E56.65346
G1 X20.712 Y68.230 E56.69102
G1 X20.842 Y67.794 E56.72910
G1 X20.973 Y67.359 E56.76699
G1 X21.103 Y66.924 E56.80486
G1 X21.235 Y66.490 E56.84269
G1 X21.366 Y66.055 E56.88044
G1 X21.497 Y65.621 E56.91825
G1 X21.628 Y65.186 E56.95573
G1 X21.759 Y64.751 E56.99321
G1 X21.891 Y64.317 E57.03077
G1 X22.021 Y63.882 E57.06850
G1 X22.152 Y63.447 E57.10598
G1 X22.283 Y63.013 E57.14365
G1 X22.415 Y62.578 E57.18115
G1 X22.545 Y62.144 E57.21880
G1 X22.676 Y61.709 E57.25642
G1 X22.807 Y61.274 E57.29417
G1 X22.938 Y60.839 E57.33192
G1 X23.069 Y60.404 E57.36967
G1 X23.023 Y60.075 E57.40954
G10
G1 Z0.400
G0 F12000 X30.177 Y60.441
G1 Z0.300
G11
G1 F1200 X30.505 Y61.052 E57.47965
G1 X30.749 Y61.861 E57.54961
G1 X30.992 Y62.670 E57.61955
G1 X31.236 Y63.480 E57.68960
G1 X31.480 Y64.290 E57.75964
G1 X31.723 Y65.099 E57.82959
G1 X31.967 Y65.908 E57.89955
G1 X32.213 Y66.720 E57.97006
G1 X32.456 Y67.529 E58.04051
G1 X32.700 Y68.339 E58.11131
G1 X32.942 Y69.146 E58.18132
G1 X33.187 Y69.956 E58.25139
G1 X33.430 Y70.765 E58.32159
G1 X33.674 Y71.575 E58.39189
G1 X33.918 Y72.385 E58.46219
G1 X34.162 Y73.194 E58.53240
G1 X34.405 Y74.004 E58.60268
G1 X34.649 Y74.813 E58.67290
G1 X34.894 Y75.623 E58.74348
G1 X35.138 Y76.433 E58.81403
G1 X35.381 Y77.242 E58.88448
G1 X35.977 Y77.838 E58.97576
G1 X36.543 Y77.838 E59.02296
G1 X37.109 Y77.838 E59.07017
G1 X37.674 Y77.838 E59.11729
G1 X38.240 Y77.838 E59.16449
G1 X38.806 Y77.838 E59.21170
G1 X39.371 Y77.838 E59.25882
G1 X39.794 Y77.978 E59.31229
G10
G1 Z0.400
G0 F12000 X40.133 Y69.831
G1 Z0.300
G11
G1 F1200 X39.636 Y69.335 E59.39655
G0 F12000 X39.416 Y68.549
G1 F1200 X38.919 Y68.052 E59.48089
G0 F12000 X38.699 Y67.266
G1 F1200 X38.202 Y66.769 E59.56523
G0 F12000 X37.982 Y65.984
G1 F1200 X37.485 Y65.487 E59.64958
G0 F12000 X37.265 Y64.701
G1 F1200 X36.768 Y64.203 E59.73401
G0 F12000 X36.548 Y63.418
G1 F1200 X36.051 Y62.921 E59.81835
G0 F12000 X35.832 Y62.137
G1 F1200 X35.334 Y61.638 E59.90295
G0 F12000 X35.115 Y60.854
G1 F1200 X34.617 Y60.355 E59.98755
G0 F12000 X34.757 Y60.278
G0 X40.493 Y70.541
G0 X40.353 Y70.618
G1 F1200 X40.850 Y71.114 E60.07180
G0 F12000 X41.070 Y71.900
G1 F1200 X41.566 Y72.396 E60.15598
G0 F12000 X41.788 Y73.184
G1 F1200 X42.283 Y73.679 E60.23998
G0 F12000 X42.505 Y74.466
G1 F1200 X43.000 Y74.961 E60.32399
G0 F12000 X43.222 Y75.749
G1 F1200 X43.716 Y76.243 E60.40782
G0 F12000 X43.939 Y77.032
G1 F1200 X44.237 Y77.612 E60.49155
G1 X44.037 Y77.978 E60.53872
G1 X43.331 Y77.838 E60.58601
G1 X42.766 Y77.838 E60.63313
G1 X42.200 Y77.838 E60.68016
G1 X41.634 Y77.838 E60.72737
G1 X41.069 Y77.838 E60.77449
G1 X40.503 Y77.838 E60.82152
G1 X40.081 Y77.699 E60.87484
;LAYER:1
G0 F12000 X40.081 Y77.860 Z0.400
G0 X44.072 Y77.860
G0 X44.072 Y77.560
;TYPE:WALL-OUTER
G1 F1260 X30.195 Y52.733 E62.00968
G1 X23.185 Y52.733 E62.28938
G1 X9.308 Y77.560 E63.42422
G1 X17.609 Y77.560 E63.75542
G1 X23.736 Y57.229 E64.60267
G1 X29.644 Y57.229 E64.83840
G1 X35.771 Y77.560 E65.68564
G1 X44.072 Y77.560 E66.01685
G0 F12000 X44.929 Y78.120
G1 F1260 X35.356 Y78.120 E66.39881
G1 X29.242 Y57.831 E67.24430
G1 X24.138 Y57.831 E67.44795
G1 X18.024 Y78.120 E68.29344
G1 X8.451 Y78.120 E68.67540
G1 X22.978 Y52.131 E69.86337
G1 X30.402 Y52.131 E70.15958
G1 X44.929 Y78.120 E71.34755
G0 F12000 X44.509 Y77.655
;TYPE:SKIN
G1 F1260 X44.043 Y77.839 E71.36578
G1 X43.479 Y77.839 E71.38158
G1 X42.915 Y77.839 E71.39731
G1 X42.350 Y77.839 E71.41307
G1 X41.786 Y77.839 E71.42887
G1 X41.222 Y77.839 E71.44466
G1 X40.658 Y77.839 E71.46039
G1 X40.235 Y77.979 E71.47817
G10
G1 Z0.500
G0 F12000 X43.557 Y76.351
G1 Z0.400
G11
G1 F1260 X43.527 Y76.098 E71.48625
G1 X43.325 Y75.736 E71.49433
G1 X43.122 Y75.374 E71.50238
G1 X42.920 Y75.012 E71.51043
G1 X42.717 Y74.650 E71.51844
G1 X42.515 Y74.288 E71.52648
G1 X42.313 Y73.926 E71.53452
G1 X42.111 Y73.564 E71.54256
G1 X41.908 Y73.202 E71.55061
G1 X41.706 Y72.840 E71.55866
G1 X41.503 Y72.478 E71.56667
G1 X41.301 Y72.116 E71.57471
G1 X41.099 Y71.754 E71.58275
G1 X40.897 Y71.393 E71.59082
G1 X40.694 Y71.031 E71.59887
G1 X40.492 Y70.669 E71.60691
G1 X40.289 Y70.307 E71.61496
G1 X40.087 Y69.945 E71.62301
G1 X40.058 Y69.693 E71.63313
G0 F12000 X39.918 Y69.769
G0 X43.762 Y76.646
G0 X43.902 Y76.569
G1 F1260 X43.932 Y76.822 E71.64120
G1 X44.134 Y77.184 E71.64929
G1 X44.163 Y77.437 E71.65945
G10
G1 Z0.500
G0 F12000 X39.952 Y77.699
G1 Z0.400
G11
G1 F1260 X39.529 Y77.839 E71.67526
G1 X38.965 Y77.839 E71.69100
G1 X38.400 Y77.839 E71.70676
G1 X37.836 Y77.839 E71.72256
G1 X37.272 Y77.839 E71.73835
G1 X36.708 Y77.839 E71.75408
G1 X36.143 Y77.839 E71.76985
G1 X35.555 Y77.862 E71.78562
G1 X35.435 Y77.418 E71.79813
G1 X35.305 Y76.984 E71.81059
G1 X35.174 Y76.551 E71.82307
G1 X35.044 Y76.117 E71.83553
G1 X34.914 Y75.683 E71.84799
G1 X34.782 Y75.250 E71.86044
G1 X34.651 Y74.816 E71.87291
G1 X34.520 Y74.383 E71.88539
G1 X34.390 Y73.949 E71.89794
G1 X34.259 Y73.516 E71.91047
G1 X34.129 Y73.082 E71.92298
G1 X33.998 Y72.649 E71.93546
G1 X33.867 Y72.215 E71.94806
G1 X33.736 Y71.782 E71.96064
G1 X33.606 Y71.348 E71.97324
G1 X33.475 Y70.914 E71.98579
G1 X33.344 Y70.481 E71.99832
G1 X33.214 Y70.047 E72.01092
G1 X33.083 Y69.613 E72.02348
G1 X32.953 Y69.180 E72.03604
G1 X32.822 Y68.746 E72.04860
G1 X32.692 Y68.312 E72.06115
G1 X32.562 Y67.878 E72.07361
G1 X32.431 Y67.445 E72.08605
G1 X32.300 Y67.011 E72.09852
G1 X32.169 Y66.577 E72.11094
G1 X32.039 Y66.144 E72.12337
G1 X31.907 Y65.711 E72.13587
G1 X31.777 Y65.277 E72.14842
G1 X31.646 Y64.843 E72.16097
G1 X31.515 Y64.410 E72.17346
G1 X31.385 Y63.976 E72.18596
G1 X31.254 Y63.542 E72.19852
G1 X31.123 Y63.109 E72.21101
G1 X30.993 Y62.675 E72.22347
G1 X30.862 Y62.242 E72.23600
G1 X30.732 Y61.808 E72.24855
G1 X30.601 Y61.374 E72.26101
G1 X30.470 Y60.941 E72.27350
G1 X30.340 Y60.507 E72.28596
G1 X30.386 Y60.179 E72.29917
G10
G1 Z0.500
G0 F12000 X34.453 Y60.063
G1 Z0.400
G11
G1 F1260 X34.422 Y59.810 E72.30720
G1 X34.220 Y59.448 E72.31524
G1 X34.018 Y59.086 E72.32324
G1 X33.816 Y58.724 E72.33125
G1 X33.613 Y58.362 E72.33921
G1 X33.411 Y58.000 E72.34721
G1 X33.208 Y57.638 E72.35518
G1 X33.006 Y57.276 E72.36323
G1 X32.804 Y56.914 E72.37127
G1 X32.602 Y56.552 E72.37931
G1 X32.399 Y56.190 E72.38732
G1 X32.197 Y55.828 E72.39536
G1 X31.995 Y55.467 E72.40335
G1 X31.793 Y55.105 E72.41131
G1 X31.590 Y54.743 E72.41927
G1 X31.388 Y54.381 E72.42727
G1 X31.185 Y54.019 E72.43528
G1 X30.983 Y53.656 E72.44334
G1 X30.781 Y53.294 E72.45139
G1 X30.579 Y52.932 E72.45943
G1 X30.447 Y52.500 E72.46738
G1 X29.952 Y52.431 E72.48277
G1 X29.388 Y52.431 E72.50093
G1 X28.824 Y52.431 E72.51904
G1 X28.260 Y52.431 E72.53714
G1 X27.695 Y52.431 E72.55533
G1 X27.131 Y52.431 E72.57350
G1 X26.567 Y52.431 E72.59160
G1 X26.003 Y52.431 E72.60970
G1 X25.438 Y52.431 E72.62790
G1 X24.874 Y52.431 E72.64600
G1 X24.310 Y52.431 E72.66411
G1 X23.745 Y52.431 E72.68230
G1 X23.076 Y52.818 E72.70046
G1 X22.345 Y53.549 E72.74171
G0 F12000 X22.135 Y54.324
G1 F1260 X21.629 Y54.829 E72.77023
G0 F12000 X21.420 Y55.603
G1 F1260 X20.914 Y56.108 E72.79876
G0 F12000 X20.704 Y56.883
G1 F1260 X20.199 Y57.388 E72.82725
G10
G1 Z0.500
G0 F12000 X23.454 Y58.647
G1 Z0.400
G11
G1 F1260 X23.783 Y58.035 E72.85060
G1 X24.290 Y57.529 E72.87717
G1 X24.854 Y57.529 E72.89528
G1 X25.418 Y57.529 E72.91344
G1 X25.983 Y57.529 E72.93163
G1 X26.547 Y57.529 E72.94974
G1 X27.111 Y57.529 E72.96784
G1 X27.676 Y57.529 E72.98603
G1 X28.240 Y57.529 E73.00414
G1 X28.804 Y57.529 E73.02224
G1 X29.425 Y57.473 E73.04045
G1 X29.556 Y57.905 E73.05291
G1 X29.687 Y58.339 E73.06538
G1 X29.817 Y58.773 E73.07783
G1 X29.948 Y59.206 E73.09032
G1 X30.078 Y59.640 E73.10278
G1 X30.033 Y59.968 E73.11599
G10
G1 Z0.500
G0 F12000 X23.626 Y59.039
G1 Z0.400
G11
G1 F1260 X23.297 Y59.650 E73.13938
G1 X23.054 Y60.458 E73.16275
G1 X22.810 Y61.265 E73.18610
G1 X22.567 Y62.073 E73.20947
G1 X22.323 Y62.881 E73.23285
G1 X22.080 Y63.688 E73.25628
G1 X21.837 Y64.495 E73.27971
G1 X21.594 Y65.303 E73.30317
G1 X21.349 Y66.112 E73.32667
G1 X21.106 Y66.920 E73.34995
G1 X20.862 Y67.728 E73.37325
G1 X20.620 Y68.534 E73.39656
G1 X20.377 Y69.342 E73.41993
G1 X20.133 Y70.149 E73.44337
G1 X19.890 Y70.957 E73.46683
G1 X19.646 Y71.764 E73.49026
G1 X19.403 Y72.572 E73.51372
G1 X19.160 Y73.380 E73.53718
G1 X18.916 Y74.188 E73.56056
G1 X18.673 Y74.994 E73.58396
G1 X18.429 Y75.804 E73.60748
G1 X18.185 Y76.611 E73.63075
G1 X17.943 Y77.419 E73.65411
G1 X17.522 Y77.839 E73.67463
G1 X16.958 Y77.839 E73.69042
G1 X16.394 Y77.839 E73.70621
G1 X15.830 Y77.839 E73.72195
G1 X15.265 Y77.839 E73.73771
G1 X14.701 Y77.839 E73.75350
G1 X14.137 Y77.839 E73.76929
G1 X13.573 Y77.839 E73.78503
G1 X13.008 Y77.839 E73.80079
G1 X12.444 Y77.839 E73.81658
G1 X11.880 Y77.839 E73.83232
G1 X11.315 Y77.839 E73.84808
G1 X10.751 Y77.839 E73.86388
G1 X10.187 Y77.839 E73.87967
G1 X9.623 Y77.839 E73.89540
G1 X8.977 Y77.919 E73.91122
G1 X9.263 Y77.353 E73.93652
G0 F12000 X9.470 Y76.581
G1 F1260 X9.977 Y76.074 E73.96513
G0 F12000 X10.185 Y75.301
G1 F1260 X10.693 Y74.794 E73.99377
G0 F12000 X10.901 Y74.022
G1 F1260 X11.408 Y73.515 E74.02238
G0 F12000 X11.616 Y72.742
G1 F1260 X12.123 Y72.235 E74.05099
G0 F12000 X12.331 Y71.463
G1 F1260 X12.838 Y70.956 E74.07959
G0 F12000 X13.046 Y70.183
G1 F1260 X13.553 Y69.676 E74.10820
G0 F12000 X13.762 Y68.904
G1 F1260 X14.268 Y68.397 E74.13678
G0 F12000 X14.477 Y67.624
G1 F1260 X14.983 Y67.118 E74.16534
G0 F12000 X15.192 Y66.345
G1 F1260 X15.699 Y65.838 E74.19394
G0 F12000 X15.907 Y65.065
G1 F1260 X16.414 Y64.558 E74.22255
G0 F12000 X16.623 Y63.785
G1 F1260 X17.129 Y63.279 E74.25110
G0 F12000 X17.338 Y62.506
G1 F1260 X17.844 Y62.000 E74.27966
