;FLAVOR:UltiGCode
;TIME:1081
;MATERIAL:578
;MATERIAL2:0
;NOZZLE_DIAMETER:0.400000
;NOZZLE_DIAMETER2:0.400000

;Layer count: 38
;LAYER:0
M106 S255
G0 F3000 X105.793 Y95.107 Z0.300
;TYPE:SKIRT
G1 F900 X117.207 Y95.107 E1.36968
G1 X118.954 Y98.234 E1.79951
G1 X130.458 Y118.816 E4.62897
G1 X130.861 Y119.535 E4.72788
G1 X132.740 Y122.896 E5.18995
G1 X135.521 Y127.894 E5.87630
G1 X117.640 Y127.894 E8.02202
G1 X112.297 Y110.161 E10.24447
G1 X112.131 Y109.614 E10.31307
G1 X111.526 Y107.605 E10.56484
G1 X111.474 Y107.605 E10.57108
G1 X106.118 Y125.381 E12.79893
G1 X105.353 Y127.894 E13.11415
G1 X87.468 Y127.894 E15.26035
G1 X91.451 Y120.766 E16.24019
G1 X91.926 Y119.917 E16.35693
G1 X103.200 Y99.746 E19.12987
G1 X104.046 Y98.233 E19.33789
G1 X104.047 Y98.233 E19.33801
G1 X105.793 Y95.107 E19.76768
G10
G1 Z1.300
G0 F3000 X107.789 Y98.507
;TYPE:WALL-OUTER
G1 Z0.300
G11
G1 F900 X115.211 Y98.507 E20.65832
G1 X129.736 Y124.494 E24.23081
G1 X120.166 Y124.494 E25.37921
G1 X114.053 Y104.205 E27.92200
G1 X108.947 Y104.205 E28.53472
G1 X102.833 Y124.494 E31.07754
G1 X93.264 Y124.494 E32.22582
G1 X107.789 Y98.507 E35.79832
G0 F3000 X107.995 Y99.107
G1 F900 X94.116 Y123.936 E39.21169
G1 X102.420 Y123.936 E40.20817
G1 X108.546 Y103.605 E42.75624
G1 X114.454 Y103.605 E43.46520
G1 X120.580 Y123.936 E46.01326
G1 X128.884 Y123.936 E47.00974
G1 X115.005 Y99.107 E50.42312
G1 X107.995 Y99.107 E51.26432
G0 F3000 X107.849 Y99.081
;TYPE:SKIN
G1 F900 X107.843 Y98.793 E51.28825
G1 X108.423 Y98.807 E51.34256
G1 X108.989 Y98.807 E51.39672
G1 X109.554 Y98.807 E51.45096
G1 X110.120 Y98.807 E51.50530
G1 X110.686 Y98.807 E51.55947
G1 X111.251 Y98.807 E51.61371
G1 X111.817 Y98.807 E51.66804
G1 X112.383 Y98.807 E51.72221
G1 X112.949 Y98.807 E51.77638
G1 X113.514 Y98.807 E51.83062
G1 X114.080 Y98.807 E51.88495
G1 X114.523 Y98.967 E51.94147
G0 F3000 X114.769 Y98.647
G1 F900 X115.580 Y99.458 E52.07910
G10
G1 Z1.300
G0 F3000 X107.646 Y99.443
G1 Z0.300
G11
G1 F900 X107.402 Y99.482 E52.10305
G1 X107.270 Y99.916 E52.12700
G1 X107.068 Y100.279 E52.15093
G1 X106.865 Y100.642 E52.17488
G1 X106.662 Y101.005 E52.19884
G1 X106.459 Y101.368 E52.22280
G1 X106.256 Y101.731 E52.24675
G1 X106.054 Y102.094 E52.27068
G1 X105.851 Y102.456 E52.29446
G1 X105.648 Y102.819 E52.31842
G1 X105.445 Y103.182 E52.34237
G1 X105.242 Y103.545 E52.36633
G1 X105.039 Y103.908 E52.39029
G1 X104.837 Y104.271 E52.41434
G1 X104.634 Y104.634 E52.43817
G1 X104.431 Y104.996 E52.46195
G1 X104.228 Y105.360 E52.48608
G1 X104.025 Y105.722 E52.50999
G1 X103.823 Y106.085 E52.53392
G1 X103.620 Y106.448 E52.55787
G1 X103.417 Y106.811 E52.58171
G1 X103.214 Y107.174 E52.60554
G1 X103.011 Y107.537 E52.62949
G1 X102.808 Y107.899 E52.65340
G1 X102.606 Y108.263 E52.67738
G1 X102.403 Y108.625 E52.70116
G1 X102.200 Y108.988 E52.72511
G1 X101.997 Y109.351 E52.74895
G1 X101.794 Y109.713 E52.77273
G1 X101.591 Y110.077 E52.79686
G1 X101.389 Y110.440 E52.82079
G1 X101.186 Y110.802 E52.84457
G1 X100.983 Y111.165 E52.86853
G1 X100.780 Y111.528 E52.89248
G1 X100.577 Y111.891 E52.91631
G1 X100.375 Y112.254 E52.94024
G1 X100.172 Y112.617 E52.96420
G1 X100.141 Y112.869 E52.99467
G10
G1 Z1.300
G0 F3000 X105.483 Y114.251
G1 Z0.300
G11
G1 F900 X105.529 Y114.580 E53.03244
G1 X105.398 Y115.015 E53.07019
G1 X105.266 Y115.449 E53.10775
G1 X105.136 Y115.884 E53.14520
G1 X105.005 Y116.318 E53.18274
G1 X104.874 Y116.753 E53.22022
G1 X104.743 Y117.188 E53.25784
G1 X104.612 Y117.622 E53.29537
G1 X104.481 Y118.057 E53.33285
G1 X104.350 Y118.492 E53.37033
G1 X104.219 Y118.927 E53.40781
G1 X104.088 Y119.362 E53.44529
G1 X103.957 Y119.797 E53.48291
G1 X103.826 Y120.231 E53.52044
G1 X103.695 Y120.666 E53.55792
G1 X103.564 Y121.101 E53.59540
G1 X103.434 Y121.536 E53.63286
G1 X103.303 Y121.970 E53.67039
G1 X103.171 Y122.405 E53.70790
G1 X103.040 Y122.839 E53.74543
G1 X102.910 Y123.274 E53.78289
G1 X102.779 Y123.709 E53.82037
G1 X102.699 Y124.195 E53.85790
G1 X102.152 Y124.214 E53.90503
G1 X101.586 Y124.214 E53.95206
G1 X101.021 Y124.214 E53.99901
G1 X100.455 Y124.214 E54.04605
G1 X100.033 Y124.075 E54.09936
G10
G1 Z1.300
G0 F3000 X118.873 Y119.721
G1 Z0.300
G11
G1 F900 X119.202 Y120.334 E54.16970
G1 X119.446 Y121.143 E54.24017
G1 X119.690 Y121.953 E54.31047
G1 X119.934 Y122.762 E54.38094
G1 X120.264 Y123.375 E54.46449
G0 F3000 X120.092 Y123.769
G1 F900 X120.676 Y124.353 E54.56359
G0 F3000 X120.964 Y124.076
G1 F900 X121.385 Y124.214 E54.61051
G1 X121.951 Y124.214 E54.65738
G1 X122.517 Y124.214 E54.70424
G1 X123.082 Y124.214 E54.75102
G1 X123.648 Y124.214 E54.79789
G1 X124.214 Y124.214 E54.84475
G1 X124.780 Y124.214 E54.89179
G1 X125.346 Y124.214 E54.93882
G1 X125.911 Y124.214 E54.98577
G1 X126.477 Y124.214 E55.03281
G1 X127.043 Y124.214 E55.07984
G1 X127.608 Y124.214 E55.12679
G1 X128.174 Y124.214 E55.17383
G1 X128.740 Y124.214 E55.22086
G1 X129.180 Y124.089 E55.26793
G1 X128.705 Y123.331 E55.37528
G0 F3000 X128.483 Y122.543
G1 F900 X127.988 Y122.048 E55.45928
G0 F3000 X127.766 Y121.261
G1 F900 X127.271 Y120.766 E55.54328
G0 F3000 X127.049 Y119.978
G1 F900 X126.554 Y119.483 E55.62729
G0 F3000 X126.332 Y118.695
G1 F900 X125.837 Y118.200 E55.71129
G0 F3000 X125.616 Y117.413
G1 F900 X125.120 Y116.917 E55.79547
G0 F3000 X124.899 Y116.130
G1 F900 X124.403 Y115.635 E55.87956
G0 F3000 X124.182 Y114.848
G1 F900 X123.686 Y114.352 E55.96373
G0 F3000 X123.465 Y113.566
G1 F900 X122.969 Y113.069 E56.04799
G0 F3000 X122.748 Y112.283
G1 F900 X122.252 Y111.787 E56.13216
G0 F3000 X122.031 Y111.000
G1 F900 X121.535 Y110.504 E56.21634
G0 F3000 X121.314 Y109.718
G1 F900 X120.818 Y109.221 E56.30060
G0 F3000 X120.598 Y108.436
G1 F900 X120.101 Y107.939 E56.38494
G0 F3000 X119.881 Y107.153
G1 F900 X119.384 Y106.656 E56.46928
G0 F3000 X119.164 Y105.870
G1 F900 X118.667 Y105.373 E56.55363
G0 F3000 X118.448 Y104.588
G1 F900 X117.950 Y104.091 E56.63805
G0 F3000 X117.731 Y103.306
G1 F900 X117.233 Y102.808 E56.72257
G0 F3000 X117.014 Y102.023
G1 F900 X116.516 Y101.525 E56.80708
G0 F3000 X116.297 Y100.740
G1 F900 X115.799 Y100.242 E56.89160
G10
G1 Z1.300
G0 F3000 X114.210 Y103.745
G1 Z0.300
G11
G1 F900 X114.325 Y104.142 E56.92569
G1 X114.569 Y104.952 E56.99625
G1 X114.813 Y105.762 E57.06680
G1 X115.057 Y106.571 E57.13727
G1 X115.300 Y107.380 E57.20747
G1 X115.544 Y108.190 E57.27777
G1 X115.788 Y109.000 E57.34832
G1 X116.032 Y109.809 E57.41879
G1 X116.276 Y110.619 E57.48934
G1 X116.520 Y111.428 E57.55982
G1 X116.764 Y112.238 E57.63037
G1 X117.008 Y113.048 E57.70092
G1 X117.252 Y113.857 E57.77139
G1 X117.495 Y114.666 E57.84159
G1 X117.739 Y115.476 E57.91189
G1 X117.983 Y116.286 E57.98219
G1 X118.227 Y117.095 E58.05240
G1 X118.471 Y117.905 E58.12270
G1 X118.715 Y118.715 E58.19300
G1 X119.044 Y119.327 E58.27638
G10
G1 Z1.300
G0 F3000 X105.836 Y114.039
G1 Z0.300
G11
G1 F900 X105.790 Y113.710 E58.31395
G1 X105.921 Y113.275 E58.35143
G1 X106.052 Y112.840 E58.38891
G1 X106.183 Y112.406 E58.42645
G1 X106.314 Y111.971 E58.46406
G1 X106.445 Y111.536 E58.50182
G1 X106.576 Y111.101 E58.53930
G1 X106.707 Y110.667 E58.57683
G1 X106.838 Y110.232 E58.61431
G1 X106.969 Y109.798 E58.65198
G1 X107.100 Y109.363 E58.68974
G1 X107.231 Y108.928 E58.72749
G1 X107.362 Y108.493 E58.76497
G1 X107.493 Y108.059 E58.80251
G1 X107.624 Y107.624 E58.84026
G1 X107.755 Y107.189 E58.87801
G1 X107.885 Y106.754 E58.91574
G1 X108.016 Y106.319 E58.95335
G1 X108.147 Y105.884 E58.99083
G1 X108.279 Y105.450 E59.02839
G1 X108.409 Y105.015 E59.06599
G1 X108.540 Y104.581 E59.10352
G1 X108.683 Y104.158 E59.14130
G1 X108.872 Y103.781 E59.18330
G1 X109.561 Y103.904 E59.23747
G1 X110.127 Y103.904 E59.29147
G1 X110.693 Y103.904 E59.34547
G1 X111.258 Y103.904 E59.39954
G1 X111.824 Y103.904 E59.45353
G1 X112.390 Y103.904 E59.50753
G1 X112.956 Y103.904 E59.56153
G1 X113.521 Y103.904 E59.61560
G1 X113.964 Y104.064 E59.67212
G10
G1 Z1.300
G0 F3000 X99.938 Y113.232
G1 Z0.300
G11
G1 F900 X99.695 Y113.272 E59.69598
G1 X99.563 Y113.705 E59.71988
G1 X99.360 Y114.068 E59.74384
G1 X99.158 Y114.431 E59.76777
G1 X98.955 Y114.794 E59.79172
G1 X98.752 Y115.157 E59.81555
G1 X98.549 Y115.520 E59.83951
G1 X98.346 Y115.882 E59.86342
G1 X98.144 Y116.246 E59.88739
G1 X97.941 Y116.608 E59.91105
G1 X97.738 Y116.971 E59.93501
G1 X97.535 Y117.334 E59.95896
G1 X97.332 Y117.697 E59.98292
G1 X97.129 Y118.059 E60.00683
G1 X96.927 Y118.423 E60.03080
G1 X96.724 Y118.786 E60.05464
G1 X96.521 Y119.148 E60.07854
G1 X96.318 Y119.511 E60.10250
G1 X96.115 Y119.874 E60.12645
G1 X95.913 Y120.237 E60.15038
G1 X95.710 Y120.600 E60.17421
G1 X95.507 Y120.963 E60.19804
G1 X95.304 Y121.326 E60.22200
G1 X95.101 Y121.688 E60.24591
G1 X94.898 Y122.051 E60.26986
G1 X94.696 Y122.415 E60.29384
G1 X94.493 Y122.777 E60.31750
G1 X94.290 Y123.140 E60.34133
G1 X94.087 Y123.503 E60.36516
G1 X93.884 Y123.866 E60.38912
G1 X94.232 Y124.214 E60.45290
G1 X94.798 Y124.214 E60.49993
G1 X95.364 Y124.214 E60.54697
G1 X95.929 Y124.214 E60.59409
G1 X96.495 Y124.214 E60.64112
G1 X97.061 Y124.214 E60.68816
G1 X97.626 Y124.214 E60.73528
G1 X98.192 Y124.214 E60.78231
G1 X98.758 Y124.214 E60.82935
G1 X99.324 Y124.214 E60.87638
G1 X99.745 Y124.353 E60.92959
;LAYER:1
G0 F3000 X99.745 Y124.195 Z0.400
G0 X102.686 Y124.295
G0 X102.704 Y124.022
G0 X102.419 Y123.935
;TYPE:WALL-OUTER
G1 F900 X108.546 Y103.604 E61.77683
G1 X114.454 Y103.604 E62.01256
G1 X120.581 Y123.935 E62.85980
G1 X128.882 Y123.935 E63.19101
G1 X115.005 Y99.108 E64.32585
G1 X107.995 Y99.108 E64.60555
G1 X94.118 Y123.935 E65.74039
G1 X102.419 Y123.935 E66.07160
G0 F3000 X102.834 Y124.495
G1 F900 X93.261 Y124.495 E66.45356
G1 X107.788 Y98.506 E67.64152
G1 X115.212 Y98.506 E67.93774
G1 X129.739 Y124.495 E69.12570
G1 X120.166 Y124.495 E69.50767
G1 X114.052 Y104.206 E70.35316
G1 X108.948 Y104.206 E70.55680
G1 X102.834 Y124.495 E71.40229
G0 F3000 X102.481 Y124.073
;TYPE:SKIN
G1 F900 X102.058 Y124.213 E71.41811
G1 X101.494 Y124.213 E71.43390
G1 X100.930 Y124.213 E71.44970
G1 X100.366 Y124.213 E71.46549
G1 X99.801 Y124.213 E71.48131
G1 X99.237 Y124.213 E71.49710
G1 X98.673 Y124.213 E71.51289
G1 X98.109 Y124.213 E71.52868
G1 X97.544 Y124.213 E71.54450
G1 X96.980 Y124.213 E71.56030
G1 X96.416 Y124.213 E71.57609
G1 X95.851 Y124.213 E71.59191
G1 X95.287 Y124.213 E71.60770
G1 X94.723 Y124.213 E71.62349
G1 X94.159 Y124.213 E71.63928
G1 X93.824 Y123.983 E71.65513
G1 X94.420 Y123.106 E71.69744
G0 F3000 X94.628 Y122.334
G1 F900 X95.135 Y121.827 E71.72605
G0 F3000 X95.344 Y121.054
G1 F900 X95.850 Y120.548 E71.75460
G0 F3000 X96.059 Y119.775
G1 F900 X96.565 Y119.269 E71.78315
G0 F3000 X96.773 Y118.496
G1 F900 X97.280 Y117.989 E71.81176
G0 F3000 X97.488 Y117.217
G1 F900 X97.995 Y116.710 E71.84037
G0 F3000 X98.204 Y115.937
G1 F900 X98.710 Y115.430 E71.86895
G0 F3000 X98.919 Y114.658
G1 F900 X99.425 Y114.151 E71.89753
G0 F3000 X99.634 Y113.378
G1 F900 X100.140 Y112.872 E71.92608
G0 F3000 X100.349 Y112.099
G1 F900 X100.855 Y111.593 E71.95463
G0 F3000 X101.064 Y110.819
G1 F900 X101.570 Y110.314 E71.98316
G0 F3000 X101.779 Y109.540
G1 F900 X102.285 Y109.035 E72.01168
G0 F3000 X102.494 Y108.261
G1 F900 X103.000 Y107.756 E72.04021
G0 F3000 X103.210 Y106.981
G1 F900 X103.714 Y106.476 E72.06867
G0 F3000 X103.924 Y105.702
G1 F900 X104.430 Y105.196 E72.09723
G0 F3000 X104.639 Y104.423
G1 F900 X105.145 Y103.917 E72.12578
G0 F3000 X105.355 Y103.143
G1 F900 X105.860 Y102.638 E72.15427
G0 F3000 X106.070 Y101.864
G1 F900 X106.575 Y101.359 E72.18277
G0 F3000 X106.785 Y100.585
G1 F900 X107.290 Y100.080 E72.21126
G10
G1 Z1.400
G0 F3000 X108.704 Y103.743
G1 Z0.400
G11
G1 F900 X108.786 Y103.944 E72.21569
G1 X109.390 Y103.904 E72.23385
G1 X109.954 Y103.904 E72.25201
G1 X110.518 Y103.904 E72.27017
G1 X111.082 Y103.904 E72.28834
G1 X111.647 Y103.904 E72.30653
G1 X112.211 Y103.904 E72.32469
G1 X112.775 Y103.904 E72.34285
G1 X113.339 Y103.904 E72.36101
G1 X113.904 Y103.904 E72.37920
G1 X114.413 Y103.959 E72.39743
G1 X114.433 Y104.504 E72.40992
G1 X114.563 Y104.938 E72.42238
G1 X114.694 Y105.371 E72.43486
G1 X114.824 Y105.805 E72.44732
G1 X114.955 Y106.238 E72.45981
G1 X115.086 Y106.672 E72.47227
G1 X115.216 Y107.106 E72.48478
G1 X115.347 Y107.539 E72.49726
G1 X115.478 Y107.973 E72.50973
G1 X115.609 Y108.406 E72.52222
G1 X115.739 Y108.840 E72.53468
G1 X115.870 Y109.273 E72.54721
G1 X116.000 Y109.707 E72.55976
G1 X116.131 Y110.141 E72.57222
G1 X116.262 Y110.574 E72.58471
G1 X116.393 Y111.008 E72.59727
G1 X116.523 Y111.441 E72.60979
G1 X116.654 Y111.875 E72.62230
G1 X116.784 Y112.309 E72.63481
G1 X116.915 Y112.742 E72.64729
G1 X117.046 Y113.176 E72.65985
G1 X117.177 Y113.609 E72.67238
G1 X117.307 Y114.043 E72.68493
G1 X117.438 Y114.477 E72.69740
G1 X117.569 Y114.910 E72.70988
G1 X117.699 Y115.344 E72.72243
G1 X117.830 Y115.777 E72.73492
G1 X117.960 Y116.211 E72.74747
G1 X118.091 Y116.645 E72.75993
G1 X118.222 Y117.078 E72.77247
G1 X118.353 Y117.512 E72.78502
G1 X118.484 Y117.945 E72.79755
G1 X118.614 Y118.379 E72.81010
G1 X118.745 Y118.813 E72.82257
G1 X118.875 Y119.246 E72.83505
G1 X119.006 Y119.680 E72.84756
G1 X119.137 Y120.113 E72.86009
G1 X119.267 Y120.547 E72.87264
G1 X119.398 Y120.981 E72.88511
G1 X119.529 Y121.414 E72.89764
G1 X119.659 Y121.848 E72.91019
G1 X119.790 Y122.281 E72.92272
G1 X119.920 Y122.715 E72.93527
G1 X119.875 Y123.044 E72.94852
G10
G1 Z1.400
G0 F3000 X103.930 Y120.367
G1 Z0.400
G11
G1 F900 X103.601 Y120.978 E72.97190
G1 X103.358 Y121.785 E72.99525
G1 X103.114 Y122.593 E73.01863
G1 X102.871 Y123.401 E73.04192
G1 X102.542 Y124.013 E73.06964
G0 F3000 X102.693 Y124.059
G0 X103.910 Y120.021
G0 X103.759 Y119.974
G1 F900 X104.087 Y119.363 E73.09294
G1 X104.331 Y118.555 E73.11632
G1 X104.574 Y117.748 E73.13967
G1 X104.818 Y116.940 E73.16305
G1 X105.061 Y116.132 E73.18642
G1 X105.304 Y115.325 E73.20976
G1 X105.547 Y114.517 E73.23313
G1 X105.791 Y113.710 E73.25649
G1 X106.034 Y112.902 E73.27978
G1 X106.277 Y112.095 E73.30312
G1 X106.521 Y111.287 E73.32642
G1 X106.764 Y110.480 E73.34968
G1 X107.008 Y109.672 E73.37297
G1 X107.251 Y108.865 E73.39623
G1 X107.494 Y108.057 E73.41952
G1 X107.737 Y107.249 E73.44281
G1 X107.981 Y106.442 E73.46608
G1 X108.224 Y105.634 E73.48937
G1 X108.468 Y104.826 E73.51266
G1 X108.796 Y104.216 E73.54030
G10
G1 Z1.400
G0 F3000 X115.926 Y100.472
G1 Z0.400
G11
G1 F900 X115.896 Y100.219 E73.54837
G1 X115.694 Y99.857 E73.55641
G1 X115.491 Y99.495 E73.56442
G1 X115.289 Y99.133 E73.57242
G1 X115.095 Y98.763 E73.58040
G1 X114.488 Y98.806 E73.59860
G1 X113.924 Y98.806 E73.61676
G1 X113.359 Y98.806 E73.63495
G1 X112.795 Y98.806 E73.65311
G1 X112.231 Y98.806 E73.67127
G1 X111.666 Y98.806 E73.68947
G1 X111.102 Y98.806 E73.70763
G1 X110.538 Y98.806 E73.72579
G1 X109.974 Y98.806 E73.74395
G1 X109.409 Y98.806 E73.76214
G1 X108.845 Y98.806 E73.78030
G1 X108.402 Y98.968 E73.79912
G0 F3000 X108.160 Y98.645
G1 F900 X107.500 Y99.306 E73.83639
G10
G1 Z1.400
G0 F3000 X116.129 Y100.833
G1 Z0.400
G11
G1 F900 X116.372 Y100.872 E73.84437
G1 X116.503 Y101.305 E73.85233
G1 X116.706 Y101.667 E73.86030
G1 X116.908 Y102.029 E73.86826
G1 X117.110 Y102.390 E73.87624
G1 X117.312 Y102.752 E73.88428
G1 X117.515 Y103.114 E73.89234
G1 X117.717 Y103.476 E73.90038
G1 X117.919 Y103.838 E73.90842
G1 X118.122 Y104.200 E73.91643
G1 X118.324 Y104.563 E73.92445
G1 X118.526 Y104.925 E73.93241
G1 X118.729 Y105.286 E73.94036
G1 X118.931 Y105.648 E73.94840
G1 X119.133 Y106.010 E73.95644
G1 X119.335 Y106.372 E73.96449
G1 X119.538 Y106.734 E73.97254
G1 X119.740 Y107.096 E73.98054
G1 X119.943 Y107.458 E73.98851
G1 X120.145 Y107.819 E73.99649
G1 X120.347 Y108.181 E74.00453
G1 X120.549 Y108.544 E74.01259
G1 X120.752 Y108.906 E74.02056
