;FLAVOR:UltiGCode
;TIME:439
;MATERIAL:340
;MATERIAL2:0
;NOZZLE_DIAMETER:0.400000
;NOZZLE_DIAMETER2:0.400000

;Layer count: 63
;LAYER:0
M107
G0 F12000 X105.559 Y101.899 Z0.300
;TYPE:SKIRT
G1 F1200 X117.441 Y101.899 E1.42584
G1 X128.173 Y121.101 E4.06555
G1 X113.007 Y121.101 E5.88547
G1 X111.999 Y117.749 E6.30550
G1 X111.998 Y117.749 E6.30562
G1 X111.500 Y116.097 E6.51267
G1 X111.003 Y117.748 E6.71957
G1 X109.991 Y121.101 E7.13986
G1 X94.827 Y121.101 E8.95954
G1 X105.559 Y101.899 E11.59925
G0 F12000 X105.793 Y102.299
G1 F1200 X117.207 Y102.299 E12.96893
G1 X127.492 Y120.701 E15.49867
G1 X113.304 Y120.701 E17.20123
G1 X112.381 Y117.632 E17.58580
G1 X111.526 Y114.797 E17.94114
G1 X111.474 Y114.797 E17.94738
G1 X110.620 Y117.633 E18.30279
G1 X109.694 Y120.701 E18.68736
G1 X95.508 Y120.701 E20.38968
G1 X105.793 Y102.299 E22.91941
G10
G1 Z0.400
G0 F12000 X107.995 Y106.299
;TYPE:WALL-OUTER
G1 Z0.300
G11
G1 F1200 X102.156 Y116.744 E24.35537
G1 X103.155 Y116.744 E24.47525
G1 X102.844 Y117.301 E24.55180
G1 X101.304 Y117.301 E24.73660
G1 X107.789 Y105.699 E26.33157
G1 X115.211 Y105.699 E27.22221
G1 X121.696 Y117.301 E28.81718
G1 X120.156 Y117.301 E29.00198
G1 X119.845 Y116.744 E29.07853
G1 X120.844 Y116.744 E29.19841
G1 X115.005 Y106.299 E30.63437
G1 X107.995 Y106.299 E31.47557
G0 F12000 X108.138 Y106.158
;TYPE:SKIN
G1 F1200 X107.750 Y106.053 E31.52404
G1 X107.618 Y106.486 E31.54794
G1 X107.416 Y106.850 E31.57192
G1 X107.213 Y107.212 E31.59570
G1 X107.010 Y107.575 E31.61966
G1 X106.807 Y107.938 E31.64362
G1 X106.604 Y108.301 E31.66745
G1 X106.401 Y108.663 E31.69123
G1 X106.198 Y109.027 E31.71524
G1 X105.995 Y109.390 E31.73894
G1 X105.793 Y109.752 E31.76282
G1 X105.590 Y110.115 E31.78678
G1 X105.387 Y110.478 E31.81073
G1 X105.184 Y110.841 E31.83456
G1 X104.981 Y111.204 E31.85827
G1 X104.778 Y111.567 E31.88198
G1 X104.575 Y111.930 E31.90568
G1 X104.373 Y112.292 E31.92956
G1 X104.170 Y112.655 E31.95352
G1 X103.967 Y113.018 E31.97735
G1 X103.764 Y113.381 E32.00093
G1 X103.561 Y113.744 E32.02464
G1 X103.359 Y114.107 E32.04844
G1 X103.156 Y114.469 E32.07210
G1 X102.953 Y114.832 E32.09593
G1 X102.750 Y115.196 E32.11969
G1 X102.547 Y115.558 E32.14322
G1 X102.345 Y115.921 E32.16702
G1 X102.142 Y116.284 E32.19085
G1 X101.939 Y116.647 E32.21468
G1 X102.313 Y117.021 E32.28276
G1 X102.734 Y117.159 E32.33592
G10
G1 Z0.400
G0 F12000 X108.704 Y106.158
G1 Z0.300
G11
G1 F1200 X108.667 Y105.839 E32.38997
G1 X109.392 Y105.998 E32.44408
G1 X109.958 Y105.998 E32.49807
G1 X110.524 Y105.998 E32.55207
G1 X111.089 Y105.998 E32.60614
G1 X111.655 Y105.998 E32.66014
G1 X112.221 Y105.998 E32.71413
G1 X112.787 Y105.998 E32.76813
G1 X113.352 Y105.998 E32.82220
G1 X113.918 Y105.998 E32.87620
G1 X114.484 Y105.998 E32.93019
G1 X115.107 Y106.339 E32.98431
G1 X115.787 Y107.019 E33.09971
G0 F12000 X116.005 Y107.803
G1 F1200 X116.504 Y108.301 E33.18431
G0 F12000 X116.723 Y109.086
G1 F1200 X117.221 Y109.584 E33.26882
G0 F12000 X117.440 Y110.369
G1 F1200 X117.937 Y110.866 E33.35317
G0 F12000 X118.157 Y111.652
G1 F1200 X118.654 Y112.149 E33.43751
G0 F12000 X118.875 Y112.935
G1 F1200 X119.371 Y113.431 E33.52168
G0 F12000 X119.592 Y114.218
G1 F1200 X120.088 Y114.714 E33.60586
G0 F12000 X120.309 Y115.501
G1 F1200 X120.805 Y115.997 E33.69003
G0 F12000 X121.026 Y116.784
G1 F1200 X121.120 Y117.160 E33.75387
G1 X120.415 Y117.022 E33.80063
G1 X120.194 Y117.083 E33.82814
G10
G1 Z0.400
G0 F12000 X116.245 Y116.744
;TYPE:WALL-OUTER
G1 Z0.300
G11
G1 F1200 X117.245 Y116.744 E33.94814
G1 X117.413 Y117.301 E34.01796
G1 X115.832 Y117.301 E34.20768
G1 X114.053 Y111.397 E34.94762
G1 X108.947 Y111.397 E35.56034
G1 X107.169 Y117.301 E36.30025
G1 X105.586 Y117.301 E36.49021
G1 X105.754 Y116.744 E36.56003
G1 X106.755 Y116.744 E36.68015
G1 X108.547 Y110.797 E37.42548
G1 X114.453 Y110.797 E38.13420
G1 X116.245 Y116.744 E38.87954
G0 F12000 X116.601 Y116.884
;TYPE:SKIN
G1 F1200 X116.593 Y117.159 E38.92609
G1 X115.856 Y116.422 E39.01739
G1 X115.613 Y115.613 E39.08708
G1 X115.369 Y114.803 E39.15687
G1 X115.125 Y113.994 E39.22683
G1 X114.881 Y113.184 E39.29688
G1 X114.638 Y112.375 E39.36657
G1 X114.394 Y111.565 E39.43661
G1 X113.924 Y111.096 E39.50991
G1 X113.359 Y111.096 E39.56399
G1 X112.793 Y111.096 E39.61815
G1 X112.227 Y111.096 E39.67232
G1 X111.662 Y111.096 E39.72639
G1 X111.096 Y111.096 E39.78055
G1 X110.530 Y111.096 E39.83472
G1 X109.964 Y111.096 E39.88872
G1 X109.399 Y111.096 E39.94279
G1 X108.772 Y111.035 E39.99703
G1 X108.634 Y111.463 E40.03453
G1 X108.504 Y111.898 E40.07199
G1 X108.373 Y112.333 E40.10947
G1 X108.242 Y112.767 E40.14714
G1 X108.111 Y113.202 E40.18476
G1 X107.980 Y113.637 E40.22251
G1 X107.849 Y114.072 E40.26012
G1 X107.719 Y114.507 E40.29785
G1 X107.588 Y114.942 E40.33560
G1 X107.457 Y115.377 E40.37336
G1 X107.326 Y115.811 E40.41116
G1 X107.195 Y116.246 E40.44892
G1 X107.064 Y116.681 E40.48667
G1 X106.902 Y117.084 E40.52433
G1 X106.273 Y117.021 E40.57098
G1 X105.855 Y116.886 E40.62369
;LAYER:1
M106 S2
G10
G1 Z0.400
G0 F12000 X102.845 Y117.302 Z0.360
;TYPE:WALL-OUTER
G1 Z0.360
G11
G1 F1620 X101.301 Y117.302 E40.66065
G1 X107.788 Y105.698 E40.97891
G1 X115.212 Y105.698 E41.15665
G1 X121.699 Y117.302 E41.47491
G1 X120.155 Y117.302 E41.51187
G1 X119.842 Y116.743 E41.52721
G1 X120.842 Y116.743 E41.55115
G1 X115.005 Y106.300 E41.83756
G1 X107.995 Y106.300 E42.00537
G1 X102.158 Y116.743 E42.29178
G1 X103.158 Y116.743 E42.31572
G1 X102.845 Y117.302 E42.33106
G0 F12000 X102.623 Y117.161
;TYPE:SKIN
G1 F1620 X102.619 Y116.882 E42.34047
G1 X101.826 Y117.111 E42.34988
G1 X102.207 Y116.165 E42.36720
G1 X102.923 Y114.885 E42.38444
G1 X103.638 Y113.606 E42.40167
G1 X104.353 Y112.327 E42.41882
G1 X104.965 Y111.433 E42.44476
G0 F12000 X105.172 Y110.662
G1 F1620 X105.679 Y110.154 E42.46194
G0 F12000 X105.887 Y109.382
G1 F1620 X106.394 Y108.875 E42.47910
G0 F12000 X106.603 Y108.102
G1 F1620 X107.109 Y107.596 E42.49623
G0 F12000 X107.319 Y106.822
G1 F1620 X107.902 Y106.238 E42.51327
G1 X108.424 Y105.998 E42.52416
G1 X108.989 Y105.998 E42.53507
G1 X109.553 Y105.998 E42.54597
G1 X110.117 Y105.998 E42.55687
G1 X110.681 Y105.998 E42.56776
G1 X111.246 Y105.998 E42.57868
G1 X111.810 Y105.998 E42.58958
G1 X112.374 Y105.998 E42.60047
G1 X112.939 Y105.998 E42.61139
G1 X113.503 Y105.998 E42.62229
G1 X114.067 Y105.998 E42.63318
G1 X114.631 Y105.998 E42.64408
G1 X115.193 Y106.001 E42.65497
G1 X115.341 Y106.417 E42.65974
G1 X115.543 Y106.779 E42.66454
G1 X115.746 Y107.141 E42.66932
G1 X115.948 Y107.503 E42.67410
G1 X116.150 Y107.865 E42.67890
G1 X116.353 Y108.227 E42.68368
G1 X116.555 Y108.589 E42.68845
G1 X116.757 Y108.950 E42.69324
G1 X116.959 Y109.312 E42.69807
G1 X117.162 Y109.674 E42.70287
G1 X117.364 Y110.036 E42.70770
G1 X117.566 Y110.398 E42.71253
G1 X117.768 Y110.760 E42.71735
G1 X117.971 Y111.122 E42.72216
G1 X118.174 Y111.484 E42.72696
G1 X118.376 Y111.846 E42.73179
G1 X118.578 Y112.208 E42.73661
G1 X118.780 Y112.570 E42.74144
G1 X118.982 Y112.932 E42.74626
G1 X119.185 Y113.294 E42.75107
G1 X119.387 Y113.656 E42.75590
G1 X119.590 Y114.018 E42.76073
G1 X119.792 Y114.380 E42.76558
G1 X119.994 Y114.742 E42.77040
G1 X120.197 Y115.104 E42.77523
G1 X120.399 Y115.466 E42.78008
G1 X120.601 Y115.827 E42.78492
G1 X120.803 Y116.189 E42.78975
G1 X121.006 Y116.551 E42.79458
G1 X120.997 Y116.843 E42.79942
G1 X120.536 Y117.021 E42.80885
G1 X120.193 Y117.083 E42.81719
G0 F12000 X121.243 Y117.161
G1 F1620 X121.381 Y117.023 E42.82186
G10
G1 Z0.460
G0 F12000 X117.246 Y116.743
;TYPE:WALL-OUTER
G1 Z0.360
G11
G1 F1620 X117.415 Y117.302 E42.83584
G1 X115.831 Y117.302 E42.87376
G1 X114.052 Y111.398 E43.02138
G1 X108.948 Y111.398 E43.14357
G1 X107.169 Y117.302 E43.29119
G1 X105.586 Y117.302 E43.32909
G1 X105.754 Y116.743 E43.34306
G1 X106.754 Y116.743 E43.36700
G1 X108.546 Y110.796 E43.51570
G1 X114.454 Y110.796 E43.65713
G1 X116.246 Y116.743 E43.80583
G1 X117.246 Y116.743 E43.82977
G0 F12000 X117.008 Y116.882
;TYPE:SKIN
G1 F1620 X116.586 Y117.021 E43.83921
G1 X116.011 Y117.032 E43.84866
G1 X115.903 Y116.576 E43.85614
G1 X115.773 Y116.142 E43.86364
G1 X115.642 Y115.708 E43.87112
G1 X115.511 Y115.275 E43.87861
G1 X115.380 Y114.841 E43.88612
G1 X115.250 Y114.408 E43.89366
G1 X115.119 Y113.974 E43.90120
G1 X114.988 Y113.540 E43.90868
G1 X114.858 Y113.107 E43.91616
G1 X114.727 Y112.673 E43.92367
G1 X114.597 Y112.240 E43.93121
G1 X114.466 Y111.806 E43.93875
G1 X114.336 Y111.372 E43.94630
G1 X114.154 Y110.989 E43.95383
G1 X113.483 Y111.096 E43.96472
G1 X112.919 Y111.096 E43.97562
G1 X112.354 Y111.096 E43.98653
G1 X111.790 Y111.096 E43.99743
G1 X111.227 Y111.096 E44.00830
G1 X110.662 Y111.096 E44.01922
G1 X110.098 Y111.096 E44.03012
G1 X109.534 Y111.096 E44.04098
G1 X108.970 Y111.096 E44.05184
G1 X108.649 Y111.416 E44.06147
G1 X108.406 Y112.223 E44.07548
G1 X108.162 Y113.031 E44.08950
G1 X107.920 Y113.838 E44.10351
G1 X107.677 Y114.646 E44.11753
G1 X107.433 Y115.453 E44.13154
G1 X107.190 Y116.260 E44.14555
G1 X106.857 Y116.876 E44.15958
G1 X106.430 Y117.021 E44.16905
G1 X106.008 Y117.161 E44.17970
;LAYER:2
M106 S5
G10
G1 Z0.460
G0 F12000 X102.845 Y117.302 Z0.420
;TYPE:WALL-OUTER
G1 Z0.420
G11
G1 F1860 X101.301 Y117.302 E44.21666
G1 X107.788 Y105.698 E44.53492
G1 X115.212 Y105.698 E44.71265
G1 X121.699 Y117.302 E45.03091
G1 X120.155 Y117.302 E45.06788
G1 X119.842 Y116.743 E45.08321
G1 X120.842 Y116.743 E45.10715
G1 X115.005 Y106.300 E45.39356
G1 X107.995 Y106.300 E45.56138
G1 X102.158 Y116.743 E45.84779
G1 X103.158 Y116.743 E45.87173
G1 X102.845 Y117.302 E45.88707
G0 F12000 X102.766 Y117.156
;TYPE:SKIN
G1 F1860 X102.350 Y117.021 E45.89630
G1 X101.925 Y116.879 E45.90571
G1 X101.952 Y116.623 E45.91063
G1 X102.154 Y116.261 E45.91555
G1 X102.356 Y115.899 E45.92047
G1 X102.558 Y115.537 E45.92540
G1 X102.760 Y115.175 E45.93030
G1 X102.963 Y114.813 E45.93521
G1 X103.165 Y114.451 E45.94011
G1 X103.367 Y114.089 E45.94501
G1 X103.569 Y113.727 E45.94990
G1 X103.772 Y113.366 E45.95480
G1 X103.975 Y113.003 E45.95972
G1 X104.177 Y112.642 E45.96461
G1 X104.379 Y112.279 E45.96952
G1 X104.581 Y111.917 E45.97442
G1 X104.783 Y111.555 E45.97932
G1 X104.986 Y111.193 E45.98420
G1 X105.188 Y110.831 E45.98910
G1 X105.391 Y110.470 E45.99394
G1 X105.593 Y110.108 E45.99879
G1 X105.795 Y109.746 E46.00364
G1 X105.997 Y109.384 E46.00852
G1 X106.200 Y109.022 E46.01337
G1 X106.402 Y108.660 E46.01822
G1 X106.605 Y108.298 E46.02310
G1 X106.807 Y107.936 E46.02798
G1 X107.009 Y107.574 E46.03288
G1 X107.211 Y107.212 E46.03778
G1 X107.414 Y106.850 E46.04266
G1 X107.616 Y106.488 E46.04754
G1 X107.747 Y106.055 E46.05237
G1 X108.255 Y105.999 E46.06203
G1 X108.819 Y105.999 E46.07289
G1 X109.383 Y105.999 E46.08375
G1 X109.948 Y105.999 E46.09463
G1 X110.512 Y105.999 E46.10550
G1 X111.076 Y105.999 E46.11636
G1 X111.640 Y105.999 E46.12722
G1 X112.205 Y105.999 E46.13810
G1 X112.769 Y105.999 E46.14897
G1 X113.333 Y105.999 E46.15983
G1 X113.898 Y105.999 E46.17071
G1 X114.462 Y105.999 E46.18157
G1 X115.110 Y106.365 E46.19247
G1 X115.821 Y107.075 E46.21652
G0 F12000 X116.030 Y107.849
G1 F1860 X116.536 Y108.355 E46.23365
G0 F12000 X116.745 Y109.128
G1 F1860 X117.252 Y109.635 E46.25082
G0 F12000 X117.460 Y110.407
G1 F1860 X117.967 Y110.914 E46.26798
G0 F12000 X118.174 Y111.686
G1 F1860 X118.682 Y112.194 E46.28518
G0 F12000 X118.889 Y112.965
G1 F1860 X119.501 Y113.859 E46.30235
G1 X120.216 Y115.138 E46.31949
G1 X120.931 Y116.417 E46.33672
G1 X121.110 Y117.161 E46.34884
G1 X120.407 Y117.022 E46.35826
G1 X120.200 Y117.097 E46.36353
G10
G1 Z0.520
G0 F12000 X101.643 Y117.161
G1 Z0.420
G11
G1 F1860 X101.575 Y117.094 E46.36581
G0 F12000 X105.754 Y116.743
;TYPE:WALL-OUTER
G1 F1860 X106.754 Y116.743 E46.38975
G1 X108.546 Y110.796 E46.53845
G1 X114.454 Y110.796 E46.67989
G1 X116.246 Y116.743 E46.82858
G1 X117.247 Y116.743 E46.85254
G1 X117.415 Y117.302 E46.86652
G1 X115.831 Y117.302 E46.90444
G1 X114.052 Y111.398 E47.05206
G1 X108.948 Y111.398 E47.17425
G1 X107.169 Y117.302 E47.32187
G1 X105.586 Y117.302 E47.35976
G1 X105.754 Y116.743 E47.37374
G0 F12000 X105.878 Y116.882
;TYPE:SKIN
G1 F1860 X106.299 Y117.021 E47.38315
G1 X106.806 Y116.964 E47.39258
G1 X107.181 Y116.775 E47.40014
G1 X107.200 Y116.229 E47.40768
G1 X107.331 Y115.796 E47.41523
G1 X107.461 Y115.361 E47.42277
G1 X107.592 Y114.928 E47.43032
G1 X107.722 Y114.495 E47.43786
G1 X107.853 Y114.060 E47.44544
G1 X107.983 Y113.627 E47.45298
G1 X108.114 Y113.194 E47.46052
G1 X108.244 Y112.759 E47.46810
G1 X108.375 Y112.326 E47.47564
G1 X108.506 Y111.892 E47.48320
G1 X108.636 Y111.458 E47.49076
G1 X108.775 Y111.032 E47.49829
G1 X109.402 Y111.095 E47.50910
G1 X109.966 Y111.095 E47.51993
G1 X110.531 Y111.095 E47.53075
G1 X111.095 Y111.095 E47.54157
G1 X111.660 Y111.096 E47.55246
G1 X112.224 Y111.096 E47.56332
G1 X112.788 Y111.096 E47.57418
G1 X113.352 Y111.096 E47.58504
G1 X113.917 Y111.096 E47.59593
G1 X114.397 Y111.576 E47.61100
G1 X114.640 Y112.383 E47.62510
G1 X114.883 Y113.191 E47.63918
G1 X115.126 Y113.998 E47.65324
G1 X115.370 Y114.807 E47.66733
G1 X115.613 Y115.614 E47.68139
G1 X115.857 Y116.422 E47.69542
G1 X116.456 Y117.021 E47.71376
G1 X116.878 Y117.161 E47.72441
;LAYER:3
M106 S7
G10
G1 Z0.520
G0 F12000 X120.155 Y117.302 Z0.480
;TYPE:WALL-OUTER
G1 Z0.480
G11
G1 F1860 X119.842 Y116.743 E47.73975
G1 X120.842 Y116.743 E47.76369
G1 X115.005 Y106.300 E48.05009
G1 X107.995 Y106.300 E48.21791
G1 X102.158 Y116.743 E48.50432
G1 X103.158 Y116.743 E48.52826
G1 X102.845 Y117.302 E48.54360
G1 X101.301 Y117.302 E48.58056
G1 X107.788 Y105.698 E48.89882
G1 X115.212 Y105.698 E49.07655
G1 X121.699 Y117.302 E49.39482
G1 X120.155 Y117.302 E49.43178
G0 F12000 X120.193 Y117.083
;TYPE:SKIN
G1 F1860 X120.536 Y117.021 E49.43858
G1 X120.997 Y116.843 E49.44800
G1 X121.006 Y116.551 E49.45284
G1 X120.803 Y116.189 E49.45767
G1 X120.601 Y115.827 E49.46250
G1 X120.399 Y115.466 E49.46734
G1 X120.197 Y115.104 E49.47219
G1 X120.167 Y114.851 E49.47829
G10
G1 Z0.580
G0 F12000 X121.381 Y117.023
G1 Z0.480
G11
G1 F1860 X121.243 Y117.161 E49.48296
G0 F12000 X119.822 Y114.633
G1 F1860 X119.792 Y114.380 E49.48781
G1 X119.590 Y114.018 E49.49266
G1 X119.387 Y113.656 E49.49749
G1 X119.185 Y113.294 E49.50231
G1 X118.982 Y112.932 E49.50712
G1 X118.780 Y112.570 E49.51194
G1 X118.578 Y112.208 E49.51677
G1 X118.376 Y111.846 E49.52159
G1 X118.174 Y111.484 E49.52642
G1 X117.971 Y111.122 E49.53123
G1 X117.768 Y110.760 E49.53603
G1 X117.566 Y110.398 E49.54086
G1 X117.364 Y110.036 E49.54568
G1 X117.162 Y109.674 E49.55051
G1 X116.959 Y109.312 E49.55531
G1 X116.757 Y108.950 E49.56014
G1 X116.555 Y108.589 E49.56493
G1 X116.353 Y108.227 E49.56970
G1 X116.150 Y107.865 E49.57449
G1 X115.948 Y107.503 E49.57929
G1 X115.746 Y107.141 E49.58406
G1 X115.543 Y106.779 E49.58884
G1 X115.341 Y106.417 E49.59364
G1 X115.193 Y106.001 E49.59841
G1 X114.631 Y105.998 E49.60930
G1 X114.067 Y105.998 E49.62020
G1 X113.503 Y105.998 E49.63110
G1 X112.939 Y105.998 E49.64199
G1 X112.374 Y105.998 E49.65291
G1 X111.810 Y105.998 E49.66381
G1 X111.246 Y105.998 E49.67470
G1 X110.681 Y105.998 E49.68562
G1 X110.117 Y105.998 E49.69651
G1 X109.553 Y105.998 E49.70741
G1 X108.989 Y105.998 E49.71831
G1 X108.424 Y105.998 E49.72922
G1 X107.902 Y106.238 E49.74012
G1 X107.319 Y106.822 E49.75987
G0 F12000 X107.109 Y107.596
G1 F1860 X106.603 Y108.102 E49.77700
G0 F12000 X106.394 Y108.875
G1 F1860 X105.887 Y109.382 E49.79417
G0 F12000 X105.679 Y110.154
G1 F1860 X105.172 Y110.662 E49.81135
G0 F12000 X104.965 Y111.433
G1 F1860 X104.353 Y112.327 E49.82851
G1 X103.638 Y113.606 E49.84566
G1 X102.923 Y114.885 E49.86289
G1 X102.207 Y116.165 E49.88013
G1 X101.826 Y117.111 E49.89745
