;FLAVOR:UltiGCode
;TIME:903
;MATERIAL:732
;MATERIAL2:0
;NOZZLE_DIAMETER:0.400000
;NOZZLE_DIAMETER2:0.400000

;Layer count: 63
;LAYER:0
M107
G0 F12000 X105.794 Y95.107 Z0.300
;TYPE:SKIRT
G1 F1200 X117.207 Y95.107 E1.36956
G1 X125.682 Y110.271 E3.45415
G1 X126.145 Y111.097 E3.56778
G1 X126.627 Y111.960 E3.68640
G1 X130.242 Y118.427 E4.57546
G1 X131.421 Y120.536 E4.86540
G1 X131.604 Y120.864 E4.91047
G1 X132.853 Y123.098 E5.21760
G1 X134.304 Y125.694 E5.57448
G1 X134.301 Y125.694 E5.57484
G1 X135.530 Y127.894 E5.87724
G1 X117.641 Y127.894 E8.02392
G1 X116.977 Y125.694 E8.29968
G1 X116.976 Y125.694 E8.29980
G1 X116.497 Y124.103 E8.49919
G1 X115.421 Y120.536 E8.94628
G1 X115.422 Y120.536 E8.94640
G1 X114.967 Y119.025 E9.13576
G1 X113.987 Y115.783 E9.54219
G1 X113.989 Y115.783 E9.54243
G1 X113.718 Y114.886 E9.65487
G1 X112.567 Y111.112 E10.12835
G1 X112.581 Y111.112 E10.13003
G1 X111.831 Y108.631 E10.44105
G1 X111.835 Y108.631 E10.44153
G1 X111.526 Y107.605 E10.57012
G1 X111.474 Y107.605 E10.57636
G1 X111.165 Y108.631 E10.70494
G1 X111.168 Y108.631 E10.70530
G1 X110.419 Y111.112 E11.01629
G1 X110.420 Y111.112 E11.01641
G1 X109.009 Y115.783 E11.60194
G1 X109.011 Y115.783 E11.60218
G1 X108.456 Y117.621 E11.83258
G1 X107.521 Y120.727 E12.22182
G1 X107.520 Y120.727 E12.22194
G1 X106.805 Y123.098 E12.51912
G1 X106.024 Y125.694 E12.84443
G1 X106.022 Y125.694 E12.84467
G1 X105.358 Y127.894 E13.12043
G1 X87.470 Y127.894 E15.26699
G1 X88.699 Y125.694 E15.56939
G1 X88.696 Y125.694 E15.56975
G1 X91.020 Y121.537 E16.14126
G1 X91.396 Y120.864 E16.23377
G1 X91.579 Y120.536 E16.27884
G1 X92.758 Y118.427 E16.56878
G1 X94.122 Y115.988 E16.90412
G1 X94.116 Y115.988 E16.90484
G1 X96.691 Y111.391 E17.53713
G1 X105.794 Y95.107 E19.77580
G10
G1 Z0.400
G0 F12000 X107.789 Y98.507
;TYPE:WALL-OUTER
G1 Z0.300
G11
G1 F1200 X115.211 Y98.507 E20.66644
G1 X121.696 Y110.109 E22.26141
G1 X120.697 Y110.109 E22.38129
G1 X121.771 Y112.031 E22.64550
G1 X122.771 Y112.031 E22.76550
G1 X123.083 Y112.588 E22.84211
G1 X122.083 Y112.588 E22.96211
G1 X123.182 Y114.554 E23.23239
G1 X124.181 Y114.554 E23.35227
G1 X124.445 Y115.027 E23.41727
G1 X123.446 Y115.027 E23.53715
G1 X124.444 Y116.812 E23.78256
G1 X125.443 Y116.812 E23.90244
G1 X125.707 Y117.285 E23.96744
G1 X124.708 Y117.285 E24.08732
G1 X125.793 Y119.225 E24.35406
G1 X126.792 Y119.225 E24.47394
G1 X127.056 Y119.698 E24.53894
G1 X126.057 Y119.698 E24.65882
G1 X127.244 Y121.821 E24.95070
G1 X128.243 Y121.821 E25.07058
G1 X128.507 Y122.294 E25.13558
G1 X127.508 Y122.294 E25.25546
G1 X128.426 Y123.936 E25.48120
G1 X129.425 Y123.936 E25.60108
G1 X129.737 Y124.494 E25.67780
G1 X120.166 Y124.494 E26.82632
G1 X119.998 Y123.936 E26.89625
G1 X120.810 Y123.936 E26.99369
G1 X120.810 Y124.410 E27.05057
G1 X123.810 Y124.410 E27.41057
G1 X123.810 Y121.410 E27.77057
G1 X120.810 Y121.410 E28.13057
G1 X120.810 Y123.311 E28.35869
G1 X120.504 Y122.294 E28.48613
G1 X119.504 Y122.294 E28.60613
G1 X119.337 Y121.737 E28.67591
G1 X120.336 Y121.737 E28.79579
G1 X119.735 Y119.741 E29.04593
G1 X118.734 Y119.741 E29.16605
G1 X118.566 Y119.183 E29.23598
G1 X119.566 Y119.183 E29.35598
G1 X119.007 Y117.327 E29.58858
G1 X118.007 Y117.327 E29.70858
G1 X117.840 Y116.770 E29.77836
G1 X118.839 Y116.770 E29.89824
G1 X118.327 Y115.069 E30.11141
G1 X117.327 Y115.069 E30.23141
G1 X117.159 Y114.512 E30.30122
G1 X118.158 Y114.512 E30.42110
G1 X117.579 Y112.588 E30.66221
G1 X116.578 Y112.588 E30.78233
G1 X116.410 Y112.031 E30.85215
G1 X117.410 Y112.031 E30.97215
G1 X116.832 Y110.109 E31.21299
G1 X115.832 Y110.109 E31.33299
G1 X114.053 Y104.205 E32.07293
G1 X108.947 Y104.205 E32.68565
G1 X107.169 Y110.109 E33.42556
G1 X106.168 Y110.109 E33.54568
G1 X105.590 Y112.031 E33.78653
G1 X106.590 Y112.031 E33.90653
G1 X106.422 Y112.588 E33.97634
G1 X105.421 Y112.588 E34.09646
G1 X104.842 Y114.512 E34.33757
G1 X105.842 Y114.512 E34.45757
G1 X105.674 Y115.069 E34.52738
G1 X104.673 Y115.069 E34.64750
G1 X104.161 Y116.770 E34.86067
G1 X105.160 Y116.770 E34.98055
G1 X104.993 Y117.327 E35.05033
G1 X103.993 Y117.327 E35.17033
G1 X103.434 Y119.183 E35.40293
G1 X104.434 Y119.183 E35.52293
G1 X104.266 Y119.741 E35.59286
G1 X103.265 Y119.741 E35.71298
G1 X102.664 Y121.737 E35.96312
G1 X103.663 Y121.737 E36.08300
G1 X103.496 Y122.294 E36.15278
G1 X102.496 Y122.294 E36.27278
G1 X102.137 Y123.487 E36.42228
G1 X102.137 Y121.391 E36.67380
G1 X99.139 Y121.391 E37.03356
G1 X99.139 Y124.302 E37.38288
G1 X102.137 Y124.302 E37.74264
G1 X102.137 Y123.936 E37.78656
G1 X103.002 Y123.936 E37.89036
G1 X102.834 Y124.494 E37.96029
G1 X93.263 Y124.494 E39.10881
G1 X93.575 Y123.936 E39.18553
G1 X94.574 Y123.936 E39.30541
G1 X95.492 Y122.294 E39.53115
G1 X94.493 Y122.294 E39.65103
G1 X94.757 Y121.821 E39.71604
G1 X95.756 Y121.821 E39.83592
G1 X96.943 Y119.698 E40.12779
G1 X95.944 Y119.698 E40.24767
G1 X96.208 Y119.225 E40.31267
G1 X97.207 Y119.225 E40.43255
G1 X98.292 Y117.285 E40.69929
G1 X97.293 Y117.285 E40.81917
G1 X97.557 Y116.812 E40.88417
G1 X98.556 Y116.812 E41.00405
G1 X99.554 Y115.027 E41.24946
G1 X98.555 Y115.027 E41.36934
G1 X98.819 Y114.554 E41.43434
G1 X99.818 Y114.554 E41.55422
G1 X100.917 Y112.588 E41.82450
G1 X99.917 Y112.588 E41.94450
G1 X100.229 Y112.031 E42.02111
G1 X101.229 Y112.031 E42.14111
G1 X102.303 Y110.109 E42.40532
G1 X101.304 Y110.109 E42.52520
G1 X107.789 Y98.507 E44.12017
G0 F12000 X107.995 Y99.107
G1 F1200 X102.156 Y109.552 E45.55612
G1 X103.155 Y109.552 E45.67600
G1 X95.116 Y123.936 E47.65336
G1 X98.539 Y123.936 E48.06412
G1 X98.539 Y120.791 E48.44152
G1 X102.367 Y120.791 E48.90088
G1 X105.754 Y109.552 E50.30947
G1 X106.755 Y109.552 E50.42959
G1 X108.547 Y103.605 E51.17493
G1 X114.453 Y103.605 E51.88365
G1 X116.245 Y109.552 E52.62898
G1 X117.246 Y109.552 E52.74910
G1 X120.633 Y120.791 E54.15770
G1 X124.461 Y120.791 E54.61706
G1 X124.461 Y123.936 E54.99446
G1 X127.884 Y123.936 E55.40522
G1 X119.845 Y109.552 E57.38258
G1 X120.844 Y109.552 E57.50246
G1 X115.005 Y99.107 E58.93841
G1 X107.995 Y99.107 E59.77961
G0 F12000 X107.849 Y99.081
;TYPE:SKIN
G1 F1200 X107.843 Y98.793 E59.80355
G1 X108.423 Y98.807 E59.85785
G1 X108.989 Y98.807 E59.91202
G1 X109.554 Y98.807 E59.96626
G1 X110.120 Y98.807 E60.02060
G1 X110.686 Y98.807 E60.07476
G1 X111.251 Y98.807 E60.12900
G1 X111.817 Y98.807 E60.18334
G1 X112.383 Y98.807 E60.23750
G1 X112.949 Y98.807 E60.29167
G1 X113.514 Y98.807 E60.34591
G1 X114.080 Y98.807 E60.40025
G1 X114.523 Y98.967 E60.45677
G0 F12000 X114.769 Y98.647
G1 F1200 X115.580 Y99.458 E60.59440
G10
G1 Z0.400
G0 F12000 X107.646 Y99.443
G1 Z0.300
G11
G1 F1200 X107.402 Y99.482 E60.61834
G1 X107.271 Y99.917 E60.64233
G1 X107.068 Y100.279 E60.66611
G1 X106.865 Y100.642 E60.69007
G1 X106.662 Y101.005 E60.71402
G1 X106.459 Y101.368 E60.73798
G1 X106.257 Y101.731 E60.76191
G1 X106.054 Y102.094 E60.78574
G1 X105.851 Y102.456 E60.80952
G1 X105.648 Y102.819 E60.83348
G1 X105.445 Y103.182 E60.85743
G1 X105.243 Y103.545 E60.88136
G1 X105.040 Y103.908 E60.90532
G1 X104.837 Y104.271 E60.92927
G1 X104.634 Y104.634 E60.95310
G1 X104.431 Y104.996 E60.97689
G1 X104.228 Y105.360 E61.00089
G1 X104.025 Y105.723 E61.02460
G1 X103.823 Y106.085 E61.04848
G1 X103.620 Y106.448 E61.07243
G1 X103.417 Y106.811 E61.09626
G1 X103.214 Y107.174 E61.12010
G1 X103.011 Y107.537 E61.14380
G1 X102.808 Y107.900 E61.16751
G1 X102.605 Y108.262 E61.19104
G1 X102.403 Y108.625 E61.21485
G1 X102.200 Y108.989 E61.23885
G1 X101.997 Y109.351 E61.26238
G1 X102.010 Y109.647 E61.28612
G1 X102.398 Y110.034 E61.33297
G1 X102.434 Y110.354 E61.35664
G1 X102.231 Y110.717 E61.38035
G1 X102.028 Y111.080 E61.40405
G1 X101.826 Y111.442 E61.42781
G1 X101.623 Y111.806 E61.45181
G1 X101.490 Y112.239 E61.47559
G1 X100.994 Y112.308 E61.51796
G1 X100.428 Y112.308 E61.56482
G1 X100.201 Y112.364 E61.59288
G0 F12000 X101.046 Y112.642
G1 F1200 X101.014 Y112.894 E61.61658
G1 X100.812 Y113.257 E61.64038
G1 X100.609 Y113.620 E61.66422
G1 X100.406 Y113.982 E61.68800
G1 X100.203 Y114.345 E61.71195
G1 X100.172 Y114.597 E61.74242
G10
G1 Z0.400
G0 F12000 X104.059 Y115.656
G1 Z0.300
G11
G1 F1200 X104.105 Y115.985 E61.78019
G1 X103.974 Y116.420 E61.81781
G1 X104.101 Y116.828 E61.85550
G1 X104.602 Y117.047 E61.90241
G1 X104.920 Y117.082 E61.94080
G0 F12000 X103.892 Y117.185
G1 F1200 X103.600 Y117.177 E61.97892
G1 X103.581 Y117.724 E62.01669
G1 X103.450 Y118.158 E62.05422
G1 X103.320 Y118.593 E62.09182
G1 X103.189 Y119.028 E62.12957
G1 X103.621 Y119.461 E62.20865
G1 X104.043 Y119.600 E62.26197
G0 F12000 X103.103 Y119.790
G1 F1200 X102.881 Y119.568 E62.29965
G0 F12000 X103.033 Y119.614
G0 X104.263 Y115.398
G0 X104.412 Y115.443
G1 F1200 X104.366 Y115.114 E62.33722
G1 X104.498 Y114.681 E62.37470
G1 X104.630 Y114.246 E62.41261
G1 X104.760 Y113.811 E62.45048
G1 X104.891 Y113.376 E62.48836
G1 X105.022 Y112.941 E62.52625
G1 X105.175 Y112.529 E62.56396
G1 X105.284 Y112.072 E62.60949
G1 X105.415 Y111.638 E62.64743
G1 X105.546 Y111.203 E62.68518
G1 X105.677 Y110.768 E62.72293
G1 X105.808 Y110.333 E62.76069
G1 X105.888 Y109.848 E62.79844
G1 X106.435 Y109.829 E62.84523
G1 X107.001 Y109.830 E62.89193
G1 X107.101 Y109.364 E62.92953
G1 X107.232 Y108.929 E62.96701
G1 X107.363 Y108.494 E63.00449
G1 X107.494 Y108.059 E63.04197
G1 X107.625 Y107.625 E63.07951
G1 X107.755 Y107.190 E63.11697
G1 X107.886 Y106.755 E63.15444
G1 X108.017 Y106.320 E63.19192
G1 X108.148 Y105.885 E63.22940
G1 X108.279 Y105.450 E63.26688
G1 X108.410 Y105.015 E63.30436
G1 X108.540 Y104.581 E63.34188
G1 X108.684 Y104.158 E63.37954
G1 X108.872 Y103.781 E63.42125
G1 X109.561 Y103.904 E63.47542
G1 X110.127 Y103.904 E63.52942
G1 X110.693 Y103.904 E63.58341
G1 X111.258 Y103.904 E63.63749
G1 X111.824 Y103.904 E63.69148
G1 X112.390 Y103.904 E63.74548
G1 X112.956 Y103.904 E63.79947
G1 X113.521 Y103.904 E63.85354
G1 X114.101 Y104.201 E63.90769
G1 X114.567 Y104.950 E63.97782
G1 X114.811 Y105.760 E64.04787
G1 X115.055 Y106.570 E64.11791
G1 X115.298 Y107.379 E64.18786
G1 X115.542 Y108.188 E64.25782
G1 X115.786 Y108.997 E64.32804
G1 X116.155 Y109.650 E64.39802
G1 X116.618 Y109.830 E64.44481
G1 X117.220 Y110.432 E64.53676
G1 X117.463 Y111.240 E64.60713
G1 X117.669 Y112.012 E64.67760
G1 X117.952 Y112.860 E64.76128
G1 X118.195 Y113.670 E64.83155
G1 X118.427 Y114.467 E64.90178
G1 X118.683 Y115.289 E64.97642
G1 X118.927 Y116.099 E65.04672
G1 X119.257 Y116.712 E65.13026
G0 F12000 X118.890 Y116.910
G1 F1200 X119.501 Y117.521 E65.23395
G0 F12000 X119.330 Y117.916
G1 F1200 X119.659 Y118.528 E65.30420
G1 X119.989 Y119.141 E65.38774
G0 F12000 X119.605 Y119.322
G1 F1200 X120.233 Y119.950 E65.49432
G10
G1 Z0.400
G0 F12000 X124.289 Y117.218
G1 Z0.300
G11
G1 F1200 X124.784 Y117.430 E65.57897
G1 X124.871 Y116.951 E65.61154
G1 X125.347 Y117.144 E65.67317
G0 F12000 X125.006 Y118.501
G1 F1200 X125.688 Y119.183 E65.75795
G1 X125.892 Y119.670 E65.79058
G1 X126.223 Y120.283 E65.87418
G0 F12000 X126.439 Y121.065
G1 F1200 X127.137 Y121.763 E65.95888
G1 X127.342 Y122.250 E65.99153
G1 X127.656 Y122.847 E66.07248
G0 F12000 X127.872 Y123.629
G1 F1200 X128.595 Y124.353 E66.19526
G0 F12000 X128.884 Y124.076
G1 F1200 X129.161 Y124.353 E66.24227
G0 F12000 X128.030 Y124.353
G1 F1200 X127.608 Y124.214 E66.28932
G1 X127.042 Y124.214 E66.33618
G1 X126.477 Y124.214 E66.38296
G1 X125.911 Y124.214 E66.43000
G1 X125.345 Y124.214 E66.47686
G1 X124.780 Y124.214 E66.52365
G1 X124.339 Y124.056 E66.57072
G1 X124.134 Y123.569 E66.63350
G1 X124.134 Y123.003 E66.69649
G1 X124.134 Y122.437 E66.75932
G1 X124.134 Y121.872 E66.82203
G1 X123.882 Y121.336 E66.88493
G1 X123.362 Y121.099 E66.94237
G1 X122.796 Y121.099 E66.99976
G1 X122.231 Y121.099 E67.05705
G1 X121.665 Y121.099 E67.11444
G1 X121.099 Y121.099 E67.17183
G1 X120.562 Y120.845 E67.22922
G1 X120.063 Y120.346 E67.31390
G0 F12000 X120.307 Y121.155
G1 F1200 X120.565 Y121.697 E67.37531
G1 X120.421 Y122.118 E67.41042
G1 X119.897 Y121.876 E67.47968
G10
G1 Z0.400
G0 F12000 X103.202 Y122.153
G1 Z0.300
G11
G1 F1200 X102.781 Y122.014 E67.52663
G1 X102.277 Y121.793 E67.59267
G0 F12000 X102.579 Y121.529
G1 F1200 X101.979 Y120.930 E67.69441
G0 F12000 X101.734 Y121.250
G1 F1200 X101.290 Y121.090 E67.74878
G1 X100.725 Y121.090 E67.80302
G1 X100.159 Y121.090 E67.85718
G1 X99.593 Y121.090 E67.91152
G1 X99.075 Y121.136 E67.96565
G1 X98.678 Y121.306 E68.02007
G1 X98.838 Y122.031 E68.07442
G1 X98.838 Y122.597 E68.12875
G1 X98.838 Y123.163 E68.18309
G1 X98.838 Y123.728 E68.23733
G1 X98.806 Y124.262 E68.29173
G1 X98.192 Y124.214 E68.33885
G1 X97.626 Y124.214 E68.38588
G1 X97.061 Y124.214 E68.43300
G1 X96.495 Y124.214 E68.48004
G1 X95.929 Y124.214 E68.52707
G1 X95.364 Y124.214 E68.57419
G1 X94.921 Y124.054 E68.62125
G1 X94.930 Y123.780 E68.64543
G1 X95.133 Y123.418 E68.66946
G1 X95.336 Y123.055 E68.69366
G1 X95.539 Y122.692 E68.71787
G1 X95.425 Y122.295 E68.74203
G1 X95.372 Y121.960 E68.77449
G1 X96.015 Y122.037 E68.81840
G1 X96.147 Y121.603 E68.84235
G1 X96.350 Y121.240 E68.86630
G1 X96.553 Y120.877 E68.89026
G1 X96.756 Y120.515 E68.91404
G1 X96.958 Y120.151 E68.93802
G1 X97.161 Y119.789 E68.96193
G1 X97.207 Y119.268 E69.01512
G1 X97.637 Y119.134 E69.03903
G1 X97.769 Y118.700 E69.06312
G1 X97.972 Y118.337 E69.08708
G1 X98.175 Y117.974 E69.11103
G1 X98.378 Y117.611 E69.13499
G1 X98.301 Y117.251 E69.15896
G1 X97.814 Y117.047 E69.19159
G1 X97.565 Y117.081 E69.22174
G0 F12000 X98.566 Y116.951
G1 F1200 X98.854 Y116.956 E69.25337
G1 X98.987 Y116.523 E69.27729
G1 X99.189 Y116.160 E69.30122
G1 X99.392 Y115.797 E69.32505
G1 X99.595 Y115.434 E69.34888
G1 X99.798 Y115.071 E69.37284
G1 X99.516 Y114.789 E69.41830
G1 X99.137 Y114.693 E69.46522
G10
G1 Z0.400
G0 F12000 X96.454 Y119.364
G1 Z0.300
G11
G1 F1200 X96.647 Y119.557 E69.49797
G0 F12000 X94.376 Y124.075
G1 F1200 X94.371 Y124.353 E69.54510
G1 X93.811 Y124.075 E69.62012
G0 F12000 X93.811 Y124.236
G0 X93.886 Y124.206
G0 X98.798 Y124.153
G0 X98.798 Y121.050
G0 X102.103 Y121.119
G0 X102.640 Y120.919
G0 X102.488 Y120.873
G1 F1200 X102.775 Y120.876 E69.65766
G1 X102.795 Y120.331 E69.69497
G1 X102.750 Y120.003 E69.73470
G10
G1 Z0.400
G0 F12000 X105.028 Y114.928
G1 Z0.300
G11
G1 F1200 X105.034 Y114.651 E69.78158
G1 X105.576 Y114.910 E69.85366
G10
G1 Z0.400
G0 F12000 X105.941 Y112.446
G1 Z0.300
G11
G1 F1200 X105.947 Y112.170 E69.90045
G1 X106.363 Y112.302 E69.95283
G10
G1 Z0.400
G0 F12000 X102.809 Y109.880
G1 Z0.300
G11
G1 F1200 X102.620 Y109.691 E69.98490
G0 F12000 X101.765 Y109.967
G1 F1200 X101.623 Y109.825 E70.00900
G10
G1 Z0.400
G0 F12000 X114.210 Y103.745
G1 Z0.300
G11
G1 F1200 X114.409 Y103.943 E70.04269
G0 F12000 X117.234 Y102.809
G1 F1200 X117.731 Y103.306 E70.12703
G0 F12000 X117.951 Y104.091
G1 F1200 X118.448 Y104.588 E70.21137
G0 F12000 X118.668 Y105.375
G1 F1200 X119.165 Y105.871 E70.29563
G0 F12000 X119.385 Y106.657
G1 F1200 X119.882 Y107.154 E70.37998
G10
G1 Z0.400
G0 F12000 X116.979 Y112.171
G1 Z0.300
G11
G1 F1200 X117.255 Y112.447 E70.42681
G0 F12000 X117.763 Y114.652
G1 F1200 X117.757 Y114.928 E70.47369
G1 X117.409 Y114.863 E70.51617
G10
G1 Z0.400
G0 F12000 X118.324 Y116.910
G1 Z0.300
G11
G1 F1200 X118.600 Y117.186 E70.56301
G0 F12000 X119.040 Y119.322
G1 F1200 X119.317 Y119.600 E70.61010
G10
G1 Z0.400
G0 F12000 X117.014 Y102.024
G1 Z0.300
G11
G1 F1200 X116.517 Y101.526 E70.69453
G0 F12000 X116.297 Y100.741
G1 F1200 X115.800 Y100.243 E70.77896
G0 F12000 X115.941 Y100.166
G0 X120.243 Y107.863
G0 X120.102 Y107.940
G1 F1200 X120.599 Y108.436 E70.86322
G0 F12000 X120.819 Y109.223
G1 F1200 X121.158 Y109.844 E70.94748
G1 X120.604 Y109.856 E70.99453
G1 X120.157 Y109.692 E71.05167
G0 F12000 X120.706 Y110.807
