;FLAVOR:UltiGCode
;TIME:1397
;MATERIAL:747
;MATERIAL2:0
;NOZZLE_DIAMETER:0.400000
;NOZZLE_DIAMETER2:0.400000

;Layer count: 63
;LAYER:0
M106 S255
G0 F12000 X105.794 Y95.107 Z0.300
;TYPE:SKIRT
G1 F1200 X117.207 Y95.107 E1.36956
G1 X125.682 Y110.271 E3.45415
G1 X126.145 Y111.097 E3.56778
G1 X126.627 Y111.960 E3.68640
G1 X130.242 Y118.427 E4.57546
G1 X131.421 Y120.536 E4.86540
G1 X131.604 Y120.864 E4.91047
G1 X132.853 Y123.098 E5.21760
G1 X134.304 Y125.694 E5.57448
G1 X134.301 Y125.694 E5.57484
G1 X135.530 Y127.894 E5.87724
G1 X117.641 Y127.894 E8.02392
G1 X116.977 Y125.694 E8.29968
G1 X116.976 Y125.694 E8.29980
G1 X116.497 Y124.103 E8.49919
G1 X115.421 Y120.536 E8.94628
G1 X115.422 Y120.536 E8.94640
G1 X114.967 Y119.025 E9.13576
G1 X113.987 Y115.783 E9.54219
G1 X113.989 Y115.783 E9.54243
G1 X113.718 Y114.886 E9.65487
G1 X112.567 Y111.112 E10.12835
G1 X112.581 Y111.112 E10.13003
G1 X111.831 Y108.631 E10.44105
G1 X111.835 Y108.631 E10.44153
G1 X111.526 Y107.605 E10.57012
G1 X111.474 Y107.605 E10.57636
G1 X111.165 Y108.631 E10.70494
G1 X111.168 Y108.631 E10.70530
G1 X110.419 Y111.112 E11.01629
G1 X110.420 Y111.112 E11.01641
G1 X109.009 Y115.783 E11.60194
G1 X109.011 Y115.783 E11.60218
G1 X108.456 Y117.621 E11.83258
G1 X107.521 Y120.727 E12.22182
G1 X107.520 Y120.727 E12.22194
G1 X106.805 Y123.098 E12.51912
G1 X106.024 Y125.694 E12.84443
G1 X106.022 Y125.694 E12.84467
G1 X105.358 Y127.894 E13.12043
G1 X87.470 Y127.894 E15.26699
G1 X88.699 Y125.694 E15.56939
G1 X88.696 Y125.694 E15.56975
G1 X91.020 Y121.537 E16.14126
G1 X91.396 Y120.864 E16.23377
G1 X91.579 Y120.536 E16.27884
G1 X92.758 Y118.427 E16.56878
G1 X94.122 Y115.988 E16.90412
G1 X94.116 Y115.988 E16.90484
G1 X96.691 Y111.391 E17.53713
G1 X105.794 Y95.107 E19.77580
G10
G1 Z1.300
G0 F12000 X102.350 Y124.075
;TYPE:FILL
G1 Z0.300
G11
G1 F1200 X102.628 Y124.353 E19.82298
G0 F12000 X120.406 Y124.075
G1 F1200 X120.670 Y124.339 E19.86778
G0 F12000 X120.810 Y124.410
;TYPE:WALL-OUTER
G1 F1200 X123.810 Y124.410 E20.22778
G1 X123.810 Y121.410 E20.58778
G1 X120.810 Y121.410 E20.94778
G1 X120.810 Y123.311 E21.17590
G1 X120.504 Y122.294 E21.30335
G1 X119.504 Y122.294 E21.42335
G1 X119.337 Y121.737 E21.49313
G1 X120.336 Y121.737 E21.61301
G1 X119.735 Y119.741 E21.86315
G1 X118.734 Y119.741 E21.98327
G1 X118.566 Y119.183 E22.05320
G1 X119.566 Y119.183 E22.17320
G1 X119.007 Y117.327 E22.40580
G1 X118.007 Y117.327 E22.52580
G1 X117.840 Y116.770 E22.59558
G1 X118.839 Y116.770 E22.71546
G1 X118.327 Y115.069 E22.92863
G1 X117.327 Y115.069 E23.04863
G1 X117.159 Y114.512 E23.11844
G1 X118.158 Y114.512 E23.23832
G1 X117.579 Y112.588 E23.47943
G1 X116.578 Y112.588 E23.59955
G1 X116.410 Y112.031 E23.66936
G1 X117.410 Y112.031 E23.78936
G1 X116.832 Y110.109 E24.03021
G1 X115.832 Y110.109 E24.15021
G1 X114.053 Y104.205 E24.89015
G1 X108.947 Y104.205 E25.50287
G1 X107.169 Y110.109 E26.24278
G1 X106.168 Y110.109 E26.36290
G1 X105.590 Y112.031 E26.60375
G1 X106.590 Y112.031 E26.72375
G1 X106.422 Y112.588 E26.79356
G1 X105.421 Y112.588 E26.91368
G1 X104.842 Y114.512 E27.15479
G1 X105.842 Y114.512 E27.27479
G1 X105.674 Y115.069 E27.34460
G1 X104.673 Y115.069 E27.46472
G1 X104.161 Y116.770 E27.67789
G1 X105.160 Y116.770 E27.79777
G1 X104.993 Y117.327 E27.86755
G1 X103.993 Y117.327 E27.98755
G1 X103.434 Y119.183 E28.22015
G1 X104.434 Y119.183 E28.34015
G1 X104.266 Y119.741 E28.41008
G1 X103.265 Y119.741 E28.53020
G1 X102.664 Y121.737 E28.78034
G1 X103.663 Y121.737 E28.90022
G1 X103.496 Y122.294 E28.97000
G1 X102.496 Y122.294 E29.09000
G1 X102.137 Y123.487 E29.23950
G1 X102.137 Y121.391 E29.49102
G1 X99.139 Y121.391 E29.85078
G1 X99.139 Y124.302 E30.20010
G1 X102.137 Y124.302 E30.55986
G1 X102.137 Y123.936 E30.60378
G1 X103.002 Y123.936 E30.70758
G1 X102.834 Y124.494 E30.77751
G1 X93.263 Y124.494 E31.92603
G1 X93.575 Y123.936 E32.00275
G1 X94.574 Y123.936 E32.12263
G1 X95.492 Y122.294 E32.34837
G1 X94.493 Y122.294 E32.46825
G1 X94.757 Y121.821 E32.53325
G1 X95.756 Y121.821 E32.65313
G1 X96.943 Y119.698 E32.94501
G1 X95.944 Y119.698 E33.06489
G1 X96.208 Y119.225 E33.12989
G1 X97.207 Y119.225 E33.24977
G1 X98.292 Y117.285 E33.51651
G1 X97.293 Y117.285 E33.63639
G1 X97.557 Y116.812 E33.70139
G1 X98.556 Y116.812 E33.82127
G1 X99.554 Y115.027 E34.06668
G1 X98.555 Y115.027 E34.18656
G1 X98.819 Y114.554 E34.25156
G1 X99.818 Y114.554 E34.37144
G1 X100.917 Y112.588 E34.64172
G1 X99.917 Y112.588 E34.76172
G1 X100.229 Y112.031 E34.83833
G1 X101.229 Y112.031 E34.95833
G1 X102.303 Y110.109 E35.22254
G1 X101.304 Y110.109 E35.34242
G1 X107.789 Y98.507 E36.93738
G1 X115.211 Y98.507 E37.82802
G1 X121.696 Y110.109 E39.42299
G1 X120.697 Y110.109 E39.54287
G1 X121.771 Y112.031 E39.80708
G1 X122.771 Y112.031 E39.92708
G1 X123.083 Y112.588 E40.00369
G1 X122.083 Y112.588 E40.12369
G1 X123.182 Y114.554 E40.39397
G1 X124.181 Y114.554 E40.51385
G1 X124.445 Y115.027 E40.57885
G1 X123.446 Y115.027 E40.69873
G1 X124.444 Y116.812 E40.94414
G1 X125.443 Y116.812 E41.06402
G1 X125.707 Y117.285 E41.12902
G1 X124.708 Y117.285 E41.24890
G1 X125.793 Y119.225 E41.51564
G1 X126.792 Y119.225 E41.63552
G1 X127.056 Y119.698 E41.70052
G1 X126.057 Y119.698 E41.82040
G1 X127.244 Y121.821 E42.11228
G1 X128.243 Y121.821 E42.23216
G1 X128.507 Y122.294 E42.29716
G1 X127.508 Y122.294 E42.41704
G1 X128.426 Y123.936 E42.64278
G1 X129.425 Y123.936 E42.76266
G1 X129.737 Y124.494 E42.83938
G1 X120.166 Y124.494 E43.98790
G1 X119.998 Y123.936 E44.05783
G1 X120.810 Y123.936 E44.15527
G1 X120.810 Y124.410 E44.21215
G10
G1 Z1.300
G0 F12000 X124.461 Y123.936
G1 Z0.300
G11
G1 F1200 X127.884 Y123.936 E44.62291
G1 X119.845 Y109.552 E46.60027
G1 X120.844 Y109.552 E46.72015
G1 X115.005 Y99.107 E48.15610
G1 X107.995 Y99.107 E48.99730
G1 X102.156 Y109.552 E50.43326
G1 X103.155 Y109.552 E50.55314
G1 X95.116 Y123.936 E52.53050
G1 X98.539 Y123.936 E52.94126
G1 X98.539 Y120.791 E53.31866
G1 X102.367 Y120.791 E53.77802
G1 X105.754 Y109.552 E55.18661
G1 X106.755 Y109.552 E55.30673
G1 X108.547 Y103.605 E56.05207
G1 X114.453 Y103.605 E56.76079
G1 X116.245 Y109.552 E57.50612
G1 X117.246 Y109.552 E57.62624
G1 X120.633 Y120.791 E59.03483
G1 X124.461 Y120.791 E59.49419
G1 X124.461 Y123.936 E59.87159
G0 F12000 X124.320 Y124.037
;TYPE:SKIN
G1 F1200 X124.134 Y123.569 E59.93444
G1 X124.134 Y123.003 E59.99744
G1 X124.134 Y122.437 E60.06026
G1 X124.134 Y121.872 E60.12298
G1 X123.882 Y121.336 E60.18588
G1 X123.362 Y121.099 E60.24331
G1 X122.796 Y121.099 E60.30070
G1 X122.231 Y121.099 E60.35800
G1 X121.665 Y121.099 E60.41539
G1 X121.099 Y121.099 E60.47278
G1 X120.562 Y120.845 E60.53016
G1 X120.063 Y120.346 E60.61485
G0 F12000 X120.307 Y121.155
G1 F1200 X120.565 Y121.697 E60.67626
G1 X120.421 Y122.118 E60.71136
G1 X119.897 Y121.876 E60.78062
G10
G1 Z1.300
G0 F12000 X103.202 Y122.153
G1 Z0.300
G11
G1 F1200 X102.781 Y122.014 E60.82757
G1 X102.277 Y121.793 E60.89361
G0 F12000 X102.579 Y121.529
G1 F1200 X101.979 Y120.930 E60.99535
G0 F12000 X101.734 Y121.250
G1 F1200 X101.290 Y121.090 E61.04972
G1 X100.725 Y121.090 E61.10396
G1 X100.159 Y121.090 E61.15813
G1 X99.593 Y121.090 E61.21246
G1 X99.075 Y121.136 E61.26660
G1 X98.678 Y121.306 E61.32101
G1 X98.838 Y122.031 E61.37536
G1 X98.838 Y122.597 E61.42970
G1 X98.838 Y123.163 E61.48403
G1 X98.838 Y123.728 E61.53827
G1 X98.806 Y124.262 E61.59268
G1 X98.192 Y124.214 E61.63979
G1 X97.626 Y124.214 E61.68683
G1 X97.061 Y124.214 E61.73395
G1 X96.495 Y124.214 E61.78098
G1 X95.929 Y124.214 E61.82802
G1 X95.364 Y124.214 E61.87514
G1 X94.921 Y124.054 E61.92219
G1 X94.930 Y123.780 E61.94637
G1 X95.133 Y123.418 E61.97040
G1 X95.336 Y123.055 E61.99461
G1 X95.539 Y122.692 E62.01881
G1 X95.425 Y122.295 E62.04298
G1 X95.372 Y121.960 E62.07544
G1 X96.015 Y122.037 E62.11934
G1 X96.147 Y121.603 E62.14329
G1 X96.350 Y121.240 E62.16725
G1 X96.553 Y120.877 E62.19121
G1 X96.756 Y120.515 E62.21499
G1 X96.958 Y120.151 E62.23897
G1 X97.161 Y119.789 E62.26287
G1 X97.207 Y119.268 E62.31606
G1 X97.637 Y119.134 E62.33998
G1 X97.769 Y118.700 E62.36407
G1 X97.972 Y118.337 E62.38802
G1 X98.175 Y117.974 E62.41198
G1 X98.378 Y117.611 E62.43594
G1 X98.301 Y117.251 E62.45990
G1 X97.814 Y117.047 E62.49253
G1 X97.565 Y117.081 E62.52269
G0 F12000 X98.566 Y116.951
G1 F1200 X98.854 Y116.956 E62.55432
G1 X98.987 Y116.523 E62.57823
G1 X99.189 Y116.160 E62.60216
G1 X99.392 Y115.797 E62.62599
G1 X99.595 Y115.434 E62.64982
G1 X99.798 Y115.071 E62.67378
G1 X99.516 Y114.789 E62.71925
G1 X99.137 Y114.693 E62.76616
G10
G1 Z1.300
G0 F12000 X96.454 Y119.364
G1 Z0.300
G11
G1 F1200 X96.647 Y119.557 E62.79891
G0 F12000 X94.376 Y124.075
G1 F1200 X94.371 Y124.353 E62.84604
G1 X93.811 Y124.075 E62.92107
G0 F12000 X93.811 Y124.236
G0 X93.886 Y124.206
G0 X98.798 Y124.153
G0 X98.798 Y121.050
G0 X102.103 Y121.119
G0 X102.640 Y120.919
G0 X102.488 Y120.873
G1 F1200 X102.775 Y120.876 E62.95861
G1 X102.795 Y120.331 E62.99591
G1 X102.926 Y119.896 E63.03339
G1 X102.946 Y119.351 E63.07086
G1 X103.621 Y119.461 E63.14985
G1 X104.043 Y119.600 E63.20317
G0 F12000 X103.366 Y118.922
G1 F1200 X103.320 Y118.593 E63.24094
G1 X103.450 Y118.158 E63.27853
G1 X103.581 Y117.724 E63.31607
G1 X103.713 Y117.290 E63.35390
G1 X103.843 Y116.854 E63.39212
G1 X103.974 Y116.420 E63.42979
G1 X104.105 Y115.985 E63.46740
G1 X104.235 Y115.549 E63.50521
G1 X104.366 Y115.114 E63.54269
G1 X104.498 Y114.681 E63.58017
G1 X104.630 Y114.246 E63.61809
G1 X104.760 Y113.811 E63.65595
G1 X104.891 Y113.376 E63.69384
G1 X105.022 Y112.941 E63.73173
G1 X105.175 Y112.529 E63.76944
G1 X105.284 Y112.072 E63.81496
G1 X105.415 Y111.638 E63.85291
G1 X105.546 Y111.203 E63.89066
G1 X105.677 Y110.768 E63.92841
G1 X105.808 Y110.333 E63.96616
G1 X105.888 Y109.848 E64.00391
G1 X106.435 Y109.829 E64.05071
G1 X107.001 Y109.830 E64.09740
G1 X107.101 Y109.364 E64.13501
G1 X107.232 Y108.929 E64.17249
G1 X107.363 Y108.494 E64.20997
G1 X107.494 Y108.059 E64.24745
G1 X107.625 Y107.625 E64.28498
G1 X107.755 Y107.190 E64.32244
G1 X107.886 Y106.755 E64.35992
G1 X108.017 Y106.320 E64.39740
G1 X108.148 Y105.885 E64.43488
G1 X108.279 Y105.450 E64.47236
G1 X108.410 Y105.015 E64.50984
G1 X108.540 Y104.581 E64.54735
G1 X108.684 Y104.158 E64.58502
G1 X108.872 Y103.781 E64.62673
G1 X109.561 Y103.904 E64.68090
G1 X110.127 Y103.904 E64.73489
G1 X110.693 Y103.904 E64.78889
G1 X111.258 Y103.904 E64.84296
G1 X111.824 Y103.904 E64.89696
G1 X112.390 Y103.904 E64.95095
G1 X112.956 Y103.904 E65.00495
G1 X113.521 Y103.904 E65.05902
G1 X114.101 Y104.201 E65.11317
G1 X114.567 Y104.950 E65.18330
G1 X114.811 Y105.760 E65.25334
G1 X115.055 Y106.570 E65.32339
G1 X115.298 Y107.379 E65.39333
G1 X115.542 Y108.188 E65.46330
G1 X115.786 Y108.997 E65.53352
G1 X116.155 Y109.650 E65.60349
G1 X116.618 Y109.830 E65.65029
G1 X117.220 Y110.432 E65.74224
G1 X117.463 Y111.240 E65.81260
G1 X117.669 Y112.012 E65.88308
G1 X117.952 Y112.860 E65.96675
G1 X118.195 Y113.670 E66.03703
G1 X118.427 Y114.467 E66.10725
G1 X118.683 Y115.289 E66.18190
G1 X118.927 Y116.099 E66.25220
G1 X119.257 Y116.712 E66.33574
G0 F12000 X118.890 Y116.910
G1 F1200 X119.501 Y117.521 E66.43943
G0 F12000 X119.330 Y117.916
G1 F1200 X119.659 Y118.528 E66.50967
G1 X119.989 Y119.141 E66.59322
G0 F12000 X119.605 Y119.322
G1 F1200 X120.233 Y119.950 E66.69979
G10
G1 Z1.300
G0 F12000 X124.289 Y117.218
G1 Z0.300
G11
G1 F1200 X124.784 Y117.430 E66.78444
G1 X124.871 Y116.951 E66.81701
G1 X125.347 Y117.144 E66.87865
G0 F12000 X125.006 Y118.501
G1 F1200 X125.688 Y119.183 E66.96343
G1 X125.892 Y119.670 E66.99606
G1 X126.223 Y120.283 E67.07966
G0 F12000 X126.439 Y121.065
G1 F1200 X127.137 Y121.763 E67.16435
G1 X127.342 Y122.250 E67.19701
G1 X127.656 Y122.847 E67.27795
G0 F12000 X127.872 Y123.629
G1 F1200 X128.595 Y124.353 E67.40073
G0 F12000 X128.884 Y124.076
G1 F1200 X129.161 Y124.353 E67.44774
G0 F12000 X128.030 Y124.353
G1 F1200 X127.608 Y124.214 E67.49479
G1 X127.042 Y124.214 E67.54166
G1 X126.477 Y124.214 E67.58844
G1 X125.911 Y124.214 E67.63547
G1 X125.345 Y124.214 E67.68234
G1 X124.780 Y124.214 E67.72912
G1 X124.214 Y124.214 E67.77616
G1 X123.949 Y124.232 E67.80803
G0 F12000 X124.110 Y124.232
G0 X124.161 Y121.209
G0 X124.320 Y121.209
G1 F1200 X124.042 Y120.930 E67.85529
G10
G1 Z1.300
G0 F12000 X127.900 Y121.961
G1 Z0.300
G11
G1 F1200 X128.093 Y122.154 E67.88804
G0 F12000 X126.629 Y119.558
G1 F1200 X126.436 Y119.365 E67.92080
G10
G1 Z1.300
G0 F12000 X124.072 Y116.435
G1 Z0.300
G11
G1 F1200 X123.573 Y115.936 E68.00548
G0 F12000 X123.355 Y115.153
G1 F1200 X123.159 Y114.673 E68.09025
G1 X123.840 Y114.790 E68.12280
G1 X124.187 Y114.853 E68.16512
G10
G1 Z1.300
G0 F12000 X122.637 Y113.869
G1 Z0.300
G11
G1 F1200 X122.139 Y113.371 E68.24963
G0 F12000 X121.920 Y112.586
G1 F1200 X121.746 Y112.130 E68.33382
G1 X122.491 Y112.309 E68.38071
G1 X122.755 Y112.290 E68.41248
G10
G1 Z1.300
G0 F12000 X121.203 Y111.304
G1 Z0.300
G11
G1 F1200 X120.706 Y110.807 E68.49682
G0 F12000 X120.486 Y110.020
G1 F1200 X120.439 Y109.692 E68.55249
G1 X121.158 Y109.844 E68.59945
G1 X120.819 Y109.223 E68.68435
G0 F12000 X120.599 Y108.436
G1 F1200 X120.102 Y107.940 E68.76861
G0 F12000 X119.882 Y107.154
G1 F1200 X119.385 Y106.657 E68.85295
G0 F12000 X119.165 Y105.871
G1 F1200 X118.668 Y105.375 E68.93721
G0 F12000 X118.448 Y104.588
G1 F1200 X117.951 Y104.091 E69.02155
G0 F12000 X117.731 Y103.306
G1 F1200 X117.234 Y102.809 E69.10590
G0 F12000 X117.014 Y102.024
G1 F1200 X116.517 Y101.526 E69.19032
G0 F12000 X116.297 Y100.741
G1 F1200 X115.800 Y100.243 E69.27475
G10
G1 Z1.300
G0 F12000 X114.210 Y103.745
G1 Z0.300
G11
G1 F1200 X114.409 Y103.943 E69.30844
G0 F12000 X107.240 Y100.169
G1 F1200 X106.997 Y100.209 E69.33230
G1 X106.865 Y100.642 E69.35620
G1 X106.662 Y101.005 E69.38016
G1 X106.459 Y101.368 E69.40412
G1 X106.257 Y101.731 E69.42804
G1 X106.054 Y102.094 E69.45188
G1 X105.851 Y102.456 E69.47566
G1 X105.648 Y102.819 E69.49961
G1 X105.445 Y103.182 E69.52357
G1 X105.243 Y103.545 E69.54750
G1 X105.040 Y103.908 E69.57145
G1 X104.837 Y104.271 E69.59541
G1 X104.634 Y104.634 E69.61924
G1 X104.431 Y104.996 E69.64302
G1 X104.228 Y105.360 E69.66703
G1 X104.025 Y105.723 E69.69074
G1 X103.823 Y106.085 E69.71461
G1 X103.620 Y106.448 E69.73857
G1 X103.417 Y106.811 E69.76240
G1 X103.214 Y107.174 E69.78623
G1 X103.011 Y107.537 E69.80994
G1 X102.808 Y107.900 E69.83365
G1 X102.605 Y108.262 E69.85718
G1 X102.403 Y108.625 E69.88098
G1 X102.200 Y108.989 E69.90499
G1 X101.997 Y109.351 E69.92852
G1 X102.010 Y109.647 E69.95225
G1 X102.398 Y110.034 E69.99911
G1 X102.434 Y110.354 E70.02278
G1 X102.231 Y110.717 E70.04648
G1 X102.028 Y111.080 E70.07019
G1 X101.826 Y111.442 E70.09394
G1 X101.623 Y111.806 E70.11795
G1 X101.490 Y112.239 E70.14173
G1 X100.994 Y112.308 E70.18410
G1 X100.428 Y112.308 E70.23096
G1 X100.201 Y112.364 E70.25902
G0 F12000 X101.046 Y112.642
G1 F1200 X101.014 Y112.894 E70.28272
G1 X100.812 Y113.257 E70.30652
G1 X100.609 Y113.620 E70.33035
G1 X100.406 Y113.982 E70.35414
G1 X100.203 Y114.345 E70.37809
G1 X100.172 Y114.597 E70.40856
G10
G1 Z1.300
G0 F12000 X104.752 Y114.651
G1 Z0.300
G11
G1 F1200 X105.172 Y114.789 E70.45538
G1 X105.576 Y114.910 E70.50598
G10
G1 Z1.300
G0 F12000 X104.747 Y116.909
G1 Z0.300
G11
G1 F1200 X104.689 Y117.133 E70.53528
G1 X104.181 Y116.909 E70.60190
G10
G1 Z1.300
G0 F12000 X105.941 Y112.446
G1 Z0.300
G11
G1 F1200 X105.947 Y112.170 E70.64869
G1 X106.363 Y112.302 E70.70107
G10
G1 Z1.300
G0 F12000 X102.809 Y109.880
G1 Z0.300
G11
G1 F1200 X102.620 Y109.691 E70.73314
G0 F12000 X101.765 Y109.967
G1 F1200 X101.623 Y109.825 E70.75724
G10
G1 Z1.300
G0 F12000 X116.979 Y112.171
G1 Z0.300
G11
