;FLAVOR:UltiGCode
;TIME:221
;MATERIAL:132
;MATERIAL2:0
;NOZZLE_DIAMETER:0.400000
;NOZZLE_DIAMETER2:0.400000

;Layer count: 25
;LAYER:0
M106 S255
G0 F3000 X100.330 Y100.885 Z0.300
;TYPE:SKIRT
G1 F900 X112.239 Y100.885 E1.42908
G1 X119.168 Y113.285 E3.13363
G1 X124.107 Y122.116 E4.34783
G1 X106.728 Y122.116 E6.43331
G1 X100.330 Y100.885 E9.09420
G0 F3000 X100.868 Y101.285
G1 F900 X112.004 Y101.285 E10.43052
G1 X118.819 Y113.480 E12.10693
G1 X123.425 Y121.716 E13.23930
G1 X107.025 Y121.716 E15.20730
G1 X100.868 Y101.285 E17.76793
G0 F3000 X101.407 Y101.685
G1 F900 X111.770 Y101.685 E19.01149
G1 X122.741 Y121.316 E21.71013
G1 X107.322 Y121.316 E23.56041
G1 X101.407 Y101.685 E26.02074
G10
G1 Z1.300
G0 F3000 X106.211 Y105.365
;TYPE:FILL
G1 Z0.300
G11
G1 F900 X106.541 Y105.978 E26.09154
G1 X106.785 Y106.786 E26.16244
G1 X107.029 Y107.593 E26.23301
G1 X107.272 Y108.401 E26.30363
G1 X107.515 Y109.208 E26.37417
G1 X107.758 Y110.016 E26.44479
G1 X108.002 Y110.823 E26.51536
G1 X108.245 Y111.631 E26.58598
G1 X108.488 Y112.439 E26.65660
G1 X108.731 Y113.246 E26.72689
G1 X108.974 Y114.054 E26.79751
G1 X109.448 Y114.810 E26.86791
G1 X110.036 Y115.115 E26.92217
G1 X110.600 Y115.115 E26.97631
G1 X111.164 Y115.115 E27.03045
G1 X111.728 Y115.115 E27.08460
G1 X112.293 Y115.115 E27.13884
G1 X112.767 Y115.307 E27.19300
G1 X112.960 Y115.782 E27.24729
G1 X112.960 Y116.346 E27.30160
G1 X112.960 Y116.911 E27.35584
G1 X112.960 Y117.475 E27.40999
G1 X112.977 Y117.774 E27.44593
G0 F3000 X112.977 Y117.616
G0 X112.961 Y115.096
G0 X113.120 Y115.096
G1 F900 X112.979 Y114.955 E27.46986
G0 F3000 X112.979 Y115.116
G0 X109.324 Y115.075
G0 X109.365 Y115.450
G0 X109.525 Y115.450
G1 F900 X109.132 Y115.058 E27.53646
G0 F3000 X109.375 Y115.865
G1 F900 X109.514 Y116.004 E27.56005
G0 F3000 X109.665 Y115.416
;TYPE:WALL-OUTER
G1 F900 X109.665 Y117.308 E27.78709
G1 X105.982 Y105.085 E29.31899
G1 X106.565 Y105.085 E29.38895
G1 X109.497 Y114.816 E30.60853
G1 X113.261 Y114.816 E31.06021
G1 X113.261 Y117.916 E31.43221
G1 X112.661 Y117.916 E31.50421
G1 X112.661 Y115.416 E31.80421
G1 X109.665 Y115.416 E32.16373
G0 F3000 X109.525 Y115.464
;TYPE:SKIN
G1 F900 X109.224 Y114.881 E32.22908
G1 X108.980 Y114.071 E32.29963
G1 X108.736 Y113.261 E32.37018
G1 X108.492 Y112.452 E32.44065
G1 X108.248 Y111.642 E32.51121
G1 X108.004 Y110.832 E32.58176
G1 X107.760 Y110.023 E32.65248
G1 X107.516 Y109.214 E32.72321
G1 X107.273 Y108.404 E32.79399
G1 X107.029 Y107.594 E32.86480
G1 X106.785 Y106.785 E32.93553
G1 X106.541 Y105.975 E33.00633
G1 X106.210 Y105.361 E33.09004
G10
G1 Z1.300
G0 F3000 X109.581 Y114.955
G1 Z0.300
G11
G1 F900 X110.023 Y115.115 E33.14419
G1 X110.589 Y115.115 E33.19852
G1 X111.155 Y115.115 E33.25269
G1 X111.720 Y115.115 E33.30693
G1 X112.286 Y115.115 E33.36127
G1 X112.764 Y115.310 E33.41547
G1 X112.960 Y115.788 E33.46972
G1 X112.960 Y116.354 E33.52405
G1 X112.960 Y116.920 E33.57822
G1 X112.960 Y117.485 E33.63246
G1 X112.966 Y117.774 E33.66715
G0 F3000 X112.966 Y117.616
G0 X112.961 Y115.100
G0 X113.120 Y115.100
G1 F900 X112.975 Y114.955 E33.69175
G10
G1 Z1.300
G0 F3000 X109.501 Y116.006
G1 Z0.300
G11
G1 F900 X109.382 Y115.887 E33.71195
G0 F3000 X113.784 Y112.939
;TYPE:FILL
G1 F900 X114.276 Y113.431 E33.79544
G0 F3000 X114.500 Y114.218
G1 F900 X114.991 Y114.710 E33.87885
G0 F3000 X115.215 Y115.498
G1 F900 X115.707 Y115.990 E33.96235
G0 F3000 X115.930 Y116.777
G1 F900 X116.422 Y117.269 E34.04584
G0 F3000 X116.284 Y117.345
G0 X113.424 Y112.228
G0 X113.562 Y112.152
G1 F900 X113.069 Y111.659 E34.12951
G0 F3000 X112.846 Y110.872
G1 F900 X112.355 Y110.380 E34.21292
G0 F3000 X112.131 Y109.593
G1 F900 X111.640 Y109.101 E34.29633
G0 F3000 X111.415 Y108.313
G1 F900 X110.924 Y107.821 E34.37974
G0 F3000 X110.701 Y107.034
G1 F900 X110.209 Y106.542 E34.46324
G0 F3000 X109.986 Y105.754
G1 F900 X109.494 Y105.263 E34.54665
G0 F3000 X109.774 Y105.085
;TYPE:WALL-OUTER
G1 F900 X116.945 Y117.916 E36.31051
G1 X116.405 Y117.916 E36.37531
G1 X109.234 Y105.085 E38.13918
G1 X109.774 Y105.085 E38.20398
G0 F3000 X109.480 Y105.237
;TYPE:SKIN
G1 F900 X109.971 Y105.728 E38.28731
G0 F3000 X110.196 Y106.519
G1 F900 X110.688 Y107.011 E38.37080
G0 F3000 X110.913 Y107.802
G1 F900 X111.405 Y108.294 E38.45430
G0 F3000 X111.630 Y109.085
G1 F900 X112.122 Y109.576 E38.53771
G0 F3000 X112.347 Y110.368
G1 F900 X112.839 Y110.859 E38.62112
G0 F3000 X113.064 Y111.650
G1 F900 X113.556 Y112.142 E38.70462
G0 F3000 X113.781 Y112.932
G1 F900 X114.273 Y113.424 E38.78811
G0 F3000 X114.498 Y114.215
G1 F900 X114.990 Y114.707 E38.87161
G0 F3000 X115.215 Y115.498
G1 F900 X115.707 Y115.990 E38.95510
G0 F3000 X115.932 Y116.780
G1 F900 X116.424 Y117.272 E39.03860
;LAYER:1
G10
G1 Z1.300
G0 F3000 X112.660 Y115.417 Z0.400
;TYPE:WALL-OUTER
G1 Z0.400
G11
G1 F900 X109.666 Y115.417 E39.15806
G1 X109.666 Y117.312 E39.23367
G1 X105.981 Y105.084 E39.74324
G1 X106.565 Y105.084 E39.76654
G1 X109.498 Y114.815 E40.17206
G1 X113.262 Y114.815 E40.32224
G1 X113.262 Y117.917 E40.44601
G1 X112.660 Y117.917 E40.47003
G1 X112.660 Y115.417 E40.56978
G0 F3000 X112.799 Y115.448
;TYPE:SKIN
G1 F900 X112.925 Y115.039 E40.58797
G1 X112.287 Y115.114 E40.60615
G1 X111.722 Y115.114 E40.62434
G1 X111.158 Y115.114 E40.64250
G1 X110.594 Y115.114 E40.66067
G1 X110.029 Y115.114 E40.67886
G1 X109.555 Y115.306 E40.69706
G1 X109.407 Y115.737 E40.71037
G1 X109.419 Y116.007 E40.72115
G0 F3000 X109.158 Y115.140
G1 F900 X109.204 Y114.811 E40.73374
G1 X109.073 Y114.378 E40.74632
G1 X108.943 Y113.944 E40.75892
G1 X108.812 Y113.510 E40.77147
G1 X108.681 Y113.077 E40.78400
G1 X108.551 Y112.643 E40.79660
G1 X108.420 Y112.210 E40.80918
G1 X108.289 Y111.776 E40.82178
G1 X108.158 Y111.342 E40.83429
G1 X108.028 Y110.909 E40.84681
G1 X107.897 Y110.475 E40.85937
G1 X107.766 Y110.042 E40.87195
G1 X107.636 Y109.608 E40.88454
G1 X107.505 Y109.174 E40.89710
G1 X107.374 Y108.741 E40.90963
G1 X107.243 Y108.307 E40.92214
G1 X107.113 Y107.874 E40.93467
G1 X106.982 Y107.440 E40.94722
G1 X106.852 Y107.006 E40.95982
G1 X106.721 Y106.573 E40.97235
G1 X106.590 Y106.139 E40.98491
G1 X106.459 Y105.706 E40.99744
G1 X106.505 Y105.378 E41.01065
G10
G1 Z1.400
G0 F3000 X113.121 Y115.691
G1 Z0.400
G11
G1 F900 X112.960 Y116.133 E41.02876
G1 X112.960 Y116.698 E41.04690
G1 X112.960 Y117.262 E41.06500
G1 X112.799 Y117.705 E41.08381
G10
G1 Z1.400
G0 F3000 X115.544 Y116.089
;TYPE:FILL
G1 Z0.400
G11
G1 F900 X115.513 Y115.837 E41.09181
G1 X115.311 Y115.475 E41.09981
G1 X115.109 Y115.113 E41.10781
G1 X114.907 Y114.751 E41.11585
G1 X114.704 Y114.389 E41.12390
G1 X114.502 Y114.027 E41.13195
G1 X114.299 Y113.665 E41.14000
G1 X114.097 Y113.304 E41.14806
G1 X113.895 Y112.942 E41.15615
G1 X113.693 Y112.579 E41.16425
G1 X113.490 Y112.217 E41.17230
G1 X113.287 Y111.856 E41.18025
G1 X113.085 Y111.494 E41.18825
G1 X112.883 Y111.132 E41.19625
G1 X112.681 Y110.770 E41.20430
G1 X112.479 Y110.408 E41.21238
G1 X112.276 Y110.046 E41.22043
G1 X112.074 Y109.684 E41.22847
G1 X111.871 Y109.322 E41.23653
G1 X111.669 Y108.961 E41.24459
G1 X111.467 Y108.598 E41.25269
G1 X111.264 Y108.236 E41.26074
G1 X111.062 Y107.874 E41.26879
G1 X110.860 Y107.512 E41.27683
G1 X110.658 Y107.150 E41.28487
G1 X110.455 Y106.789 E41.29291
G1 X110.253 Y106.427 E41.30099
G1 X110.050 Y106.065 E41.30904
G1 X109.848 Y105.703 E41.31708
G1 X109.819 Y105.450 E41.32724
G0 F3000 X109.679 Y105.526
G0 X115.749 Y116.385
G0 X115.889 Y116.309
G1 F900 X115.918 Y116.561 E41.33531
G1 X116.120 Y116.923 E41.34335
G1 X116.323 Y117.285 E41.35140
G1 X116.353 Y117.537 E41.36153
G0 F3000 X116.404 Y117.917
;TYPE:WALL-OUTER
G1 F900 X109.231 Y105.084 E41.94813
G1 X109.775 Y105.084 E41.96983
G1 X116.948 Y117.917 E42.55643
G1 X116.404 Y117.917 E42.57813
G0 F3000 X116.353 Y117.537
;TYPE:SKIN
G1 F900 X116.323 Y117.285 E42.58620
G1 X116.120 Y116.923 E42.59425
G1 X115.918 Y116.561 E42.60230
G1 X115.716 Y116.199 E42.61034
G1 X115.513 Y115.837 E42.61831
G1 X115.311 Y115.475 E42.62631
G1 X115.109 Y115.113 E42.63431
G1 X114.907 Y114.751 E42.64235
G1 X114.704 Y114.389 E42.65040
G1 X114.502 Y114.027 E42.65844
G1 X114.299 Y113.665 E42.66650
G1 X114.097 Y113.304 E42.67456
G1 X113.895 Y112.942 E42.68265
G1 X113.693 Y112.579 E42.69075
G1 X113.490 Y112.217 E42.69880
G1 X113.287 Y111.856 E42.70675
G1 X113.085 Y111.494 E42.71475
G1 X112.883 Y111.132 E42.72275
G1 X112.681 Y110.770 E42.73079
G1 X112.479 Y110.408 E42.73888
G1 X112.276 Y110.046 E42.74693
G1 X112.074 Y109.684 E42.75497
G1 X111.871 Y109.322 E42.76302
G1 X111.669 Y108.961 E42.77109
G1 X111.467 Y108.598 E42.77919
G1 X111.264 Y108.236 E42.78724
G1 X111.062 Y107.874 E42.79528
G1 X110.860 Y107.512 E42.80333
G1 X110.658 Y107.150 E42.81137
G1 X110.455 Y106.789 E42.81940
G1 X110.253 Y106.427 E42.82749
G1 X110.050 Y106.065 E42.83554
G1 X109.848 Y105.703 E42.84358
G1 X109.819 Y105.450 E42.85374
;LAYER:2
G10
G1 Z1.400
G0 F3000 X106.565 Y105.084 Z0.500
;TYPE:WALL-OUTER
G1 Z0.500
G11
G1 F900 X109.498 Y114.815 E43.25926
G1 X113.262 Y114.815 E43.40944
G1 X113.262 Y117.917 E43.53321
G1 X112.660 Y117.917 E43.55723
G1 X112.660 Y115.417 E43.65698
G1 X109.666 Y115.417 E43.77644
G1 X109.666 Y117.312 E43.85206
G1 X105.981 Y105.084 E44.36163
G1 X106.565 Y105.084 E44.38493
G0 F3000 X106.211 Y105.365
;TYPE:SKIN
G1 F900 X106.541 Y105.978 E44.40846
G1 X106.785 Y106.785 E44.43198
G1 X107.028 Y107.593 E44.45544
G1 X107.272 Y108.401 E44.47890
G1 X107.515 Y109.208 E44.50241
G1 X107.758 Y110.016 E44.52596
G1 X108.002 Y110.824 E44.54950
G1 X108.246 Y111.632 E44.57297
G1 X108.489 Y112.440 E44.59651
G1 X108.733 Y113.247 E44.62003
G1 X108.976 Y114.055 E44.64349
G1 X109.450 Y114.811 E44.66704
G1 X110.035 Y115.115 E44.68511
G1 X110.600 Y115.115 E44.70324
G1 X111.164 Y115.115 E44.72135
G1 X111.728 Y115.115 E44.73945
G1 X112.292 Y115.115 E44.75756
G1 X112.767 Y115.307 E44.77569
G1 X112.960 Y115.782 E44.79390
G1 X112.960 Y116.347 E44.81209
G1 X112.960 Y116.911 E44.83025
G1 X112.960 Y117.475 E44.84841
G1 X112.979 Y117.776 E44.86044
G0 F3000 X112.979 Y117.617
G0 X112.962 Y115.097
G0 X113.122 Y115.097
G1 F900 X112.978 Y114.954 E44.86854
G0 F3000 X112.978 Y115.115
G0 X109.325 Y115.076
G0 X109.366 Y115.451
G0 X109.525 Y115.451
G1 F900 X109.132 Y115.058 E44.89072
G0 F3000 X109.375 Y115.865
G1 F900 X109.521 Y116.011 E44.89896
G10
G1 Z1.500
G0 F3000 X113.777 Y112.932
;TYPE:FILL
G1 Z0.500
G11
G1 F900 X114.286 Y113.440 E44.92765
G0 F3000 X114.493 Y114.211
G1 F900 X115.001 Y114.720 E44.95634
G0 F3000 X115.208 Y115.491
G1 F900 X115.717 Y116.000 E44.98506
G0 F3000 X115.924 Y116.771
G1 F900 X116.432 Y117.279 E45.01373
G0 F3000 X116.291 Y117.356
G0 X113.431 Y112.238
G0 X113.571 Y112.161
G1 F900 X112.958 Y111.266 E45.04248
G1 X112.242 Y109.986 E45.07122
G1 X111.527 Y108.706 E45.09996
G1 X110.811 Y107.426 E45.12870
G1 X110.096 Y106.147 E45.15742
G1 X109.483 Y105.252 E45.20071
G0 F3000 X109.775 Y105.084
;TYPE:WALL-OUTER
G1 F900 X116.948 Y117.917 E45.78730
G1 X116.404 Y117.917 E45.80901
G1 X109.231 Y105.084 E46.39560
G1 X109.775 Y105.084 E46.41731
G0 F3000 X109.483 Y105.252
;TYPE:SKIN
G1 F900 X110.096 Y106.147 E46.44606
G1 X110.811 Y107.426 E46.47478
G1 X111.527 Y108.706 E46.50352
G1 X112.242 Y109.986 E46.53226
G1 X112.958 Y111.266 E46.56101
G1 X113.571 Y112.161 E46.60429
G0 F3000 X113.777 Y112.932
G1 F900 X114.286 Y113.440 E46.63298
G0 F3000 X114.493 Y114.211
G1 F900 X115.001 Y114.720 E46.66168
G0 F3000 X115.208 Y115.491
G1 F900 X115.717 Y116.000 E46.69040
G0 F3000 X115.924 Y116.771
G1 F900 X116.432 Y117.279 E46.71906
;LAYER:3
G10
G1 Z1.500
G0 F3000 X112.660 Y115.417 Z0.600
;TYPE:WALL-OUTER
G1 Z0.600
G11
G1 F900 X109.666 Y115.417 E46.83852
G1 X109.666 Y117.312 E46.91413
G1 X105.981 Y105.084 E47.42370
G1 X106.565 Y105.084 E47.44700
G1 X109.498 Y114.815 E47.85252
G1 X113.262 Y114.815 E48.00271
G1 X113.262 Y117.917 E48.12648
G1 X112.660 Y117.917 E48.15050
G1 X112.660 Y115.417 E48.25025
G0 F3000 X112.799 Y115.448
;TYPE:SKIN
G1 F900 X112.925 Y115.039 E48.26844
G1 X112.287 Y115.114 E48.28662
G1 X111.722 Y115.114 E48.30481
G1 X111.158 Y115.114 E48.32297
G1 X110.594 Y115.114 E48.34113
G1 X110.029 Y115.114 E48.35932
G1 X109.555 Y115.306 E48.37753
G1 X109.407 Y115.737 E48.39084
G1 X109.419 Y116.007 E48.40162
G0 F3000 X109.158 Y115.140
G1 F900 X109.204 Y114.811 E48.41421
G1 X109.073 Y114.378 E48.42679
G1 X108.943 Y113.944 E48.43938
G1 X108.812 Y113.510 E48.45194
G1 X108.681 Y113.077 E48.46447
G1 X108.551 Y112.643 E48.47706
G1 X108.420 Y112.210 E48.48964
G1 X108.289 Y111.776 E48.50224
G1 X108.158 Y111.342 E48.51476
G1 X108.028 Y110.909 E48.52728
G1 X107.897 Y110.475 E48.53984
G1 X107.766 Y110.042 E48.55241
G1 X107.636 Y109.608 E48.56501
G1 X107.505 Y109.174 E48.57757
G1 X107.374 Y108.741 E48.59010
G1 X107.243 Y108.307 E48.60261
G1 X107.113 Y107.874 E48.61513
G1 X106.982 Y107.440 E48.62769
G1 X106.852 Y107.006 E48.64028
G1 X106.721 Y106.573 E48.65281
G1 X106.590 Y106.139 E48.66537
G1 X106.459 Y105.706 E48.67790
G1 X106.505 Y105.378 E48.69112
G0 F3000 X106.355 Y105.422
G0 X109.231 Y115.175
G0 X112.921 Y115.156
G0 X112.962 Y115.691
G0 X113.121 Y115.691
G1 F900 X112.960 Y116.133 E48.70923
G1 X112.960 Y116.698 E48.72737
G1 X112.960 Y117.262 E48.74547
G1 X112.799 Y117.705 E48.76428
G10
G1 Z1.600
G0 F3000 X115.544 Y116.089
;TYPE:FILL
G1 Z0.600
G11
G1 F900 X115.513 Y115.837 E48.77227
G1 X115.311 Y115.475 E48.78028
G1 X115.109 Y115.113 E48.78828
G1 X114.907 Y114.751 E48.79632
G1 X114.704 Y114.389 E48.80437
G1 X114.502 Y114.027 E48.81241
G1 X114.299 Y113.665 E48.82046
G1 X114.097 Y113.304 E48.82853
G1 X113.895 Y112.942 E48.83661
G1 X113.693 Y112.579 E48.84471
G1 X113.490 Y112.217 E48.85277
G1 X113.287 Y111.856 E48.86072
G1 X113.085 Y111.494 E48.86872
G1 X112.883 Y111.132 E48.87672
G1 X112.681 Y110.770 E48.88476
G1 X112.479 Y110.408 E48.89285
G1 X112.276 Y110.046 E48.90090
G1 X112.074 Y109.684 E48.90894
G1 X111.871 Y109.322 E48.91699
G1 X111.669 Y108.961 E48.92506
G1 X111.467 Y108.598 E48.93316
G1 X111.264 Y108.236 E48.94121
G1 X111.062 Y107.874 E48.94925
G1 X110.860 Y107.512 E48.95729
G1 X110.658 Y107.150 E48.96534
G1 X110.455 Y106.789 E48.97337
G1 X110.253 Y106.427 E48.98146
G1 X110.050 Y106.065 E48.98951
G1 X109.848 Y105.703 E48.99755
G1 X109.819 Y105.450 E49.00771
G0 F3000 X109.679 Y105.526
G0 X115.749 Y116.385
G0 X115.889 Y116.309
G1 F900 X115.918 Y116.561 E49.01578
G1 X116.120 Y116.923 E49.02382
G1 X116.323 Y117.285 E49.03187
G1 X116.353 Y117.537 E49.04200
G0 F3000 X116.404 Y117.917
;TYPE:WALL-OUTER
G1 F900 X109.231 Y105.084 E49.62859
G1 X109.775 Y105.084 E49.65030
G1 X116.948 Y117.917 E50.23689
G1 X116.404 Y117.917 E50.25860
G0 F3000 X116.353 Y117.537
;TYPE:SKIN
G1 F900 X116.323 Y117.285 E50.26667
G1 X116.120 Y116.923 E50.27472
G1 X115.918 Y116.561 E50.28276
G1 X115.716 Y116.199 E50.29080
G1 X115.513 Y115.837 E50.29877
G1 X115.311 Y115.475 E50.30677
G1 X115.109 Y115.113 E50.31477
G1 X114.907 Y114.751 E50.32282
G1 X114.704 Y114.389 E50.33087
G1 X114.502 Y114.027 E50.33891
G1 X114.299 Y113.665 E50.34696
G1 X114.097 Y113.304 E50.35503
G1 X113.895 Y112.942 E50.36311
G1 X113.693 Y112.579 E50.37121
G1 X113.490 Y112.217 E50.37926
G1 X113.287 Y111.856 E50.38722
G1 X113.085 Y111.494 E50.39522
G1 X112.883 Y111.132 E50.40322
G1 X112.681 Y110.770 E50.41126
G1 X112.479 Y110.408 E50.41934
G1 X112.276 Y110.046 E50.42739
G1 X112.074 Y109.684 E50.43544
G1 X111.871 Y109.322 E50.44349
G1 X111.669 Y108.961 E50.45155
G1 X111.467 Y108.598 E50.45966
G1 X111.264 Y108.236 E50.46771
G1 X111.062 Y107.874 E50.47575
G1 X110.860 Y107.512 E50.48379
G1 X110.658 Y107.150 E50.49183
G1 X110.455 Y106.789 E50.49987
G1 X110.253 Y106.427 E50.50795
G1 X110.050 Y106.065 E50.51600
