;FLAVOR:UltiGCode
;TIME:397
;MATERIAL:218
;MATERIAL2:0
;NOZZLE_DIAMETER:0.400000
;NOZZLE_DIAMETER2:0.400000

;Layer count: 63
;LAYER:0
M107
G0 F12000 X100.226 Y100.708 Z0.300
G0 X100.685 Y102.229
;TYPE:SKIRT
G1 F1200 X100.226 Y100.708 E0.19065
G1 X111.541 Y100.708 E1.54845
G1 X112.391 Y102.229 E1.75754
G1 X113.390 Y102.229 E1.87742
G1 X114.884 Y104.901 E2.24477
G1 X115.210 Y105.486 E2.32514
G1 X116.063 Y107.011 E2.53482
G1 X116.065 Y107.011 E2.53506
G1 X116.927 Y108.556 E2.74736
G1 X119.313 Y112.825 E3.33423
G1 X119.312 Y112.825 E3.33435
G1 X121.925 Y117.497 E3.97672
G1 X124.610 Y122.292 E4.63619
G1 X105.736 Y122.292 E6.90107
G1 X104.300 Y117.539 E7.49689
G1 X104.299 Y117.539 E7.49701
G1 X104.059 Y116.741 E7.59701
G1 X103.272 Y114.135 E7.92367
G1 X103.275 Y114.135 E7.92403
G1 X102.673 Y112.141 E8.17398
G1 X101.839 Y109.382 E8.51986
G1 X101.841 Y109.382 E8.52010
G1 X101.111 Y106.968 E8.82273
G1 X101.115 Y106.968 E8.82321
G1 X99.683 Y102.229 E9.41729
G1 X100.685 Y102.229 E9.53753
G0 F12000 X101.224 Y102.629
G1 F1200 X100.765 Y101.108 E9.72818
G1 X111.306 Y101.108 E10.99310
G1 X112.156 Y102.629 E11.20219
G1 X113.155 Y102.629 E11.32207
G1 X114.535 Y105.096 E11.66128
G1 X115.016 Y105.958 E11.77973
G1 X115.828 Y107.411 E11.97947
G1 X115.830 Y107.411 E11.97971
G1 X116.577 Y108.751 E12.16381
G1 X118.631 Y112.425 E12.66891
G1 X118.630 Y112.425 E12.66903
G1 X121.242 Y117.097 E13.31134
G1 X123.928 Y121.892 E13.97086
G1 X106.033 Y121.892 E16.11826
G1 X104.489 Y116.779 E16.75919
G1 X103.811 Y114.535 E17.04049
G1 X103.813 Y114.535 E17.04073
G1 X103.149 Y112.335 E17.31649
G1 X103.085 Y112.121 E17.34330
G1 X102.378 Y109.782 E17.63652
G1 X102.380 Y109.782 E17.63676
G1 X101.650 Y107.368 E17.93940
G1 X101.654 Y107.368 E17.93988
G1 X101.507 Y106.880 E18.00104
G1 X100.222 Y102.629 E18.53395
G1 X101.224 Y102.629 E18.65419
G10
G1 Z0.400
G0 F12000 X105.342 Y104.508
;TYPE:WALL-OUTER
G1 Z0.300
G11
G1 F1200 X105.925 Y104.508 E18.72415
G1 X109.023 Y114.790 E20.01278
G1 X112.851 Y114.790 E20.47214
G1 X112.851 Y117.935 E20.84954
G1 X116.273 Y117.935 E21.26018
G1 X108.770 Y104.508 E23.10592
G1 X109.310 Y104.508 E23.17072
G1 X110.161 Y106.029 E23.37986
G1 X111.160 Y106.029 E23.49974
G1 X111.471 Y106.586 E23.57630
G1 X110.472 Y106.586 E23.69618
G1 X111.571 Y108.552 E23.96646
G1 X112.570 Y108.552 E24.08634
G1 X112.834 Y109.025 E24.15134
G1 X111.835 Y109.025 E24.27122
G1 X112.834 Y110.811 E24.51679
G1 X113.833 Y110.811 E24.63667
G1 X114.097 Y111.284 E24.70167
G1 X113.097 Y111.284 E24.82167
G1 X114.182 Y113.224 E25.08841
G1 X115.181 Y113.224 E25.20829
G1 X115.445 Y113.697 E25.27329
G1 X114.446 Y113.697 E25.39317
G1 X115.633 Y115.820 E25.68504
G1 X116.632 Y115.820 E25.80492
G1 X116.896 Y116.293 E25.86993
G1 X115.897 Y116.293 E25.98981
G1 X116.815 Y117.935 E26.21555
G1 X117.815 Y117.935 E26.33555
G1 X118.127 Y118.492 E26.41216
G1 X108.557 Y118.492 E27.56056
G1 X108.389 Y117.935 E27.63038
G1 X109.200 Y117.935 E27.72770
G1 X109.200 Y118.408 E27.78446
G1 X112.199 Y118.408 E28.14434
G1 X112.199 Y115.408 E28.50434
G1 X109.200 Y115.408 E28.86422
G1 X109.200 Y117.307 E29.09210
G1 X108.895 Y116.293 E29.21916
G1 X107.894 Y116.293 E29.33928
G1 X107.726 Y115.735 E29.40921
G1 X108.726 Y115.735 E29.52921
G1 X108.125 Y113.739 E29.77935
G1 X107.125 Y113.739 E29.89935
G1 X106.958 Y113.182 E29.96913
G1 X107.957 Y113.182 E30.08901
G1 X107.398 Y111.326 E30.32161
G1 X106.397 Y111.326 E30.44173
G1 X106.229 Y110.768 E30.51166
G1 X107.229 Y110.768 E30.63166
G1 X106.717 Y109.067 E30.84483
G1 X105.717 Y109.067 E30.96483
G1 X105.550 Y108.510 E31.03461
G1 X106.549 Y108.510 E31.15449
G1 X105.969 Y106.586 E31.39563
G1 X104.969 Y106.586 E31.51563
G1 X104.802 Y106.029 E31.58541
G1 X105.801 Y106.029 E31.70529
G1 X105.342 Y104.508 E31.89594
G0 F12000 X105.543 Y104.694
;TYPE:SKIN
G1 F1200 X105.875 Y105.309 E31.96702
G1 X106.045 Y106.045 E32.03749
G1 X106.364 Y106.930 E32.13317
G1 X106.608 Y107.739 E32.20313
G1 X106.803 Y108.500 E32.27336
G1 X107.095 Y109.358 E32.35983
G1 X107.339 Y110.167 E32.42979
G1 X107.668 Y110.779 E32.51317
G0 F12000 X107.230 Y110.907
G1 F1200 X107.912 Y111.589 E32.62891
G0 F12000 X107.743 Y111.986
G1 F1200 X108.071 Y112.597 E32.69861
G1 X108.311 Y113.402 E32.76816
G1 X107.802 Y113.459 E32.81502
G1 X107.381 Y113.321 E32.86819
G0 F12000 X108.231 Y113.605
G1 F1200 X108.559 Y114.215 E32.93800
G1 X108.938 Y114.878 E33.00788
G1 X109.193 Y115.415 E33.06513
G1 X108.761 Y115.549 E33.12280
G1 X108.787 Y116.141 E33.16617
G1 X108.237 Y115.874 E33.23954
G10
G1 Z0.400
G0 F12000 X109.555 Y114.929
G1 Z0.300
G11
G1 F1200 X110.006 Y115.097 E33.29657
G1 X110.572 Y115.097 E33.35362
G1 X111.138 Y115.097 E33.41084
G1 X111.703 Y115.097 E33.46780
G1 X112.246 Y115.358 E33.52491
G1 X112.524 Y115.918 E33.58793
G1 X112.524 Y116.484 E33.65110
G1 X112.524 Y117.050 E33.71426
G1 X112.711 Y117.519 E33.77485
G0 F12000 X112.338 Y117.712
G1 F1200 X112.977 Y118.351 E33.88329
G0 F12000 X113.266 Y118.074
G1 F1200 X113.687 Y118.212 E33.93021
G1 X114.252 Y118.212 E33.97699
G1 X114.818 Y118.212 E34.02386
G1 X115.384 Y118.212 E34.07072
G1 X115.949 Y118.212 E34.11750
G1 X116.371 Y118.351 E34.17082
G0 F12000 X116.937 Y118.351
G1 F1200 X116.324 Y117.738 E34.27485
G0 F12000 X116.107 Y116.956
G1 F1200 X115.738 Y116.303 E34.35968
G1 X115.533 Y115.816 E34.39234
G1 X114.890 Y115.173 E34.50146
G0 F12000 X114.672 Y114.389
G1 F1200 X114.289 Y113.724 E34.58595
G1 X114.083 Y113.235 E34.61858
G1 X113.458 Y112.609 E34.72473
G0 F12000 X113.236 Y111.822
G1 F1200 X112.835 Y111.138 E34.80870
G1 X113.310 Y111.047 E34.84149
G1 X113.690 Y111.144 E34.88855
G0 F12000 X112.523 Y110.543
G1 F1200 X112.025 Y110.045 E34.97306
G0 F12000 X111.803 Y109.257
G1 F1200 X111.556 Y108.727 E35.05691
G1 X112.182 Y108.788 E35.08937
G1 X112.561 Y108.884 E35.13628
G10
G1 Z0.400
G0 F12000 X111.088 Y107.977
G1 Z0.300
G11
G1 F1200 X110.592 Y107.481 E35.22046
G0 F12000 X110.370 Y106.693
G1 F1200 X110.143 Y106.183 E35.30436
G1 X110.832 Y106.307 E35.35120
G1 X111.203 Y106.394 E35.39692
G10
G1 Z0.400
G0 F12000 X109.653 Y105.410
G1 Z0.300
G11
G1 F1200 X109.159 Y104.916 E35.48076
G10
G1 Z0.400
G0 F12000 X105.596 Y106.445
G1 Z0.300
G11
G1 F1200 X105.320 Y106.168 E35.52768
G0 F12000 X106.104 Y108.649
G1 F1200 X106.380 Y108.926 E35.57461
G10
G1 Z0.400
G0 F12000 X106.664 Y110.907
G1 Z0.300
G11
G1 F1200 X106.942 Y111.184 E35.62170
G0 F12000 X112.384 Y114.929
G1 F1200 X112.711 Y115.256 E35.67719
G10
G1 Z0.400
G0 F12000 X114.778 Y113.364
G1 Z0.300
G11
G1 F1200 X114.971 Y113.557 E35.70995
G0 F12000 X116.242 Y115.959
G1 F1200 X116.435 Y116.152 E35.74270
G10
G1 Z0.400
G0 F12000 X117.225 Y118.074
G1 Z0.300
G11
G1 F1200 X117.502 Y118.351 E35.78971
G0 F12000 X117.502 Y118.192
G0 X112.411 Y118.192
G0 X112.411 Y118.351
G1 F1200 X112.338 Y118.278 E35.80210
;LAYER:1
M106 S2
G0 F12000 X112.198 Y118.407 Z0.360
;TYPE:WALL-OUTER
G1 F1620 X112.198 Y115.409 E35.87387
G1 X109.201 Y115.409 E35.94562
G1 X109.201 Y117.313 E35.99120
G1 X108.894 Y116.294 E36.01668
G1 X107.894 Y116.294 E36.04062
G1 X107.725 Y115.734 E36.05462
G1 X108.725 Y115.734 E36.07856
G1 X108.124 Y113.740 E36.12842
G1 X107.124 Y113.740 E36.15236
G1 X106.956 Y113.181 E36.16633
G1 X107.956 Y113.181 E36.19027
G1 X107.397 Y111.327 E36.23663
G1 X106.397 Y111.327 E36.26057
G1 X106.228 Y110.767 E36.27457
G1 X107.228 Y110.767 E36.29851
G1 X106.716 Y109.068 E36.34099
G1 X105.716 Y109.068 E36.36493
G1 X105.548 Y108.509 E36.37891
G1 X106.548 Y108.509 E36.40285
G1 X105.968 Y106.587 E36.45091
G1 X104.968 Y106.587 E36.47485
G1 X104.800 Y106.028 E36.48882
G1 X105.800 Y106.028 E36.51276
G1 X105.341 Y104.507 E36.55080
G1 X105.925 Y104.507 E36.56478
G1 X109.024 Y114.789 E36.82187
G1 X112.852 Y114.789 E36.91351
G1 X112.852 Y117.934 E36.98880
G1 X116.271 Y117.934 E37.07065
G1 X108.767 Y104.507 E37.43889
G1 X109.311 Y104.507 E37.45191
G1 X110.161 Y106.028 E37.49362
G1 X111.161 Y106.028 E37.51756
G1 X111.474 Y106.587 E37.53290
G1 X110.474 Y106.587 E37.55684
G1 X111.571 Y108.551 E37.61070
G1 X112.571 Y108.551 E37.63464
G1 X112.837 Y109.026 E37.64767
G1 X111.837 Y109.026 E37.67161
G1 X112.834 Y110.810 E37.72054
G1 X113.834 Y110.810 E37.74448
G1 X114.099 Y111.285 E37.75750
G1 X113.099 Y111.285 E37.78144
G1 X114.182 Y113.223 E37.83459
G1 X115.182 Y113.223 E37.85853
G1 X115.448 Y113.698 E37.87156
G1 X114.448 Y113.698 E37.89550
G1 X115.633 Y115.819 E37.95366
G1 X116.633 Y115.819 E37.97760
G1 X116.899 Y116.294 E37.99064
G1 X115.899 Y116.294 E38.01458
G1 X116.815 Y117.934 E38.05955
G1 X117.815 Y117.934 E38.08349
G1 X118.128 Y118.493 E38.09883
G1 X108.557 Y118.493 E38.32796
G1 X108.389 Y117.934 E38.34193
G1 X109.201 Y117.934 E38.36137
G1 X109.201 Y118.407 E38.37269
G1 X112.198 Y118.407 E38.44444
G0 F12000 X112.338 Y118.167
;TYPE:SKIN
G1 F1620 X112.854 Y117.933 E38.45709
G1 X112.999 Y118.352 E38.46650
G1 X113.702 Y118.212 E38.47592
G1 X114.266 Y118.212 E38.48533
G1 X114.831 Y118.212 E38.49475
G1 X115.395 Y118.212 E38.50416
G1 X115.959 Y118.212 E38.51357
G1 X116.422 Y118.032 E38.52299
G1 X116.776 Y117.960 E38.52780
G1 X116.948 Y118.352 E38.53725
G1 X117.652 Y118.212 E38.54668
G1 X117.854 Y118.293 E38.55189
G10
G1 Z0.460
G0 F12000 X116.404 Y117.486
G1 Z0.360
G11
G1 F1620 X116.160 Y117.448 E38.55674
G1 X116.029 Y117.014 E38.56155
G1 X115.827 Y116.652 E38.56638
G1 X115.920 Y116.276 E38.57121
G1 X115.957 Y115.958 E38.57778
G1 X115.350 Y116.000 E38.58530
G1 X115.220 Y115.566 E38.59011
G1 X115.017 Y115.204 E38.59494
G1 X114.815 Y114.842 E38.59977
G1 X114.613 Y114.480 E38.60459
G1 X114.410 Y114.118 E38.60943
G1 X114.208 Y113.757 E38.61427
G1 X114.148 Y113.252 E38.62394
G1 X113.732 Y113.105 E38.62876
G1 X113.601 Y112.671 E38.63357
G1 X113.398 Y112.309 E38.63838
G1 X113.196 Y111.947 E38.64320
G1 X112.994 Y111.585 E38.64803
G1 X113.059 Y111.239 E38.65284
G1 X113.532 Y111.047 E38.65943
G1 X113.808 Y111.053 E38.66604
G0 F12000 X112.784 Y110.950
G1 F1620 X112.518 Y110.933 E38.67157
G1 X112.387 Y110.499 E38.67639
G1 X112.185 Y110.137 E38.68121
G1 X111.983 Y109.775 E38.68604
G1 X111.781 Y109.413 E38.69086
G1 X111.888 Y109.023 E38.69569
G1 X111.939 Y108.690 E38.70230
G1 X111.304 Y108.761 E38.71081
G1 X111.173 Y108.328 E38.71564
G1 X110.971 Y107.966 E38.72049
G1 X110.769 Y107.604 E38.72534
G1 X110.566 Y107.242 E38.73017
G1 X110.364 Y106.880 E38.73500
G1 X110.425 Y106.537 E38.73985
G1 X110.937 Y106.307 E38.74928
G1 X111.178 Y106.348 E38.75513
G0 F12000 X110.230 Y106.167
G1 F1620 X109.888 Y106.227 E38.76326
G1 X109.757 Y105.794 E38.76806
G1 X109.555 Y105.432 E38.77286
G1 X109.352 Y105.070 E38.77769
G1 X109.322 Y104.818 E38.78377
G10
G1 Z0.460
G0 F12000 X106.148 Y105.735
G1 Z0.360
G11
G1 F1620 X105.821 Y106.062 E38.79129
G1 X105.295 Y106.306 E38.80071
G1 X105.027 Y106.292 E38.80714
G0 F12000 X106.002 Y106.446
G1 F1620 X106.343 Y106.386 E38.81649
G1 X106.363 Y106.930 E38.82397
G1 X106.494 Y107.364 E38.83145
G1 X106.625 Y107.797 E38.83894
G1 X106.756 Y108.231 E38.84642
G1 X106.666 Y108.603 E38.85391
G1 X106.200 Y108.786 E38.86334
G1 X105.810 Y108.895 E38.87303
G0 F12000 X106.841 Y108.992
G1 F1620 X107.128 Y108.987 E38.88052
G1 X107.147 Y109.532 E38.88802
G1 X107.278 Y109.965 E38.89551
G1 X107.409 Y110.399 E38.90299
G1 X107.274 Y110.816 E38.91048
G1 X106.763 Y111.046 E38.91993
G1 X106.464 Y111.062 E38.92710
G0 F12000 X107.469 Y111.186
G1 F1620 X107.781 Y111.155 E38.93545
G1 X107.801 Y111.700 E38.94295
G1 X107.932 Y112.133 E38.95044
G1 X108.062 Y112.567 E38.95791
G1 X108.193 Y113.001 E38.96539
G1 X107.735 Y113.459 E38.98199
G1 X107.314 Y113.598 E38.99260
G0 F12000 X108.278 Y113.762
G1 F1620 X108.565 Y113.757 E39.00009
G1 X108.585 Y114.301 E39.00757
G1 X108.716 Y114.735 E39.01505
G1 X108.670 Y115.063 E39.02298
G0 F12000 X108.801 Y115.497
G1 F1620 X109.370 Y114.928 E39.04225
G0 F12000 X109.594 Y115.268
G1 F1620 X110.046 Y115.098 E39.05375
G1 X110.610 Y115.098 E39.06522
G1 X111.175 Y115.098 E39.07668
G1 X111.739 Y115.098 E39.08815
G1 X112.264 Y115.137 E39.09965
G1 X112.712 Y115.254 E39.11229
G1 X112.525 Y116.005 E39.12492
G1 X112.525 Y116.569 E39.13754
G1 X112.525 Y117.133 E39.15016
G1 X112.338 Y117.603 E39.16227
G10
G1 Z0.460
G0 F12000 X109.061 Y115.801
G1 Z0.360
G11
G1 F1620 X108.566 Y116.013 E39.17416
G1 X108.144 Y116.153 E39.18481
G0 F12000 X114.690 Y113.557
G1 F1620 X114.885 Y113.362 E39.19141
G0 F12000 X106.017 Y105.302
G1 F1620 X105.729 Y105.308 E39.19893
G1 X105.887 Y104.868 E39.21012
;LAYER:2
M106 S5
G0 F12000 X105.735 Y104.912 Z0.420
G0 X106.254 Y106.501
G0 X105.968 Y106.587
;TYPE:WALL-OUTER
G1 F1800 X104.968 Y106.587 E39.23406
G1 X104.800 Y106.028 E39.24803
G1 X105.800 Y106.028 E39.27197
G1 X105.341 Y104.507 E39.31001
G1 X105.925 Y104.507 E39.32399
G1 X109.024 Y114.789 E39.58108
G1 X112.852 Y114.789 E39.67272
G1 X112.852 Y117.934 E39.74801
G1 X116.271 Y117.934 E39.82986
G1 X108.767 Y104.507 E40.19810
G1 X109.311 Y104.507 E40.21112
G1 X110.161 Y106.028 E40.25283
G1 X111.161 Y106.028 E40.27677
G1 X111.474 Y106.587 E40.29211
G1 X110.474 Y106.587 E40.31605
G1 X111.571 Y108.551 E40.36991
G1 X112.571 Y108.551 E40.39385
G1 X112.837 Y109.026 E40.40688
G1 X111.837 Y109.026 E40.43082
G1 X112.834 Y110.810 E40.47975
G1 X113.834 Y110.810 E40.50369
G1 X114.099 Y111.285 E40.51671
G1 X113.099 Y111.285 E40.54065
G1 X114.182 Y113.223 E40.59380
G1 X115.182 Y113.223 E40.61774
G1 X115.448 Y113.698 E40.63077
G1 X114.448 Y113.698 E40.65471
G1 X115.633 Y115.819 E40.71287
G1 X116.633 Y115.819 E40.73681
G1 X116.899 Y116.294 E40.74985
G1 X115.899 Y116.294 E40.77379
G1 X116.815 Y117.934 E40.81876
G1 X117.815 Y117.934 E40.84270
G1 X118.128 Y118.493 E40.85803
G1 X108.557 Y118.493 E41.08716
G1 X108.389 Y117.934 E41.10114
G1 X109.201 Y117.934 E41.12058
G1 X109.201 Y118.407 E41.13190
G1 X112.198 Y118.407 E41.20365
G1 X112.198 Y115.409 E41.27542
G1 X109.201 Y115.409 E41.34717
G1 X109.201 Y117.313 E41.39275
G1 X108.894 Y116.294 E41.41823
G1 X107.894 Y116.294 E41.44217
G1 X107.725 Y115.734 E41.45617
G1 X108.725 Y115.734 E41.48011
G1 X108.124 Y113.740 E41.52997
G1 X107.124 Y113.740 E41.55391
G1 X106.956 Y113.181 E41.56788
G1 X107.956 Y113.181 E41.59182
G1 X107.397 Y111.327 E41.63818
G1 X106.397 Y111.327 E41.66212
G1 X106.228 Y110.767 E41.67613
G1 X107.228 Y110.767 E41.70007
G1 X106.716 Y109.068 E41.74255
G1 X105.716 Y109.068 E41.76649
G1 X105.548 Y108.509 E41.78046
G1 X106.548 Y108.509 E41.80440
G1 X105.968 Y106.587 E41.85246
G0 F12000 X105.599 Y106.446
;TYPE:SKIN
G1 F1800 X105.320 Y106.167 E41.86191
G0 F12000 X105.884 Y106.167
G1 F1800 X106.449 Y106.732 E41.88104
G0 F12000 X106.277 Y107.124
G1 F1800 X106.606 Y107.735 E41.89507
G1 X106.804 Y108.497 E41.90910
G1 X107.093 Y109.351 E41.92625
G1 X107.336 Y110.158 E41.94025
G1 X107.666 Y110.770 E41.95690
G0 F12000 X107.237 Y110.906
G1 F1800 X107.910 Y111.578 E41.97967
G0 F12000 X107.738 Y111.971
G1 F1800 X108.067 Y112.582 E41.99370
G1 X108.396 Y113.193 E42.01031
G0 F12000 X107.959 Y113.320
G1 F1800 X108.639 Y114.001 E42.03335
G0 F12000 X108.468 Y114.393
G1 F1800 X108.942 Y114.868 E42.04740
G1 X109.201 Y115.409 E42.05888
G1 X108.765 Y115.537 E42.07072
G1 X108.798 Y116.134 E42.07890
G1 X108.255 Y115.873 E42.09332
G10
G1 Z0.520
G0 F12000 X109.566 Y114.928
G1 Z0.420
G11
G1 F1800 X110.019 Y115.098 E42.10484
G1 X110.583 Y115.098 E42.11632
G1 X111.147 Y115.098 E42.12779
G1 X111.711 Y115.098 E42.13926
G1 X112.251 Y115.355 E42.15074
G1 X112.525 Y115.911 E42.16339
G1 X112.525 Y116.475 E42.17601
G1 X112.525 Y117.039 E42.18863
G1 X112.525 Y117.604 E42.20124
G1 X112.712 Y118.073 E42.21391
G1 X113.133 Y118.212 E42.22332
G1 X113.697 Y118.212 E42.23273
G1 X114.261 Y118.212 E42.24214
