;FLAVOR:UltiGCode
;TIME:699
;MATERIAL:544
;MATERIAL2:0
;NOZZLE_DIAMETER:0.400000
;NOZZLE_DIAMETER2:0.400000

;Layer count: 63
;LAYER:0
M107
G0 F12000 X105.793 Y95.107 Z0.300
;TYPE:SKIRT
G1 F1200 X117.207 Y95.107 E1.36968
G1 X119.021 Y98.354 E1.81600
G1 X130.309 Y118.549 E4.59228
G1 X130.700 Y119.248 E4.68839
G1 X131.443 Y120.576 E4.87099
G1 X132.728 Y122.876 E5.18715
G1 X135.529 Y127.894 E5.87677
G1 X117.640 Y127.894 E8.02345
G1 X112.413 Y110.548 E10.19742
G1 X112.234 Y109.952 E10.27210
G1 X111.723 Y108.260 E10.48419
G1 X111.526 Y107.605 E10.56627
G1 X111.474 Y107.605 E10.57251
G1 X111.277 Y108.261 E10.65470
G1 X110.895 Y109.525 E10.81316
G1 X110.689 Y110.210 E10.89900
G1 X106.123 Y125.363 E12.79811
G1 X105.351 Y127.894 E13.11565
G1 X87.469 Y127.894 E15.26149
G1 X91.557 Y120.576 E16.26738
G1 X92.070 Y119.659 E16.39347
G1 X103.066 Y99.986 E19.09797
G1 X103.979 Y98.354 E19.32237
G1 X105.793 Y95.107 E19.76869
G10
G1 Z0.400
G0 F12000 X107.789 Y98.507
;TYPE:WALL-OUTER
G1 Z0.300
G11
G1 F1200 X115.211 Y98.507 E20.65933
G1 X129.736 Y124.494 E24.23183
G1 X120.166 Y124.494 E25.38023
G1 X114.053 Y104.205 E27.92302
G1 X108.947 Y104.205 E28.53574
G1 X102.833 Y124.494 E31.07856
G1 X93.264 Y124.494 E32.22684
G1 X107.789 Y98.507 E35.79934
G0 F12000 X107.995 Y99.107
G1 F1200 X94.116 Y123.936 E39.21271
G1 X102.420 Y123.936 E40.20919
G1 X108.546 Y103.605 E42.75725
G1 X114.453 Y103.605 E43.46609
G1 X120.580 Y123.936 E46.01419
G1 X128.884 Y123.936 E47.01067
G1 X115.005 Y99.107 E50.42405
G1 X107.995 Y99.107 E51.26525
G0 F12000 X107.849 Y99.081
;TYPE:SKIN
G1 F1200 X107.843 Y98.793 E51.28919
G1 X108.423 Y98.807 E51.34349
G1 X108.989 Y98.807 E51.39766
G1 X109.554 Y98.807 E51.45190
G1 X110.120 Y98.807 E51.50623
G1 X110.686 Y98.807 E51.56040
G1 X111.251 Y98.807 E51.61464
G1 X111.817 Y98.807 E51.66897
G1 X112.383 Y98.807 E51.72314
G1 X112.949 Y98.807 E51.77731
G1 X113.514 Y98.807 E51.83155
G1 X114.080 Y98.807 E51.88588
G1 X114.523 Y98.967 E51.94240
G0 F12000 X114.769 Y98.647
G1 F1200 X115.580 Y99.458 E52.08004
G10
G1 Z0.400
G0 F12000 X107.646 Y99.443
G1 Z0.300
G11
G1 F1200 X107.402 Y99.482 E52.10398
G1 X107.270 Y99.916 E52.12793
G1 X107.068 Y100.279 E52.15186
G1 X106.865 Y100.642 E52.17582
G1 X106.662 Y101.005 E52.19977
G1 X106.459 Y101.368 E52.22373
G1 X106.256 Y101.731 E52.24768
G1 X106.054 Y102.094 E52.27161
G1 X105.851 Y102.456 E52.29539
G1 X105.648 Y102.819 E52.31935
G1 X105.445 Y103.182 E52.34331
G1 X105.242 Y103.545 E52.36726
G1 X105.040 Y103.908 E52.39119
G1 X104.837 Y104.271 E52.41515
G1 X104.634 Y104.634 E52.43898
G1 X104.431 Y104.996 E52.46276
G1 X104.228 Y105.360 E52.48689
G1 X104.025 Y105.722 E52.51080
G1 X103.823 Y106.085 E52.53472
G1 X103.620 Y106.448 E52.55868
G1 X103.417 Y106.811 E52.58251
G1 X103.214 Y107.174 E52.60634
G1 X103.011 Y107.537 E52.63030
G1 X102.809 Y107.900 E52.65423
G1 X102.606 Y108.263 E52.67806
G1 X102.403 Y108.625 E52.70184
G1 X102.200 Y108.988 E52.72580
G1 X101.997 Y109.351 E52.74963
G1 X101.794 Y109.713 E52.77341
G1 X101.592 Y110.077 E52.79751
G1 X101.389 Y110.440 E52.82134
G1 X101.186 Y110.802 E52.84513
G1 X100.983 Y111.165 E52.86908
G1 X100.780 Y111.528 E52.89304
G1 X100.577 Y111.891 E52.91687
G1 X100.375 Y112.255 E52.94085
G1 X100.172 Y112.618 E52.96456
G1 X100.141 Y112.869 E52.99490
G10
G1 Z0.400
G0 F12000 X105.482 Y114.250
G1 Z0.300
G11
G1 F1200 X105.529 Y114.580 E53.03280
G1 X105.398 Y115.015 E53.07028
G1 X105.267 Y115.449 E53.10782
G1 X105.136 Y115.884 E53.14530
G1 X105.005 Y116.319 E53.18278
G1 X104.874 Y116.753 E53.22032
G1 X104.743 Y117.188 E53.25779
G1 X104.612 Y117.623 E53.29514
G1 X104.482 Y118.058 E53.33259
G1 X104.350 Y118.492 E53.37002
G1 X104.219 Y118.927 E53.40750
G1 X104.088 Y119.362 E53.44498
G1 X103.958 Y119.797 E53.48243
G1 X103.827 Y120.231 E53.51983
G1 X103.695 Y120.666 E53.55734
G1 X103.564 Y121.101 E53.59482
G1 X103.434 Y121.536 E53.63227
G1 X103.303 Y121.970 E53.66981
G1 X103.171 Y122.405 E53.70731
G1 X103.040 Y122.839 E53.74485
G1 X102.910 Y123.274 E53.78230
G1 X102.779 Y123.709 E53.81978
G1 X102.699 Y124.195 E53.85732
G1 X102.152 Y124.214 E53.90444
G1 X101.586 Y124.214 E53.95148
G1 X101.021 Y124.214 E53.99843
G1 X100.455 Y124.214 E54.04546
G1 X100.033 Y124.075 E54.09878
G10
G1 Z0.400
G0 F12000 X118.873 Y119.721
G1 Z0.300
G11
G1 F1200 X119.202 Y120.333 E54.16903
G1 X119.446 Y121.143 E54.23932
G1 X119.690 Y121.953 E54.30962
G1 X119.934 Y122.762 E54.38010
G1 X120.264 Y123.375 E54.46364
G0 F12000 X120.092 Y123.769
G1 F1200 X120.676 Y124.353 E54.56274
G0 F12000 X120.964 Y124.076
G1 F1200 X121.385 Y124.214 E54.60966
G1 X121.951 Y124.214 E54.65653
G1 X122.517 Y124.214 E54.70339
G1 X123.082 Y124.214 E54.75017
G1 X123.648 Y124.214 E54.79704
G1 X124.214 Y124.214 E54.84390
G1 X124.780 Y124.214 E54.89094
G1 X125.346 Y124.214 E54.93797
G1 X125.911 Y124.214 E54.98492
G1 X126.477 Y124.214 E55.03196
G1 X127.043 Y124.214 E55.07899
G1 X127.608 Y124.214 E55.12595
G1 X128.174 Y124.214 E55.17298
G1 X128.740 Y124.214 E55.22001
G1 X129.180 Y124.089 E55.26708
G1 X128.705 Y123.331 E55.37443
G0 F12000 X128.483 Y122.543
G1 F1200 X127.988 Y122.048 E55.45843
G0 F12000 X127.766 Y121.261
G1 F1200 X127.271 Y120.766 E55.54243
G0 F12000 X127.049 Y119.978
G1 F1200 X126.554 Y119.483 E55.62644
G0 F12000 X126.332 Y118.695
G1 F1200 X125.837 Y118.200 E55.71044
G0 F12000 X125.616 Y117.413
G1 F1200 X125.120 Y116.917 E55.79462
G0 F12000 X124.899 Y116.130
G1 F1200 X124.403 Y115.635 E55.87871
G0 F12000 X124.182 Y114.848
G1 F1200 X123.686 Y114.352 E55.96288
G0 F12000 X123.465 Y113.566
G1 F1200 X122.969 Y113.069 E56.04714
G0 F12000 X122.748 Y112.283
G1 F1200 X122.252 Y111.787 E56.13131
G0 F12000 X122.031 Y111.000
G1 F1200 X121.535 Y110.504 E56.21549
G0 F12000 X121.314 Y109.718
G1 F1200 X120.818 Y109.221 E56.29975
G0 F12000 X120.598 Y108.436
G1 F1200 X120.101 Y107.939 E56.38409
G0 F12000 X119.881 Y107.153
G1 F1200 X119.384 Y106.656 E56.46843
G0 F12000 X119.164 Y105.870
G1 F1200 X118.667 Y105.373 E56.55278
G0 F12000 X118.448 Y104.588
G1 F1200 X117.950 Y104.091 E56.63721
G0 F12000 X117.731 Y103.306
G1 F1200 X117.233 Y102.808 E56.72172
G0 F12000 X117.014 Y102.023
G1 F1200 X116.516 Y101.525 E56.80623
G0 F12000 X116.297 Y100.740
G1 F1200 X115.799 Y100.242 E56.89075
G10
G1 Z0.400
G0 F12000 X114.210 Y103.745
G1 Z0.300
G11
G1 F1200 X114.324 Y104.141 E56.92425
G1 X114.568 Y104.951 E56.99429
G1 X114.812 Y105.761 E57.06434
G1 X115.056 Y106.570 E57.13430
G1 X115.299 Y107.380 E57.20432
G1 X115.543 Y108.189 E57.27429
G1 X115.787 Y108.999 E57.34434
G1 X116.031 Y109.808 E57.41455
G1 X116.275 Y110.618 E57.48485
G1 X116.519 Y111.427 E57.55507
G1 X116.763 Y112.237 E57.62537
G1 X117.007 Y113.047 E57.69542
G1 X117.251 Y113.856 E57.76564
G1 X117.495 Y114.666 E57.83593
G1 X117.739 Y115.476 E57.90598
G1 X117.983 Y116.285 E57.97620
G1 X118.226 Y117.095 E58.04647
G1 X118.470 Y117.905 E58.11677
G1 X118.714 Y118.714 E58.18699
G1 X119.044 Y119.327 E58.27053
G10
G1 Z0.400
G0 F12000 X105.836 Y114.039
G1 Z0.300
G11
G1 F1200 X105.790 Y113.709 E58.30842
G1 X105.921 Y113.275 E58.34622
G1 X106.052 Y112.840 E58.38398
G1 X106.184 Y112.407 E58.42132
G1 X106.315 Y111.972 E58.45867
G1 X106.446 Y111.537 E58.49601
G1 X106.577 Y111.102 E58.53335
G1 X106.708 Y110.667 E58.57069
G1 X106.838 Y110.232 E58.60815
G1 X106.969 Y109.798 E58.64569
G1 X107.100 Y109.363 E58.68317
G1 X107.231 Y108.928 E58.72065
G1 X107.362 Y108.493 E58.75813
G1 X107.493 Y108.059 E58.79553
G1 X107.624 Y107.624 E58.83301
G1 X107.755 Y107.189 E58.87049
G1 X107.886 Y106.754 E58.90796
G1 X108.016 Y106.319 E58.94542
G1 X108.147 Y105.884 E58.98290
G1 X108.279 Y105.450 E59.02046
G1 X108.409 Y105.015 E59.05805
G1 X108.540 Y104.581 E59.09559
G1 X108.683 Y104.158 E59.13336
G1 X108.872 Y103.781 E59.17537
G1 X109.561 Y103.904 E59.22954
G1 X110.127 Y103.904 E59.28354
G1 X110.693 Y103.904 E59.33753
G1 X111.258 Y103.904 E59.39160
G1 X111.824 Y103.904 E59.44560
G1 X112.390 Y103.904 E59.49960
G1 X112.956 Y103.904 E59.55359
G1 X113.521 Y103.904 E59.60766
G1 X113.964 Y104.064 E59.66418
G10
G1 Z0.400
G0 F12000 X99.938 Y113.232
G1 Z0.300
G11
G1 F1200 X99.696 Y113.272 E59.68795
G1 X99.563 Y113.706 E59.71165
G1 X99.361 Y114.069 E59.73545
G1 X99.158 Y114.432 E59.75928
G1 X98.955 Y114.795 E59.78299
G1 X98.752 Y115.157 E59.80652
G1 X98.550 Y115.520 E59.83020
G1 X98.347 Y115.883 E59.85403
G1 X98.144 Y116.246 E59.87786
G1 X97.941 Y116.608 E59.90152
G1 X97.738 Y116.972 E59.92528
G1 X97.536 Y117.335 E59.94908
G1 X97.333 Y117.697 E59.97274
G1 X97.130 Y118.060 E59.99657
G1 X96.927 Y118.423 E60.02040
G1 X96.724 Y118.786 E60.04423
G1 X96.522 Y119.149 E60.06816
G1 X96.319 Y119.512 E60.09199
G1 X96.116 Y119.875 E60.11582
G1 X95.913 Y120.237 E60.13948
G1 X95.710 Y120.600 E60.16331
G1 X95.507 Y120.963 E60.18714
G1 X95.304 Y121.326 E60.21110
G1 X95.102 Y121.689 E60.23503
G1 X94.899 Y122.052 E60.25886
G1 X94.696 Y122.415 E60.28269
G1 X94.493 Y122.777 E60.30635
G1 X94.290 Y123.140 E60.33018
G1 X94.087 Y123.503 E60.35401
G1 X93.884 Y123.866 E60.37796
G1 X94.232 Y124.214 E60.44175
G1 X94.798 Y124.214 E60.48878
G1 X95.364 Y124.214 E60.53582
G1 X95.929 Y124.214 E60.58294
G1 X96.495 Y124.214 E60.62997
G1 X97.061 Y124.214 E60.67701
G1 X97.626 Y124.214 E60.72413
G1 X98.192 Y124.214 E60.77116
G1 X98.758 Y124.214 E60.81820
G1 X99.324 Y124.214 E60.86523
G1 X99.745 Y124.353 E60.91843
;LAYER:1
M106 S2
G0 F12000 X99.745 Y124.195 Z0.360
G0 X102.686 Y124.295
G0 X102.704 Y124.022
G0 X102.419 Y123.935
;TYPE:WALL-OUTER
G1 F1620 X108.546 Y103.604 E61.42678
G1 X114.454 Y103.604 E61.56822
G1 X120.581 Y123.935 E62.07656
G1 X128.882 Y123.935 E62.27529
G1 X115.005 Y99.108 E62.95619
G1 X107.995 Y99.108 E63.12401
G1 X94.118 Y123.935 E63.80491
G1 X102.419 Y123.935 E64.00364
G0 F12000 X102.834 Y124.495
G1 F1620 X93.261 Y124.495 E64.23282
G1 X107.788 Y98.506 E64.94560
G1 X115.212 Y98.506 E65.12333
G1 X129.739 Y124.495 E65.83610
G1 X120.166 Y124.495 E66.06528
G1 X114.052 Y104.206 E66.57257
G1 X108.948 Y104.206 E66.69476
G1 X102.834 Y124.495 E67.20206
G0 F12000 X102.481 Y124.073
;TYPE:SKIN
G1 F1620 X102.058 Y124.213 E67.21155
G1 X101.494 Y124.213 E67.22102
G1 X100.930 Y124.213 E67.23050
G1 X100.366 Y124.213 E67.23997
G1 X99.801 Y124.213 E67.24947
G1 X99.237 Y124.213 E67.25894
G1 X98.673 Y124.213 E67.26842
G1 X98.109 Y124.213 E67.27789
G1 X97.544 Y124.213 E67.28738
G1 X96.980 Y124.213 E67.29686
G1 X96.416 Y124.213 E67.30633
G1 X95.851 Y124.213 E67.31583
G1 X95.287 Y124.213 E67.32530
G1 X94.723 Y124.213 E67.33478
G1 X94.159 Y124.213 E67.34425
G1 X93.824 Y123.983 E67.35376
G1 X94.420 Y123.106 E67.37915
G0 F12000 X94.629 Y122.333
G1 F1620 X95.135 Y121.827 E67.39628
G0 F12000 X95.344 Y121.054
G1 F1620 X95.850 Y120.548 E67.41341
G0 F12000 X96.059 Y119.774
G1 F1620 X96.565 Y119.269 E67.43052
G0 F12000 X96.774 Y118.495
G1 F1620 X97.280 Y117.989 E67.44765
G0 F12000 X97.490 Y117.215
G1 F1620 X97.995 Y116.710 E67.46475
G0 F12000 X98.205 Y115.936
G1 F1620 X98.710 Y115.430 E67.48187
G0 F12000 X98.920 Y114.656
G1 F1620 X99.425 Y114.151 E67.49896
G0 F12000 X99.635 Y113.377
G1 F1620 X100.140 Y112.872 E67.51606
G0 F12000 X100.351 Y112.097
G1 F1620 X100.855 Y111.593 E67.53312
G0 F12000 X101.063 Y110.821
G1 F1620 X101.570 Y110.314 E67.55029
G0 F12000 X101.778 Y109.542
G1 F1620 X102.285 Y109.035 E67.56745
G0 F12000 X102.493 Y108.262
G1 F1620 X103.000 Y107.756 E67.58460
G0 F12000 X103.208 Y106.983
G1 F1620 X103.714 Y106.476 E67.60175
G0 F12000 X103.924 Y105.703
G1 F1620 X104.430 Y105.196 E67.61890
G0 F12000 X104.639 Y104.424
G1 F1620 X105.145 Y103.917 E67.63605
G0 F12000 X105.354 Y103.144
G1 F1620 X105.860 Y102.638 E67.65318
G0 F12000 X106.069 Y101.865
G1 F1620 X106.575 Y101.359 E67.67031
G0 F12000 X106.785 Y100.585
G1 F1620 X107.290 Y100.080 E67.68741
G10
G1 Z0.460
G0 F12000 X108.704 Y103.743
G1 Z0.360
G11
G1 F1620 X108.786 Y103.944 E67.69006
G1 X109.390 Y103.904 E67.70096
G1 X109.954 Y103.904 E67.71186
G1 X110.518 Y103.904 E67.72275
G1 X111.082 Y103.904 E67.73365
G1 X111.647 Y103.904 E67.74456
G1 X112.211 Y103.904 E67.75546
G1 X112.775 Y103.904 E67.76636
G1 X113.339 Y103.904 E67.77725
G1 X113.904 Y103.904 E67.78817
G1 X114.413 Y103.959 E67.79911
G1 X114.433 Y104.504 E67.80660
G1 X114.563 Y104.938 E67.81407
G1 X114.694 Y105.371 E67.82157
G1 X114.824 Y105.805 E67.82904
G1 X114.955 Y106.238 E67.83656
G1 X115.086 Y106.672 E67.84409
G1 X115.216 Y107.106 E67.85160
G1 X115.347 Y107.539 E67.85912
G1 X115.478 Y107.973 E67.86665
G1 X115.608 Y108.406 E67.87416
G1 X115.739 Y108.840 E67.88167
G1 X115.870 Y109.274 E67.88921
G1 X116.000 Y109.707 E67.89675
G1 X116.131 Y110.141 E67.90428
G1 X116.262 Y110.575 E67.91182
G1 X116.392 Y111.009 E67.91937
G1 X116.523 Y111.442 E67.92692
G1 X116.653 Y111.876 E67.93447
G1 X116.785 Y112.308 E67.94196
G1 X116.915 Y112.742 E67.94943
G1 X117.046 Y113.176 E67.95691
G1 X117.177 Y113.609 E67.96440
G1 X117.308 Y114.043 E67.97188
G1 X117.438 Y114.477 E67.97936
G1 X117.569 Y114.910 E67.98685
G1 X117.699 Y115.345 E67.99439
G1 X117.830 Y115.778 E68.00194
G1 X117.960 Y116.211 E68.00948
G1 X118.091 Y116.646 E68.01703
G1 X118.222 Y117.078 E68.02453
G1 X118.352 Y117.513 E68.03208
G1 X118.483 Y117.946 E68.03963
G1 X118.614 Y118.379 E68.04717
G1 X118.744 Y118.813 E68.05470
G1 X118.875 Y119.246 E68.06219
G1 X119.007 Y119.679 E68.06966
G1 X119.137 Y120.113 E68.07716
G1 X119.267 Y120.547 E68.08472
G1 X119.398 Y120.981 E68.09226
G1 X119.529 Y121.414 E68.09977
G1 X119.659 Y121.848 E68.10733
G1 X119.791 Y122.281 E68.11483
G1 X119.921 Y122.715 E68.12230
G1 X119.876 Y123.042 E68.13021
G10
G1 Z0.460
G0 F12000 X103.931 Y120.366
G1 Z0.360
G11
G1 F1620 X103.602 Y120.978 E68.14425
G1 X103.357 Y121.786 E68.15829
G1 X103.114 Y122.594 E68.17226
G1 X102.871 Y123.401 E68.18622
G1 X102.542 Y124.013 E68.20285
G0 F12000 X102.693 Y124.059
G0 X103.910 Y120.021
G0 X103.759 Y119.974
G1 F1620 X104.087 Y119.364 E68.21681
G1 X104.332 Y118.554 E68.23088
G1 X104.575 Y117.747 E68.24499
G1 X104.818 Y116.940 E68.25904
G1 X105.062 Y116.132 E68.27307
G1 X105.305 Y115.324 E68.28715
G1 X105.547 Y114.518 E68.30113
G1 X105.791 Y113.710 E68.31511
G1 X106.034 Y112.903 E68.32907
G1 X106.277 Y112.095 E68.34304
G1 X106.522 Y111.285 E68.35710
G1 X106.766 Y110.478 E68.37117
G1 X107.009 Y109.671 E68.38522
G1 X107.252 Y108.863 E68.39925
G1 X107.495 Y108.056 E68.41325
G1 X107.738 Y107.249 E68.42726
G1 X107.981 Y106.441 E68.44128
G1 X108.224 Y105.634 E68.45529
G1 X108.468 Y104.826 E68.46927
G1 X108.796 Y104.216 E68.48585
G10
G1 Z0.460
G0 F12000 X115.926 Y100.472
G1 Z0.360
G11
G1 F1620 X115.896 Y100.219 E68.49069
G1 X115.694 Y99.857 E68.49552
G1 X115.491 Y99.495 E68.50033
G1 X115.289 Y99.133 E68.50513
G1 X115.095 Y98.763 E68.50991
G1 X114.488 Y98.806 E68.52083
G1 X113.924 Y98.806 E68.53173
G1 X113.359 Y98.806 E68.54264
G1 X112.795 Y98.806 E68.55354
G1 X112.231 Y98.806 E68.56444
G1 X111.666 Y98.806 E68.57535
G1 X111.102 Y98.806 E68.58625
G1 X110.538 Y98.806 E68.59715
G1 X109.974 Y98.806 E68.60804
G1 X109.409 Y98.806 E68.61896
G1 X108.845 Y98.806 E68.62985
G1 X108.402 Y98.968 E68.64115
G0 F12000 X108.160 Y98.645
G1 F1620 X107.500 Y99.306 E68.66351
G10
G1 Z0.460
G0 F12000 X116.129 Y100.833
G1 Z0.360
G11
G1 F1620 X116.372 Y100.872 E68.66829
G1 X116.503 Y101.305 E68.67307
G1 X116.706 Y101.666 E68.67784
G1 X116.908 Y102.028 E68.68267
G1 X117.110 Y102.390 E68.68749
G1 X117.312 Y102.752 E68.69232
G1 X117.515 Y103.114 E68.69715
G1 X117.717 Y103.476 E68.70197
G1 X117.920 Y103.838 E68.70680
G1 X118.122 Y104.200 E68.71163
G1 X118.324 Y104.562 E68.71645
G1 X118.526 Y104.924 E68.72128
G1 X118.729 Y105.286 E68.72609
G1 X118.931 Y105.648 E68.73091
G1 X119.134 Y106.010 E68.73574
