;FLAVOR:UltiGCode
;TIME:223
;MATERIAL:180
;MATERIAL2:0
;NOZZLE_DIAMETER:0.400000
;NOZZLE_DIAMETER2:0.400000

;Layer count: 33
;LAYER:0
M106 S255
G0 F12000 X107.055 Y99.346 Z0.300
;TYPE:SKIRT
G1 F1200 X115.945 Y99.346 E1.06680
G1 X122.438 Y120.935 E3.77211
G1 X109.130 Y120.935 E5.36907
G1 X100.564 Y120.932 E6.39699
G1 X107.055 Y99.346 E9.10189
G0 F12000 X107.352 Y99.746
G1 F1200 X115.648 Y99.746 E10.09741
G1 X121.900 Y120.535 E12.70246
G1 X109.130 Y120.535 E14.23486
G1 X101.102 Y120.532 E15.19822
G1 X107.352 Y99.746 E17.80286
G0 F12000 X107.650 Y100.146
G1 F1200 X115.350 Y100.146 E18.72686
G1 X121.362 Y120.135 E21.23168
G1 X109.130 Y120.135 E22.69952
G1 X101.640 Y120.133 E23.59832
G1 X107.650 Y100.146 E26.10285
G10
G1 Z0.400
G0 F12000 X110.773 Y104.346
;TYPE:WALL-INNER
G1 Z0.300
G11
G1 F1200 X112.227 Y104.346 E26.27733
G1 X115.713 Y115.935 E27.72956
G1 X107.288 Y115.934 E28.74056
G1 X110.773 Y104.346 E30.19264
G0 F12000 X110.476 Y103.946
G1 F1200 X112.524 Y103.946 E30.43840
G1 X116.250 Y116.335 E31.99086
G1 X106.750 Y116.334 E33.13086
G1 X110.476 Y103.946 E34.68321
G0 F12000 X110.178 Y103.546
;TYPE:WALL-OUTER
G1 F1200 X112.822 Y103.546 E35.00049
G1 X116.788 Y116.735 E36.65318
G1 X106.213 Y116.734 E37.92218
G1 X110.178 Y103.546 E39.57472
G0 F12000 X110.991 Y104.485
;TYPE:SKIN
G1 F1200 X112.609 Y106.104 E39.84938
G0 F12000 X112.852 Y106.913
G1 F1200 X110.771 Y104.832 E40.20254
G0 F12000 X110.640 Y105.266
G1 F1200 X113.096 Y107.722 E40.61934
G0 F12000 X113.339 Y108.530
G1 F1200 X110.510 Y105.701 E41.09944
G0 F12000 X110.379 Y106.136
G1 F1200 X113.583 Y109.340 E41.64317
G0 F12000 X113.826 Y110.149
G1 F1200 X110.248 Y106.571 E42.25038
G0 F12000 X110.117 Y107.006
G1 F1200 X114.069 Y110.958 E42.92106
G0 F12000 X114.313 Y111.767
G1 F1200 X109.986 Y107.441 E43.65529
G0 F12000 X109.856 Y107.876
G1 F1200 X114.556 Y112.576 E44.45290
G0 F12000 X114.800 Y113.385
G1 F1200 X109.726 Y108.311 E45.31399
G0 F12000 X109.595 Y108.746
G1 F1200 X115.043 Y114.194 E46.23855
G0 F12000 X115.286 Y115.003
G1 F1200 X109.464 Y109.181 E47.22657
G0 F12000 X109.333 Y109.616
G1 F1200 X115.510 Y115.793 E48.27484
G0 F12000 X114.945 Y115.793
G1 F1200 X109.202 Y110.051 E49.24938
G0 F12000 X109.071 Y110.486
G1 F1200 X114.379 Y115.793 E50.15009
G0 F12000 X113.813 Y115.793
G1 F1200 X108.941 Y110.921 E50.97690
G0 F12000 X108.810 Y111.355
G1 F1200 X113.248 Y115.793 E51.73005
G0 F12000 X112.682 Y115.793
G1 F1200 X108.679 Y111.790 E52.40938
G0 F12000 X108.548 Y112.225
G1 F1200 X112.116 Y115.793 E53.01489
G0 F12000 X111.551 Y115.793
G1 F1200 X108.417 Y112.660 E53.54666
G0 F12000 X108.287 Y113.095
G1 F1200 X110.985 Y115.793 E54.00453
G0 F12000 X110.419 Y115.793
G1 F1200 X108.156 Y113.530 E54.38857
G0 F12000 X108.026 Y113.965
G1 F1200 X109.853 Y115.793 E54.69871
G0 F12000 X109.288 Y115.793
G1 F1200 X107.895 Y114.400 E54.93511
G0 F12000 X107.764 Y114.835
G1 F1200 X108.722 Y115.793 E55.09769
G0 F12000 X108.156 Y115.793
G1 F1200 X107.567 Y115.487 E55.18630
G1 X107.591 Y115.793 E55.22313
G0 F12000 X112.366 Y105.295
G1 F1200 X111.556 Y104.485 E55.36059
;LAYER:1
G0 F12000 X112.230 Y104.343 Z0.400
;TYPE:WALL-INNER
G1 F1260 X115.826 Y116.301 E55.85882
G1 X107.175 Y116.300 E56.20400
G1 X110.771 Y104.343 E56.70219
G1 X112.230 Y104.343 E56.76041
G0 F12000 X112.526 Y103.944
G1 F1260 X116.362 Y116.700 E57.29189
G1 X106.639 Y116.699 E57.67983
G1 X110.474 Y103.944 E58.21126
G1 X112.526 Y103.944 E58.29314
G0 F12000 X112.823 Y103.545
;TYPE:WALL-OUTER
G1 F1260 X116.899 Y117.099 E58.85787
G1 X106.102 Y117.098 E59.28867
G1 X110.177 Y103.545 E59.85335
G1 X112.823 Y103.545 E59.95892
G0 F12000 X111.915 Y104.482
;TYPE:SKIN
G1 F1260 X110.427 Y105.971 E60.04291
G0 F12000 X110.669 Y105.164
G1 F1260 X111.351 Y104.482 E60.08140
G0 F12000 X112.207 Y104.755
G1 F1260 X110.184 Y106.778 E60.19555
G0 F12000 X109.942 Y107.584
G1 F1260 X112.337 Y105.189 E60.33069
G0 F12000 X112.468 Y105.623
G1 F1260 X109.699 Y108.391 E60.48691
G0 F12000 X109.457 Y109.198
G1 F1260 X112.598 Y106.057 E60.66415
G0 F12000 X112.729 Y106.490
G1 F1260 X109.214 Y110.005 E60.86249
G0 F12000 X108.972 Y110.812
G1 F1260 X112.859 Y106.925 E61.08182
G0 F12000 X112.990 Y107.358
G1 F1260 X108.729 Y111.618 E61.32223
G0 F12000 X108.487 Y112.425
G1 F1260 X113.120 Y107.792 E61.58366
G0 F12000 X113.250 Y108.226
G1 F1260 X108.244 Y113.232 E61.86613
G0 F12000 X108.001 Y114.040
G1 F1260 X113.381 Y108.660 E62.16971
G0 F12000 X113.511 Y109.094
G1 F1260 X107.758 Y114.846 E62.49431
G0 F12000 X107.516 Y115.653
G1 F1260 X113.641 Y109.528 E62.83992
G0 F12000 X113.772 Y109.962
G1 F1260 X107.574 Y116.159 E63.18963
G0 F12000 X108.138 Y116.159
G1 F1260 X113.902 Y110.395 E63.51488
G0 F12000 X114.032 Y110.829
G1 F1260 X108.702 Y116.159 E63.81563
G0 F12000 X109.267 Y116.159
G1 F1260 X114.163 Y111.263 E64.09190
G0 F12000 X114.293 Y111.697
G1 F1260 X109.831 Y116.159 E64.34368
G0 F12000 X110.395 Y116.159
G1 F1260 X114.424 Y112.130 E64.57102
G0 F12000 X114.554 Y112.565
G1 F1260 X110.959 Y116.159 E64.77385
G0 F12000 X111.524 Y116.159
G1 F1260 X114.685 Y112.998 E64.95222
G0 F12000 X114.815 Y113.432
G1 F1260 X112.088 Y116.159 E65.10609
G0 F12000 X112.652 Y116.159
G1 F1260 X114.946 Y113.866 E65.23551
G0 F12000 X115.076 Y114.300
G1 F1260 X113.216 Y116.159 E65.34043
G0 F12000 X113.781 Y116.159
G1 F1260 X115.207 Y114.733 E65.42090
G0 F12000 X115.337 Y115.167
G1 F1260 X114.345 Y116.159 E65.47687
G0 F12000 X114.909 Y116.159
G1 F1260 X115.533 Y115.818 E65.50831
G1 X115.474 Y116.159 E65.52211
;LAYER:2
G0 F12000 X115.935 Y116.664 Z0.500
;TYPE:WALL-INNER
G1 F1320 X107.066 Y116.663 E65.87599
G1 X110.771 Y104.343 E66.38930
G1 X112.230 Y104.343 E66.44752
G1 X115.935 Y116.664 E66.96087
G0 F12000 X116.471 Y117.063
G1 F1320 X106.530 Y117.062 E67.35752
G1 X110.474 Y103.944 E67.90407
G1 X112.526 Y103.944 E67.98594
G1 X116.471 Y117.063 E68.53255
G0 F12000 X117.008 Y117.462
;TYPE:WALL-OUTER
G1 F1320 X105.993 Y117.461 E68.97204
G1 X110.177 Y103.545 E69.55185
G1 X112.823 Y103.545 E69.65742
G1 X117.008 Y117.462 E70.23727
G10
G1 Z0.600
G0 F12000 X115.675 Y116.522
;TYPE:SKIN
G1 Z0.500
G11
G1 F1320 X109.200 Y110.047 E70.60264
G0 F12000 X109.331 Y109.614
G1 F1320 X115.533 Y115.816 E70.95260
G0 F12000 X115.111 Y116.522
G1 F1320 X109.070 Y110.481 E71.29348
G0 F12000 X108.939 Y110.915
G1 F1320 X114.547 Y116.522 E71.60989
G0 F12000 X113.982 Y116.522
G1 F1320 X108.809 Y111.349 E71.90179
G0 F12000 X108.678 Y111.782
G1 F1320 X113.418 Y116.522 E72.16925
G0 F12000 X112.854 Y116.522
G1 F1320 X108.548 Y112.217 E72.41220
G0 F12000 X108.417 Y112.650
G1 F1320 X112.289 Y116.522 E72.63069
G0 F12000 X111.725 Y116.522
G1 F1320 X108.287 Y113.084 E72.82468
G0 F12000 X108.156 Y113.518
G1 F1320 X111.160 Y116.522 E72.99419
G0 F12000 X110.596 Y116.522
G1 F1320 X108.026 Y113.952 E73.13921
G0 F12000 X107.896 Y114.386
G1 F1320 X110.032 Y116.522 E73.25974
G0 F12000 X109.467 Y116.522
G1 F1320 X107.765 Y114.819 E73.35580
G0 F12000 X107.635 Y115.254
G1 F1320 X108.903 Y116.522 E73.42735
G0 F12000 X108.339 Y116.522
G1 F1320 X107.504 Y115.687 E73.47447
G0 F12000 X107.374 Y116.121
G1 F1320 X107.775 Y116.522 E73.49710
G0 F12000 X109.461 Y109.180
G1 F1320 X115.290 Y115.008 E73.82598
G0 F12000 X115.047 Y114.201
G1 F1320 X109.592 Y108.746 E74.13379
G0 F12000 X109.722 Y108.312
G1 F1320 X114.805 Y113.395 E74.42061
G0 F12000 X114.562 Y112.588
G1 F1320 X109.853 Y107.879 E74.68633
G0 F12000 X109.983 Y107.444
G1 F1320 X114.320 Y111.781 E74.93105
G0 F12000 X114.077 Y110.974
G1 F1320 X110.114 Y107.011 E75.15467
G0 F12000 X110.244 Y106.577
G1 F1320 X113.834 Y110.167 E75.35724
G0 F12000 X113.592 Y109.361
G1 F1320 X110.375 Y106.143 E75.53880
G0 F12000 X110.505 Y105.709
G1 F1320 X113.349 Y108.554 E75.69931
G0 F12000 X113.106 Y107.746
G1 F1320 X110.635 Y105.275 E75.83874
G0 F12000 X110.766 Y104.842
G1 F1320 X112.864 Y106.940 E75.95712
G0 F12000 X112.621 Y106.133
G1 F1320 X110.971 Y104.483 E76.05023
G0 F12000 X111.536 Y104.483
G1 F1320 X112.379 Y105.326 E76.09779
;LAYER:3
G10
G1 Z0.600
G0 F12000 X116.396 Y116.808 Z0.600
;TYPE:WALL-INNER
G1 Z0.600
G11
G1 F1380 X116.581 Y117.425 E76.12350
G1 X106.420 Y117.424 E76.52892
G1 X106.605 Y116.807 E76.55462
G1 X116.396 Y116.808 E76.94528
G0 F12000 X116.608 Y116.409
;TYPE:WALL-OUTER
G1 F1380 X112.769 Y103.647 E77.47702
G1 X110.231 Y103.647 E77.57829
G1 X106.393 Y116.408 E78.10999
G1 X116.608 Y116.409 E78.51756
G10
G1 Z0.700
G0 F12000 X117.118 Y117.824
G1 Z0.600
G11
G1 F1380 X105.883 Y117.823 E78.96584
G1 X110.177 Y103.545 E79.56074
G1 X112.823 Y103.545 E79.66631
G1 X117.118 Y117.824 E80.26126
G0 F12000 X116.311 Y117.014
;TYPE:SKIN
G1 F1380 X115.929 Y117.115 E80.27643
G1 X115.365 Y117.115 E80.29550
G1 X114.800 Y117.115 E80.31454
G1 X114.236 Y117.115 E80.33360
G1 X113.672 Y117.115 E80.35266
G1 X113.107 Y117.115 E80.37170
G1 X112.543 Y117.115 E80.39077
G1 X111.979 Y117.115 E80.40983
G1 X111.415 Y117.115 E80.42889
G1 X110.850 Y117.115 E80.44793
G1 X110.286 Y117.115 E80.46700
G1 X109.722 Y117.115 E80.48606
G1 X109.158 Y117.115 E80.50512
G1 X108.593 Y117.115 E80.52416
G1 X108.029 Y117.115 E80.54323
G1 X107.465 Y117.115 E80.56229
G1 X106.900 Y117.115 E80.58133
G1 X106.675 Y117.058 E80.59059
;LAYER:4
G0 F12000 X106.496 Y117.170 Z0.700
;TYPE:WALL-INNER
G1 F1380 X116.505 Y117.171 E80.98995
G1 X116.690 Y117.788 E81.01565
G1 X106.311 Y117.787 E81.42977
G1 X106.496 Y117.170 E81.45548
G0 F12000 X106.285 Y116.771
;TYPE:WALL-OUTER
G1 F1380 X116.717 Y116.772 E81.87171
G1 X112.769 Y103.647 E82.41858
G1 X110.231 Y103.647 E82.51985
G1 X106.285 Y116.771 E83.06665
G10
G1 Z0.800
G0 F12000 X105.774 Y118.186
G1 Z0.700
G11
G1 F1380 X110.177 Y103.545 E83.67667
G1 X112.823 Y103.545 E83.78225
G1 X117.227 Y118.187 E84.39232
G1 X105.774 Y118.186 E84.84929
G0 F12000 X106.532 Y117.535
;TYPE:SKIN
G1 F1380 X106.756 Y117.478 E84.85551
G1 X107.320 Y117.478 E84.87446
G1 X107.884 Y117.478 E84.89341
G1 X108.449 Y117.478 E84.91234
G1 X109.013 Y117.478 E84.93129
G1 X109.577 Y117.478 E84.95024
G1 X110.141 Y117.478 E84.96913
G1 X110.706 Y117.478 E84.98806
G1 X111.270 Y117.478 E85.00701
G1 X111.835 Y117.478 E85.02599
G1 X112.399 Y117.478 E85.04494
G1 X112.963 Y117.478 E85.06389
G1 X113.527 Y117.478 E85.08284
G1 X114.092 Y117.478 E85.10183
G1 X114.656 Y117.478 E85.12078
G1 X115.220 Y117.478 E85.13973
G1 X115.785 Y117.478 E85.15871
G1 X116.235 Y117.647 E85.17789
;LAYER:5
G0 F12000 X116.614 Y117.534 Z0.800
;TYPE:WALL-INNER
G1 F1380 X116.799 Y118.151 E85.20359
G1 X106.202 Y118.150 E85.62641
G1 X106.387 Y117.533 E85.65212
G1 X116.614 Y117.534 E86.06017
G0 F12000 X116.826 Y117.135
;TYPE:WALL-OUTER
G1 F1380 X112.769 Y103.647 E86.62216
G1 X110.231 Y103.647 E86.72343
G1 X106.175 Y117.134 E87.28537
G1 X116.826 Y117.135 E87.71034
G10
G1 Z0.900
G0 F12000 X117.336 Y118.550
G1 Z0.800
G11
G1 F1380 X105.665 Y118.549 E88.17601
G1 X110.177 Y103.545 E88.80116
G1 X112.823 Y103.545 E88.90673
G1 X117.336 Y118.550 E89.53193
G0 F12000 X116.572 Y117.883
;TYPE:SKIN
G1 F1380 X116.330 Y117.841 E89.53912
G1 X115.766 Y117.841 E89.55807
G1 X115.202 Y117.841 E89.57702
G1 X114.638 Y117.841 E89.59597
G1 X114.073 Y117.841 E89.61496
G1 X113.509 Y117.841 E89.63391
G1 X112.946 Y117.841 E89.65288
G1 X112.381 Y117.841 E89.67192
G1 X111.817 Y117.841 E89.69098
G1 X111.253 Y117.840 E89.70994
G1 X110.688 Y117.840 E89.72892
G1 X110.124 Y117.840 E89.74787
G1 X109.561 Y117.840 E89.76684
G1 X108.996 Y117.840 E89.78588
G1 X108.432 Y117.840 E89.80495
G1 X107.868 Y117.840 E89.82401
G1 X107.304 Y117.840 E89.84307
G1 X106.739 Y117.840 E89.86211
G1 X106.434 Y117.864 E89.87432
;LAYER:6
G0 F12000 X106.278 Y117.896 Z0.900
;TYPE:WALL-INNER
G1 F1440 X116.723 Y117.897 E90.29108
G1 X116.908 Y118.513 E90.31674
G1 X106.093 Y118.512 E90.74826
G1 X106.278 Y117.896 E90.77392
G0 F12000 X106.066 Y117.497
;TYPE:WALL-OUTER
G1 F1440 X116.935 Y117.498 E91.20759
G1 X112.769 Y103.647 E91.78470
G1 X110.231 Y103.647 E91.88597
G1 X106.066 Y117.497 E92.46303
G10
G1 Z1.000
G0 F12000 X105.556 Y118.911
G1 Z0.900
G11
G1 F1440 X110.177 Y103.545 E93.10326
G1 X112.823 Y103.545 E93.20884
G1 X117.445 Y118.912 E93.84911
G1 X105.556 Y118.911 E94.32348
G0 F12000 X106.467 Y118.035
;TYPE:SKIN
G1 F1440 X106.916 Y118.203 E94.34237
G1 X107.481 Y118.203 E94.36130
G1 X108.045 Y118.203 E94.38019
G1 X108.609 Y118.203 E94.39909
G1 X109.174 Y118.203 E94.41796
G1 X109.738 Y118.203 E94.43685
G1 X110.302 Y118.203 E94.45575
G1 X110.866 Y118.203 E94.47464
G1 X111.431 Y118.203 E94.49351
G1 X111.995 Y118.203 E94.51241
G1 X112.560 Y118.203 E94.53133
G1 X113.124 Y118.203 E94.55028
G1 X113.688 Y118.203 E94.56923
G1 X114.253 Y118.203 E94.58816
G1 X114.817 Y118.203 E94.60711
G1 X115.381 Y118.203 E94.62606
G1 X115.945 Y118.203 E94.64501
G1 X116.396 Y118.371 E94.66422
;LAYER:7
G0 F12000 X116.832 Y118.260 Z1.000
;TYPE:WALL-INNER
G1 F1440 X117.017 Y118.876 E94.68988
G1 X105.984 Y118.875 E95.13009
G1 X106.169 Y118.259 E95.15576
G1 X116.832 Y118.260 E95.58121
G0 F12000 X117.044 Y117.861
;TYPE:WALL-OUTER
G1 F1440 X112.769 Y103.647 E96.17345
G1 X110.231 Y103.647 E96.27471
G1 X105.957 Y117.860 E96.86690
G1 X117.044 Y117.861 E97.30927
G10
G1 Z1.100
G0 F12000 X117.554 Y119.275
G1 Z1.000
G11
G1 F1440 X105.447 Y119.274 E97.79234
G1 X110.177 Y103.545 E98.44769
G1 X112.823 Y103.545 E98.55326
G1 X117.554 Y119.275 E99.20866
G0 F12000 X116.621 Y118.398
;TYPE:SKIN
G1 F1440 X116.170 Y118.566 E99.22762
G1 X115.606 Y118.566 E99.24657
G1 X115.041 Y118.566 E99.26556
G1 X114.477 Y118.566 E99.28451
G1 X113.913 Y118.566 E99.30346
G1 X113.349 Y118.566 E99.32241
G1 X112.784 Y118.566 E99.34139
G1 X112.220 Y118.566 E99.36034
G1 X111.656 Y118.566 E99.37929
G1 X111.092 Y118.566 E99.39824
G1 X110.528 Y118.566 E99.41719
G1 X109.963 Y118.566 E99.43612
G1 X109.399 Y118.566 E99.45507
G1 X108.835 Y118.566 E99.47402
G1 X108.270 Y118.566 E99.49295
G1 X107.706 Y118.566 E99.51184
G1 X107.142 Y118.566 E99.53080
G1 X106.578 Y118.566 E99.54975
G1 X106.191 Y118.670 E99.56573
;LAYER:8
G0 F12000 X106.059 Y118.622 Z1.100
;TYPE:WALL-INNER
G1 F1440 X116.941 Y118.623 E99.99993
G1 X117.071 Y119.057 E100.01800
G1 X105.928 Y119.057 E100.46261
G1 X106.059 Y118.622 E100.48074
G0 F12000 X105.848 Y118.223
;TYPE:WALL-OUTER
G1 F1440 X117.153 Y118.224 E100.93180
G1 X112.769 Y103.647 E101.53916
G1 X110.231 Y103.647 E101.64043
G1 X105.848 Y118.223 E102.24773
G0 F12000 X105.392 Y119.456
G1 F1440 X110.177 Y103.545 E102.91067
G1 X112.823 Y103.545 E103.01625
G1 X117.608 Y119.456 E103.67918
G1 X105.392 Y119.456 E104.16660
G0 F12000 X106.140 Y118.837
;TYPE:SKIN
G1 F1440 X106.423 Y118.838 E104.17102
G1 X106.988 Y118.838 E104.17972
G1 X107.552 Y118.838 E104.18840
G1 X108.116 Y118.838 E104.19709
G1 X108.680 Y118.838 E104.20577
G1 X109.245 Y118.838 E104.21447
G1 X109.810 Y118.839 E104.22318
G1 X110.374 Y118.839 E104.23180
G1 X110.938 Y118.839 E104.24043
G1 X111.502 Y118.839 E104.24906
G1 X112.067 Y118.839 E104.25771
G1 X112.631 Y118.839 E104.26634
G1 X113.195 Y118.839 E104.27497
G1 X113.759 Y118.839 E104.28359
G1 X114.324 Y118.839 E104.29224
G1 X114.888 Y118.839 E104.30087
G1 X115.452 Y118.839 E104.30950
G1 X116.017 Y118.839 E104.31814
G1 X116.581 Y118.839 E104.32677
G1 X116.858 Y118.834 E104.33783
;LAYER:9
G0 F12000 X116.829 Y118.986 Z1.200
;TYPE:WALL-INNER
G1 F1380 X117.050 Y118.987 E104.34664
G1 X117.071 Y119.057 E104.34956
G1 X105.929 Y119.057 E104.79413
G1 X105.950 Y118.986 E104.79708
G1 X116.829 Y118.986 E105.23115
G0 F12000 X117.262 Y118.590
;TYPE:WALL-OUTER
G1 F1380 X112.769 Y103.647 E105.85375
G1 X110.231 Y103.647 E105.95501
G1 X105.739 Y118.587 E106.57748
G1 X116.832 Y118.587 E107.02009
G1 X117.262 Y118.590 E107.03725
G0 F12000 X117.608 Y119.456
