;FLAVOR:UltiGCode
;TIME:2072
;MATERIAL:1627
;MATERIAL2:0
;NOZZLE_DIAMETER:0.400000
;NOZZLE_DIAMETER2:0.400000

;Layer count: 33
;LAYER:0
M106 S255
G0 F12000 X45.127 Y63.553 Z0.300
;TYPE:SKIRT
G1 F1200 X54.017 Y63.553 E1.06680
G1 X60.510 Y85.142 E3.77211
G1 X47.202 Y85.142 E5.36907
G1 X38.636 Y85.139 E6.39699
G1 X45.127 Y63.553 E9.10189
G0 F12000 X45.424 Y63.953
G1 F1200 X53.720 Y63.953 E10.09741
G1 X59.972 Y84.742 E12.70246
G1 X47.202 Y84.742 E14.23486
G1 X39.174 Y84.739 E15.19822
G1 X45.424 Y63.953 E17.80286
G0 F12000 X45.722 Y64.353
G1 F1200 X53.422 Y64.353 E18.72686
G1 X59.434 Y84.342 E21.23168
G1 X47.202 Y84.342 E22.69952
G1 X39.712 Y84.340 E23.59832
G1 X45.722 Y64.353 E26.10285
G10
G1 Z0.400
G0 F12000 X48.845 Y68.553
;TYPE:WALL-INNER
G1 Z0.300
G11
G1 F1200 X50.299 Y68.553 E26.27733
G1 X53.785 Y80.142 E27.72956
G1 X45.360 Y80.141 E28.74056
G1 X48.845 Y68.553 E30.19264
G0 F12000 X48.548 Y68.153
G1 F1200 X50.596 Y68.153 E30.43840
G1 X54.322 Y80.542 E31.99086
G1 X44.822 Y80.541 E33.13086
G1 X48.548 Y68.153 E34.68321
G0 F12000 X48.250 Y67.753
;TYPE:WALL-OUTER
G1 F1200 X50.894 Y67.753 E35.00049
G1 X54.860 Y80.942 E36.65318
G1 X44.285 Y80.941 E37.92218
G1 X48.250 Y67.753 E39.57472
G0 F12000 X49.176 Y68.692
;TYPE:SKIN
G1 F1200 X50.633 Y70.149 E39.82198
G0 F12000 X50.876 Y70.958
G1 F1200 X48.870 Y68.952 E40.16241
G0 F12000 X48.739 Y69.386
G1 F1200 X51.119 Y71.767 E40.56639
G0 F12000 X51.363 Y72.576
G1 F1200 X48.608 Y69.821 E41.03393
G0 F12000 X48.477 Y70.256
G1 F1200 X51.606 Y73.385 E41.56494
G0 F12000 X51.850 Y74.194
G1 F1200 X48.347 Y70.691 E42.15942
G0 F12000 X48.216 Y71.126
G1 F1200 X52.093 Y75.003 E42.81737
G0 F12000 X52.336 Y75.812
G1 F1200 X48.085 Y71.561 E43.53878
G0 F12000 X47.955 Y71.996
G1 F1200 X52.580 Y76.622 E44.32376
G0 F12000 X52.823 Y77.431
G1 F1200 X47.824 Y72.431 E45.17220
G0 F12000 X47.693 Y72.866
G1 F1200 X53.066 Y78.239 E46.08403
G0 F12000 X53.310 Y79.048
G1 F1200 X47.562 Y73.301 E47.05941
G0 F12000 X47.432 Y73.736
G1 F1200 X53.553 Y79.857 E48.09818
G0 F12000 X53.130 Y80.000
G1 F1200 X47.301 Y74.171 E49.08739
G0 F12000 X47.170 Y74.606
G1 F1200 X52.564 Y80.000 E50.00279
G0 F12000 X51.999 Y80.000
G1 F1200 X47.039 Y75.041 E50.84444
G0 F12000 X46.908 Y75.475
G1 F1200 X51.433 Y80.000 E51.61236
G0 F12000 X50.867 Y80.000
G1 F1200 X46.777 Y75.910 E52.30646
G0 F12000 X46.647 Y76.345
G1 F1200 X50.302 Y80.000 E52.92673
G0 F12000 X49.736 Y80.000
G1 F1200 X46.516 Y76.780 E53.47318
G0 F12000 X46.385 Y77.215
G1 F1200 X49.170 Y80.000 E53.94581
G0 F12000 X48.605 Y80.000
G1 F1200 X46.255 Y77.650 E54.34462
G0 F12000 X46.124 Y78.085
G1 F1200 X48.039 Y80.000 E54.66961
G0 F12000 X47.473 Y80.000
G1 F1200 X45.993 Y78.520 E54.92077
G0 F12000 X45.862 Y78.955
G1 F1200 X46.908 Y80.000 E55.09820
G0 F12000 X46.342 Y80.000
G1 F1200 X45.732 Y79.390 E55.20172
G0 F12000 X45.601 Y79.825
G1 F1200 X45.776 Y80.000 E55.23142
G0 F12000 X50.389 Y69.340
G1 F1200 X49.742 Y68.692 E55.34130
;LAYER:1
G0 F12000 X50.302 Y68.550 Z0.400
;TYPE:WALL-INNER
G1 F1260 X53.898 Y80.508 E55.83953
G1 X45.247 Y80.507 E56.18471
G1 X48.843 Y68.550 E56.68290
G1 X50.302 Y68.550 E56.74111
G0 F12000 X50.598 Y68.151
G1 F1260 X54.434 Y80.907 E57.27259
G1 X44.711 Y80.906 E57.66054
G1 X48.546 Y68.151 E58.19197
G1 X50.598 Y68.151 E58.27385
G0 F12000 X50.895 Y67.752
;TYPE:WALL-OUTER
G1 F1260 X54.971 Y81.306 E58.83858
G1 X44.174 Y81.305 E59.26938
G1 X48.249 Y67.752 E59.83406
G1 X50.895 Y67.752 E59.93963
G0 F12000 X50.090 Y68.689
;TYPE:SKIN
G1 F1260 X48.455 Y70.324 E60.03189
G0 F12000 X48.697 Y69.517
G1 F1260 X49.526 Y68.689 E60.07864
G0 F12000 X50.303 Y69.040
G1 F1260 X48.212 Y71.131 E60.19663
G0 F12000 X47.970 Y71.938
G1 F1260 X50.433 Y69.474 E60.33564
G0 F12000 X50.564 Y69.908
G1 F1260 X47.727 Y72.745 E60.49572
G0 F12000 X47.485 Y73.551
G1 F1260 X50.694 Y70.342 E60.67680
G0 F12000 X50.825 Y70.775
G1 F1260 X47.242 Y74.358 E60.87897
G0 F12000 X46.999 Y75.165
G1 F1260 X50.955 Y71.209 E61.10220
G0 F12000 X51.086 Y71.643
G1 F1260 X46.757 Y75.972 E61.34647
G0 F12000 X46.514 Y76.779
G1 F1260 X51.216 Y72.077 E61.61179
G0 F12000 X51.346 Y72.511
G1 F1260 X46.272 Y77.585 E61.89810
G0 F12000 X46.029 Y78.392
G1 F1260 X51.477 Y72.945 E62.20549
G0 F12000 X51.607 Y73.379
G1 F1260 X45.787 Y79.199 E62.53390
G0 F12000 X45.545 Y80.005
G1 F1260 X51.738 Y73.812 E62.88335
G0 F12000 X51.868 Y74.246
G1 F1260 X45.748 Y80.366 E63.22868
G0 F12000 X46.312 Y80.366
G1 F1260 X51.999 Y74.680 E63.54956
G0 F12000 X52.129 Y75.114
G1 F1260 X46.876 Y80.366 E63.84594
G0 F12000 X47.441 Y80.366
G1 F1260 X52.260 Y75.547 E64.11786
G0 F12000 X52.390 Y75.982
G1 F1260 X48.005 Y80.366 E64.36527
G0 F12000 X48.569 Y80.366
G1 F1260 X52.521 Y76.415 E64.58824
G0 F12000 X52.651 Y76.849
G1 F1260 X49.134 Y80.366 E64.78669
G0 F12000 X49.698 Y80.366
G1 F1260 X52.781 Y77.283 E64.96066
G0 F12000 X52.912 Y77.717
G1 F1260 X50.262 Y80.366 E65.11016
G0 F12000 X50.826 Y80.366
G1 F1260 X53.042 Y78.151 E65.23518
G0 F12000 X53.173 Y78.585
G1 F1260 X51.391 Y80.366 E65.33570
G0 F12000 X51.955 Y80.366
G1 F1260 X53.303 Y79.019 E65.41174
G0 F12000 X53.433 Y79.452
G1 F1260 X52.519 Y80.366 E65.46331
G0 F12000 X53.083 Y80.366
G1 F1260 X53.564 Y79.886 E65.49042
;LAYER:2
G0 F12000 X54.007 Y80.871 Z0.500
;TYPE:WALL-INNER
G1 F1320 X45.138 Y80.870 E65.84430
G1 X48.843 Y68.550 E66.35761
G1 X50.302 Y68.550 E66.41583
G1 X54.007 Y80.871 E66.92918
G0 F12000 X54.543 Y81.270
G1 F1320 X44.602 Y81.269 E67.32583
G1 X48.546 Y68.151 E67.87238
G1 X50.598 Y68.151 E67.95425
G1 X54.543 Y81.270 E68.50086
G0 F12000 X55.080 Y81.669
;TYPE:WALL-OUTER
G1 F1320 X44.065 Y81.668 E68.94035
G1 X48.249 Y67.752 E69.52016
G1 X50.895 Y67.752 E69.62573
G1 X55.080 Y81.669 E70.20558
G10
G1 Z0.600
G0 F12000 X53.771 Y80.574
;TYPE:SKIN
G1 Z0.500
G11
G1 F1320 X47.313 Y74.117 E70.56996
G0 F12000 X47.444 Y73.684
G1 F1320 X53.528 Y79.768 E70.91326
G0 F12000 X53.286 Y78.961
G1 F1320 X47.574 Y73.249 E71.23558
G0 F12000 X47.705 Y72.816
G1 F1320 X53.043 Y78.154 E71.53678
G0 F12000 X52.801 Y77.347
G1 F1320 X47.835 Y72.382 E71.81697
G0 F12000 X47.966 Y71.948
G1 F1320 X52.558 Y76.540 E72.07609
G0 F12000 X52.316 Y75.733
G1 F1320 X48.096 Y71.514 E72.31418
G0 F12000 X48.226 Y71.080
G1 F1320 X52.073 Y74.927 E72.53126
G0 F12000 X51.830 Y74.120
G1 F1320 X48.357 Y70.647 E72.72723
G0 F12000 X48.487 Y70.212
G1 F1320 X51.588 Y73.313 E72.90221
G0 F12000 X51.345 Y72.506
G1 F1320 X48.618 Y69.779 E73.05608
G0 F12000 X48.748 Y69.345
G1 F1320 X51.103 Y71.699 E73.18894
G0 F12000 X50.860 Y70.893
G1 F1320 X48.879 Y68.911 E73.30075
G0 F12000 X49.220 Y68.689
G1 F1320 X50.618 Y70.086 E73.37961
G0 F12000 X50.376 Y69.280
G1 F1320 X49.785 Y68.689 E73.41296
G0 F12000 X47.183 Y74.551
G1 F1320 X53.361 Y80.729 E73.76156
G0 F12000 X52.797 Y80.729
G1 F1320 X47.053 Y74.985 E74.08568
G0 F12000 X46.922 Y75.419
G1 F1320 X52.233 Y80.729 E74.38534
G0 F12000 X51.668 Y80.729
G1 F1320 X46.792 Y75.852 E74.66050
G0 F12000 X46.661 Y76.286
G1 F1320 X51.104 Y80.729 E74.91121
G0 F12000 X50.540 Y80.729
G1 F1320 X46.531 Y76.721 E75.13740
G0 F12000 X46.401 Y77.154
G1 F1320 X49.976 Y80.729 E75.33913
G0 F12000 X49.411 Y80.728
G1 F1320 X46.270 Y77.588 E75.51633
G0 F12000 X46.140 Y78.022
G1 F1320 X48.846 Y80.728 E75.66903
G0 F12000 X48.282 Y80.728
G1 F1320 X46.010 Y78.456 E75.79723
G0 F12000 X45.879 Y78.889
G1 F1320 X47.718 Y80.728 E75.90100
G0 F12000 X47.154 Y80.728
G1 F1320 X45.749 Y79.323 E75.98028
G0 F12000 X45.618 Y79.757
G1 F1320 X46.589 Y80.728 E76.03507
G0 F12000 X46.025 Y80.728
G1 F1320 X45.422 Y80.408 E76.06538
G1 X45.461 Y80.728 E76.07824
;LAYER:3
G0 F12000 X44.677 Y81.014 Z0.600
;TYPE:WALL-INNER
G1 F1320 X54.468 Y81.015 E76.46890
G1 X54.653 Y81.632 E76.49460
G1 X44.492 Y81.631 E76.90003
G1 X44.677 Y81.014 E76.92573
G0 F12000 X44.465 Y80.615
;TYPE:WALL-OUTER
G1 F1320 X54.680 Y80.616 E77.33331
G1 X50.841 Y67.854 E77.86505
G1 X48.303 Y67.854 E77.96632
G1 X44.465 Y80.615 E78.49801
G10
G1 Z0.700
G0 F12000 X43.955 Y82.030
G1 Z0.600
G11
G1 F1320 X48.249 Y67.752 E79.09291
G1 X50.895 Y67.752 E79.19848
G1 X55.190 Y82.031 E79.79343
G1 X43.955 Y82.030 E80.24171
G0 F12000 X44.705 Y81.409
;TYPE:SKIN
G1 F1320 X45.075 Y81.322 E80.25615
G1 X45.639 Y81.322 E80.27521
G1 X46.203 Y81.322 E80.29428
G1 X46.767 Y81.322 E80.31334
G1 X47.332 Y81.322 E80.33238
G1 X47.896 Y81.322 E80.35144
G1 X48.460 Y81.322 E80.37051
G1 X49.024 Y81.322 E80.38957
G1 X49.589 Y81.322 E80.40861
G1 X50.152 Y81.322 E80.42764
G1 X50.717 Y81.322 E80.44668
G1 X51.281 Y81.322 E80.46569
G1 X51.845 Y81.322 E80.48470
G1 X52.409 Y81.322 E80.50370
G1 X52.974 Y81.322 E80.52274
G1 X53.538 Y81.322 E80.54175
G1 X54.102 Y81.322 E80.56076
G1 X54.406 Y81.301 E80.57291
;LAYER:4
G0 F12000 X54.577 Y81.378 Z0.700
;TYPE:WALL-INNER
G1 F1380 X54.762 Y81.995 E80.59862
G1 X44.383 Y81.994 E81.01274
G1 X44.568 Y81.377 E81.03844
G1 X54.577 Y81.378 E81.43780
G0 F12000 X54.789 Y80.979
;TYPE:WALL-OUTER
G1 F1380 X50.841 Y67.854 E81.98466
G1 X48.303 Y67.854 E82.08593
G1 X44.357 Y80.978 E82.63274
G1 X54.789 Y80.979 E83.04897
G10
G1 Z0.800
G0 F12000 X55.299 Y82.394
G1 Z0.700
G11
G1 F1380 X43.846 Y82.393 E83.50595
G1 X48.249 Y67.752 E84.11597
G1 X50.895 Y67.752 E84.22154
G1 X55.299 Y82.394 E84.83161
G0 F12000 X54.486 Y81.853
;TYPE:SKIN
G1 F1380 X54.035 Y81.685 E84.85058
G1 X53.471 Y81.685 E84.86953
G1 X52.906 Y81.685 E84.88845
G1 X52.342 Y81.685 E84.90740
G1 X51.778 Y81.685 E84.92635
G1 X51.214 Y81.685 E84.94530
G1 X50.649 Y81.685 E84.96423
G1 X50.085 Y81.685 E84.98318
G1 X49.520 Y81.685 E85.00211
G1 X48.956 Y81.685 E85.02100
G1 X48.392 Y81.685 E85.03995
G1 X47.828 Y81.685 E85.05890
G1 X47.263 Y81.685 E85.07783
G1 X46.699 Y81.685 E85.09673
G1 X46.135 Y81.685 E85.11568
G1 X45.571 Y81.685 E85.13463
G1 X45.006 Y81.685 E85.15355
G1 X44.645 Y81.605 E85.16831
;LAYER:5
G0 F12000 X44.459 Y81.740 Z0.800
;TYPE:WALL-INNER
G1 F1380 X54.686 Y81.741 E85.57637
G1 X54.871 Y82.358 E85.60207
G1 X44.274 Y82.357 E86.02489
G1 X44.459 Y81.740 E86.05059
G0 F12000 X44.247 Y81.341
;TYPE:WALL-OUTER
G1 F1380 X54.898 Y81.342 E86.47556
G1 X50.841 Y67.854 E87.03755
G1 X48.303 Y67.854 E87.13882
G1 X44.247 Y81.341 E87.70076
G10
G1 Z0.900
G0 F12000 X43.737 Y82.756
G1 Z0.800
G11
G1 F1380 X48.249 Y67.752 E88.32590
G1 X50.895 Y67.752 E88.43148
G1 X55.408 Y82.757 E89.05667
G1 X43.737 Y82.756 E89.52234
G0 F12000 X44.462 Y82.216
;TYPE:SKIN
G1 F1380 X44.913 Y82.047 E89.54136
G1 X45.477 Y82.047 E89.56032
G1 X46.041 Y82.047 E89.57927
G1 X46.605 Y82.047 E89.59822
G1 X47.170 Y82.047 E89.61720
G1 X47.734 Y82.047 E89.63615
G1 X48.298 Y82.047 E89.65510
G1 X48.863 Y82.047 E89.67408
G1 X49.427 Y82.047 E89.69304
G1 X49.991 Y82.047 E89.71199
G1 X50.555 Y82.047 E89.73094
G1 X51.120 Y82.047 E89.74992
G1 X51.684 Y82.047 E89.76887
G1 X52.248 Y82.047 E89.78782
G1 X52.812 Y82.047 E89.80677
G1 X53.377 Y82.047 E89.82576
G1 X53.941 Y82.047 E89.84471
G1 X54.392 Y81.879 E89.86391
;LAYER:6
G0 F12000 X54.795 Y82.104 Z0.900
;TYPE:WALL-INNER
G1 F1440 X54.980 Y82.720 E89.88957
G1 X44.165 Y82.719 E90.32109
G1 X44.350 Y82.103 E90.34675
G1 X54.795 Y82.104 E90.76351
G0 F12000 X55.007 Y81.705
;TYPE:WALL-OUTER
G1 F1440 X50.841 Y67.854 E91.34062
G1 X48.303 Y67.854 E91.44189
G1 X44.138 Y81.704 E92.01895
G1 X55.007 Y81.705 E92.45262
G10
G1 Z1.000
G0 F12000 X55.517 Y83.119
G1 Z0.900
G11
G1 F1440 X43.628 Y83.118 E92.92699
G1 X48.249 Y67.752 E93.56722
G1 X50.895 Y67.752 E93.67279
G1 X55.517 Y83.119 E94.31307
G0 F12000 X54.646 Y82.578
;TYPE:SKIN
G1 F1440 X54.196 Y82.410 E94.33200
G1 X53.632 Y82.410 E94.35095
G1 X53.067 Y82.410 E94.36987
G1 X52.503 Y82.410 E94.38883
G1 X51.939 Y82.410 E94.40778
G1 X51.374 Y82.410 E94.42670
G1 X50.810 Y82.410 E94.44560
G1 X50.246 Y82.410 E94.46455
G1 X49.682 Y82.410 E94.48350
G1 X49.117 Y82.410 E94.50243
G1 X48.553 Y82.410 E94.52132
G1 X47.989 Y82.410 E94.54027
G1 X47.425 Y82.410 E94.55922
G1 X46.860 Y82.410 E94.57815
G1 X46.296 Y82.410 E94.59710
G1 X45.732 Y82.410 E94.61605
G1 X45.168 Y82.410 E94.63500
G1 X44.551 Y82.358 E94.65395
G1 X44.489 Y82.578 E94.66307
;LAYER:7
G0 F12000 X44.241 Y82.466 Z1.000
;TYPE:WALL-INNER
G1 F1440 X54.904 Y82.467 E95.08852
G1 X55.089 Y83.083 E95.11418
G1 X44.056 Y83.082 E95.55440
G1 X44.241 Y82.466 E95.58006
G0 F12000 X44.029 Y82.067
;TYPE:WALL-OUTER
G1 F1440 X55.116 Y82.068 E96.02243
G1 X50.841 Y67.854 E96.61467
G1 X48.303 Y67.854 E96.71593
G1 X44.029 Y82.067 E97.30812
G10
G1 Z1.100
G0 F12000 X43.519 Y83.481
G1 Z1.000
G11
G1 F1440 X48.249 Y67.752 E97.96347
G1 X50.895 Y67.752 E98.06904
G1 X55.626 Y83.482 E98.72444
G1 X43.519 Y83.481 E99.20751
G0 F12000 X44.302 Y82.941
;TYPE:SKIN
G1 F1440 X44.752 Y82.772 E99.22645
G1 X45.316 Y82.772 E99.24540
G1 X45.881 Y82.772 E99.26439
G1 X46.445 Y82.772 E99.28334
G1 X47.009 Y82.772 E99.30229
G1 X47.573 Y82.772 E99.32124
G1 X48.138 Y82.772 E99.34022
G1 X48.702 Y82.772 E99.35917
G1 X49.266 Y82.772 E99.37812
G1 X49.830 Y82.773 E99.39707
G1 X50.394 Y82.773 E99.41602
G1 X50.958 Y82.773 E99.43497
G1 X51.523 Y82.773 E99.45396
G1 X52.087 Y82.773 E99.47291
G1 X52.651 Y82.773 E99.49186
G1 X53.215 Y82.773 E99.51081
G1 X53.780 Y82.773 E99.52979
G1 X54.344 Y82.773 E99.54874
G1 X54.795 Y82.605 E99.56795
;LAYER:8
G0 F12000 X55.013 Y82.830 Z1.100
;TYPE:WALL-INNER
G1 F1440 X55.143 Y83.264 E99.58602
G1 X44.000 Y83.264 E100.03063
G1 X44.131 Y82.829 E100.04875
G1 X55.013 Y82.830 E100.48295
G0 F12000 X55.225 Y82.431
;TYPE:WALL-OUTER
G1 F1440 X50.841 Y67.854 E101.09030
G1 X48.303 Y67.854 E101.19157
G1 X43.920 Y82.430 E101.79888
G1 X55.225 Y82.431 E102.24995
G0 F12000 X55.680 Y83.663
G1 F1440 X43.464 Y83.663 E102.73736
G1 X48.249 Y67.752 E103.40030
G1 X50.895 Y67.752 E103.50588
G1 X55.680 Y83.663 E104.16881
G0 F12000 X54.626 Y83.123
;TYPE:SKIN
G1 F1440 X54.267 Y83.046 E104.17744
G1 X53.703 Y83.046 E104.18607
G1 X53.139 Y83.046 E104.19470
G1 X52.574 Y83.046 E104.20334
G1 X52.010 Y83.046 E104.21197
G1 X51.446 Y83.046 E104.22060
G1 X50.881 Y83.046 E104.22925
G1 X50.317 Y83.046 E104.23787
G1 X49.753 Y83.046 E104.24650
G1 X49.189 Y83.046 E104.25513
G1 X48.624 Y83.046 E104.26378
G1 X48.060 Y83.046 E104.27241
G1 X47.496 Y83.046 E104.28104
G1 X46.932 Y83.046 E104.28967
G1 X46.367 Y83.046 E104.29831
G1 X45.803 Y83.046 E104.30694
G1 X45.239 Y83.046 E104.31557
G1 X44.674 Y83.046 E104.32421
G1 X44.315 Y82.969 E104.33886
;LAYER:9
G0 F12000 X44.022 Y83.193 Z1.200
;TYPE:WALL-INNER
G1 F1380 X54.901 Y83.193 E104.77293
G1 X55.122 Y83.194 E104.78175
G1 X55.143 Y83.264 E104.78467
G1 X44.001 Y83.264 E105.22923
G1 X44.022 Y83.193 E105.23219
G0 F12000 X43.811 Y82.794
;TYPE:WALL-OUTER
G1 F1380 X54.904 Y82.794 E105.67480
G1 X55.334 Y82.797 E105.69196
G1 X50.841 Y67.854 E106.31455
G1 X48.303 Y67.854 E106.41582
G1 X43.811 Y82.794 E107.03828
G0 F12000 X43.464 Y83.663
G1 F1380 X48.249 Y67.752 E107.70122
G1 X50.895 Y67.752 E107.80680
G1 X55.680 Y83.663 E108.46973
G1 X43.464 Y83.663 E108.95715
;LAYER:10
G0 F12000 X44.010 Y83.233 Z1.300
;TYPE:WALL-INNER
G1 F1320 X46.024 Y83.264 E109.03752
G1 X44.001 Y83.264 E109.11824
G1 X44.010 Y83.233 E109.11952
G0 F12000 X53.102 Y83.264
G1 F1320 X55.134 Y83.232 E109.20061
G1 X55.143 Y83.264 E109.20194
G1 X53.102 Y83.264 E109.28337
G0 F12000 X55.273 Y83.132
G0 X55.343 Y82.830
;TYPE:WALL-OUTER
G1 F1320 X50.841 Y67.854 E109.90733
G1 X48.303 Y67.854 E110.00860
G1 X43.801 Y82.830 E110.63256
G1 X49.572 Y82.921 E110.86285
G1 X55.343 Y82.830 E111.09314
G0 F12000 X55.680 Y83.663
G1 F1320 X43.464 Y83.663 E111.58056
G1 X48.249 Y67.752 E112.24349
G1 X50.895 Y67.752 E112.34907
G1 X55.680 Y83.663 E113.01200
G10
G1 Z1.400
G0 F12000 X52.709 Y83.463
;TYPE:SKIN
G1 Z1.300
G11
G1 F1320 X52.234 Y83.269 E113.03376
G1 X51.674 Y83.274 E113.05504
