;FLAVOR:UltiGCode
;TIME:345
;MATERIAL:180
;MATERIAL2:0
;NOZZLE_DIAMETER:0.400000
;NOZZLE_DIAMETER2:0.400000

;Layer count: 55
;LAYER:0
M107
G0 F12000 X107.055 Y99.346 Z0.300
;TYPE:SKIRT
G1 F1200 X115.945 Y99.346 E1.06680
G1 X122.460 Y121.008 E3.78126
G1 X109.363 Y121.008 E5.35290
G1 X100.542 Y121.005 E6.41142
G1 X107.055 Y99.346 E9.12547
G0 F12000 X107.352 Y99.746
G1 F1200 X115.648 Y99.746 E10.12099
G1 X121.922 Y120.608 E12.73519
G1 X109.363 Y120.608 E14.24227
G1 X101.080 Y120.606 E15.23623
G1 X107.352 Y99.746 E17.85013
G0 F12000 X107.650 Y100.146
G1 F1200 X115.350 Y100.146 E18.77413
G1 X121.384 Y120.208 E21.28810
G1 X101.617 Y120.207 E23.66014
G1 X107.650 Y100.146 E26.17397
G10
G1 Z0.400
G0 F12000 X110.773 Y104.346
;TYPE:WALL-INNER
G1 Z0.300
G11
G1 F1200 X112.227 Y104.346 E26.34845
G1 X115.735 Y116.008 E27.80983
G1 X107.266 Y116.007 E28.82611
G1 X110.773 Y104.346 E30.28734
G0 F12000 X110.476 Y103.946
G1 F1200 X112.524 Y103.946 E30.53310
G1 X116.272 Y116.408 E32.09471
G1 X106.728 Y116.407 E33.23999
G1 X110.476 Y103.946 E34.80149
G0 F12000 X110.178 Y103.546
;TYPE:WALL-OUTER
G1 F1200 X112.822 Y103.546 E35.11877
G1 X116.810 Y116.808 E36.78060
G1 X106.191 Y116.807 E38.05488
G1 X110.178 Y103.546 E39.71657
G0 F12000 X110.991 Y104.485
;TYPE:SKIN
G1 F1200 X112.609 Y106.104 E39.99124
G0 F12000 X112.852 Y106.913
G1 F1200 X110.771 Y104.832 E40.34440
G0 F12000 X110.640 Y105.266
G1 F1200 X113.096 Y107.722 E40.76119
G0 F12000 X113.339 Y108.530
G1 F1200 X110.510 Y105.701 E41.24129
G0 F12000 X110.379 Y106.136
G1 F1200 X113.583 Y109.340 E41.78503
G0 F12000 X113.826 Y110.149
G1 F1200 X110.248 Y106.571 E42.39223
G0 F12000 X110.117 Y107.006
G1 F1200 X114.069 Y110.958 E43.06291
G0 F12000 X114.313 Y111.767
G1 F1200 X109.986 Y107.441 E43.79714
G0 F12000 X109.856 Y107.876
G1 F1200 X114.556 Y112.576 E44.59476
G0 F12000 X114.800 Y113.385
G1 F1200 X109.726 Y108.311 E45.45584
G0 F12000 X109.595 Y108.746
G1 F1200 X115.043 Y114.194 E46.38040
G0 F12000 X115.286 Y115.003
G1 F1200 X109.464 Y109.181 E47.36843
G0 F12000 X109.333 Y109.616
G1 F1200 X115.529 Y115.812 E48.41992
G0 F12000 X115.017 Y115.866
G1 F1200 X109.202 Y110.051 E49.40676
G0 F12000 X109.071 Y110.486
G1 F1200 X114.452 Y115.866 E50.31986
G0 F12000 X113.886 Y115.866
G1 F1200 X108.941 Y110.921 E51.15906
G0 F12000 X108.810 Y111.355
G1 F1200 X113.320 Y115.866 E51.92451
G0 F12000 X112.755 Y115.866
G1 F1200 X108.679 Y111.790 E52.61623
G0 F12000 X108.548 Y112.225
G1 F1200 X112.189 Y115.866 E53.23413
G0 F12000 X111.623 Y115.866
G1 F1200 X108.417 Y112.660 E53.77821
G0 F12000 X108.287 Y113.095
G1 F1200 X111.058 Y115.866 E54.24846
G0 F12000 X110.492 Y115.866
G1 F1200 X108.156 Y113.530 E54.64489
G0 F12000 X108.026 Y113.965
G1 F1200 X109.926 Y115.866 E54.96742
G0 F12000 X109.361 Y115.866
G1 F1200 X107.895 Y114.400 E55.21621
G0 F12000 X107.764 Y114.835
G1 F1200 X108.795 Y115.866 E55.39118
G0 F12000 X108.229 Y115.866
G1 F1200 X107.633 Y115.270 E55.49232
G0 F12000 X107.502 Y115.705
G1 F1200 X107.664 Y115.866 E55.51973
G0 F12000 X112.366 Y105.295
G1 F1200 X111.556 Y104.485 E55.65719
;LAYER:1
M106 S2
G0 F12000 X112.230 Y104.343 Z0.360
;TYPE:WALL-INNER
G1 F1620 X115.805 Y116.228 E55.95431
G1 X107.196 Y116.227 E56.16041
G1 X110.770 Y104.343 E56.45750
G1 X112.230 Y104.343 E56.49245
G0 F12000 X112.526 Y103.944
G1 F1620 X116.341 Y116.627 E56.80952
G1 X106.660 Y116.626 E57.04128
G1 X110.474 Y103.944 E57.35832
G1 X112.526 Y103.944 E57.40745
G0 F12000 X112.823 Y103.545
;TYPE:WALL-OUTER
G1 F1620 X116.878 Y117.026 E57.74447
G1 X106.123 Y117.025 E58.00194
G1 X110.177 Y103.545 E58.33893
G1 X112.823 Y103.545 E58.40228
G0 F12000 X111.915 Y104.482
;TYPE:SKIN
G1 F1620 X110.426 Y105.972 E58.45271
G0 F12000 X110.668 Y105.165
G1 F1620 X111.351 Y104.482 E58.47583
G0 F12000 X112.207 Y104.755
G1 F1620 X110.183 Y106.779 E58.54436
G0 F12000 X109.940 Y107.586
G1 F1620 X112.337 Y105.189 E58.62551
G0 F12000 X112.468 Y105.623
G1 F1620 X109.697 Y108.393 E58.71931
G0 F12000 X109.455 Y109.200
G1 F1620 X112.598 Y106.057 E58.82572
G0 F12000 X112.729 Y106.490
G1 F1620 X109.212 Y110.007 E58.94479
G0 F12000 X108.970 Y110.814
G1 F1620 X112.859 Y106.925 E59.07646
G0 F12000 X112.990 Y107.358
G1 F1620 X108.727 Y111.621 E59.22079
G0 F12000 X108.485 Y112.427
G1 F1620 X113.120 Y107.792 E59.37771
G0 F12000 X113.250 Y108.226
G1 F1620 X108.242 Y113.234 E59.54726
G0 F12000 X107.999 Y114.041
G1 F1620 X113.381 Y108.659 E59.72948
G0 F12000 X113.511 Y109.093
G1 F1620 X107.757 Y114.848 E59.92430
G0 F12000 X107.514 Y115.655
G1 F1620 X113.642 Y109.527 E60.13177
G0 F12000 X113.772 Y109.961
G1 F1620 X107.647 Y116.087 E60.33916
G0 F12000 X108.211 Y116.087
G1 F1620 X113.903 Y110.394 E60.53189
G0 F12000 X114.033 Y110.829
G1 F1620 X108.775 Y116.087 E60.70990
G0 F12000 X109.339 Y116.087
G1 F1620 X114.164 Y111.262 E60.87326
G0 F12000 X114.294 Y111.696
G1 F1620 X109.904 Y116.087 E61.02191
G0 F12000 X110.468 Y116.087
G1 F1620 X114.425 Y112.130 E61.15588
G0 F12000 X114.555 Y112.564
G1 F1620 X111.032 Y116.087 E61.27515
G0 F12000 X111.597 Y116.087
G1 F1620 X114.686 Y112.997 E61.37975
G0 F12000 X114.817 Y113.431
G1 F1620 X112.161 Y116.087 E61.46967
G0 F12000 X112.725 Y116.087
G1 F1620 X114.947 Y113.865 E61.54490
G0 F12000 X115.078 Y114.298
G1 F1620 X113.289 Y116.087 E61.60547
G0 F12000 X113.854 Y116.087
G1 F1620 X115.208 Y114.733 E61.65131
G0 F12000 X115.339 Y115.166
G1 F1620 X114.418 Y116.087 E61.68249
G0 F12000 X114.982 Y116.087
G1 F1620 X115.469 Y115.600 E61.69898
;LAYER:2
M106 S5
G0 F12000 X115.870 Y116.446 Z0.420
;TYPE:WALL-INNER
G1 F2100 X107.131 Y116.445 E61.90819
G1 X110.770 Y104.343 E62.21073
G1 X112.230 Y104.343 E62.24568
G1 X115.870 Y116.446 E62.54825
G0 F12000 X116.406 Y116.845
G1 F2100 X106.595 Y116.844 E62.78312
G1 X110.474 Y103.944 E63.10561
G1 X112.526 Y103.944 E63.15473
G1 X116.406 Y116.845 E63.47725
G0 F12000 X116.943 Y117.244
;TYPE:WALL-OUTER
G1 F2100 X106.058 Y117.243 E63.73784
G1 X110.177 Y103.545 E64.08027
G1 X112.823 Y103.545 E64.14362
G1 X116.943 Y117.244 E64.48608
G10
G1 Z0.520
G0 F12000 X115.457 Y116.304
;TYPE:SKIN
G1 Z0.420
G11
G1 F2100 X109.200 Y110.047 E64.69792
G0 F12000 X109.330 Y109.613
G1 F2100 X115.534 Y115.817 E64.90796
G0 F12000 X114.892 Y116.304
G1 F2100 X109.069 Y110.481 E65.10511
G0 F12000 X108.939 Y110.915
G1 F2100 X114.328 Y116.304 E65.28756
G0 F12000 X113.764 Y116.304
G1 F2100 X108.808 Y111.348 E65.45535
G0 F12000 X108.678 Y111.782
G1 F2100 X113.200 Y116.304 E65.60845
G0 F12000 X112.635 Y116.304
G1 F2100 X108.547 Y112.216 E65.74686
G0 F12000 X108.417 Y112.650
G1 F2100 X112.071 Y116.304 E65.87057
G0 F12000 X111.507 Y116.304
G1 F2100 X108.287 Y113.084 E65.97958
G0 F12000 X108.156 Y113.518
G1 F2100 X110.942 Y116.304 E66.07391
G0 F12000 X110.378 Y116.304
G1 F2100 X108.026 Y113.951 E66.15355
G0 F12000 X107.896 Y114.385
G1 F2100 X109.814 Y116.304 E66.21851
G0 F12000 X109.250 Y116.304
G1 F2100 X107.765 Y114.819 E66.26878
G0 F12000 X107.635 Y115.253
G1 F2100 X108.685 Y116.304 E66.30435
G0 F12000 X108.121 Y116.304
G1 F2100 X107.504 Y115.687 E66.32524
G0 F12000 X107.374 Y116.121
G1 F2100 X107.557 Y116.304 E66.33143
G0 F12000 X109.460 Y109.179
G1 F2100 X115.292 Y115.010 E66.52887
G0 F12000 X115.049 Y114.204
G1 F2100 X109.591 Y108.745 E66.71367
G0 F12000 X109.721 Y108.311
G1 F2100 X114.806 Y113.396 E66.88583
G0 F12000 X114.564 Y112.589
G1 F2100 X109.852 Y107.878 E67.04535
G0 F12000 X109.982 Y107.444
G1 F2100 X114.321 Y111.782 E67.19223
G0 F12000 X114.078 Y110.975
G1 F2100 X110.113 Y107.010 E67.32647
G0 F12000 X110.243 Y106.576
G1 F2100 X113.835 Y110.168 E67.44808
G0 F12000 X113.593 Y109.361
G1 F2100 X110.374 Y106.143 E67.55705
G0 F12000 X110.504 Y105.708
G1 F2100 X113.349 Y108.554 E67.65339
G0 F12000 X113.107 Y107.747
G1 F2100 X110.634 Y105.274 E67.73711
G0 F12000 X110.765 Y104.841
G1 F2100 X112.864 Y106.940 E67.80818
G0 F12000 X112.622 Y106.133
G1 F2100 X110.971 Y104.482 E67.86407
G0 F12000 X111.535 Y104.482
G1 F2100 X112.379 Y105.326 E67.89265
;LAYER:3
M106 S7
G0 F12000 X112.230 Y104.343 Z0.480
;TYPE:WALL-INNER
G1 F2520 X115.935 Y116.664 E68.20066
G1 X107.066 Y116.663 E68.41299
G1 X110.771 Y104.343 E68.72097
G1 X112.230 Y104.343 E68.75590
G0 F12000 X112.526 Y103.944
G1 F2520 X116.471 Y117.063 E69.08386
G1 X106.530 Y117.062 E69.32185
G1 X110.474 Y103.944 E69.64978
G1 X112.526 Y103.944 E69.69891
G0 F12000 X112.823 Y103.545
;TYPE:WALL-OUTER
G1 F2520 X117.008 Y117.462 E70.04682
G1 X105.993 Y117.461 E70.31052
G1 X110.177 Y103.545 E70.65840
G1 X112.823 Y103.545 E70.72174
G0 F12000 X111.915 Y104.482
;TYPE:SKIN
G1 F2520 X110.427 Y105.971 E70.77214
G0 F12000 X110.669 Y105.164
G1 F2520 X111.351 Y104.482 E70.79523
G0 F12000 X112.207 Y104.755
G1 F2520 X110.184 Y106.778 E70.86372
G0 F12000 X109.941 Y107.585
G1 F2520 X112.337 Y105.189 E70.94484
G0 F12000 X112.467 Y105.624
G1 F2520 X109.699 Y108.392 E71.03856
G0 F12000 X109.456 Y109.199
G1 F2520 X112.598 Y106.057 E71.14493
G0 F12000 X112.728 Y106.491
G1 F2520 X109.214 Y110.006 E71.26392
G0 F12000 X108.971 Y110.812
G1 F2520 X112.859 Y106.925 E71.39554
G0 F12000 X112.989 Y107.359
G1 F2520 X108.728 Y111.619 E71.53978
G0 F12000 X108.486 Y112.426
G1 F2520 X113.120 Y107.792 E71.69667
G0 F12000 X113.250 Y108.226
G1 F2520 X108.243 Y113.233 E71.86619
G0 F12000 X108.001 Y114.040
G1 F2520 X113.381 Y108.660 E72.04834
G0 F12000 X113.511 Y109.094
G1 F2520 X107.758 Y114.847 E72.24311
G0 F12000 X107.515 Y115.654
G1 F2520 X113.641 Y109.528 E72.45051
G0 F12000 X113.772 Y109.962
G1 F2520 X107.273 Y116.461 E72.67055
G0 F12000 X107.775 Y116.522
G1 F2520 X113.902 Y110.395 E72.87798
G0 F12000 X114.032 Y110.829
G1 F2520 X108.340 Y116.522 E73.07071
G0 F12000 X108.904 Y116.522
G1 F2520 X114.163 Y111.263 E73.24876
G0 F12000 X114.293 Y111.697
G1 F2520 X109.468 Y116.522 E73.41212
G0 F12000 X110.032 Y116.522
G1 F2520 X114.424 Y112.130 E73.56081
G0 F12000 X114.554 Y112.565
G1 F2520 X110.597 Y116.522 E73.69478
G0 F12000 X111.161 Y116.522
G1 F2520 X114.685 Y112.998 E73.81409
G0 F12000 X114.815 Y113.432
G1 F2520 X111.724 Y116.523 E73.91874
G0 F12000 X112.289 Y116.523
G1 F2520 X114.946 Y113.866 E74.00870
G0 F12000 X115.076 Y114.300
G1 F2520 X112.853 Y116.523 E74.08396
G0 F12000 X113.417 Y116.523
G1 F2520 X115.206 Y114.734 E74.14453
G0 F12000 X115.337 Y115.167
G1 F2520 X113.982 Y116.523 E74.19042
G0 F12000 X114.546 Y116.523
G1 F2520 X115.467 Y115.602 E74.22160
G0 F12000 X115.598 Y116.035
G1 F2520 X115.110 Y116.523 E74.23813
;LAYER:4
M106 S12
G0 F12000 X116.352 Y116.663 Z0.540
;TYPE:WALL-INNER
G1 F1320 X116.537 Y117.280 E74.25355
G1 X106.464 Y117.279 E74.49469
G1 X106.649 Y116.662 E74.51011
G1 X116.352 Y116.663 E74.74240
G0 F12000 X116.564 Y116.264
;TYPE:WALL-OUTER
G1 F1320 X112.830 Y103.849 E75.05277
G1 X112.767 Y103.647 E75.05784
G1 X110.231 Y103.647 E75.11855
G1 X106.437 Y116.263 E75.43394
G1 X116.564 Y116.264 E75.67638
G10
G1 Z0.640
G0 F12000 X117.074 Y117.679
G1 Z0.540
G11
G1 F1320 X105.927 Y117.678 E75.94324
G1 X110.177 Y103.545 E76.29655
G1 X112.823 Y103.545 E76.35989
G1 X117.074 Y117.679 E76.71323
G0 F12000 X116.291 Y117.138
;TYPE:SKIN
G1 F1320 X115.840 Y116.970 E76.72461
G1 X115.276 Y116.970 E76.73598
G1 X114.712 Y116.970 E76.74735
G1 X114.148 Y116.970 E76.75872
G1 X113.583 Y116.970 E76.77008
G1 X113.019 Y116.970 E76.78145
G1 X112.455 Y116.970 E76.79282
G1 X111.891 Y116.970 E76.80419
G1 X111.326 Y116.969 E76.81555
G1 X110.762 Y116.969 E76.82688
G1 X110.197 Y116.969 E76.83820
G1 X109.633 Y116.969 E76.84954
G1 X109.069 Y116.969 E76.86088
G1 X108.504 Y116.969 E76.87220
G1 X107.940 Y116.969 E76.88350
G1 X107.376 Y116.969 E76.89484
G1 X106.926 Y116.802 E76.90633
;LAYER:5
M106 S15
G0 F12000 X106.584 Y116.880 Z0.600
;TYPE:WALL-INNER
G1 F1320 X116.417 Y116.881 E77.14173
G1 X116.602 Y117.498 E77.15715
G1 X106.399 Y117.497 E77.40141
G1 X106.584 Y116.880 E77.41683
G0 F12000 X106.371 Y116.481
;TYPE:WALL-OUTER
G1 F1320 X116.630 Y116.482 E77.66243
G1 X112.769 Y103.647 E77.98331
G1 X110.231 Y103.647 E78.04407
G1 X106.371 Y116.481 E78.36491
G10
G1 Z0.700
G0 F12000 X105.862 Y117.896
G1 Z0.600
G11
G1 F1320 X110.177 Y103.545 E78.72366
G1 X112.823 Y103.545 E78.78701
G1 X117.139 Y117.897 E79.14580
G1 X105.862 Y117.896 E79.41577
G0 F12000 X106.941 Y117.357
;TYPE:SKIN
G1 F1320 X107.392 Y117.188 E79.42721
G1 X107.956 Y117.188 E79.43865
G1 X108.520 Y117.188 E79.45009
G1 X109.085 Y117.188 E79.46151
G1 X109.649 Y117.188 E79.47295
G1 X110.213 Y117.188 E79.48439
G1 X110.778 Y117.188 E79.49581
G1 X111.342 Y117.188 E79.50725
G1 X111.905 Y117.188 E79.51867
G1 X112.470 Y117.188 E79.53009
G1 X113.034 Y117.188 E79.54153
G1 X113.598 Y117.188 E79.55297
G1 X114.162 Y117.188 E79.56440
G1 X114.727 Y117.188 E79.57583
G1 X115.291 Y117.188 E79.58727
G1 X115.855 Y117.188 E79.59870
G1 X116.307 Y117.019 E79.61026
;LAYER:6
M106 S17
G0 F12000 X116.483 Y117.099 Z0.660
;TYPE:WALL-INNER
G1 F1380 X116.668 Y117.716 E79.62568
G1 X106.333 Y117.715 E79.87310
G1 X106.518 Y117.098 E79.88852
G1 X116.483 Y117.099 E80.12708
G0 F12000 X116.695 Y116.700
;TYPE:WALL-OUTER
G1 F1380 X112.769 Y103.647 E80.45340
G1 X110.231 Y103.647 E80.51416
G1 X106.306 Y116.699 E80.84045
G1 X116.695 Y116.700 E81.08916
G10
G1 Z0.760
G0 F12000 X117.205 Y118.115
G1 Z0.660
G11
G1 F1380 X105.796 Y118.114 E81.36229
G1 X110.177 Y103.545 E81.72650
G1 X112.823 Y103.545 E81.78984
G1 X117.205 Y118.115 E82.15408
G0 F12000 X116.162 Y117.574
;TYPE:SKIN
G1 F1380 X115.712 Y117.406 E82.16544
G1 X115.148 Y117.406 E82.17681
G1 X114.583 Y117.406 E82.18817
G1 X114.019 Y117.406 E82.19950
G1 X113.455 Y117.406 E82.21087
G1 X112.891 Y117.406 E82.22224
G1 X112.326 Y117.406 E82.23360
G1 X111.762 Y117.406 E82.24494
G1 X111.198 Y117.405 E82.25631
G1 X110.633 Y117.405 E82.26770
G1 X110.069 Y117.405 E82.27907
G1 X109.505 Y117.405 E82.29044
G1 X108.940 Y117.405 E82.30183
G1 X108.376 Y117.405 E82.31320
G1 X107.812 Y117.405 E82.32457
G1 X107.248 Y117.405 E82.33594
G1 X106.797 Y117.237 E82.34746
;LAYER:7
M106 S20
G0 F12000 X106.453 Y117.315 Z0.720
;TYPE:WALL-INNER
G1 F1380 X116.548 Y117.316 E82.58913
G1 X116.733 Y117.933 E82.60455
G1 X106.268 Y117.932 E82.85509
G1 X106.453 Y117.315 E82.87051
G0 F12000 X106.241 Y116.916
;TYPE:WALL-OUTER
G1 F1380 X116.759 Y116.917 E83.12231
G1 X112.769 Y103.647 E83.45404
G1 X110.231 Y103.647 E83.51480
G1 X106.241 Y116.916 E83.84651
G10
G1 Z0.820
G0 F12000 X105.731 Y118.331
G1 Z0.720
G11
G1 F1380 X110.177 Y103.545 E84.21615
G1 X112.823 Y103.545 E84.27949
G1 X117.270 Y118.332 E84.64915
G1 X105.731 Y118.331 E84.92540
G0 F12000 X106.506 Y117.791
;TYPE:SKIN
G1 F1380 X106.956 Y117.622 E84.93679
G1 X107.521 Y117.622 E84.94818
G1 X108.085 Y117.622 E84.95955
G1 X108.649 Y117.622 E84.97092
G1 X109.213 Y117.622 E84.98229
G1 X109.778 Y117.622 E84.99368
G1 X110.342 Y117.622 E85.00505
G1 X110.906 Y117.622 E85.01642
G1 X111.471 Y117.623 E85.02781
G1 X112.035 Y117.623 E85.03925
G1 X112.599 Y117.623 E85.05069
G1 X113.163 Y117.623 E85.06213
G1 X113.728 Y117.623 E85.07355
G1 X114.292 Y117.623 E85.08499
G1 X114.856 Y117.623 E85.09643
G1 X115.420 Y117.623 E85.10786
G1 X115.985 Y117.623 E85.11929
G1 X116.436 Y117.454 E85.13082
;LAYER:8
M106 S25
G0 F12000 X116.614 Y117.534 Z0.780
;TYPE:WALL-INNER
G1 F1380 X116.799 Y118.151 E85.14624
G1 X106.202 Y118.150 E85.39993
G1 X106.387 Y117.533 E85.41535
G1 X116.614 Y117.534 E85.66019
G0 F12000 X116.826 Y117.135
;TYPE:WALL-OUTER
G1 F1380 X112.769 Y103.647 E85.99738
G1 X110.231 Y103.647 E86.05814
G1 X106.175 Y117.134 E86.39530
G1 X116.826 Y117.135 E86.65029
G10
G1 Z0.880
G0 F12000 X117.336 Y118.550
G1 Z0.780
G11
G1 F1380 X105.665 Y118.549 E86.92969
G1 X110.177 Y103.545 E87.30478
G1 X112.823 Y103.545 E87.36812
G1 X117.336 Y118.550 E87.74324
