;FLAVOR:UltiGCode
;TIME:244
;MATERIAL:126
;MATERIAL2:0
;NOZZLE_DIAMETER:0.400000
;NOZZLE_DIAMETER2:0.400000

;Layer count: 41
;LAYER:0
M107
G0 F12000 X100.330 Y100.885 Z0.300
;TYPE:SKIRT
G1 F1200 X112.239 Y100.885 E1.42908
G1 X124.105 Y122.116 E4.34771
G1 X106.728 Y122.116 E6.43295
G1 X100.330 Y100.885 E9.09384
G0 F12000 X100.868 Y101.285
G1 F1200 X112.004 Y101.285 E10.43016
G1 X123.423 Y121.716 E13.23883
G1 X107.025 Y121.716 E15.20659
G1 X100.868 Y101.285 E17.76722
G0 F12000 X101.407 Y101.685
G1 F1200 X111.769 Y101.685 E19.01066
G1 X122.742 Y121.316 E21.70941
G1 X107.322 Y121.316 E23.55981
G1 X101.407 Y101.685 E26.02014
G10
G1 Z0.400
G0 F12000 X105.982 Y105.085
;TYPE:WALL-OUTER
G1 Z0.300
G11
G1 F1200 X106.564 Y105.085 E26.08998
G1 X109.497 Y114.816 E27.30959
G1 X113.261 Y114.816 E27.76127
G1 X113.261 Y117.916 E28.13327
G1 X112.661 Y117.916 E28.20527
G1 X112.661 Y115.416 E28.50527
G1 X109.665 Y115.416 E28.86479
G1 X109.665 Y117.308 E29.09183
G1 X105.982 Y105.085 E30.62373
G0 F12000 X106.210 Y105.361
;TYPE:SKIN
G1 F1200 X106.540 Y105.974 E30.69432
G1 X106.784 Y106.784 E30.76488
G1 X107.028 Y107.593 E30.83535
G1 X107.272 Y108.403 E30.90590
G1 X107.516 Y109.213 E30.97645
G1 X107.760 Y110.023 E31.04701
G1 X108.004 Y110.832 E31.11748
G1 X108.248 Y111.642 E31.18803
G1 X108.492 Y112.452 E31.25858
G1 X108.736 Y113.261 E31.32906
G1 X108.980 Y114.071 E31.39961
G1 X109.445 Y114.819 E31.47016
G1 X110.023 Y115.115 E31.52431
G1 X110.589 Y115.115 E31.57865
G1 X111.155 Y115.115 E31.63282
G1 X111.720 Y115.115 E31.68706
G1 X112.286 Y115.115 E31.74139
G1 X112.764 Y115.310 E31.79560
G1 X112.960 Y115.788 E31.84984
G1 X112.960 Y116.354 E31.90418
G1 X112.960 Y116.920 E31.95835
G1 X112.960 Y117.485 E32.01259
G1 X112.966 Y117.774 E32.04727
G0 F12000 X112.966 Y117.616
G0 X112.961 Y115.100
G0 X113.120 Y115.100
G1 F1200 X112.975 Y114.955 E32.07188
G0 F12000 X112.975 Y115.116
G0 X109.324 Y115.075
G0 X109.365 Y115.464
G0 X109.525 Y115.464
G1 F1200 X109.138 Y115.078 E32.13747
G0 F12000 X109.382 Y115.887
G1 F1200 X109.501 Y116.006 E32.15767
G10
G1 Z0.400
G0 F12000 X116.405 Y117.916
;TYPE:WALL-OUTER
G1 Z0.300
G11
G1 F1200 X109.234 Y105.085 E33.92154
G1 X109.774 Y105.085 E33.98634
G1 X116.945 Y117.916 E35.75020
G1 X116.405 Y117.916 E35.81500
G0 F12000 X116.424 Y117.272
;TYPE:SKIN
G1 F1200 X115.932 Y116.780 E35.89850
G0 F12000 X115.707 Y115.990
G1 F1200 X115.215 Y115.498 E35.98199
G0 F12000 X114.990 Y114.707
G1 F1200 X114.498 Y114.215 E36.06549
G0 F12000 X114.273 Y113.424
G1 F1200 X113.781 Y112.932 E36.14899
G0 F12000 X113.556 Y112.142
G1 F1200 X113.064 Y111.650 E36.23248
G0 F12000 X112.839 Y110.859
G1 F1200 X112.347 Y110.368 E36.31589
G0 F12000 X112.122 Y109.576
G1 F1200 X111.630 Y109.085 E36.39930
G0 F12000 X111.405 Y108.294
G1 F1200 X110.913 Y107.802 E36.48280
G0 F12000 X110.688 Y107.011
G1 F1200 X110.196 Y106.519 E36.56629
G0 F12000 X109.971 Y105.728
G1 F1200 X109.480 Y105.237 E36.64962
;LAYER:1
M106 S2
G10
G1 Z0.400
G0 F12000 X106.565 Y105.084 Z0.360
;TYPE:WALL-OUTER
G1 Z0.360
G11
G1 F1080 X109.498 Y114.815 E36.89293
G1 X113.262 Y114.815 E36.98304
G1 X113.262 Y117.917 E37.05730
G1 X112.660 Y117.917 E37.07171
G1 X112.660 Y115.417 E37.13156
G1 X109.666 Y115.417 E37.20324
G1 X109.666 Y117.312 E37.24861
G1 X105.981 Y105.084 E37.55435
G1 X106.565 Y105.084 E37.56833
G0 F12000 X106.505 Y105.378
;TYPE:SKIN
G1 F1080 X106.459 Y105.706 E37.57584
G1 X106.590 Y106.139 E37.58336
G1 X106.721 Y106.573 E37.59089
G1 X106.852 Y107.006 E37.59841
G1 X106.982 Y107.440 E37.60597
G1 X107.113 Y107.874 E37.61350
G1 X107.243 Y108.307 E37.62102
G1 X107.374 Y108.741 E37.62852
G1 X107.505 Y109.174 E37.63604
G1 X107.636 Y109.608 E37.64358
G1 X107.766 Y110.042 E37.65113
G1 X107.897 Y110.475 E37.65868
G1 X108.028 Y110.909 E37.66622
G1 X108.158 Y111.342 E37.67373
G1 X108.289 Y111.776 E37.68124
G1 X108.420 Y112.210 E37.68880
G1 X108.551 Y112.643 E37.69634
G1 X108.681 Y113.077 E37.70390
G1 X108.812 Y113.510 E37.71142
G1 X108.943 Y113.944 E37.71895
G1 X109.073 Y114.378 E37.72651
G1 X109.204 Y114.811 E37.73406
G1 X109.341 Y115.238 E37.74162
G1 X109.407 Y115.737 E37.74959
G1 X109.502 Y115.641 E37.75316
G1 X110.029 Y115.114 E37.76407
G1 X110.594 Y115.114 E37.77498
G1 X111.158 Y115.114 E37.78588
G1 X111.722 Y115.114 E37.79678
G1 X112.287 Y115.114 E37.80769
G1 X112.925 Y115.039 E37.81860
G1 X112.960 Y115.569 E37.82947
G1 X112.960 Y116.133 E37.84033
G1 X112.960 Y116.698 E37.85121
G1 X112.960 Y117.262 E37.86207
G1 X112.799 Y117.705 E37.87336
G10
G1 Z0.460
G0 F12000 X116.404 Y117.917
;TYPE:WALL-OUTER
G1 Z0.360
G11
G1 F1080 X109.231 Y105.084 E38.22531
G1 X109.775 Y105.084 E38.23834
G1 X116.948 Y117.917 E38.59029
G1 X116.404 Y117.917 E38.60332
G0 F12000 X116.353 Y117.537
;TYPE:SKIN
G1 F1080 X116.323 Y117.285 E38.60816
G1 X116.120 Y116.923 E38.61299
G1 X115.918 Y116.561 E38.61782
G1 X115.716 Y116.199 E38.62264
G1 X115.513 Y115.837 E38.62742
G1 X115.311 Y115.475 E38.63222
G1 X115.109 Y115.113 E38.63702
G1 X114.907 Y114.751 E38.64185
G1 X114.704 Y114.389 E38.64668
G1 X114.502 Y114.027 E38.65151
G1 X114.299 Y113.665 E38.65634
G1 X114.097 Y113.304 E38.66118
G1 X113.895 Y112.942 E38.66603
G1 X113.693 Y112.579 E38.67089
G1 X113.490 Y112.217 E38.67572
G1 X113.287 Y111.856 E38.68049
G1 X113.085 Y111.494 E38.68529
G1 X112.883 Y111.132 E38.69009
G1 X112.681 Y110.770 E38.69492
G1 X112.479 Y110.408 E38.69977
G1 X112.276 Y110.046 E38.70460
G1 X112.074 Y109.684 E38.70942
G1 X111.871 Y109.322 E38.71425
G1 X111.669 Y108.961 E38.71909
G1 X111.467 Y108.598 E38.72395
G1 X111.264 Y108.236 E38.72878
G1 X111.062 Y107.874 E38.73361
G1 X110.860 Y107.512 E38.73843
G1 X110.658 Y107.150 E38.74326
G1 X110.455 Y106.789 E38.74808
G1 X110.253 Y106.427 E38.75293
G1 X110.050 Y106.065 E38.75776
G1 X109.848 Y105.703 E38.76259
G1 X109.819 Y105.450 E38.76868
;LAYER:2
M106 S5
G10
G1 Z0.460
G0 F12000 X106.565 Y105.084 Z0.420
;TYPE:WALL-OUTER
G1 Z0.420
G11
G1 F1080 X109.498 Y114.815 E39.01200
G1 X113.262 Y114.815 E39.10211
G1 X113.262 Y117.917 E39.17637
G1 X112.660 Y117.917 E39.19078
G1 X112.660 Y115.417 E39.25063
G1 X109.666 Y115.417 E39.32231
G1 X109.666 Y117.312 E39.36767
G1 X105.981 Y105.084 E39.67341
G1 X106.565 Y105.084 E39.68740
G0 F12000 X106.211 Y105.365
;TYPE:SKIN
G1 F1080 X106.541 Y105.978 E39.70151
G1 X106.785 Y106.785 E39.71563
G1 X107.028 Y107.593 E39.72970
G1 X107.272 Y108.401 E39.74378
G1 X107.515 Y109.208 E39.75789
G1 X107.758 Y110.016 E39.77201
G1 X108.002 Y110.824 E39.78614
G1 X108.246 Y111.632 E39.80022
G1 X108.489 Y112.440 E39.81434
G1 X108.733 Y113.247 E39.82846
G1 X108.976 Y114.055 E39.84253
G1 X109.450 Y114.811 E39.85667
G1 X110.035 Y115.115 E39.86750
G1 X110.600 Y115.115 E39.87839
G1 X111.164 Y115.115 E39.88925
G1 X111.728 Y115.115 E39.90011
G1 X112.292 Y115.115 E39.91097
G1 X112.767 Y115.307 E39.92186
G1 X112.960 Y115.782 E39.93278
G1 X112.960 Y116.347 E39.94369
G1 X112.960 Y116.911 E39.95459
G1 X112.960 Y117.475 E39.96549
G1 X112.979 Y117.776 E39.97271
G0 F12000 X112.979 Y117.617
G0 X112.962 Y115.097
G0 X113.122 Y115.097
G1 F1080 X112.978 Y114.954 E39.97756
G0 F12000 X112.978 Y115.115
G0 X109.325 Y115.076
G0 X109.366 Y115.451
G0 X109.525 Y115.451
G1 F1080 X109.132 Y115.058 E39.99087
G0 F12000 X109.375 Y115.865
G1 F1080 X109.521 Y116.011 E39.99581
G10
G1 Z0.520
G0 F12000 X116.404 Y117.917
;TYPE:WALL-OUTER
G1 Z0.420
G11
G1 F1080 X109.231 Y105.084 E40.34777
G1 X109.775 Y105.084 E40.36079
G1 X116.948 Y117.917 E40.71275
G1 X116.404 Y117.917 E40.72577
G0 F12000 X116.432 Y117.279
;TYPE:SKIN
G1 F1080 X115.924 Y116.771 E40.74297
G0 F12000 X115.717 Y116.000
G1 F1080 X115.208 Y115.491 E40.76021
G0 F12000 X115.001 Y114.720
G1 F1080 X114.493 Y114.211 E40.77742
G0 F12000 X114.286 Y113.440
G1 F1080 X113.777 Y112.932 E40.79464
G0 F12000 X113.571 Y112.161
G1 F1080 X112.958 Y111.266 E40.81189
G1 X112.242 Y109.986 E40.82913
G1 X111.527 Y108.706 E40.84638
G1 X110.811 Y107.426 E40.86362
G1 X110.096 Y106.147 E40.88085
G1 X109.483 Y105.252 E40.90682
;LAYER:3
M106 S7
G10
G1 Z0.520
G0 F12000 X106.565 Y105.084 Z0.480
;TYPE:WALL-OUTER
G1 Z0.480
G11
G1 F1080 X109.498 Y114.815 E41.15014
G1 X113.262 Y114.815 E41.24025
G1 X113.262 Y117.917 E41.31451
G1 X112.660 Y117.917 E41.32892
G1 X112.660 Y115.417 E41.38877
G1 X109.666 Y115.417 E41.46045
G1 X109.666 Y117.312 E41.50581
G1 X105.981 Y105.084 E41.81156
G1 X106.565 Y105.084 E41.82554
G0 F12000 X106.505 Y105.378
;TYPE:SKIN
G1 F1080 X106.459 Y105.706 E41.83305
G1 X106.590 Y106.139 E41.84057
G1 X106.721 Y106.573 E41.84810
G1 X106.852 Y107.006 E41.85562
G1 X106.982 Y107.440 E41.86318
G1 X107.113 Y107.874 E41.87071
G1 X107.243 Y108.307 E41.87823
G1 X107.374 Y108.741 E41.88573
G1 X107.505 Y109.174 E41.89325
G1 X107.636 Y109.608 E41.90079
G1 X107.766 Y110.042 E41.90834
G1 X107.897 Y110.475 E41.91589
G1 X108.028 Y110.909 E41.92342
G1 X108.158 Y111.342 E41.93094
G1 X108.289 Y111.776 E41.93844
G1 X108.420 Y112.210 E41.94601
G1 X108.551 Y112.643 E41.95355
G1 X108.681 Y113.077 E41.96111
G1 X108.812 Y113.510 E41.96863
G1 X108.943 Y113.944 E41.97616
G1 X109.073 Y114.378 E41.98372
G1 X109.204 Y114.811 E41.99126
G1 X109.341 Y115.238 E41.99882
G1 X109.407 Y115.737 E42.00680
G1 X109.502 Y115.641 E42.01036
G1 X110.029 Y115.114 E42.02127
G1 X110.594 Y115.114 E42.03219
G1 X111.158 Y115.114 E42.04309
G1 X111.722 Y115.114 E42.05398
G1 X112.287 Y115.114 E42.06490
G1 X112.925 Y115.039 E42.07581
G1 X112.960 Y115.569 E42.08667
G1 X112.960 Y116.133 E42.09754
G1 X112.960 Y116.698 E42.10842
G1 X112.960 Y117.262 E42.11928
G1 X112.799 Y117.705 E42.13057
G10
G1 Z0.580
G0 F12000 X116.404 Y117.917
;TYPE:WALL-OUTER
G1 Z0.480
G11
G1 F1080 X109.231 Y105.084 E42.48252
G1 X109.775 Y105.084 E42.49555
G1 X116.948 Y117.917 E42.84750
G1 X116.404 Y117.917 E42.86053
G0 F12000 X116.353 Y117.537
;TYPE:SKIN
G1 F1080 X116.323 Y117.285 E42.86537
G1 X116.120 Y116.923 E42.87020
G1 X115.918 Y116.561 E42.87502
G1 X115.716 Y116.199 E42.87985
G1 X115.513 Y115.837 E42.88463
G1 X115.311 Y115.475 E42.88943
G1 X115.109 Y115.113 E42.89423
G1 X114.907 Y114.751 E42.89906
G1 X114.704 Y114.389 E42.90389
G1 X114.502 Y114.027 E42.90871
G1 X114.299 Y113.665 E42.91354
G1 X114.097 Y113.304 E42.91838
G1 X113.895 Y112.942 E42.92323
G1 X113.693 Y112.579 E42.92810
G1 X113.490 Y112.217 E42.93293
G1 X113.287 Y111.856 E42.93770
G1 X113.085 Y111.494 E42.94250
G1 X112.883 Y111.132 E42.94730
G1 X112.681 Y110.770 E42.95212
G1 X112.479 Y110.408 E42.95697
G1 X112.276 Y110.046 E42.96180
G1 X112.074 Y109.684 E42.96663
G1 X111.871 Y109.322 E42.97146
G1 X111.669 Y108.961 E42.97630
G1 X111.467 Y108.598 E42.98116
G1 X111.264 Y108.236 E42.98599
G1 X111.062 Y107.874 E42.99082
G1 X110.860 Y107.512 E42.99564
G1 X110.658 Y107.150 E43.00047
G1 X110.455 Y106.789 E43.00529
G1 X110.253 Y106.427 E43.01014
G1 X110.050 Y106.065 E43.01497
G1 X109.848 Y105.703 E43.01980
G1 X109.819 Y105.450 E43.02589
;LAYER:4
M106 S12
G10
G1 Z0.580
G0 F12000 X106.565 Y105.084 Z0.540
;TYPE:WALL-OUTER
G1 Z0.540
G11
G1 F1080 X109.498 Y114.815 E43.26920
G1 X113.262 Y114.815 E43.35931
G1 X113.262 Y117.917 E43.43358
G1 X112.660 Y117.917 E43.44799
G1 X112.660 Y115.417 E43.50784
G1 X109.666 Y115.417 E43.57951
G1 X109.666 Y117.312 E43.62488
G1 X105.981 Y105.084 E43.93062
G1 X106.565 Y105.084 E43.94460
G0 F12000 X106.211 Y105.365
;TYPE:SKIN
G1 F1080 X106.541 Y105.978 E43.95872
G1 X106.785 Y106.785 E43.97284
G1 X107.028 Y107.593 E43.98691
G1 X107.272 Y108.401 E44.00099
G1 X107.515 Y109.208 E44.01510
G1 X107.758 Y110.016 E44.02922
G1 X108.002 Y110.824 E44.04335
G1 X108.246 Y111.632 E44.05743
G1 X108.489 Y112.440 E44.07155
G1 X108.733 Y113.247 E44.08567
G1 X108.976 Y114.055 E44.09974
G1 X109.450 Y114.811 E44.11387
G1 X110.035 Y115.115 E44.12471
G1 X110.600 Y115.115 E44.13559
G1 X111.164 Y115.115 E44.14646
G1 X111.728 Y115.115 E44.15732
G1 X112.292 Y115.115 E44.16818
G1 X112.767 Y115.307 E44.17906
G1 X112.960 Y115.782 E44.18998
G1 X112.960 Y116.347 E44.20090
G1 X112.960 Y116.911 E44.21180
G1 X112.960 Y117.475 E44.22269
G1 X112.979 Y117.776 E44.22991
G0 F12000 X112.979 Y117.617
G0 X112.962 Y115.097
G0 X113.122 Y115.097
G1 F1080 X112.978 Y114.954 E44.23477
G0 F12000 X112.978 Y115.115
G0 X109.325 Y115.076
G0 X109.366 Y115.451
G0 X109.525 Y115.451
G1 F1080 X109.132 Y115.058 E44.24808
G0 F12000 X109.375 Y115.865
G1 F1080 X109.521 Y116.011 E44.25302
G10
G1 Z0.640
G0 F12000 X116.404 Y117.917
;TYPE:WALL-OUTER
G1 Z0.540
G11
G1 F1080 X109.231 Y105.084 E44.60498
G1 X109.775 Y105.084 E44.61800
G1 X116.948 Y117.917 E44.96996
G1 X116.404 Y117.917 E44.98298
G0 F12000 X116.432 Y117.279
;TYPE:SKIN
G1 F1080 X115.924 Y116.771 E45.00018
G0 F12000 X115.717 Y116.000
G1 F1080 X115.208 Y115.491 E45.01741
G0 F12000 X115.001 Y114.720
G1 F1080 X114.493 Y114.211 E45.03463
G0 F12000 X114.286 Y113.440
G1 F1080 X113.777 Y112.932 E45.05184
G0 F12000 X113.571 Y112.161
G1 F1080 X112.958 Y111.266 E45.06909
G1 X112.242 Y109.986 E45.08634
G1 X111.527 Y108.706 E45.10358
G1 X110.811 Y107.426 E45.12083
G1 X110.096 Y106.147 E45.13806
G1 X109.483 Y105.252 E45.16403
;LAYER:5
M106 S15
G10
G1 Z0.640
G0 F12000 X106.565 Y105.084 Z0.600
;TYPE:WALL-OUTER
G1 Z0.600
G11
G1 F1080 X109.498 Y114.815 E45.40734
G1 X113.262 Y114.815 E45.49745
G1 X113.262 Y117.917 E45.57172
G1 X112.660 Y117.917 E45.58613
G1 X112.660 Y115.417 E45.64598
G1 X109.666 Y115.417 E45.71766
G1 X109.666 Y117.312 E45.76302
G1 X105.981 Y105.084 E46.06876
G1 X106.565 Y105.084 E46.08274
G0 F12000 X106.505 Y105.378
;TYPE:SKIN
G1 F1080 X106.459 Y105.706 E46.09026
G1 X106.590 Y106.139 E46.09777
G1 X106.721 Y106.573 E46.10531
G1 X106.852 Y107.006 E46.11283
G1 X106.982 Y107.440 E46.12038
G1 X107.113 Y107.874 E46.12792
G1 X107.243 Y108.307 E46.13543
G1 X107.374 Y108.741 E46.14294
G1 X107.505 Y109.174 E46.15046
G1 X107.636 Y109.608 E46.15799
G1 X107.766 Y110.042 E46.16555
G1 X107.897 Y110.475 E46.17310
G1 X108.028 Y110.909 E46.18063
G1 X108.158 Y111.342 E46.18814
G1 X108.289 Y111.776 E46.19565
G1 X108.420 Y112.210 E46.20321
G1 X108.551 Y112.643 E46.21076
G1 X108.681 Y113.077 E46.21832
G1 X108.812 Y113.510 E46.22583
G1 X108.943 Y113.944 E46.23337
G1 X109.073 Y114.378 E46.24093
G1 X109.204 Y114.811 E46.24847
G1 X109.341 Y115.238 E46.25603
G1 X109.407 Y115.737 E46.26401
G1 X109.502 Y115.641 E46.26757
G1 X110.029 Y115.114 E46.27848
G1 X110.594 Y115.114 E46.28940
G1 X111.158 Y115.114 E46.30029
G1 X111.722 Y115.114 E46.31119
G1 X112.287 Y115.114 E46.32211
G1 X112.925 Y115.039 E46.33301
G1 X112.960 Y115.569 E46.34388
G1 X112.960 Y116.133 E46.35474
G1 X112.960 Y116.698 E46.36563
G1 X112.960 Y117.262 E46.37649
G1 X112.799 Y117.705 E46.38777
G10
G1 Z0.700
G0 F12000 X116.404 Y117.917
;TYPE:WALL-OUTER
G1 Z0.600
G11
G1 F1080 X109.231 Y105.084 E46.73973
G1 X109.775 Y105.084 E46.75275
G1 X116.948 Y117.917 E47.10471
G1 X116.404 Y117.917 E47.11773
G0 F12000 X116.353 Y117.537
;TYPE:SKIN
G1 F1080 X116.323 Y117.285 E47.12258
G1 X116.120 Y116.923 E47.12741
G1 X115.918 Y116.561 E47.13223
G1 X115.716 Y116.199 E47.13706
G1 X115.513 Y115.837 E47.14184
G1 X115.311 Y115.475 E47.14664
G1 X115.109 Y115.113 E47.15144
G1 X114.907 Y114.751 E47.15627
G1 X114.704 Y114.389 E47.16110
G1 X114.502 Y114.027 E47.16592
G1 X114.299 Y113.665 E47.17075
G1 X114.097 Y113.304 E47.17559
G1 X113.895 Y112.942 E47.18044
G1 X113.693 Y112.579 E47.18530
G1 X113.490 Y112.217 E47.19013
G1 X113.287 Y111.856 E47.19491
G1 X113.085 Y111.494 E47.19971
G1 X112.883 Y111.132 E47.20451
G1 X112.681 Y110.770 E47.20933
G1 X112.479 Y110.408 E47.21418
G1 X112.276 Y110.046 E47.21901
G1 X112.074 Y109.684 E47.22384
G1 X111.871 Y109.322 E47.22867
G1 X111.669 Y108.961 E47.23351
G1 X111.467 Y108.598 E47.23837
