;FLAVOR:UltiGCode
;TIME:396
;MATERIAL:219
;MATERIAL2:0
;NOZZLE_DIAMETER:0.400000
;NOZZLE_DIAMETER2:0.400000

;Layer count: 63
;LAYER:0
M107
G0 F12000 X109.610 Y102.229 Z0.300
G0 X110.610 Y102.229
;TYPE:SKIRT
G1 F1200 X111.460 Y100.708 E0.20909
G1 X122.771 Y100.708 E1.56641
G1 X122.313 Y102.229 E1.75702
G1 X123.311 Y102.229 E1.87678
G1 X121.885 Y106.968 E2.47065
G1 X121.886 Y106.968 E2.47077
G1 X121.481 Y108.310 E2.63898
G1 X120.856 Y110.386 E2.89915
G1 X120.855 Y110.386 E2.89927
G1 X120.389 Y111.935 E3.09338
G1 X119.725 Y114.135 E3.36914
G1 X119.727 Y114.135 E3.36938
G1 X118.901 Y116.871 E3.71234
G1 X118.700 Y117.539 E3.79605
G1 X118.699 Y117.539 E3.79617
G1 X118.076 Y119.604 E4.05500
G1 X117.264 Y122.292 E4.39195
G1 X98.388 Y122.292 E6.65707
G1 X101.855 Y116.104 E7.50824
G1 X101.925 Y115.979 E7.52543
G1 X103.688 Y112.825 E7.95903
G1 X103.687 Y112.825 E7.95915
G1 X108.200 Y104.752 E9.06901
G1 X106.187 Y108.352 E9.56396
G1 X106.935 Y107.011 E9.74822
G1 X106.937 Y107.011 E9.74846
G1 X109.610 Y102.229 E10.40586
G1 X110.610 Y102.229 E10.52586
G0 F12000 X110.845 Y102.629
G1 F1200 X111.695 Y101.108 E10.73495
G1 X122.233 Y101.108 E11.99951
G1 X121.775 Y102.629 E12.19012
G1 X122.773 Y102.629 E12.30988
G1 X121.347 Y107.368 E12.90375
G1 X121.348 Y107.368 E12.90387
G1 X121.051 Y108.352 E13.02721
G1 X120.559 Y109.986 E13.23199
G1 X120.558 Y109.986 E13.23211
G1 X120.370 Y110.611 E13.31043
G1 X119.851 Y112.335 E13.52648
G1 X119.187 Y114.535 E13.80224
G1 X119.189 Y114.535 E13.80248
G1 X118.542 Y116.676 E14.07088
G1 X118.403 Y117.139 E14.12889
G1 X118.402 Y117.139 E14.12901
G1 X117.693 Y119.488 E14.42345
G1 X116.967 Y121.892 E14.72479
G1 X99.071 Y121.892 E16.87231
G1 X102.115 Y116.458 E17.61973
G1 X102.631 Y115.535 E17.74663
G1 X103.189 Y114.535 E17.88405
G1 X103.190 Y114.535 E17.88417
G1 X104.370 Y112.425 E18.17427
G1 X104.369 Y112.425 E18.17439
G1 X105.733 Y109.986 E18.50973
G1 X105.732 Y109.986 E18.50985
G1 X106.462 Y108.681 E18.68929
G1 X107.170 Y107.411 E18.86377
G1 X107.172 Y107.411 E18.86401
G1 X109.845 Y102.629 E19.52141
G1 X110.845 Y102.629 E19.64141
G10
G1 Z0.400
G0 F12000 X112.839 Y106.029
;TYPE:WALL-OUTER
G1 Z0.300
G11
G1 F1200 X113.690 Y104.508 E19.85056
G1 X114.230 Y104.508 E19.91536
G1 X106.727 Y117.935 E21.76109
G1 X110.149 Y117.935 E22.17173
G1 X110.149 Y114.790 E22.54913
G1 X113.977 Y114.790 E23.00849
G1 X117.075 Y104.508 E24.29712
G1 X117.658 Y104.508 E24.36708
G1 X117.199 Y106.029 E24.55773
G1 X118.198 Y106.029 E24.67761
G1 X118.031 Y106.586 E24.74739
G1 X117.031 Y106.586 E24.86739
G1 X116.451 Y108.510 E25.10854
G1 X117.450 Y108.510 E25.22842
G1 X117.283 Y109.067 E25.29819
G1 X116.283 Y109.067 E25.41819
G1 X115.771 Y110.768 E25.63136
G1 X116.771 Y110.768 E25.75136
G1 X116.603 Y111.326 E25.82129
G1 X115.602 Y111.326 E25.94141
G1 X115.043 Y113.182 E26.17401
G1 X116.042 Y113.182 E26.29389
G1 X115.875 Y113.739 E26.36367
G1 X114.875 Y113.739 E26.48367
G1 X114.274 Y115.735 E26.73381
G1 X115.274 Y115.735 E26.85381
G1 X115.106 Y116.293 E26.92374
G1 X114.105 Y116.293 E27.04386
G1 X113.748 Y117.480 E27.19261
G1 X113.748 Y115.390 E27.44341
G1 X110.749 Y115.390 E27.80329
G1 X110.749 Y118.301 E28.15261
G1 X113.748 Y118.301 E28.51249
G1 X113.748 Y117.935 E28.55641
G1 X114.611 Y117.935 E28.65997
G1 X114.443 Y118.492 E28.72978
G1 X104.873 Y118.492 E29.87818
G1 X105.185 Y117.935 E29.95479
G1 X106.185 Y117.935 E30.07479
G1 X107.103 Y116.293 E30.30054
G1 X106.104 Y116.293 E30.42042
G1 X106.368 Y115.820 E30.48542
G1 X107.367 Y115.820 E30.60530
G1 X108.554 Y113.697 E30.89717
G1 X107.555 Y113.697 E31.01705
G1 X107.819 Y113.224 E31.08206
G1 X108.818 Y113.224 E31.20194
G1 X109.903 Y111.284 E31.46867
G1 X108.903 Y111.284 E31.58867
G1 X109.167 Y110.811 E31.65367
G1 X110.166 Y110.811 E31.77355
G1 X111.165 Y109.025 E32.01912
G1 X110.166 Y109.025 E32.13900
G1 X110.430 Y108.552 E32.20401
G1 X111.429 Y108.552 E32.32389
G1 X112.528 Y106.586 E32.59416
G1 X111.529 Y106.586 E32.71404
G1 X111.840 Y106.029 E32.79060
G1 X112.839 Y106.029 E32.91048
G0 F12000 X113.035 Y105.964
;TYPE:SKIN
G1 F1200 X113.276 Y105.923 E32.93409
G1 X113.409 Y105.489 E32.95779
G1 X113.612 Y105.126 E32.98137
G1 X113.644 Y104.875 E33.01173
G10
G1 Z0.400
G0 F12000 X112.674 Y106.169
G1 Z0.300
G11
G1 F1200 X112.801 Y106.578 E33.06235
G1 X112.598 Y106.941 E33.08619
G1 X112.395 Y107.304 E33.11002
G1 X112.192 Y107.666 E33.13380
G1 X111.989 Y108.030 E33.15780
G1 X111.787 Y108.393 E33.18161
G1 X111.654 Y108.826 E33.20553
G1 X111.050 Y108.788 E33.25890
G1 X110.940 Y108.960 E33.29143
G1 X111.178 Y109.481 E33.31531
G1 X110.975 Y109.844 E33.33927
G1 X110.772 Y110.207 E33.36322
G1 X110.570 Y110.570 E33.38715
G1 X110.438 Y111.004 E33.41097
G1 X109.915 Y111.046 E33.45095
G1 X109.764 Y111.178 E33.48368
G1 X109.962 Y111.659 E33.50756
G1 X109.759 Y112.021 E33.53134
G1 X109.556 Y112.384 E33.55529
G1 X109.353 Y112.747 E33.57925
G1 X109.150 Y113.110 E33.60321
G1 X108.948 Y113.474 E33.62718
G1 X108.832 Y113.641 E33.65097
G1 X108.368 Y113.459 E33.68357
G1 X107.989 Y113.363 E33.73049
G0 F12000 X108.574 Y113.948
G1 F1200 X108.543 Y114.199 E33.75439
G1 X108.340 Y114.562 E33.77834
G1 X108.137 Y114.925 E33.80230
G1 X107.934 Y115.288 E33.82613
G1 X107.731 Y115.651 E33.85009
G1 X107.599 Y116.084 E33.87399
G1 X107.004 Y116.055 E33.92599
G1 X106.889 Y116.223 E33.95867
G1 X107.122 Y116.739 E33.98262
G1 X106.920 Y117.102 E34.00667
G1 X106.717 Y117.465 E34.03088
G1 X106.514 Y117.828 E34.05508
G1 X106.898 Y118.212 E34.12514
G1 X107.464 Y118.212 E34.17200
G1 X108.030 Y118.212 E34.21887
G1 X108.596 Y118.212 E34.26573
G1 X109.161 Y118.212 E34.31251
G1 X109.727 Y118.212 E34.35938
G1 X110.218 Y118.138 E34.40630
G1 X110.609 Y117.962 E34.46072
G1 X110.448 Y117.236 E34.51493
G1 X110.448 Y116.671 E34.56917
G1 X110.448 Y116.105 E34.62350
G1 X110.448 Y115.539 E34.67784
G1 X110.487 Y115.012 E34.73221
G1 X111.128 Y115.088 E34.78644
G1 X111.694 Y115.088 E34.84077
G1 X112.260 Y115.088 E34.89511
G1 X112.825 Y115.088 E34.94935
G1 X113.391 Y115.088 E35.00368
G1 X113.860 Y115.275 E35.05806
G1 X114.029 Y115.726 E35.10647
G1 X114.316 Y116.013 E35.15493
G1 X114.737 Y116.152 E35.20813
G0 F12000 X114.303 Y115.151
G1 F1200 X114.256 Y114.822 E35.24592
G1 X114.387 Y114.387 E35.28340
G1 X114.518 Y113.953 E35.32093
G1 X114.539 Y113.407 E35.35863
G1 X115.157 Y113.459 E35.42766
G1 X115.578 Y113.598 E35.48086
G0 F12000 X114.957 Y112.977
G1 F1200 X114.911 Y112.649 E35.51842
G1 X115.042 Y112.214 E35.55590
G1 X115.173 Y111.779 E35.59338
G1 X115.304 Y111.344 E35.63086
G1 X115.435 Y110.910 E35.66840
G1 X115.566 Y110.475 E35.70615
G1 X115.698 Y110.041 E35.74398
G1 X115.828 Y109.606 E35.78171
G1 X115.959 Y109.171 E35.81933
G1 X116.090 Y108.736 E35.85708
G1 X116.165 Y108.528 E35.89489
G1 X116.707 Y108.787 E35.94174
G1 X117.129 Y108.926 E35.99506
G0 F12000 X116.398 Y108.195
G1 F1200 X116.352 Y107.866 E36.03273
G1 X116.482 Y107.432 E36.07038
G1 X116.614 Y106.997 E36.10802
G1 X116.745 Y106.563 E36.14569
G1 X116.876 Y106.128 E36.18344
G1 X117.007 Y105.693 E36.22120
G1 X117.138 Y105.259 E36.25914
G1 X117.233 Y104.788 E36.29734
G1 X117.448 Y104.720 E36.32440
G0 F12000 X117.200 Y106.169
G1 F1200 X117.620 Y106.307 E36.37108
G1 X117.953 Y106.356 E36.41147
G10
G1 Z0.400
G0 F12000 X116.282 Y110.908
G1 Z0.300
G11
G1 F1200 X116.253 Y111.162 E36.45051
G1 X115.716 Y110.908 E36.52180
G10
G1 Z0.400
G0 F12000 X112.385 Y106.445
G1 Z0.300
G11
G1 F1200 X112.108 Y106.169 E36.56872
G0 F12000 X105.911 Y118.074
G1 F1200 X105.906 Y118.351 E36.61576
G1 X105.346 Y118.074 E36.69073
;LAYER:1
M106 S2
G0 F12000 X106.185 Y117.934 Z0.360
;TYPE:WALL-OUTER
G1 F1620 X107.101 Y116.294 E36.73571
G1 X106.101 Y116.294 E36.75965
G1 X106.367 Y115.819 E36.77268
G1 X107.367 Y115.819 E36.79662
G1 X108.552 Y113.698 E36.85478
G1 X107.552 Y113.698 E36.87872
G1 X107.818 Y113.223 E36.89176
G1 X108.818 Y113.223 E36.91570
G1 X109.901 Y111.285 E36.96884
G1 X108.901 Y111.285 E36.99278
G1 X109.166 Y110.810 E37.00581
G1 X110.166 Y110.810 E37.02975
G1 X111.163 Y109.026 E37.07867
G1 X110.163 Y109.026 E37.10261
G1 X110.429 Y108.551 E37.11564
G1 X111.429 Y108.551 E37.13958
G1 X112.526 Y106.587 E37.19344
G1 X111.526 Y106.587 E37.21738
G1 X111.839 Y106.028 E37.23272
G1 X112.839 Y106.028 E37.25666
G1 X113.689 Y104.507 E37.29837
G1 X114.233 Y104.507 E37.31139
G1 X106.729 Y117.934 E37.67963
G1 X110.148 Y117.934 E37.76148
G1 X110.148 Y114.789 E37.83677
G1 X113.976 Y114.789 E37.92841
G1 X117.075 Y104.507 E38.18550
G1 X117.659 Y104.507 E38.19948
G1 X117.200 Y106.028 E38.23752
G1 X118.200 Y106.028 E38.26146
G1 X118.032 Y106.587 E38.27543
G1 X117.032 Y106.587 E38.29937
G1 X116.452 Y108.509 E38.34743
G1 X117.452 Y108.509 E38.37137
G1 X117.284 Y109.068 E38.38535
G1 X116.284 Y109.068 E38.40929
G1 X115.772 Y110.767 E38.45177
G1 X116.772 Y110.767 E38.47571
G1 X116.603 Y111.327 E38.48971
G1 X115.603 Y111.327 E38.51365
G1 X115.044 Y113.181 E38.56001
G1 X116.044 Y113.181 E38.58395
G1 X115.876 Y113.740 E38.59792
G1 X114.876 Y113.740 E38.62186
G1 X114.275 Y115.734 E38.67172
G1 X115.275 Y115.734 E38.69566
G1 X115.106 Y116.294 E38.70967
G1 X114.106 Y116.294 E38.73361
G1 X113.747 Y117.486 E38.76341
G1 X113.747 Y115.391 E38.81356
G1 X110.750 Y115.391 E38.88531
G1 X110.750 Y118.300 E38.95495
G1 X113.747 Y118.300 E39.02670
G1 X113.747 Y117.934 E39.03546
G1 X114.612 Y117.934 E39.05617
G1 X114.443 Y118.493 E39.07015
G1 X104.872 Y118.493 E39.29928
G1 X105.185 Y117.934 E39.31462
G1 X106.185 Y117.934 E39.33856
G0 F12000 X106.321 Y117.977
;TYPE:SKIN
G1 F1620 X106.808 Y117.771 E39.35572
G1 X106.367 Y118.212 E39.36515
G1 X105.803 Y118.212 E39.37459
G1 X105.381 Y118.352 E39.38524
G0 F12000 X105.381 Y118.193
G0 X107.074 Y118.193
G0 X107.074 Y118.352
G1 F1620 X107.495 Y118.212 E39.39466
G1 X108.059 Y118.212 E39.40407
G1 X108.624 Y118.212 E39.41349
G1 X109.188 Y118.212 E39.42290
G1 X109.752 Y118.212 E39.43231
G1 X110.231 Y118.016 E39.44175
G1 X110.448 Y117.516 E39.45261
G1 X110.448 Y116.952 E39.46343
G1 X110.448 Y116.388 E39.47430
G1 X110.448 Y115.824 E39.48516
G1 X110.674 Y115.315 E39.49602
G1 X111.183 Y115.089 E39.50695
G1 X111.748 Y115.089 E39.51786
G1 X112.312 Y115.089 E39.52873
G1 X112.876 Y115.089 E39.53959
G1 X113.441 Y115.089 E39.55050
G1 X114.024 Y114.787 E39.56138
G1 X114.494 Y114.036 E39.57536
G1 X114.789 Y113.175 E39.59289
G1 X114.980 Y112.421 E39.60684
G1 X115.223 Y111.613 E39.62081
G1 X115.515 Y110.757 E39.63807
G1 X115.710 Y109.997 E39.65210
G1 X115.953 Y109.190 E39.66611
G1 X116.390 Y108.753 E39.68008
G1 X116.920 Y108.787 E39.68952
G1 X117.228 Y108.762 E39.69691
G0 F12000 X116.526 Y107.772
G1 F1620 X116.112 Y108.185 E39.71091
G0 F12000 X116.355 Y107.378
G1 F1620 X116.684 Y106.767 E39.72495
G1 X117.150 Y106.301 E39.73894
G1 X117.708 Y106.307 E39.74839
G1 X117.959 Y106.338 E39.75444
G0 F12000 X117.257 Y105.348
G1 F1620 X116.842 Y105.763 E39.76849
G0 F12000 X117.085 Y104.955
G1 F1620 X117.394 Y104.646 E39.77895
G10
G1 Z0.460
G0 F12000 X113.976 Y104.679
G1 Z0.360
G11
G1 F1620 X113.468 Y105.187 E39.79615
G0 F12000 X113.261 Y105.958
G1 F1620 X112.619 Y106.318 E39.81337
G1 X112.208 Y106.447 E39.82369
G0 F12000 X112.546 Y107.237
G1 F1620 X111.934 Y108.131 E39.84085
G1 X111.207 Y108.858 E39.85806
G1 X110.897 Y108.886 E39.86551
G0 F12000 X111.116 Y109.796
G1 F1620 X110.504 Y110.690 E39.88267
G1 X109.831 Y111.363 E39.89980
G1 X109.681 Y110.949 E39.90638
G1 X109.204 Y111.144 E39.91872
G0 F12000 X109.687 Y112.354
G1 F1620 X108.929 Y113.111 E39.93588
G1 X108.299 Y113.459 E39.94249
G1 X107.920 Y113.557 E39.95186
G0 F12000 X108.463 Y114.142
G1 F1620 X108.972 Y113.633 E39.96909
G0 F12000 X108.257 Y114.912
G1 F1620 X107.480 Y115.689 E39.98623
G1 X106.831 Y116.055 E39.99281
G1 X106.452 Y116.153 E40.00218
G0 F12000 X107.034 Y116.700
G1 F1620 X107.542 Y116.191 E40.01939
G10
G1 Z0.460
G0 F12000 X110.288 Y115.138
G1 Z0.360
G11
G1 F1620 X110.498 Y114.928 E40.02650
G0 F12000 X110.498 Y115.089
G0 X110.450 Y118.202
G0 X110.609 Y118.202
G1 F1620 X110.459 Y118.352 E40.03158
G0 F12000 X110.459 Y118.193
G0 X110.409 Y115.050
G0 X114.088 Y115.050
G0 X113.967 Y115.928
G0 X114.047 Y116.053
G0 X113.887 Y116.053
G1 F1620 X114.222 Y115.999 E40.03854
G1 X114.773 Y116.012 E40.04797
G1 X115.037 Y116.031 E40.05431
G0 F12000 X114.336 Y115.040
G1 F1620 X113.887 Y115.489 E40.06951
G0 F12000 X114.047 Y115.489
G0 X114.146 Y115.312
G0 X114.609 Y113.380
G0 X115.212 Y113.440
G0 X115.212 Y113.600
G1 F1620 X115.491 Y113.320 E40.07897
G10
G1 Z0.460
G0 F12000 X115.932 Y111.186
G1 Z0.360
G11
G1 F1620 X116.212 Y110.906 E40.08845
;LAYER:2
M106 S5
G0 F12000 X115.603 Y111.327 Z0.420
;TYPE:WALL-OUTER
G1 F1800 X115.044 Y113.181 E40.13481
G1 X116.044 Y113.181 E40.15875
G1 X115.876 Y113.740 E40.17272
G1 X114.876 Y113.740 E40.19666
G1 X114.275 Y115.734 E40.24652
G1 X115.275 Y115.734 E40.27046
G1 X115.106 Y116.294 E40.28446
G1 X114.106 Y116.294 E40.30840
G1 X113.747 Y117.486 E40.33821
G1 X113.747 Y115.391 E40.38836
G1 X110.750 Y115.391 E40.46011
G1 X110.750 Y118.300 E40.52975
G1 X113.747 Y118.300 E40.60150
G1 X113.747 Y117.934 E40.61026
G1 X114.612 Y117.934 E40.63097
G1 X114.444 Y118.493 E40.64494
G1 X104.872 Y118.493 E40.87410
G1 X105.185 Y117.934 E40.88943
G1 X106.185 Y117.934 E40.91337
G1 X107.101 Y116.294 E40.95834
G1 X106.101 Y116.294 E40.98228
G1 X106.367 Y115.819 E40.99532
G1 X107.367 Y115.819 E41.01926
G1 X108.552 Y113.698 E41.07742
G1 X107.552 Y113.698 E41.10136
G1 X107.818 Y113.223 E41.11439
G1 X108.818 Y113.223 E41.13833
G1 X109.901 Y111.285 E41.19148
G1 X108.901 Y111.285 E41.21542
G1 X109.166 Y110.810 E41.22844
G1 X110.166 Y110.810 E41.25238
G1 X111.163 Y109.026 E41.30131
G1 X110.163 Y109.026 E41.32525
G1 X110.429 Y108.551 E41.33828
G1 X111.429 Y108.551 E41.36222
G1 X112.526 Y106.587 E41.41608
G1 X111.526 Y106.587 E41.44002
G1 X111.839 Y106.028 E41.45536
G1 X112.839 Y106.028 E41.47930
G1 X113.689 Y104.507 E41.52101
G1 X114.233 Y104.507 E41.53403
G1 X106.729 Y117.934 E41.90227
G1 X110.148 Y117.934 E41.98412
G1 X110.148 Y114.789 E42.05941
G1 X113.976 Y114.789 E42.15105
G1 X117.075 Y104.507 E42.40814
G1 X117.659 Y104.507 E42.42212
G1 X117.200 Y106.028 E42.46016
G1 X118.200 Y106.028 E42.48410
G1 X118.032 Y106.587 E42.49807
G1 X117.032 Y106.587 E42.52201
G1 X116.452 Y108.509 E42.57007
G1 X117.452 Y108.509 E42.59401
G1 X117.284 Y109.068 E42.60799
G1 X116.284 Y109.068 E42.63193
G1 X115.772 Y110.767 E42.67441
G1 X116.772 Y110.767 E42.69835
G1 X116.603 Y111.327 E42.71235
G1 X115.603 Y111.327 E42.73629
G0 F12000 X115.479 Y111.248
;TYPE:SKIN
G1 F1800 X115.433 Y110.919 E42.74385
G1 X115.564 Y110.486 E42.75139
G1 X115.694 Y110.052 E42.75895
G1 X115.825 Y109.618 E42.76651
G1 X115.955 Y109.185 E42.77405
G1 X116.086 Y108.751 E42.78161
G1 X116.153 Y108.536 E42.78915
G1 X116.687 Y108.788 E42.79854
G1 X117.108 Y108.927 E42.80915
G0 F12000 X116.394 Y108.212
G1 F1800 X116.347 Y107.884 E42.81671
G1 X116.478 Y107.450 E42.82427
G1 X116.609 Y107.017 E42.83182
G1 X116.740 Y106.583 E42.83938
G1 X116.870 Y106.149 E42.84694
G1 X117.000 Y105.716 E42.85450
G1 X117.131 Y105.282 E42.86209
G1 X117.213 Y104.799 E42.86971
G1 X117.440 Y104.745 E42.87529
G0 F12000 X117.170 Y106.167
G1 F1800 X117.591 Y106.307 E42.88474
G1 X117.947 Y106.380 E42.89344
G10
G1 Z0.520
G0 F12000 X113.779 Y105.033
G1 Z0.420
G11
G1 F1800 X113.532 Y105.069 E42.89835
G1 X113.402 Y105.503 E42.90325
G1 X113.200 Y105.865 E42.90815
G1 X113.071 Y106.300 E42.91305
G1 X112.513 Y106.307 E42.92363
G1 X112.357 Y106.433 E42.93308
G1 X112.593 Y106.951 E42.93797
G1 X112.391 Y107.313 E42.94287
G1 X112.188 Y107.675 E42.94777
G1 X111.987 Y108.038 E42.95268
G1 X111.784 Y108.400 E42.95753
