;FLAVOR:UltiGCode
;TIME:4446
;MATERIAL:6601
;MATERIAL2:0
;NOZZLE_DIAMETER:0.400000
;NOZZLE_DIAMETER2:0.400000

;Layer count: 113
;LAYER:0
M106 S255
G0 F12000 X65.705 Y80.360 Z0.300
;TYPE:SKIRT
G1 F1200 X157.296 Y80.360 E10.99092
G1 X157.296 Y142.639 E18.46440
G1 X139.311 Y142.639 E20.62260
G1 X139.311 Y142.559 E20.63220
G1 X83.682 Y142.559 E27.30768
G1 X83.682 Y142.639 E27.31728
G1 X65.705 Y142.639 E29.47452
G1 X65.705 Y80.360 E36.94800
G10
G1 Z0.400
G0 F12000 X69.905 Y84.560
;TYPE:WALL-INNER
G1 Z0.300
G11
G1 F1200 X153.096 Y84.560 E46.93092
G1 X153.096 Y138.439 E53.39640
G1 X143.511 Y138.439 E54.54660
G1 X143.511 Y138.359 E54.55620
G1 X79.482 Y138.359 E62.23968
G1 X79.482 Y138.439 E62.24928
G1 X69.905 Y138.439 E63.39852
G1 X69.905 Y84.560 E69.86400
G0 F12000 X80.545 Y95.785
G1 F1200 X80.147 Y96.306 E69.94268
G1 X79.897 Y96.911 E70.02123
G1 X79.811 Y97.559 E70.09967
G1 X79.897 Y98.209 E70.17835
G1 X80.147 Y98.812 E70.25668
G1 X80.544 Y99.333 E70.33529
G1 X81.066 Y99.731 E70.41406
G1 X81.670 Y99.984 E70.49264
G1 X82.320 Y100.067 E70.57127
G1 X82.969 Y99.984 E70.64979
G1 X83.575 Y99.731 E70.72859
G1 X84.094 Y99.333 E70.80707
G1 X84.491 Y98.813 E70.88558
G1 X84.742 Y98.211 E70.96385
G1 X84.829 Y97.559 E71.04278
G1 X84.742 Y96.910 E71.12136
G1 X84.492 Y96.305 E71.19991
G1 X84.093 Y95.786 E71.27847
G1 X83.575 Y95.388 E71.35686
G1 X82.970 Y95.136 E71.43550
G1 X82.320 Y95.050 E71.51418
G1 X81.668 Y95.136 E71.59310
G1 X81.066 Y95.388 E71.67142
G1 X80.545 Y95.785 E71.75002
G0 F12000 X79.482 Y101.059
G1 F1200 X79.482 Y112.210 E73.08814
G1 X93.170 Y112.210 E74.73070
G1 X93.170 Y92.060 E77.14870
G1 X85.820 Y92.060 E78.03070
G1 X85.820 Y101.059 E79.11058
G1 X79.482 Y101.059 E79.87114
G0 F12000 X83.807 Y99.046
G0 X86.279 Y92.519
G0 X92.711 Y92.519
G0 X96.169 Y92.060
G1 F1200 X96.169 Y112.210 E82.28914
G1 X126.869 Y112.210 E85.97314
G1 X126.869 Y92.060 E88.39114
G1 X96.169 Y92.060 E92.07514
G0 F12000 X96.169 Y115.209
G1 F1200 X96.169 Y135.359 E94.49314
G1 X126.869 Y135.359 E98.17714
G1 X126.869 Y115.209 E100.59514
G1 X96.169 Y115.209 E104.27914
G0 F12000 X93.170 Y115.209
G1 F1200 X79.482 Y115.209 E105.92170
G1 X79.482 Y126.359 E107.25970
G1 X85.820 Y126.359 E108.02026
G1 X85.820 Y135.359 E109.10026
G1 X93.170 Y135.359 E109.98226
G1 X93.170 Y115.209 E112.40026
G0 F12000 X79.941 Y115.668
G0 X77.195 Y119.068
G1 F1200 X77.047 Y118.577 E112.46180
G1 X76.805 Y118.125 E112.52332
G1 X76.480 Y117.730 E112.58470
G1 X76.084 Y117.405 E112.64618
G1 X75.633 Y117.166 E112.70743
G1 X75.148 Y117.019 E112.76824
G1 X74.637 Y116.967 E112.82988
G1 X74.127 Y117.019 E112.89140
G1 X73.640 Y117.166 E112.95244
G1 X73.189 Y117.405 E113.01369
G1 X72.791 Y117.731 E113.07543
G1 X72.470 Y118.126 E113.13651
G1 X72.229 Y118.574 E113.19755
G1 X72.078 Y119.068 E113.25954
G1 X72.031 Y119.576 E113.32076
G1 X72.078 Y120.082 E113.38174
G1 X72.229 Y120.576 E113.44373
G1 X72.470 Y121.025 E113.50488
G1 X72.792 Y121.418 E113.56585
G1 X73.188 Y121.743 E113.62732
G1 X73.638 Y121.983 E113.68852
G1 X74.127 Y122.132 E113.74986
G1 X74.637 Y122.183 E113.81137
G1 X75.148 Y122.132 E113.87299
G1 X75.636 Y121.983 E113.93422
G1 X76.085 Y121.743 E113.99532
G1 X76.479 Y121.420 E114.05645
G1 X76.805 Y121.026 E114.11782
G1 X77.047 Y120.573 E114.17945
G1 X77.195 Y120.082 E114.24099
G1 X77.244 Y119.576 E114.30199
G1 X77.195 Y119.068 E114.36324
G0 F12000 X79.941 Y125.900
G0 X81.068 Y127.686
G1 F1200 X80.544 Y128.083 E114.44213
G1 X80.147 Y128.607 E114.52101
G1 X79.897 Y129.209 E114.59924
G1 X79.811 Y129.859 E114.67792
G1 X79.897 Y130.508 E114.75648
G1 X80.147 Y131.112 E114.83492
G1 X80.545 Y131.634 E114.91369
G1 X81.068 Y132.031 E114.99248
G1 X81.668 Y132.281 E115.07048
G1 X82.320 Y132.368 E115.14942
G1 X82.970 Y132.281 E115.22811
G1 X83.574 Y132.031 E115.30656
G1 X84.093 Y131.634 E115.38497
G1 X84.492 Y131.113 E115.46372
G1 X84.742 Y130.509 E115.54216
G1 X84.829 Y129.859 E115.62085
G1 X84.742 Y129.207 E115.69979
G1 X84.492 Y128.606 E115.77790
G1 X84.094 Y128.084 E115.85667
G1 X83.574 Y127.686 E115.93525
G1 X82.969 Y127.436 E116.01380
G1 X82.320 Y127.350 E116.09236
G1 X81.670 Y127.436 E116.17104
G1 X81.068 Y127.686 E116.24926
G0 F12000 X86.221 Y128.495
G0 X86.279 Y134.900
G0 X92.711 Y134.900
G0 X129.868 Y135.359
G1 F1200 X137.218 Y135.359 E117.13126
G1 X137.218 Y126.359 E118.21126
G1 X143.511 Y126.359 E118.96642
G1 X143.511 Y115.209 E120.30442
G1 X129.868 Y115.209 E121.94158
G1 X129.868 Y135.359 E124.35958
G0 F12000 X136.759 Y134.900
G0 X138.546 Y131.113
G1 F1200 X138.945 Y131.634 E124.43833
G1 X139.464 Y132.031 E124.51674
G1 X140.068 Y132.281 E124.59519
G1 X140.718 Y132.368 E124.67388
G1 X141.370 Y132.281 E124.75282
G1 X141.970 Y132.031 E124.83082
G1 X142.493 Y131.634 E124.90961
G1 X142.891 Y131.112 E124.98838
G1 X143.141 Y130.508 E125.06682
G1 X143.227 Y129.859 E125.14538
G1 X143.141 Y129.209 E125.22406
G1 X142.891 Y128.607 E125.30229
G1 X142.494 Y128.083 E125.38117
G1 X141.970 Y127.686 E125.46006
G1 X141.368 Y127.436 E125.53829
G1 X140.718 Y127.350 E125.61697
G1 X140.069 Y127.436 E125.69553
G1 X139.464 Y127.686 E125.77408
G1 X138.944 Y128.084 E125.85266
G1 X138.546 Y128.606 E125.93143
G1 X138.296 Y129.207 E126.00954
G1 X138.209 Y129.859 E126.08847
G1 X138.296 Y130.509 E126.16717
G1 X138.546 Y131.113 E126.24561
G0 F12000 X138.898 Y128.809
G0 X140.175 Y127.827
G0 X143.052 Y125.900
G0 X146.263 Y121.418
G1 F1200 X146.659 Y121.743 E126.30709
G1 X147.109 Y121.983 E126.36829
G1 X147.599 Y122.132 E126.42975
G1 X148.108 Y122.183 E126.49113
G1 X148.619 Y122.132 E126.55276
G1 X149.106 Y121.983 E126.61387
G1 X149.557 Y121.743 E126.67518
G1 X149.951 Y121.419 E126.73639
G1 X150.276 Y121.026 E126.79759
G1 X150.518 Y120.573 E126.85922
G1 X150.666 Y120.082 E126.92076
G1 X150.715 Y119.576 E126.98176
G1 X150.666 Y119.068 E127.04300
G1 X150.518 Y118.577 E127.10454
G1 X150.276 Y118.125 E127.16607
G1 X149.951 Y117.730 E127.22745
G1 X149.556 Y117.405 E127.28883
G1 X149.103 Y117.166 E127.35029
G1 X148.619 Y117.019 E127.41099
G1 X148.108 Y116.967 E127.47263
G1 X147.599 Y117.019 E127.53403
G1 X147.112 Y117.166 E127.59507
G1 X146.660 Y117.405 E127.65643
G1 X146.262 Y117.731 E127.71816
G1 X145.941 Y118.126 E127.77924
G1 X145.699 Y118.576 E127.84055
G1 X145.550 Y119.068 E127.90224
G1 X145.501 Y119.576 E127.96349
G1 X145.550 Y120.082 E128.02449
G1 X145.699 Y120.574 E128.08618
G1 X145.941 Y121.025 E128.14760
G1 X146.263 Y121.418 E128.20857
G0 F12000 X143.052 Y101.518
G0 X141.368 Y99.984
G1 F1200 X141.972 Y99.731 E128.28715
G1 X142.494 Y99.333 E128.36592
G1 X142.891 Y98.812 E128.44452
G1 X143.141 Y98.209 E128.52285
G1 X143.227 Y97.559 E128.60153
G1 X143.141 Y96.911 E128.67997
G1 X142.891 Y96.306 E128.75853
G1 X142.493 Y95.785 E128.83720
G1 X141.972 Y95.388 E128.91581
G1 X141.370 Y95.136 E128.99412
G1 X140.718 Y95.050 E129.07304
G1 X140.068 Y95.136 E129.15172
G1 X139.463 Y95.388 E129.23036
G1 X138.945 Y95.786 E129.30875
G1 X138.546 Y96.305 E129.38731
G1 X138.296 Y96.910 E129.46586
G1 X138.209 Y97.559 E129.54444
G1 X138.296 Y98.211 E129.62337
G1 X138.547 Y98.813 E129.70164
G1 X138.944 Y99.333 E129.78015
G1 X139.463 Y99.731 E129.85863
G1 X140.069 Y99.984 E129.93744
G1 X140.718 Y100.067 E130.01595
G1 X141.368 Y99.984 E130.09458
G0 F12000 X143.511 Y101.059
G1 F1200 X137.218 Y101.059 E130.84974
G1 X137.218 Y92.060 E131.92962
G1 X129.868 Y92.060 E132.81162
G1 X129.868 Y112.210 E135.22962
G1 X143.511 Y112.210 E136.86678
G1 X143.511 Y101.059 E138.20490
G0 F12000 X143.111 Y101.459
G1 F1200 X136.818 Y101.459 E138.96006
G1 X136.818 Y92.460 E140.03994
G1 X130.268 Y92.460 E140.82594
G1 X130.268 Y111.810 E143.14794
G1 X143.111 Y111.810 E144.68910
G1 X143.111 Y101.459 E145.93122
G0 F12000 X141.771 Y99.382
G1 F1200 X142.208 Y99.048 E145.99723
G1 X142.541 Y98.611 E146.06316
G1 X142.752 Y98.105 E146.12894
G1 X142.823 Y97.559 E146.19502
G1 X142.752 Y97.016 E146.26073
G1 X142.541 Y96.507 E146.32685
G1 X142.208 Y96.071 E146.39268
G1 X141.771 Y95.737 E146.45869
G1 X141.265 Y95.526 E146.52448
G1 X140.718 Y95.454 E146.59068
G1 X140.173 Y95.526 E146.65665
G1 X139.665 Y95.737 E146.72266
G1 X139.230 Y96.071 E146.78847
G1 X138.896 Y96.507 E146.85438
G1 X138.686 Y97.015 E146.92034
G1 X138.613 Y97.559 E146.98621
G1 X138.686 Y98.106 E147.05243
G1 X138.896 Y98.611 E147.11806
G1 X139.230 Y99.048 E147.18406
G1 X139.665 Y99.382 E147.24987
G1 X140.173 Y99.594 E147.31593
G1 X140.718 Y99.664 E147.38187
G1 X141.264 Y99.594 E147.44792
G1 X141.771 Y99.382 E147.51387
G0 F12000 X143.052 Y101.518
G0 X143.052 Y111.751
G0 X143.111 Y115.609
G1 F1200 X130.268 Y115.609 E149.05503
G1 X130.268 Y134.959 E151.37703
G1 X136.818 Y134.959 E152.16303
G1 X136.818 Y125.959 E153.24303
G1 X143.111 Y125.959 E153.99819
G1 X143.111 Y115.609 E155.24019
G0 F12000 X146.275 Y118.349
G1 F1200 X146.070 Y118.730 E155.29211
G1 X145.944 Y119.146 E155.34427
G1 X145.903 Y119.576 E155.39610
G1 X145.944 Y120.005 E155.44781
G1 X146.070 Y120.420 E155.49986
G1 X146.275 Y120.801 E155.55178
G1 X146.548 Y121.134 E155.60345
G1 X146.882 Y121.408 E155.65529
G1 X147.263 Y121.612 E155.70715
G1 X147.678 Y121.738 E155.75920
G1 X148.108 Y121.781 E155.81105
G1 X148.540 Y121.738 E155.86315
G1 X148.952 Y121.612 E155.91485
G1 X149.334 Y121.408 E155.96682
G1 X149.667 Y121.135 E156.01849
G1 X149.942 Y120.802 E156.07031
G1 X150.146 Y120.419 E156.12239
G1 X150.272 Y120.005 E156.17432
G1 X150.313 Y119.576 E156.22603
G1 X150.272 Y119.146 E156.27787
G1 X150.146 Y118.731 E156.32991
G1 X149.942 Y118.349 E156.38188
G1 X149.667 Y118.015 E156.43380
G1 X149.333 Y117.740 E156.48571
G1 X148.950 Y117.538 E156.53767
G1 X148.540 Y117.413 E156.58911
G1 X148.108 Y117.369 E156.64122
G1 X147.678 Y117.413 E156.69309
G1 X147.265 Y117.537 E156.74483
G1 X146.883 Y117.740 E156.79674
G1 X146.547 Y118.015 E156.84885
G1 X146.275 Y118.349 E156.90053
G0 F12000 X143.052 Y125.900
G0 X141.769 Y128.036
G1 F1200 X141.264 Y127.825 E156.96621
G1 X140.718 Y127.754 E157.03228
G1 X140.173 Y127.825 E157.09824
G1 X139.666 Y128.036 E157.16413
G1 X139.230 Y128.369 E157.22997
G1 X138.896 Y128.807 E157.29607
G1 X138.686 Y129.312 E157.36170
G1 X138.613 Y129.859 E157.42792
G1 X138.686 Y130.404 E157.49390
G1 X138.896 Y130.911 E157.55976
G1 X139.230 Y131.348 E157.62576
G1 X139.666 Y131.681 E157.69159
G1 X140.173 Y131.891 E157.75745
G1 X140.718 Y131.964 E157.82343
G1 X141.265 Y131.891 E157.88965
G1 X141.769 Y131.681 E157.95517
G1 X142.208 Y131.348 E158.02129
G1 X142.541 Y130.911 E158.08722
G1 X142.752 Y130.404 E158.15312
G1 X142.823 Y129.859 E158.21907
G1 X142.752 Y129.313 E158.28515
G1 X142.541 Y128.808 E158.35082
G1 X142.208 Y128.369 E158.41694
G1 X141.769 Y128.036 E158.48306
G0 F12000 X140.175 Y127.827
G0 X138.898 Y128.809
G0 X136.759 Y134.900
G0 X130.327 Y134.900
G0 X126.469 Y134.959
G1 F1200 X126.469 Y115.609 E160.80506
G1 X96.569 Y115.609 E164.39306
G1 X96.569 Y134.959 E166.71506
G1 X126.469 Y134.959 E170.30306
G0 F12000 X126.469 Y111.810
G1 F1200 X126.469 Y92.460 E172.62506
G1 X96.569 Y92.460 E176.21306
G1 X96.569 Y111.810 E178.53506
G1 X126.469 Y111.810 E182.12306
G0 F12000 X130.327 Y134.900
G0 X136.759 Y134.900
G0 X143.111 Y138.759
G1 F1200 X79.882 Y138.759 E189.71054
G1 X79.882 Y138.839 E189.72014
G1 X69.505 Y138.839 E190.96538
G1 X69.505 Y84.160 E197.52686
G1 X153.496 Y84.160 E207.60578
G1 X153.496 Y138.839 E214.16726
G1 X143.111 Y138.839 E215.41346
G1 X143.111 Y138.759 E215.42306
G0 F12000 X130.327 Y134.900
G0 X126.410 Y115.668
G0 X92.770 Y111.810
G1 F1200 X92.770 Y92.460 E217.74506
G1 X86.220 Y92.460 E218.53106
G1 X86.220 Y101.459 E219.61094
G1 X79.882 Y101.459 E220.37150
G1 X79.882 Y111.810 E221.61362
G1 X92.770 Y111.810 E223.16018
G0 F12000 X79.941 Y111.751
G0 X79.941 Y101.518
G0 X83.373 Y99.382
G1 F1200 X83.808 Y99.048 E223.22600
G1 X84.142 Y98.611 E223.29200
G1 X84.352 Y98.106 E223.35763
G1 X84.425 Y97.559 E223.42385
G1 X84.352 Y97.015 E223.48972
G1 X84.142 Y96.507 E223.55568
G1 X83.808 Y96.071 E223.62159
G1 X83.373 Y95.737 E223.68740
G1 X82.865 Y95.526 E223.75341
G1 X82.320 Y95.454 E223.81938
G1 X81.773 Y95.526 E223.88558
G1 X81.267 Y95.737 E223.95137
G1 X80.830 Y96.071 E224.01737
G1 X80.497 Y96.507 E224.08321
G1 X80.286 Y97.016 E224.14933
G1 X80.215 Y97.559 E224.21504
G1 X80.286 Y98.105 E224.28112
G1 X80.497 Y98.611 E224.34690
G1 X80.830 Y99.048 E224.41283
G1 X81.267 Y99.382 E224.47884
G1 X81.774 Y99.594 E224.54478
G1 X82.320 Y99.664 E224.61084
G1 X82.865 Y99.594 E224.67677
G1 X83.373 Y99.382 E224.74283
G0 F12000 X79.941 Y101.518
G0 X79.941 Y111.751
G0 X79.882 Y115.609
G1 F1200 X79.882 Y125.959 E225.98483
G1 X86.220 Y125.959 E226.74539
G1 X86.220 Y134.959 E227.82539
G1 X92.770 Y134.959 E228.61139
G1 X92.770 Y115.609 E230.93339
G1 X79.882 Y115.609 E232.47995
G0 F12000 X79.941 Y125.900
G0 X81.774 Y127.825
G1 F1200 X81.269 Y128.036 E232.54563
G1 X80.830 Y128.369 E232.61175
G1 X80.497 Y128.808 E232.67787
G1 X80.286 Y129.313 E232.74355
G1 X80.215 Y129.859 E232.80962
G1 X80.286 Y130.404 E232.87557
G1 X80.497 Y130.911 E232.94147
G1 X80.830 Y131.348 E233.00740
G1 X81.269 Y131.681 E233.07352
G1 X81.773 Y131.891 E233.13904
G1 X82.320 Y131.964 E233.20526
G1 X82.865 Y131.891 E233.27124
G1 X83.372 Y131.681 E233.33710
G1 X83.808 Y131.348 E233.40293
G1 X84.142 Y130.911 E233.46893
G1 X84.352 Y130.404 E233.53479
G1 X84.425 Y129.859 E233.60077
G1 X84.352 Y129.312 E233.66699
G1 X84.142 Y128.807 E233.73262
G1 X83.808 Y128.369 E233.79872
G1 X83.372 Y128.036 E233.86456
G1 X82.865 Y127.825 E233.93045
G1 X82.320 Y127.754 E233.99641
G1 X81.774 Y127.825 E234.06248
G0 F12000 X76.195 Y121.135
G1 F1200 X76.471 Y120.802 E234.11438
G1 X76.675 Y120.419 E234.16645
G1 X76.801 Y120.005 E234.21838
G1 X76.842 Y119.576 E234.27010
G1 X76.801 Y119.146 E234.32193
G1 X76.675 Y118.731 E234.37398
G1 X76.471 Y118.349 E234.42594
G1 X76.196 Y118.014 E234.47795
G1 X75.861 Y117.740 E234.52989
G1 X75.480 Y117.538 E234.58164
G1 X75.069 Y117.413 E234.63319
G1 X74.637 Y117.369 E234.68529
G1 X74.206 Y117.413 E234.73728
G1 X73.793 Y117.538 E234.78906
G1 X73.412 Y117.740 E234.84081
G1 X73.076 Y118.015 E234.89291
G1 X72.804 Y118.349 E234.94460
G1 X72.600 Y118.729 E234.99636
G1 X72.472 Y119.146 E235.04870
G1 X72.432 Y119.576 E235.10053
G1 X72.472 Y120.005 E235.15223
G1 X72.600 Y120.421 E235.20446
G1 X72.804 Y120.801 E235.25622
G1 X73.077 Y121.134 E235.30789
G1 X73.411 Y121.408 E235.35973
G1 X73.792 Y121.612 E235.41159
G1 X74.206 Y121.738 E235.46352
G1 X74.637 Y121.781 E235.51550
G1 X75.069 Y121.738 E235.56759
G1 X75.481 Y121.612 E235.61929
G1 X75.862 Y121.408 E235.67115
G1 X76.195 Y121.135 E235.72283
G0 F12000 X75.912 Y120.850
;TYPE:WALL-OUTER
G1 F1200 X76.137 Y120.578 E235.76519
G1 X76.304 Y120.266 E235.80765
G1 X76.406 Y119.927 E235.85013
G1 X76.440 Y119.576 E235.89245
G1 X76.406 Y119.223 E235.93501
G1 X76.304 Y118.884 E235.97749
G1 X76.137 Y118.572 E236.01995
G1 X75.912 Y118.299 E236.06241
G1 X75.638 Y118.075 E236.10488
G1 X75.327 Y117.909 E236.14718
G1 X74.990 Y117.807 E236.18943
G1 X74.637 Y117.771 E236.23201
G1 X74.285 Y117.807 E236.27447
G1 X73.946 Y117.909 E236.31695
G1 X73.635 Y118.075 E236.35926
G1 X73.361 Y118.299 E236.40173
G1 X73.138 Y118.572 E236.44403
G1 X72.971 Y118.884 E236.48649
G1 X72.867 Y119.223 E236.52904
G1 X72.834 Y119.576 E236.57159
G1 X72.867 Y119.927 E236.61389
G1 X72.971 Y120.266 E236.65645
G1 X73.138 Y120.578 E236.69891
G1 X73.361 Y120.850 E236.74112
G1 X73.634 Y121.074 E236.78349
G1 X73.946 Y121.241 E236.82596
G1 X74.285 Y121.344 E236.86848
G1 X74.637 Y121.379 E236.91093
G1 X74.990 Y121.344 E236.95349
G1 X75.327 Y121.241 E236.99578
G1 X75.639 Y121.074 E237.03825
G1 X75.912 Y120.850 E237.08062
G0 F12000 X76.143 Y121.042
G0 X79.982 Y125.559
