;FLAVOR:UltiGCode
;TIME:3907
;MATERIAL:5510
;MATERIAL2:0
;NOZZLE_DIAMETER:0.400000
;NOZZLE_DIAMETER2:0.400000

;Layer count: 113
;LAYER:0
M107
G0 F12000 X69.600 Y80.401 Z0.300
;TYPE:SKIRT
G1 F1200 X153.400 Y80.401 E10.05600
G1 X153.400 Y142.599 E17.51976
G1 X69.600 Y142.599 E27.57576
G1 X69.600 Y80.401 E35.03952
G10
G1 Z0.400
G0 F12000 X73.800 Y84.601
;TYPE:WALL-INNER
G1 Z0.300
G11
G1 F1200 X149.200 Y84.601 E44.08752
G1 X149.200 Y138.399 E50.54328
G1 X73.800 Y138.399 E59.59128
G1 X73.800 Y84.601 E66.04704
G0 F12000 X81.046 Y95.427
G1 F1200 X80.526 Y95.827 E66.12577
G1 X80.127 Y96.347 E66.20442
G1 X79.878 Y96.951 E66.28282
G1 X79.791 Y97.601 E66.36151
G1 X79.878 Y98.250 E66.44009
G1 X80.127 Y98.855 E66.51860
G1 X80.527 Y99.374 E66.59723
G1 X81.046 Y99.774 E66.67586
G1 X81.651 Y100.023 E66.75437
G1 X82.300 Y100.110 E66.83294
G1 X82.950 Y100.023 E66.91164
G1 X83.554 Y99.774 E66.99004
G1 X84.074 Y99.375 E67.06869
G1 X84.474 Y98.855 E67.14741
G1 X84.723 Y98.249 E67.22603
G1 X84.809 Y97.601 E67.30448
G1 X84.723 Y96.952 E67.38304
G1 X84.474 Y96.347 E67.46155
G1 X84.074 Y95.827 E67.54027
G1 X83.554 Y95.427 E67.61900
G1 X82.949 Y95.178 E67.69751
G1 X82.300 Y95.092 E67.77607
G1 X81.652 Y95.178 E67.85451
G1 X81.046 Y95.427 E67.93313
G0 F12000 X85.800 Y92.101
G1 F1200 X85.800 Y101.101 E69.01313
G1 X76.800 Y101.101 E70.09313
G1 X76.800 Y112.250 E71.43101
G1 X93.150 Y112.250 E73.39301
G1 X93.150 Y92.101 E75.81089
G1 X85.800 Y92.101 E76.69289
G0 F12000 X96.150 Y92.101
G1 F1200 X96.150 Y112.250 E79.11077
G1 X126.850 Y112.250 E82.79477
G1 X126.850 Y92.101 E85.21265
G1 X96.150 Y92.101 E88.89665
G0 F12000 X96.150 Y115.250
G1 F1200 X96.150 Y135.399 E91.31453
G1 X126.850 Y135.399 E94.99853
G1 X126.850 Y115.250 E97.41641
G1 X96.150 Y115.250 E101.10041
G0 F12000 X92.691 Y134.940
G0 X86.259 Y134.940
G0 X84.074 Y128.125
G1 F1200 X83.554 Y127.726 E101.17906
G1 X82.950 Y127.477 E101.25746
G1 X82.300 Y127.390 E101.33615
G1 X81.651 Y127.477 E101.41473
G1 X81.046 Y127.726 E101.49324
G1 X80.527 Y128.126 E101.57187
G1 X80.127 Y128.645 E101.65050
G1 X79.878 Y129.250 E101.72901
G1 X79.791 Y129.899 E101.80759
G1 X79.878 Y130.549 E101.88628
G1 X80.127 Y131.153 E101.96468
G1 X80.526 Y131.673 E102.04333
G1 X81.046 Y132.073 E102.12206
G1 X81.652 Y132.322 E102.20068
G1 X82.300 Y132.408 E102.27912
G1 X82.949 Y132.322 E102.35768
G1 X83.554 Y132.073 E102.43619
G1 X84.074 Y131.673 E102.51491
G1 X84.474 Y131.153 E102.59364
G1 X84.723 Y130.548 E102.67215
G1 X84.809 Y129.899 E102.75071
G1 X84.723 Y129.251 E102.82915
G1 X84.474 Y128.645 E102.90777
G1 X84.074 Y128.125 E102.98650
G0 F12000 X85.800 Y126.399
G1 F1200 X85.800 Y135.399 E104.06650
G1 X93.150 Y135.399 E104.94850
G1 X93.150 Y115.250 E107.36638
G1 X76.800 Y115.250 E109.32838
G1 X76.800 Y126.399 E110.66626
G1 X85.800 Y126.399 E111.74626
G0 F12000 X86.259 Y134.940
G0 X92.691 Y134.940
G0 X96.609 Y115.709
G0 X126.391 Y115.709
G0 X129.850 Y135.399
G1 F1200 X137.200 Y135.399 E112.62826
G1 X137.200 Y126.399 E113.70826
G1 X146.200 Y126.399 E114.78826
G1 X146.200 Y115.250 E116.12614
G1 X129.850 Y115.250 E118.08814
G1 X129.850 Y135.399 E120.50602
G0 F12000 X136.741 Y134.940
G0 X138.526 Y131.153
G1 F1200 X138.926 Y131.673 E120.58474
G1 X139.446 Y132.073 E120.66347
G1 X140.051 Y132.322 E120.74198
G1 X140.700 Y132.408 E120.82054
G1 X141.348 Y132.322 E120.89898
G1 X141.954 Y132.073 E120.97760
G1 X142.474 Y131.673 E121.05632
G1 X142.873 Y131.153 E121.13498
G1 X143.122 Y130.549 E121.21337
G1 X143.209 Y129.899 E121.29207
G1 X143.122 Y129.250 E121.37065
G1 X142.873 Y128.645 E121.44915
G1 X142.473 Y128.126 E121.52778
G1 X141.954 Y127.726 E121.60642
G1 X141.349 Y127.477 E121.68492
G1 X140.700 Y127.390 E121.76350
G1 X140.050 Y127.477 E121.84220
G1 X139.446 Y127.726 E121.92059
G1 X138.926 Y128.125 E121.99925
G1 X138.526 Y128.645 E122.07797
G1 X138.277 Y129.251 E122.15659
G1 X138.191 Y129.899 E122.23503
G1 X138.277 Y130.548 E122.31359
G1 X138.526 Y131.153 E122.39210
G0 F12000 X138.885 Y125.998
G0 X145.741 Y125.940
G0 X145.741 Y115.709
G0 X145.741 Y101.560
G0 X140.700 Y100.110
G1 F1200 X141.349 Y100.023 E122.47068
G1 X141.954 Y99.774 E122.54919
G1 X142.473 Y99.374 E122.62782
G1 X142.873 Y98.855 E122.70645
G1 X143.122 Y98.250 E122.78496
G1 X143.209 Y97.601 E122.86353
G1 X143.122 Y96.951 E122.94223
G1 X142.873 Y96.347 E123.02063
G1 X142.474 Y95.827 E123.09928
G1 X141.954 Y95.427 E123.17801
G1 X141.348 Y95.178 E123.25663
G1 X140.700 Y95.092 E123.33507
G1 X140.051 Y95.178 E123.41363
G1 X139.446 Y95.427 E123.49214
G1 X138.926 Y95.827 E123.57086
G1 X138.526 Y96.347 E123.64959
G1 X138.277 Y96.952 E123.72810
G1 X138.191 Y97.601 E123.80666
G1 X138.277 Y98.249 E123.88510
G1 X138.526 Y98.855 E123.96372
G1 X138.926 Y99.375 E124.04244
G1 X139.446 Y99.774 E124.12110
G1 X140.050 Y100.023 E124.19949
G1 X140.700 Y100.110 E124.27819
G0 F12000 X137.200 Y101.101
G1 F1200 X137.200 Y92.101 E125.35819
G1 X129.850 Y92.101 E126.24019
G1 X129.850 Y112.250 E128.65807
G1 X146.200 Y112.250 E130.62007
G1 X146.200 Y101.101 E131.95795
G1 X137.200 Y101.101 E133.03795
G0 F12000 X136.800 Y101.501
G1 F1200 X136.800 Y92.501 E134.11795
G1 X130.250 Y92.501 E134.90395
G1 X130.250 Y111.850 E137.22583
G1 X145.800 Y111.850 E139.09183
G1 X145.800 Y101.501 E140.33371
G1 X136.800 Y101.501 E141.41371
G0 F12000 X139.211 Y99.089
G1 F1200 X139.648 Y99.424 E141.47979
G1 X140.154 Y99.633 E141.54548
G1 X140.700 Y99.706 E141.61158
G1 X141.245 Y99.633 E141.67757
G1 X141.753 Y99.424 E141.74349
G1 X142.188 Y99.089 E141.80937
G1 X142.523 Y98.654 E141.87526
G1 X142.732 Y98.146 E141.94117
G1 X142.805 Y97.601 E142.00716
G1 X142.732 Y97.055 E142.07326
G1 X142.523 Y96.549 E142.13896
G1 X142.188 Y96.112 E142.20503
G1 X141.753 Y95.777 E142.27092
G1 X141.244 Y95.567 E142.33699
G1 X140.700 Y95.496 E142.40283
G1 X140.155 Y95.567 E142.46878
G1 X139.648 Y95.777 E142.53463
G1 X139.211 Y96.112 E142.60071
G1 X138.876 Y96.549 E142.66678
G1 X138.666 Y97.056 E142.73264
G1 X138.595 Y97.601 E142.79859
G1 X138.666 Y98.145 E142.86442
G1 X138.876 Y98.654 E142.93050
G1 X139.211 Y99.089 E142.99638
G0 F12000 X136.741 Y92.560
G0 X130.309 Y92.560
G0 X126.450 Y92.501
G1 F1200 X96.550 Y92.501 E146.58438
G1 X96.550 Y111.850 E148.90626
G1 X126.450 Y111.850 E152.49426
G1 X126.450 Y92.501 E154.81614
G0 F12000 X126.450 Y115.650
G1 F1200 X96.550 Y115.650 E158.40414
G1 X96.550 Y134.999 E160.72602
G1 X126.450 Y134.999 E164.31402
G1 X126.450 Y115.650 E166.63590
G0 F12000 X130.250 Y115.650
G1 F1200 X130.250 Y134.999 E168.95778
G1 X136.800 Y134.999 E169.74378
G1 X136.800 Y125.999 E170.82378
G1 X145.800 Y125.999 E171.90378
G1 X145.800 Y115.650 E173.14566
G1 X130.250 Y115.650 E175.01166
G0 F12000 X145.741 Y115.709
G0 X145.741 Y125.940
G0 X139.648 Y128.076
G1 F1200 X139.211 Y128.411 E175.07774
G1 X138.876 Y128.846 E175.14362
G1 X138.666 Y129.355 E175.20970
G1 X138.595 Y129.899 E175.27553
G1 X138.666 Y130.444 E175.34148
G1 X138.876 Y130.951 E175.40734
G1 X139.211 Y131.388 E175.47341
G1 X139.648 Y131.723 E175.53949
G1 X140.155 Y131.933 E175.60534
G1 X140.700 Y132.004 E175.67129
G1 X141.244 Y131.933 E175.73713
G1 X141.753 Y131.723 E175.80320
G1 X142.188 Y131.388 E175.86908
G1 X142.523 Y130.951 E175.93516
G1 X142.732 Y130.445 E176.00086
G1 X142.805 Y129.899 E176.06696
G1 X142.732 Y129.354 E176.13294
G1 X142.523 Y128.846 E176.19886
G1 X142.188 Y128.411 E176.26475
G1 X141.753 Y128.076 E176.33063
G1 X141.245 Y127.867 E176.39655
G1 X140.700 Y127.794 E176.46253
G1 X140.154 Y127.867 E176.52864
G1 X139.648 Y128.076 E176.59433
G0 F12000 X141.243 Y127.868
G0 X142.521 Y128.847
G0 X142.731 Y130.444
G0 X149.600 Y138.799
G1 F1200 X73.400 Y138.799 E185.73833
G1 X73.400 Y84.201 E192.29009
G1 X149.600 Y84.201 E201.43409
G1 X149.600 Y138.799 E207.98585
G0 F12000 X130.309 Y134.940
G0 X126.391 Y115.709
G0 X92.750 Y111.850
G1 F1200 X92.750 Y92.501 E210.30773
G1 X86.200 Y92.501 E211.09373
G1 X86.200 Y101.501 E212.17373
G1 X77.200 Y101.501 E213.25373
G1 X77.200 Y111.850 E214.49561
G1 X92.750 Y111.850 E216.36161
G0 F12000 X77.259 Y111.791
G0 X77.259 Y101.560
G0 X83.352 Y99.424
G1 F1200 X83.789 Y99.089 E216.42769
G1 X84.124 Y98.654 E216.49357
G1 X84.334 Y98.145 E216.55965
G1 X84.405 Y97.601 E216.62548
G1 X84.334 Y97.056 E216.69143
G1 X84.124 Y96.549 E216.75729
G1 X83.789 Y96.112 E216.82336
G1 X83.352 Y95.777 E216.88944
G1 X82.845 Y95.567 E216.95529
G1 X82.300 Y95.496 E217.02124
G1 X81.756 Y95.567 E217.08708
G1 X81.247 Y95.777 E217.15315
G1 X80.812 Y96.112 E217.21904
G1 X80.477 Y96.549 E217.28511
G1 X80.268 Y97.055 E217.35081
G1 X80.195 Y97.601 E217.41691
G1 X80.268 Y98.146 E217.48289
G1 X80.477 Y98.654 E217.54881
G1 X80.812 Y99.089 E217.61470
G1 X81.247 Y99.424 E217.68058
G1 X81.755 Y99.633 E217.74650
G1 X82.300 Y99.706 E217.81248
G1 X82.846 Y99.633 E217.87859
G1 X83.352 Y99.424 E217.94428
G0 F12000 X77.259 Y101.560
G0 X77.259 Y111.791
G0 X77.200 Y115.650
G1 F1200 X77.200 Y125.999 E219.18616
G1 X86.200 Y125.999 E220.26616
G1 X86.200 Y134.999 E221.34616
G1 X92.750 Y134.999 E222.13216
G1 X92.750 Y115.650 E224.45404
G1 X77.200 Y115.650 E226.32004
G0 F12000 X77.259 Y125.940
G0 X81.755 Y127.867
G1 F1200 X81.247 Y128.076 E226.38596
G1 X80.812 Y128.411 E226.45185
G1 X80.477 Y128.846 E226.51773
G1 X80.268 Y129.354 E226.58365
G1 X80.195 Y129.899 E226.64963
G1 X80.268 Y130.445 E226.71574
G1 X80.477 Y130.951 E226.78143
G1 X80.812 Y131.388 E226.84751
G1 X81.247 Y131.723 E226.91339
G1 X81.756 Y131.933 E226.97947
G1 X82.300 Y132.004 E227.04530
G1 X82.845 Y131.933 E227.11125
G1 X83.352 Y131.723 E227.17711
G1 X83.789 Y131.388 E227.24318
G1 X84.124 Y130.951 E227.30926
G1 X84.334 Y130.444 E227.37511
G1 X84.405 Y129.899 E227.44106
G1 X84.334 Y129.355 E227.50690
G1 X84.124 Y128.846 E227.57297
G1 X83.789 Y128.411 E227.63886
G1 X83.352 Y128.076 E227.70493
G1 X82.846 Y127.867 E227.77063
G1 X82.300 Y127.794 E227.83673
G1 X81.755 Y127.867 E227.90271
G0 F12000 X81.860 Y128.256
;TYPE:WALL-OUTER
G1 F1200 X81.449 Y128.425 E227.95604
G1 X81.097 Y128.696 E228.00935
G1 X80.826 Y129.048 E228.06266
G1 X80.657 Y129.459 E228.11598
G1 X80.598 Y129.899 E228.16926
G1 X80.657 Y130.340 E228.22265
G1 X80.826 Y130.750 E228.27586
G1 X81.097 Y131.103 E228.32927
G1 X81.449 Y131.374 E228.38258
G1 X81.860 Y131.543 E228.43590
G1 X82.300 Y131.601 E228.48916
G1 X82.741 Y131.543 E228.54253
G1 X83.151 Y131.374 E228.59575
G1 X83.504 Y131.103 E228.64915
G1 X83.775 Y130.750 E228.70256
G1 X83.944 Y130.340 E228.75577
G1 X84.002 Y129.899 E228.80915
G1 X83.944 Y129.459 E228.86241
G1 X83.775 Y129.048 E228.91573
G1 X83.504 Y128.696 E228.96904
G1 X83.151 Y128.425 E229.02244
G1 X82.741 Y128.256 E229.07566
G1 X82.300 Y128.197 E229.12905
G1 X81.860 Y128.256 E229.18232
G0 F12000 X81.820 Y127.958
G0 X86.390 Y125.899
G0 X86.600 Y125.599
G1 F1200 X86.600 Y134.599 E230.26232
G1 X92.350 Y134.599 E230.95232
G1 X92.350 Y116.050 E233.17820
G1 X77.600 Y116.050 E234.94820
G1 X77.600 Y125.599 E236.09408
G1 X86.600 Y125.599 E237.17408
G0 F12000 X86.390 Y125.899
G0 X77.259 Y125.940
G0 X77.259 Y115.709
G0 X92.350 Y111.750
G0 X92.350 Y111.450
G1 F1200 X92.350 Y92.901 E239.39996
G1 X86.600 Y92.901 E240.08996
G1 X86.600 Y101.901 E241.16996
G1 X77.600 Y101.901 E242.24996
G1 X77.600 Y111.450 E243.39584
G1 X92.350 Y111.450 E245.16584
G0 F12000 X92.350 Y111.750
G0 X77.259 Y111.791
G0 X77.259 Y101.560
G0 X83.266 Y99.351
G0 X83.151 Y99.075
G1 F1200 X83.504 Y98.804 E245.21925
G1 X83.775 Y98.452 E245.27255
G1 X83.944 Y98.041 E245.32588
G1 X84.002 Y97.601 E245.37914
G1 X83.944 Y97.160 E245.43251
G1 X83.775 Y96.750 E245.48573
G1 X83.504 Y96.397 E245.53913
G1 X83.151 Y96.126 E245.59254
G1 X82.741 Y95.957 E245.64575
G1 X82.300 Y95.899 E245.69913
G1 X81.860 Y95.957 E245.75238
G1 X81.449 Y96.126 E245.80571
G1 X81.097 Y96.397 E245.85902
G1 X80.826 Y96.750 E245.91242
G1 X80.657 Y97.160 E245.96564
G1 X80.598 Y97.601 E246.01903
G1 X80.657 Y98.041 E246.07230
G1 X80.826 Y98.452 E246.12563
G1 X81.097 Y98.804 E246.17894
G1 X81.449 Y99.075 E246.23225
G1 X81.860 Y99.244 E246.28557
G1 X82.300 Y99.303 E246.33885
G1 X82.741 Y99.244 E246.39224
G1 X83.151 Y99.075 E246.44545
G0 F12000 X83.266 Y99.351
G0 X86.220 Y97.893
G0 X86.259 Y92.560
G0 X92.691 Y92.560
G0 X96.950 Y92.601
G0 X96.950 Y92.901
G1 F1200 X96.950 Y111.450 E248.67133
G1 X126.050 Y111.450 E252.16333
G1 X126.050 Y92.901 E254.38921
G1 X96.950 Y92.901 E257.88121
G0 F12000 X96.950 Y92.601
G0 X126.391 Y92.560
G0 X126.391 Y111.791
G0 X96.950 Y115.750
G0 X96.950 Y116.050
G1 F1200 X96.950 Y134.599 E260.10709
G1 X126.050 Y134.599 E263.59909
G1 X126.050 Y116.050 E265.82497
G1 X96.950 Y116.050 E269.31697
G0 F12000 X96.950 Y115.750
G0 X96.609 Y115.709
G0 X92.691 Y134.940
G0 X86.259 Y134.940
G0 X73.210 Y138.899
G0 X73.000 Y139.199
G1 F1200 X73.000 Y83.801 E275.96473
G1 X150.000 Y83.801 E285.20473
G1 X150.000 Y139.199 E291.85249
G1 X73.000 Y139.199 E301.09249
G0 F12000 X73.210 Y138.899
G0 X130.350 Y134.599
G0 X130.650 Y134.599
G1 F1200 X136.400 Y134.599 E301.78249
G1 X136.400 Y125.599 E302.86249
G1 X145.400 Y125.599 E303.94249
G1 X145.400 Y116.050 E305.08837
G1 X130.650 Y116.050 E306.85837
G1 X130.650 Y134.599 E309.08425
G0 F12000 X130.350 Y134.599
G0 X130.309 Y134.940
G0 X136.741 Y134.940
G0 X138.949 Y130.864
G0 X139.225 Y130.750
G1 F1200 X139.496 Y131.103 E309.13766
G1 X139.849 Y131.374 E309.19106
G1 X140.259 Y131.543 E309.24428
G1 X140.700 Y131.601 E309.29765
G1 X141.140 Y131.543 E309.35091
G1 X141.551 Y131.374 E309.40423
G1 X141.903 Y131.103 E309.45754
G1 X142.174 Y130.750 E309.51095
G1 X142.343 Y130.340 E309.56416
G1 X142.402 Y129.899 E309.61755
G1 X142.343 Y129.459 E309.67083
G1 X142.174 Y129.048 E309.72415
G1 X141.903 Y128.696 E309.77746
G1 X141.551 Y128.425 E309.83077
G1 X141.140 Y128.256 E309.88410
G1 X140.700 Y128.197 E309.93737
G1 X140.259 Y128.256 E309.99076
G1 X139.849 Y128.425 E310.04398
G1 X139.496 Y128.696 E310.09738
G1 X139.225 Y129.048 E310.15069
G1 X139.056 Y129.459 E310.20401
G1 X138.998 Y129.899 E310.25727
G1 X139.056 Y130.340 E310.31065
G1 X139.225 Y130.750 E310.36386
G0 F12000 X138.949 Y130.864
G0 X138.668 Y129.356
G0 X139.648 Y128.078
G0 X145.741 Y125.940
G0 X145.741 Y115.709
G0 X145.400 Y111.750
G0 X145.400 Y111.450
G1 F1200 X145.400 Y101.901 E311.50974
G1 X136.400 Y101.901 E312.58974
G1 X136.400 Y92.901 E313.66974
G1 X130.650 Y92.901 E314.35974
G1 X130.650 Y111.450 E316.58562
G1 X145.400 Y111.450 E318.35562
G0 F12000 X145.400 Y111.750
G0 X145.741 Y111.791
G0 X145.741 Y101.560
G0 X141.180 Y99.542
G0 X141.140 Y99.244
G1 F1200 X141.551 Y99.075 E318.40895
G1 X141.903 Y98.804 E318.46226
G1 X142.174 Y98.452 E318.51557
G1 X142.343 Y98.041 E318.56889
G1 X142.402 Y97.601 E318.62216
G1 X142.343 Y97.160 E318.67556
G1 X142.174 Y96.750 E318.72877
G1 X141.903 Y96.397 E318.78218
G1 X141.551 Y96.126 E318.83548
G1 X141.140 Y95.957 E318.88881
G1 X140.700 Y95.899 E318.94207
G1 X140.259 Y95.957 E318.99544
G1 X139.849 Y96.126 E319.04866
G1 X139.496 Y96.397 E319.10206
G1 X139.225 Y96.750 E319.15547
G1 X139.056 Y97.160 E319.20868
G1 X138.998 Y97.601 E319.26206
G1 X139.056 Y98.041 E319.31531
G1 X139.225 Y98.452 E319.36864
G1 X139.496 Y98.804 E319.42195
G1 X139.849 Y99.075 E319.47535
G1 X140.259 Y99.244 E319.52857
G1 X140.700 Y99.303 E319.58196
G1 X141.140 Y99.244 E319.63523
G0 F12000 X142.032 Y99.888
;TYPE:SKIN
G1 F1200 X143.104 Y100.961 E319.81724
G0 F12000 X142.539 Y100.961
G1 F1200 X141.634 Y100.057 E319.97074
G0 F12000 X141.197 Y100.185
G1 F1200 X141.973 Y100.961 E320.10243
G0 F12000 X141.407 Y100.961
G1 F1200 X140.697 Y100.251 E320.22292
G0 F12000 X140.044 Y100.163
G1 F1200 X140.842 Y100.961 E320.35835
G0 F12000 X140.276 Y100.961
G1 F1200 X137.339 Y98.024 E320.85677
