;FLAVOR:UltiGCode
;TIME:3812
;MATERIAL:5614
;MATERIAL2:0
;NOZZLE_DIAMETER:0.400000
;NOZZLE_DIAMETER2:0.400000

;Layer count: 113
;LAYER:0
M106 S255
G0 F12000 X69.600 Y80.401 Z0.300
;TYPE:SKIRT
G1 F1200 X153.400 Y80.401 E10.05600
G1 X153.400 Y142.599 E17.51976
G1 X69.600 Y142.599 E27.57576
G1 X69.600 Y80.401 E35.03952
G10
G1 Z0.400
G0 F12000 X73.800 Y84.601
;TYPE:WALL-INNER
G1 Z0.300
G11
G1 F1200 X149.200 Y84.601 E44.08752
G1 X149.200 Y138.399 E50.54328
G1 X73.800 Y138.399 E59.59128
G1 X73.800 Y84.601 E66.04704
G0 F12000 X82.040 Y93.508
G1 F1200 X81.254 Y94.294 E66.18043
G1 X81.051 Y95.044 E66.27367
G1 X80.963 Y95.376 E66.31488
G1 X81.165 Y96.128 E66.40832
G1 X81.253 Y96.458 E66.44931
G1 X81.823 Y97.026 E66.54587
G1 X82.044 Y97.247 E66.58337
G1 X82.783 Y97.446 E66.67521
G1 X83.119 Y97.541 E66.71711
G1 X83.903 Y97.330 E66.81454
G1 X84.211 Y97.242 E66.85298
G1 X84.756 Y96.700 E66.94521
G1 X84.997 Y96.458 E66.98620
G1 X85.200 Y95.705 E67.07978
G1 X85.288 Y95.374 E67.12088
G1 X84.997 Y94.294 E67.25511
G1 X84.207 Y93.504 E67.38917
G1 X83.467 Y93.305 E67.48113
G1 X83.130 Y93.210 E67.52315
G1 X82.367 Y93.416 E67.61798
G1 X82.040 Y93.508 E67.65875
G0 F12000 X76.798 Y98.197
G1 F1200 X76.800 Y112.250 E69.34511
G1 X93.150 Y112.250 E71.30711
G1 X93.150 Y98.301 E72.98099
G1 X88.803 Y98.301 E73.50263
G1 X88.803 Y98.197 E73.51511
G1 X76.798 Y98.197 E74.95571
G0 F12000 X76.800 Y115.250
G1 F1200 X76.798 Y129.601 E76.67783
G1 X80.752 Y129.601 E77.15231
G1 X80.768 Y129.649 E77.15838
G1 X82.429 Y129.649 E77.35770
G1 X82.043 Y129.754 E77.40570
G1 X81.254 Y130.543 E77.53960
G1 X80.962 Y131.625 E77.67408
G1 X81.254 Y132.706 E77.80845
G1 X82.044 Y133.496 E77.94252
G1 X82.783 Y133.695 E78.03436
G1 X83.119 Y133.790 E78.07626
G1 X83.884 Y133.584 E78.17133
G1 X84.211 Y133.492 E78.21209
G1 X84.997 Y132.706 E78.34548
G1 X85.200 Y131.956 E78.43872
G1 X85.288 Y131.624 E78.47994
G1 X85.085 Y130.873 E78.57329
G1 X84.998 Y130.543 E78.61424
G1 X84.208 Y129.754 E78.74823
G1 X83.821 Y129.649 E78.79635
G1 X83.833 Y129.649 E78.79779
G1 X83.849 Y129.601 E78.80386
G1 X85.800 Y129.601 E79.03798
G1 X85.800 Y129.649 E79.04374
G1 X93.150 Y129.649 E79.92574
G1 X93.150 Y115.250 E81.65362
G1 X76.800 Y115.250 E83.61562
G0 F12000 X96.150 Y115.250
G1 F1200 X96.150 Y135.399 E86.03350
G1 X126.850 Y135.399 E89.71750
G1 X126.850 Y115.250 E92.13538
G1 X96.150 Y115.250 E95.81938
G0 F12000 X96.150 Y112.250
G1 F1200 X126.850 Y112.250 E99.50338
G1 X126.850 Y92.101 E101.92126
G1 X96.150 Y92.101 E105.60526
G1 X96.150 Y112.250 E108.02314
G0 F12000 X129.850 Y112.250
G1 F1200 X146.200 Y112.250 E109.98514
G1 X146.202 Y98.297 E111.65950
G1 X136.199 Y98.297 E112.85986
G1 X135.194 Y98.300 E112.98046
G1 X131.393 Y98.300 E113.43658
G1 X129.850 Y98.303 E113.62174
G1 X129.850 Y112.250 E115.29538
G0 F12000 X130.309 Y98.760
G0 X137.793 Y97.247
G1 F1200 X138.533 Y97.446 E115.38733
G1 X138.870 Y97.541 E115.42935
G1 X139.633 Y97.335 E115.52419
G1 X139.960 Y97.243 E115.56495
G1 X140.746 Y96.459 E115.69817
G1 X140.949 Y95.705 E115.79187
G1 X141.037 Y95.374 E115.83297
G1 X140.746 Y94.294 E115.96719
G1 X139.956 Y93.504 E116.10126
G1 X139.217 Y93.305 E116.19310
G1 X138.881 Y93.210 E116.23500
G1 X138.116 Y93.416 E116.33007
G1 X137.789 Y93.508 E116.37083
G1 X137.003 Y94.294 E116.50422
G1 X136.711 Y95.375 E116.63859
G1 X136.914 Y96.128 E116.73218
G1 X137.002 Y96.458 E116.77316
G1 X137.552 Y97.006 E116.86633
G1 X137.793 Y97.247 E116.90723
G0 F12000 X145.743 Y98.756
G0 X145.741 Y111.791
G0 X129.850 Y115.250
G1 F1200 X129.850 Y129.649 E118.63511
G1 X137.200 Y129.649 E119.51711
G1 X137.200 Y129.601 E119.52287
G1 X138.353 Y129.601 E119.66123
G1 X137.789 Y129.757 E119.73145
G1 X137.003 Y130.543 E119.86484
G1 X136.800 Y131.295 E119.95831
G1 X136.712 Y131.626 E119.99941
G1 X137.003 Y132.706 E120.13363
G1 X137.793 Y133.496 E120.26770
G1 X138.533 Y133.695 E120.35965
G1 X138.870 Y133.790 E120.40167
G1 X139.633 Y133.584 E120.49651
G1 X139.960 Y133.492 E120.53727
G1 X140.746 Y132.706 E120.67066
G1 X140.949 Y131.956 E120.76390
G1 X141.037 Y131.624 E120.80511
G1 X140.746 Y130.543 E120.93945
G1 X139.957 Y129.754 E121.07335
G1 X139.571 Y129.649 E121.12135
G1 X142.232 Y129.649 E121.44067
G1 X142.248 Y129.601 E121.44675
G1 X146.202 Y129.601 E121.92123
G1 X146.201 Y116.855 E123.45075
G1 X146.198 Y115.250 E123.64335
G1 X129.850 Y115.250 E125.60511
G0 F12000 X130.250 Y115.650
G1 F1200 X130.250 Y129.249 E127.23699
G1 X136.800 Y129.249 E128.02299
G1 X136.800 Y129.201 E128.02875
G1 X139.438 Y129.201 E128.34531
G1 X139.454 Y129.249 E128.35138
G1 X141.945 Y129.249 E128.65030
G1 X141.961 Y129.201 E128.65637
G1 X145.802 Y129.201 E129.11729
G1 X145.800 Y115.650 E130.74341
G1 X130.250 Y115.650 E132.60941
G0 F12000 X126.450 Y115.650
G1 F1200 X96.550 Y115.650 E136.19741
G1 X96.550 Y134.999 E138.51929
G1 X126.450 Y134.999 E142.10729
G1 X126.450 Y115.650 E144.42917
G0 F12000 X126.450 Y111.850
G1 F1200 X126.450 Y92.501 E146.75105
G1 X96.550 Y92.501 E150.33905
G1 X96.550 Y111.850 E152.66093
G1 X126.450 Y111.850 E156.24893
G0 F12000 X130.250 Y111.850
G1 F1200 X145.800 Y111.850 E158.11493
G1 X145.802 Y98.697 E159.69329
G1 X136.199 Y98.697 E160.84565
G1 X135.195 Y98.700 E160.96613
G1 X131.393 Y98.700 E161.42237
G1 X130.250 Y98.702 E161.55953
G1 X130.250 Y111.850 E163.13729
G0 F12000 X130.309 Y98.760
G0 X138.000 Y96.889
G1 F1200 X138.641 Y97.061 E163.21693
G1 X138.872 Y97.126 E163.24573
G1 X139.527 Y96.949 E163.32715
G1 X139.751 Y96.886 E163.35507
G1 X140.388 Y96.251 E163.46300
G1 X140.623 Y95.375 E163.57184
G1 X140.388 Y94.501 E163.68044
G1 X139.749 Y93.863 E163.78880
G1 X139.109 Y93.690 E163.86836
G1 X138.878 Y93.625 E163.89715
G1 X138.223 Y93.802 E163.97857
G1 X137.998 Y93.865 E164.00661
G1 X137.361 Y94.501 E164.11463
G1 X137.126 Y95.375 E164.22323
G1 X137.361 Y96.251 E164.33207
G1 X138.000 Y96.889 E164.44043
G0 F12000 X145.743 Y98.756
G0 X145.741 Y111.791
G0 X130.309 Y115.709
G0 X130.309 Y129.190
G0 X138.876 Y129.874
G1 F1200 X138.223 Y130.051 E164.52162
G1 X137.998 Y130.114 E164.54965
G1 X137.361 Y130.750 E164.65767
G1 X137.187 Y131.398 E164.73819
G1 X137.126 Y131.626 E164.76651
G1 X137.361 Y132.499 E164.87500
G1 X138.000 Y133.138 E164.98344
G1 X138.641 Y133.310 E165.06308
G1 X138.872 Y133.375 E165.09188
G1 X139.527 Y133.198 E165.17330
G1 X139.751 Y133.135 E165.20122
G1 X140.387 Y132.499 E165.30915
G1 X140.562 Y131.852 E165.38958
G1 X140.623 Y131.624 E165.41790
G1 X140.388 Y130.750 E165.52651
G1 X139.749 Y130.112 E165.63487
G1 X138.876 Y129.874 E165.74345
G0 F12000 X139.746 Y130.118
G0 X149.600 Y138.799
G1 F1200 X73.400 Y138.799 E174.88745
G1 X73.400 Y84.201 E181.43921
G1 X149.600 Y84.201 E190.58321
G1 X149.600 Y138.799 E197.13497
G0 F12000 X96.609 Y134.940
G0 X92.750 Y129.249
G1 F1200 X92.750 Y115.650 E198.76685
G1 X77.200 Y115.650 E200.63285
G1 X77.198 Y129.201 E202.25897
G1 X81.039 Y129.201 E202.71989
G1 X81.055 Y129.249 E202.72596
G1 X83.546 Y129.249 E203.02488
G1 X83.562 Y129.201 E203.03095
G1 X86.200 Y129.201 E203.34751
G1 X86.200 Y129.249 E203.35327
G1 X92.750 Y129.249 E204.13927
G0 F12000 X92.750 Y111.850
G1 F1200 X92.750 Y98.701 E205.71715
G1 X88.403 Y98.701 E206.23879
G1 X88.403 Y98.597 E206.25127
G1 X77.198 Y98.597 E207.59587
G1 X77.200 Y111.850 E209.18623
G1 X92.750 Y111.850 E211.05223
G0 F12000 X77.259 Y111.791
G0 X77.257 Y98.656
G0 X84.002 Y96.886
G1 F1200 X84.639 Y96.251 E211.16017
G1 X84.874 Y95.375 E211.26900
G1 X84.639 Y94.501 E211.37761
G1 X84.000 Y93.862 E211.48605
G1 X83.359 Y93.690 E211.56569
G1 X83.128 Y93.625 E211.59449
G1 X82.473 Y93.802 E211.67591
G1 X82.249 Y93.865 E211.70383
G1 X81.613 Y94.501 E211.81176
G1 X81.438 Y95.148 E211.89219
G1 X81.377 Y95.375 E211.92040
G1 X81.612 Y96.251 E212.02924
G1 X82.251 Y96.889 E212.13759
G1 X82.891 Y97.061 E212.21712
G1 X83.122 Y97.126 E212.24591
G1 X83.796 Y96.944 E212.32969
G1 X84.002 Y96.886 E212.35537
G0 F12000 X77.257 Y98.656
G0 X77.259 Y111.791
G0 X77.257 Y129.142
G0 X83.125 Y129.874
G1 F1200 X82.251 Y130.112 E212.46407
G1 X81.612 Y130.750 E212.57243
G1 X81.377 Y131.625 E212.68115
G1 X81.612 Y132.499 E212.78975
G1 X82.251 Y133.137 E212.89811
G1 X82.891 Y133.310 E212.97767
G1 X83.122 Y133.375 E213.00646
G1 X83.777 Y133.198 E213.08788
G1 X84.002 Y133.135 E213.11592
G1 X84.638 Y132.499 E213.22385
G1 X84.813 Y131.852 E213.30428
G1 X84.874 Y131.624 E213.33261
G1 X84.699 Y130.977 E213.41304
G1 X84.639 Y130.750 E213.44121
G1 X84.000 Y130.112 E213.54957
G1 X83.125 Y129.874 E213.65838
G0 F12000 X83.125 Y130.289
;TYPE:WALL-OUTER
G1 F1200 X82.458 Y130.470 E213.74132
G1 X81.971 Y130.957 E213.82397
G1 X81.791 Y131.625 E213.90698
G1 X81.971 Y132.292 E213.98989
G1 X82.458 Y132.779 E214.07253
G1 X83.000 Y132.925 E214.13989
G1 X83.124 Y132.960 E214.15535
G1 X83.671 Y132.813 E214.22332
G1 X83.793 Y132.778 E214.23855
G1 X84.280 Y132.292 E214.32112
G1 X84.460 Y131.625 E214.40402
G1 X84.280 Y130.957 E214.48704
G1 X83.793 Y130.470 E214.56968
G1 X83.125 Y130.289 E214.65274
G0 F12000 X83.275 Y128.801
G1 F1200 X86.600 Y128.801 E215.05174
G1 X86.600 Y128.849 E215.05750
G1 X92.350 Y128.849 E215.74750
G1 X92.350 Y116.050 E217.28338
G1 X77.600 Y116.050 E219.05338
G1 X77.598 Y128.801 E220.58350
G1 X81.326 Y128.801 E221.03086
G1 X81.342 Y128.849 E221.03693
G1 X83.259 Y128.849 E221.26697
G1 X83.275 Y128.801 E221.27304
G0 F12000 X83.275 Y129.149
G0 X73.210 Y138.899
G0 X73.000 Y139.199
G1 F1200 X73.000 Y83.801 E227.92080
G1 X150.000 Y83.801 E237.16080
G1 X150.000 Y139.199 E243.80856
G1 X73.000 Y139.199 E253.04856
G0 F12000 X73.210 Y138.899
G0 X96.650 Y134.599
G0 X96.950 Y134.599
G1 F1200 X126.050 Y134.599 E256.54056
G1 X126.050 Y116.050 E258.76644
G1 X96.950 Y116.050 E262.25844
G1 X96.950 Y134.599 E264.48432
G0 F12000 X96.650 Y134.599
G0 X96.650 Y111.450
G0 X96.950 Y111.450
G1 F1200 X126.050 Y111.450 E267.97632
G1 X126.050 Y92.901 E270.20220
G1 X96.950 Y92.901 E273.69420
G1 X96.950 Y111.450 E275.92008
G0 F12000 X96.650 Y111.450
G0 X92.350 Y111.750
G0 X92.350 Y111.450
G1 F1200 X92.350 Y99.101 E277.40196
G1 X88.003 Y99.101 E277.92360
G1 X88.003 Y98.997 E277.93608
G1 X77.598 Y98.997 E279.18468
G1 X77.600 Y111.450 E280.67904
G1 X92.350 Y111.450 E282.44904
G0 F12000 X92.350 Y111.750
G0 X77.259 Y111.791
G0 X77.257 Y98.656
G0 X83.759 Y96.851
G0 X83.689 Y96.559
G1 F1200 X83.793 Y96.529 E282.46203
G1 X84.280 Y96.044 E282.54450
G1 X84.460 Y95.375 E282.62764
G1 X84.280 Y94.708 E282.71054
G1 X83.793 Y94.221 E282.79319
G1 X83.250 Y94.075 E282.86066
G1 X83.126 Y94.040 E282.87612
G1 X82.580 Y94.187 E282.94398
G1 X82.458 Y94.222 E282.95921
G1 X81.971 Y94.708 E283.04177
G1 X81.791 Y95.375 E283.12467
G1 X81.971 Y96.044 E283.20781
G1 X82.458 Y96.530 E283.29037
G1 X83.000 Y96.676 E283.35773
G1 X83.124 Y96.711 E283.37319
G1 X83.689 Y96.559 E283.44340
G0 F12000 X83.759 Y96.851
G0 X96.609 Y92.560
G0 X126.391 Y92.560
G0 X130.350 Y99.101
G0 X130.650 Y99.101
G1 F1200 X130.650 Y111.450 E284.92528
G1 X145.400 Y111.450 E286.69528
G1 X145.402 Y99.097 E288.17764
G1 X130.650 Y99.101 E289.94788
G0 F12000 X130.350 Y99.101
G0 X130.309 Y98.760
G0 X137.431 Y96.122
G0 X137.720 Y96.044
G1 F1200 X138.207 Y96.530 E290.03044
G1 X138.750 Y96.676 E290.09792
G1 X138.874 Y96.711 E290.11338
G1 X139.420 Y96.564 E290.18123
G1 X139.542 Y96.529 E290.19646
G1 X140.029 Y96.044 E290.27894
G1 X140.209 Y95.375 E290.36207
G1 X140.029 Y94.708 E290.44498
G1 X139.542 Y94.221 E290.52762
G1 X139.000 Y94.075 E290.59498
G1 X138.876 Y94.040 E290.61044
G1 X138.329 Y94.187 E290.67841
G1 X138.207 Y94.222 E290.69364
G1 X137.720 Y94.708 E290.77621
G1 X137.540 Y95.375 E290.85911
G1 X137.720 Y96.044 E290.94224
G0 F12000 X137.431 Y96.122
G0 X136.537 Y98.706
G0 X145.743 Y98.756
G0 X145.741 Y111.791
G0 X130.650 Y115.750
G0 X130.650 Y116.050
G1 F1200 X130.650 Y128.849 E292.47812
G1 X136.400 Y128.849 E293.16812
G1 X136.400 Y128.801 E293.17388
G1 X139.725 Y128.801 E293.57288
G1 X139.741 Y128.849 E293.57896
G1 X141.658 Y128.849 E293.80900
G1 X141.674 Y128.801 E293.81507
G1 X145.402 Y128.801 E294.26243
G1 X145.400 Y116.050 E295.79255
G1 X130.650 Y116.050 E297.56255
G0 F12000 X130.650 Y115.750
G0 X130.309 Y115.709
G0 X130.309 Y129.190
G0 X138.261 Y130.144
G0 X138.329 Y130.436
G1 F1200 X138.207 Y130.471 E297.57778
G1 X137.720 Y130.957 E297.66034
G1 X137.540 Y131.625 E297.74336
G1 X137.720 Y132.292 E297.82626
G1 X138.207 Y132.779 E297.90891
G1 X138.750 Y132.925 E297.97638
G1 X138.874 Y132.960 E297.99184
G1 X139.420 Y132.813 E298.05970
G1 X139.542 Y132.778 E298.07493
G1 X140.029 Y132.292 E298.15749
G1 X140.209 Y131.625 E298.24039
G1 X140.029 Y130.957 E298.32341
G1 X139.542 Y130.470 E298.40606
G1 X138.875 Y130.289 E298.48899
G1 X138.329 Y130.436 E298.55685
G0 F12000 X137.491 Y129.854
;TYPE:SKIN
G1 F1200 X137.293 Y129.939 E298.57592
G1 X136.859 Y129.788 E298.63106
G0 F12000 X136.294 Y129.788
G1 F1200 X136.925 Y130.420 E298.73823
G0 F12000 X136.778 Y130.838
G1 F1200 X135.728 Y129.788 E298.91642
G0 F12000 X135.162 Y129.788
G1 F1200 X136.658 Y131.284 E299.17030
G0 F12000 X136.615 Y131.806
G1 F1200 X134.597 Y129.788 E299.51276
G0 F12000 X134.031 Y129.788
G1 F1200 X136.823 Y132.581 E299.98667
G0 F12000 X137.919 Y133.676
G1 F1200 X142.501 Y138.258 E300.76426
G0 F12000 X143.066 Y138.258
G1 F1200 X138.696 Y133.888 E301.50587
G0 F12000 X139.214 Y133.840
G1 F1200 X143.632 Y138.258 E302.25563
G0 F12000 X144.198 Y138.258
G1 F1200 X139.658 Y133.718 E303.02609
G0 F12000 X139.672 Y138.258
G1 F1200 X131.202 Y129.788 E304.46350
G0 F12000 X130.637 Y129.788
G1 F1200 X139.106 Y138.258 E305.90082
G0 F12000 X138.541 Y138.258
G1 F1200 X130.071 Y129.788 E307.33823
G0 F12000 X129.710 Y129.427
G1 F1200 X126.989 Y126.706 E307.80000
G0 F12000 X126.989 Y127.272
G1 F1200 X137.975 Y138.258 E309.66438
G0 F12000 X137.409 Y138.258
G1 F1200 X126.989 Y127.837 E311.43280
G0 F12000 X126.989 Y128.403
G1 F1200 X136.844 Y138.258 E313.10525
G0 F12000 X136.278 Y138.258
G1 F1200 X126.989 Y128.969 E314.68165
G0 F12000 X126.989 Y129.534
G1 F1200 X135.712 Y138.258 E316.16207
G0 F12000 X135.147 Y138.258
G1 F1200 X126.989 Y130.100 E317.54653
G0 F12000 X126.989 Y130.666
G1 F1200 X134.581 Y138.258 E318.83494
G0 F12000 X134.015 Y138.258
G1 F1200 X126.989 Y131.231 E320.02737
G0 F12000 X126.989 Y131.797
G1 F1200 X133.450 Y138.258 E321.12384
G0 F12000 X132.884 Y138.258
G1 F1200 X126.989 Y132.363 E322.12426
G0 F12000 X126.989 Y132.929
G1 F1200 X132.318 Y138.258 E323.02862
G0 F12000 X131.753 Y138.258
G1 F1200 X126.989 Y133.494 E323.83710
G0 F12000 X126.989 Y134.060
G1 F1200 X131.187 Y138.258 E324.54952
G0 F12000 X130.621 Y138.258
G1 F1200 X126.989 Y134.626 E325.16589
G0 F12000 X126.989 Y135.191
G1 F1200 X130.056 Y138.258 E325.68638
G0 F12000 X129.490 Y138.258
G1 F1200 X126.770 Y135.538 E326.14798
G0 F12000 X126.205 Y135.538
G1 F1200 X128.924 Y138.258 E326.60949
G0 F12000 X128.358 Y138.258
G1 F1200 X125.639 Y135.538 E327.07101
G0 F12000 X125.073 Y135.538
G1 F1200 X127.793 Y138.258 E327.53261
G0 F12000 X127.227 Y138.258
G1 F1200 X124.508 Y135.538 E327.99412
G0 F12000 X123.942 Y135.538
G1 F1200 X126.661 Y138.258 E328.45563
G0 F12000 X126.096 Y138.258
G1 F1200 X123.376 Y135.538 E328.91723
G0 F12000 X122.811 Y135.538
G1 F1200 X125.530 Y138.258 E329.37875
G0 F12000 X124.964 Y138.258
G1 F1200 X122.245 Y135.538 E329.84026
G0 F12000 X121.679 Y135.538
G1 F1200 X124.399 Y138.258 E330.30186
G0 F12000 X123.833 Y138.258
G1 F1200 X121.113 Y135.538 E330.76346
G0 F12000 X120.548 Y135.538
G1 F1200 X123.267 Y138.258 E331.22498
G0 F12000 X122.702 Y138.258
G1 F1200 X119.982 Y135.538 E331.68658
G0 F12000 X119.416 Y135.538
G1 F1200 X122.136 Y138.258 E332.14817
G0 F12000 X121.570 Y138.258
G1 F1200 X118.851 Y135.538 E332.60969
