;FLAVOR:UltiGCode
;TIME:6021
;MATERIAL:6097
;MATERIAL2:0
;NOZZLE_DIAMETER:0.400000
;NOZZLE_DIAMETER2:0.400000

;Layer count: 63
;LAYER:0
M107
G0 F12000 X42.141 Y89.026 Z0.300
;TYPE:SKIRT
G1 F1200 X50.777 Y92.015 E1.09664
G1 X56.497 Y93.794 E1.81547
G1 X60.687 Y94.951 E2.33708
G1 X62.205 Y95.371 E2.52609
G1 X66.461 Y96.403 E3.05161
G1 X68.018 Y96.781 E3.24388
G1 X73.835 Y97.998 E3.95703
G1 X78.130 Y98.755 E4.48037
G1 X79.671 Y99.028 E4.66817
G1 X84.014 Y99.652 E5.19468
G1 X85.583 Y99.878 E5.38491
G1 X89.926 Y100.361 E5.90928
G1 X91.498 Y100.537 E6.09910
G1 X92.932 Y100.650 E6.27171
G1 X97.296 Y100.998 E6.79705
G1 X99.575 Y101.111 E7.07087
G1 X100.353 Y101.149 E7.16434
G1 X104.448 Y101.283 E7.65601
G1 X105.916 Y101.332 E7.83226
G1 X108.807 Y101.378 E8.17923
G1 X109.340 Y101.386 E8.24319
G1 X109.859 Y101.379 E8.30548
G1 X112.391 Y101.338 E8.60936
G1 X116.813 Y101.199 E9.14026
G1 X118.326 Y101.148 E9.32193
G1 X120.473 Y101.046 E9.57986
G1 X121.220 Y101.010 E9.66960
G1 X127.182 Y100.536 E10.38730
G1 X131.509 Y100.054 E10.90975
G1 X133.064 Y99.880 E11.09751
G1 X137.409 Y99.256 E11.62426
G1 X137.409 Y99.257 E11.62438
G1 X138.982 Y99.030 E11.81510
G1 X143.278 Y98.273 E12.33856
G1 X144.842 Y97.996 E12.52916
G1 X150.658 Y96.780 E13.24217
G1 X154.914 Y95.747 E13.76772
G1 X156.479 Y95.367 E13.96098
G1 X160.665 Y94.210 E14.48213
G1 X162.178 Y93.791 E14.67053
G1 X167.891 Y92.015 E15.38845
G1 X176.529 Y89.026 E16.48531
G1 X176.992 Y90.299 E16.64786
G1 X178.857 Y89.581 E16.88767
G1 X181.733 Y97.482 E17.89665
G1 X179.874 Y98.192 E18.13545
G1 X180.418 Y99.662 E18.32354
G1 X176.800 Y100.909 E18.78277
G1 X171.410 Y102.774 E19.46719
G1 X170.829 Y102.955 E19.54021
G1 X165.381 Y104.650 E20.22488
G1 X164.296 Y104.949 E20.35994
G1 X159.297 Y106.332 E20.98235
G1 X153.162 Y107.819 E21.73987
G1 X146.983 Y109.112 E22.49741
G1 X140.766 Y110.208 E23.25495
G1 X139.056 Y110.454 E23.46227
G1 X139.056 Y110.453 E23.46239
G1 X134.518 Y111.107 E24.01257
G1 X133.834 Y111.183 E24.09516
G1 X138.012 Y112.402 E24.61742
G1 X138.184 Y112.476 E24.63989
G1 X140.336 Y112.150 E24.90108
G1 X141.468 Y111.978 E25.03848
G1 X144.476 Y111.459 E25.40477
G1 X145.593 Y111.265 E25.54082
G1 X148.607 Y110.681 E25.90922
G1 X148.607 Y110.680 E25.90934
G1 X149.722 Y110.463 E26.04565
G1 X151.411 Y110.098 E26.25301
G1 X152.047 Y109.960 E26.33111
G1 X153.322 Y109.683 E26.48768
G1 X156.819 Y108.859 E26.91881
G1 X157.911 Y108.598 E27.05354
G1 X162.012 Y107.530 E27.56207
G1 X164.945 Y106.701 E27.92782
G1 X165.502 Y106.543 E27.99730
G1 X166.046 Y106.388 E28.06518
G1 X169.527 Y105.325 E28.50194
G1 X169.527 Y105.324 E28.50206
G1 X170.079 Y105.155 E28.57133
G1 X173.523 Y104.024 E29.00633
G1 X173.523 Y104.023 E29.00645
G1 X174.071 Y103.842 E29.07570
G1 X177.987 Y102.463 E29.57391
G1 X182.879 Y100.625 E30.20102
G1 X184.573 Y105.283 E30.79579
G1 X185.757 Y108.516 E31.20895
G1 X183.879 Y109.222 E31.44971
G1 X190.055 Y126.193 E33.61689
G1 X186.407 Y127.477 E34.08097
G1 X186.407 Y127.476 E34.08109
G1 X182.548 Y128.836 E34.57209
G1 X181.914 Y129.044 E34.65216
G1 X178.029 Y130.321 E35.14290
G1 X173.478 Y131.713 E35.71399
G1 X172.836 Y131.895 E35.79407
G1 X172.836 Y131.894 E35.79419
G1 X165.819 Y133.880 E36.66931
G1 X164.621 Y129.457 E37.21919
G1 X164.620 Y129.457 E37.21931
G1 X163.186 Y124.183 E37.87517
G1 X157.255 Y125.639 E38.60802
G1 X157.215 Y125.601 E38.61464
G1 X154.491 Y126.211 E38.94962
G1 X150.030 Y127.111 E39.49572
G1 X145.553 Y127.915 E40.04156
G1 X141.062 Y128.627 E40.58721
G1 X136.555 Y129.245 E41.13311
G1 X132.037 Y129.768 E41.67889
G1 X127.508 Y130.196 E42.22479
G1 X122.971 Y130.529 E42.77069
G1 X122.634 Y130.547 E42.81119
G1 X122.984 Y131.708 E42.95671
G1 X116.001 Y131.708 E43.79467
G1 X113.804 Y129.310 E44.18494
G1 X113.048 Y128.482 E44.31948
G1 X112.972 Y128.229 E44.35118
G1 X109.335 Y128.287 E44.78768
G1 X107.662 Y128.262 E44.98846
G1 X105.695 Y128.230 E45.22453
G1 X105.618 Y128.486 E45.25661
G1 X102.668 Y131.708 E45.78083
G1 X95.686 Y131.708 E46.61867
G1 X96.035 Y130.547 E46.76415
G1 X95.697 Y130.529 E46.80477
G1 X91.160 Y130.196 E47.35067
G1 X86.631 Y129.768 E47.89657
G1 X82.113 Y129.245 E48.44235
G1 X77.606 Y128.627 E48.98825
G1 X73.114 Y127.915 E49.53402
G1 X70.728 Y127.485 E49.82496
G1 X70.728 Y127.486 E49.82508
G1 X68.638 Y127.111 E50.07988
G1 X64.177 Y126.211 E50.62599
G1 X59.303 Y125.119 E51.22537
G1 X60.422 Y122.615 E51.55449
G1 X55.460 Y121.411 E52.16720
G1 X54.830 Y121.238 E52.24560
G1 X48.898 Y119.598 E52.98415
G1 X42.398 Y117.577 E53.80098
G1 X41.780 Y117.363 E53.87946
G1 X32.941 Y114.302 E55.00194
G1 X34.276 Y110.632 E55.47057
G1 X35.961 Y106.005 E56.06148
G1 X45.139 Y109.182 E57.22696
G1 X49.724 Y110.607 E57.80312
G1 X51.380 Y111.123 E58.01127
G1 X57.666 Y112.861 E58.79389
G1 X62.329 Y113.991 E59.36964
G1 X64.016 Y114.402 E59.57800
G1 X70.415 Y115.741 E60.36252
G1 X73.154 Y116.223 E60.69625
G1 X75.463 Y114.840 E61.01923
G1 X76.709 Y114.095 E61.19343
G1 X79.513 Y112.893 E61.55953
G1 X80.654 Y112.403 E61.70854
G1 X84.833 Y111.183 E62.23095
G1 X84.150 Y111.107 E62.31342
G1 X82.441 Y110.861 E62.52061
G1 X77.901 Y110.208 E63.07102
G1 X71.685 Y109.112 E63.82844
G1 X65.506 Y107.819 E64.58598
G1 X59.372 Y106.332 E65.34338
G1 X57.707 Y105.872 E65.55067
G1 X53.286 Y104.650 E66.10108
G1 X47.258 Y102.775 E66.85863
G1 X38.268 Y99.664 E68.00020
G1 X39.834 Y95.361 E68.54969
G1 X42.141 Y89.026 E69.35873
G10
G1 Z0.400
G0 F12000 X44.673 Y94.347
;TYPE:WALL-INNER
G1 Z0.300
G11
G1 F1200 X49.480 Y96.010 E69.96911
G1 X55.292 Y97.818 E70.69952
G1 X61.159 Y99.439 E71.42994
G1 X67.075 Y100.875 E72.16047
G1 X73.033 Y102.121 E72.89090
G1 X79.027 Y103.179 E73.62130
G1 X85.052 Y104.044 E74.35171
G1 X91.101 Y104.719 E75.08209
G1 X97.021 Y105.189 E75.79473
G1 X99.367 Y105.306 E76.07660
G1 X100.185 Y105.345 E76.17487
G1 X105.841 Y105.532 E76.85396
G1 X109.333 Y105.587 E77.27305
G1 X109.926 Y105.579 E77.34422
G1 X112.467 Y105.538 E77.64918
G1 X116.952 Y105.396 E78.18765
G1 X118.484 Y105.345 E78.37159
G1 X121.499 Y105.201 E78.73380
G1 X127.567 Y104.719 E79.46426
G1 X133.616 Y104.044 E80.19464
G1 X139.641 Y103.179 E80.92506
G1 X145.635 Y102.121 E81.65546
G1 X151.593 Y100.875 E82.38588
G1 X157.509 Y99.439 E83.11642
G1 X163.376 Y97.818 E83.84684
G1 X169.188 Y96.010 E84.57724
G1 X173.994 Y94.347 E85.18751
G1 X174.504 Y95.749 E85.36654
G1 X174.993 Y97.090 E85.53782
G1 X170.103 Y98.782 E86.15876
G1 X164.195 Y100.620 E86.90123
G1 X158.248 Y102.264 E87.64164
G1 X152.236 Y103.721 E88.38396
G1 X146.189 Y104.987 E89.12534
G1 X140.099 Y106.061 E89.86741
G1 X133.984 Y106.940 E90.60876
G1 X126.319 Y107.794 E91.53425
G1 X130.125 Y114.476 E92.45704
G1 X136.593 Y116.363 E93.26555
G1 X137.139 Y116.597 E93.33684
G1 X137.627 Y116.808 E93.40064
G1 X142.109 Y116.129 E93.94461
G1 X146.339 Y115.399 E94.45972
G1 X150.554 Y114.580 E94.97498
G1 X152.939 Y114.064 E95.26780
G1 X154.263 Y113.776 E95.43039
G1 X157.793 Y112.945 E95.86557
G1 X158.927 Y112.674 E96.00548
G1 X163.081 Y111.592 E96.52060
G1 X166.093 Y110.741 E96.89619
G1 X167.213 Y110.423 E97.03590
G1 X171.318 Y109.168 E97.55101
G1 X174.840 Y108.012 E97.99583
G1 X175.398 Y107.827 E98.06637
G1 X179.447 Y106.401 E98.58151
G1 X179.698 Y106.307 E98.61367
G1 X178.511 Y106.753 E98.76583
G1 X184.657 Y123.641 E100.92242
G1 X181.190 Y124.862 E101.36351
G1 X176.758 Y126.318 E101.92331
G1 X172.303 Y127.681 E102.48237
G1 X168.761 Y128.683 E102.92409
G1 X166.143 Y119.046 E104.12245
G1 X162.298 Y120.076 E104.60011
G1 X158.497 Y121.010 E105.06980
G1 X156.790 Y119.372 E105.35370
G1 X156.203 Y118.807 E105.45146
G1 X149.138 Y120.286 E106.31764
G1 X142.737 Y121.413 E107.09758
G1 X142.925 Y123.263 E107.32072
G1 X148.586 Y123.103 E108.00031
G1 X144.864 Y123.772 E108.45411
G1 X140.450 Y124.471 E108.99039
G1 X136.018 Y125.079 E109.52721
G1 X131.608 Y125.590 E110.05995
G1 X127.146 Y126.011 E110.59777
G1 X122.718 Y126.336 E111.13056
G1 X121.872 Y126.380 E111.23222
G1 X120.895 Y123.748 E111.56911
G1 X119.459 Y123.815 E111.74162
G1 X116.269 Y123.969 E112.12487
G1 X117.082 Y126.671 E112.46347
G1 X116.795 Y126.358 E112.51443
G1 X116.079 Y123.979 E112.81256
G1 X109.334 Y124.087 E113.62206
G1 X102.589 Y123.979 E114.43156
G1 X101.961 Y126.068 E114.69333
G1 X101.875 Y126.354 E114.72916
G1 X101.586 Y126.669 E114.78046
G1 X102.399 Y123.967 E115.11906
G1 X100.415 Y123.874 E115.35740
G1 X97.773 Y123.747 E115.67481
G1 X96.804 Y126.358 E116.00901
G1 X96.796 Y126.380 E116.01182
G1 X95.950 Y126.336 E116.11348
G1 X91.522 Y126.012 E116.64626
G1 X87.060 Y125.589 E117.18410
G1 X82.650 Y125.079 E117.71683
G1 X78.218 Y124.471 E118.25365
G1 X73.804 Y123.772 E118.78993
G1 X70.080 Y123.103 E119.24396
G1 X74.099 Y123.216 E119.72643
G1 X75.742 Y123.264 E119.92368
G1 X75.931 Y121.413 E120.14695
G1 X70.781 Y120.507 E120.77444
G1 X70.139 Y120.392 E120.85271
G1 X69.534 Y120.286 E120.92641
G1 X63.005 Y118.920 E121.72686
G1 X56.507 Y117.343 E122.52925
G1 X50.083 Y115.568 E123.32902
G1 X43.704 Y113.584 E124.13067
G1 X38.346 Y111.730 E124.81103
G1 X38.493 Y111.326 E124.86262
G1 X43.842 Y113.177 E125.54184
G1 X50.201 Y115.155 E126.34099
G1 X56.621 Y116.929 E127.14026
G1 X63.094 Y118.500 E127.93957
G1 X69.613 Y119.864 E128.73879
G1 X74.475 Y120.721 E129.33122
G1 X74.941 Y120.049 E129.42936
G1 X78.626 Y117.843 E129.94474
G1 X82.076 Y116.363 E130.39522
G1 X88.543 Y114.476 E131.20362
G1 X92.350 Y107.794 E132.12647
G1 X84.684 Y106.940 E133.05208
G1 X78.569 Y106.061 E133.79343
G1 X72.479 Y104.987 E134.53550
G1 X66.432 Y103.721 E135.27688
G1 X60.420 Y102.264 E136.01920
G1 X54.473 Y100.620 E136.75961
G1 X48.565 Y98.782 E137.50208
G1 X43.675 Y97.090 E138.12302
G1 X44.673 Y94.347 E138.47329
G0 F12000 X91.555 Y108.200
G0 X88.264 Y114.125
G0 X92.776 Y117.411
G1 F1200 X102.028 Y117.411 E139.58353
G1 X104.663 Y108.667 E140.67941
G1 X97.921 Y108.206 E141.49034
G1 X92.776 Y117.411 E142.75578
G0 F12000 X103.212 Y123.577
G1 F1200 X108.141 Y123.639 E143.34730
G1 X109.334 Y123.652 E143.49047
G1 X113.729 Y123.607 E144.01790
G1 X115.448 Y123.552 E144.22429
G1 X111.802 Y111.422 E145.74422
G1 X109.334 Y111.593 E146.04109
G1 X106.866 Y111.422 E146.33796
G1 X103.212 Y123.577 E147.86104
G0 F12000 X114.811 Y123.093
G0 X116.640 Y117.411
G1 F1200 X125.891 Y117.411 E148.97116
G1 X120.759 Y108.228 E150.23353
G1 X113.939 Y108.450 E151.05236
G1 X116.640 Y117.411 E152.17547
G0 F12000 X116.937 Y117.011
G1 F1200 X125.210 Y117.011 E153.16823
G1 X120.529 Y108.635 E154.31966
G1 X114.472 Y108.833 E155.04689
G1 X116.937 Y117.011 E156.07186
G0 F12000 X114.915 Y123.169
G1 F1200 X111.511 Y111.843 E157.49104
G1 X109.334 Y111.994 E157.75290
G1 X107.157 Y111.843 E158.01477
G1 X103.748 Y123.184 E159.43585
G1 X109.333 Y123.252 E160.10610
G1 X113.721 Y123.207 E160.63268
G1 X114.915 Y123.169 E160.77604
G0 F12000 X115.783 Y124.384
G1 F1200 X109.334 Y124.487 E161.55001
G1 X102.885 Y124.384 E162.32399
G1 X102.344 Y126.183 E162.54942
G1 X102.232 Y126.557 E162.59627
G1 X100.995 Y127.908 E162.81608
G1 X100.797 Y127.908 E162.83984
G1 X101.869 Y124.343 E163.28657
G1 X98.046 Y124.161 E163.74585
G1 X97.067 Y126.796 E164.08317
G1 X95.929 Y126.736 E164.21992
G1 X91.478 Y126.409 E164.75547
G1 X87.035 Y125.989 E165.29101
G1 X82.583 Y125.474 E165.82881
G1 X78.168 Y124.869 E166.36357
G1 X73.749 Y124.168 E166.90048
G1 X69.343 Y123.376 E167.43767
G1 X65.337 Y122.569 E167.92805
G1 X75.383 Y122.852 E169.13405
G1 X75.495 Y121.743 E169.26780
G1 X70.714 Y120.901 E169.85035
G1 X70.070 Y120.786 E169.92885
G1 X69.445 Y120.677 E170.00499
G1 X62.918 Y119.311 E170.80520
G1 X56.403 Y117.730 E171.60969
G1 X49.977 Y115.954 E172.40971
G1 X43.581 Y113.965 E173.21349
G1 X37.831 Y111.975 E173.94364
G1 X38.252 Y110.819 E174.09128
G1 X43.967 Y112.797 E174.81699
G1 X50.314 Y114.771 E175.61462
G1 X56.721 Y116.542 E176.41229
G1 X63.182 Y118.109 E177.21009
G1 X69.688 Y119.471 E178.00773
G1 X74.292 Y120.283 E178.56874
G1 X74.661 Y119.750 E178.64653
G1 X78.446 Y117.484 E179.17591
G1 X81.936 Y115.987 E179.63161
G1 X88.275 Y114.137 E180.42402
G1 X91.701 Y108.124 E181.25448
G1 X84.640 Y107.338 E182.10704
G1 X78.503 Y106.456 E182.85104
G1 X72.394 Y105.378 E183.59545
G1 X66.345 Y104.112 E184.33706
G1 X60.323 Y102.653 E185.08060
G1 X54.365 Y101.006 E185.82238
G1 X48.442 Y99.163 E186.56675
G1 X43.159 Y97.335 E187.23759
G1 X44.432 Y93.840 E187.68394
G1 X49.605 Y95.630 E188.34082
G1 X55.405 Y97.434 E189.06970
G1 X61.259 Y99.052 E189.79852
G1 X67.163 Y100.484 E190.52755
G1 X73.108 Y101.728 E191.25640
G1 X79.090 Y102.784 E191.98534
G1 X85.102 Y103.647 E192.71417
G1 X91.139 Y104.320 E193.44310
G1 X97.046 Y104.790 E194.15418
G1 X100.200 Y104.946 E194.53312
G1 X105.850 Y105.132 E195.21149
G1 X109.333 Y105.187 E195.62950
G1 X109.920 Y105.179 E195.69995
G1 X112.457 Y105.138 E196.00443
G1 X116.939 Y104.997 E196.54253
G1 X118.467 Y104.946 E196.72599
G1 X121.474 Y104.802 E197.08725
G1 X127.529 Y104.320 E197.81615
G1 X133.566 Y103.647 E198.54507
G1 X139.578 Y102.784 E199.27391
G1 X145.560 Y101.728 E200.00285
G1 X151.505 Y100.484 E200.73170
G1 X157.409 Y99.052 E201.46072
G1 X163.263 Y97.434 E202.18954
G1 X169.063 Y95.630 E202.91843
G1 X174.236 Y93.840 E203.57530
G1 X174.741 Y95.230 E203.75277
G1 X176.610 Y94.517 E203.99282
G1 X176.883 Y95.268 E204.08870
G1 X175.015 Y95.981 E204.32864
G1 X175.508 Y97.336 E204.50167
G1 X170.226 Y99.163 E205.17235
G1 X164.302 Y101.006 E205.91684
G1 X158.352 Y102.651 E206.65763
G1 X152.323 Y104.112 E207.40204
G1 X146.274 Y105.378 E208.14365
G1 X140.165 Y106.456 E208.88806
G1 X134.028 Y107.338 E209.63206
G1 X126.967 Y108.124 E210.48462
G1 X130.393 Y114.137 E211.31508
G1 X136.724 Y115.985 E212.10651
G1 X137.297 Y116.230 E212.18129
G1 X137.680 Y116.395 E212.23133
G1 X142.045 Y115.734 E212.76110
G1 X146.267 Y115.005 E213.27524
G1 X150.473 Y114.188 E213.78939
G1 X154.174 Y113.386 E214.24382
G1 X157.700 Y112.556 E214.67851
G1 X158.830 Y112.286 E214.81792
G1 X162.976 Y111.206 E215.33205
G1 X167.099 Y110.040 E215.84621
G1 X171.197 Y108.787 E216.36044
G1 X174.715 Y107.632 E216.80477
G1 X175.269 Y107.449 E216.87479
G1 X179.310 Y106.025 E217.38893
G1 X180.620 Y105.533 E217.55685
G1 X180.893 Y106.284 E217.65274
G1 X179.022 Y106.988 E217.89263
G1 X185.171 Y123.884 E220.05025
G1 X181.321 Y125.239 E220.54003
G1 X176.886 Y126.697 E221.10025
G1 X172.400 Y128.069 E221.66318
G1 X168.481 Y129.178 E222.15193
G1 X165.862 Y119.536 E223.35089
G1 X162.400 Y120.462 E223.78094
G1 X158.378 Y121.450 E224.27792
G1 X156.077 Y119.242 E224.66061
G1 X149.222 Y120.677 E225.50104
G1 X143.173 Y121.743 E226.23810
G1 X143.285 Y122.853 E226.37198
G1 X153.330 Y122.569 E227.57786
G1 X149.325 Y123.376 E228.06812
G1 X144.919 Y124.168 E228.60531
G1 X140.500 Y124.868 E229.14221
G1 X136.085 Y125.474 E229.67697
G1 X131.633 Y125.989 E230.21478
G1 X127.190 Y126.409 E230.75031
G1 X122.739 Y126.736 E231.28587
G1 X121.600 Y126.796 E231.42274
G1 X120.622 Y124.161 E231.76002
G1 X116.799 Y124.343 E232.21930
G1 X117.871 Y127.908 E232.66602
G1 X117.672 Y127.908 E232.68990
G1 X116.438 Y126.560 E232.90921
G1 X115.783 Y124.384 E233.18190
G0 F12000 X103.855 Y123.105
G0 X101.731 Y117.011
G1 F1200 X104.135 Y109.032 E234.18189
G1 X98.147 Y108.623 E234.90213
G1 X93.458 Y117.011 E236.05528
G1 X101.731 Y117.011 E237.04804
G0 F12000 X101.434 Y116.611
;TYPE:WALL-OUTER
G1 F1200 X103.608 Y109.397 E237.95218
G1 X98.372 Y109.039 E238.58197
G1 X94.140 Y116.611 E239.62289
G1 X101.434 Y116.611 E240.49817
G0 F12000 X101.719 Y116.698
G0 X103.855 Y123.105
G0 X104.280 Y123.090
G0 X104.284 Y122.791
G1 F1200 X109.334 Y122.852 E241.10422
G1 X113.712 Y122.807 E241.62960
G1 X114.382 Y122.786 E241.71004
G1 X111.220 Y112.264 E243.02847
G1 X109.334 Y112.395 E243.25533
