;FLAVOR:UltiGCode
;TIME:6223
;MATERIAL:6239
;MATERIAL2:0
;NOZZLE_DIAMETER:0.400000
;NOZZLE_DIAMETER2:0.400000

;Layer count: 63
;LAYER:0
M106 S255
G0 F12000 X32.945 Y96.807 Z0.300
;TYPE:SKIRT
G1 F1200 X36.593 Y95.523 E0.46408
G1 X36.593 Y95.524 E0.46420
G1 X40.452 Y94.164 E0.95520
G1 X41.086 Y93.956 E1.03527
G1 X44.971 Y92.679 E1.52601
G1 X49.522 Y91.287 E2.09710
G1 X50.164 Y91.105 E2.17718
G1 X50.164 Y91.106 E2.17730
G1 X57.181 Y89.120 E3.05242
G1 X58.379 Y93.543 E3.60230
G1 X58.380 Y93.543 E3.60242
G1 X59.814 Y98.817 E4.25828
G1 X65.745 Y97.361 E4.99113
G1 X65.785 Y97.399 E4.99775
G1 X68.509 Y96.789 E5.33273
G1 X72.970 Y95.889 E5.87883
G1 X77.447 Y95.085 E6.42467
G1 X81.938 Y94.373 E6.97032
G1 X86.445 Y93.755 E7.51622
G1 X90.963 Y93.232 E8.06200
G1 X95.492 Y92.804 E8.60790
G1 X100.029 Y92.471 E9.15380
G1 X100.366 Y92.453 E9.19430
G1 X100.016 Y91.292 E9.33982
G1 X106.999 Y91.292 E10.17778
G1 X109.196 Y93.690 E10.56805
G1 X109.952 Y94.518 E10.70259
G1 X110.028 Y94.771 E10.73429
G1 X113.665 Y94.713 E11.17079
G1 X115.338 Y94.738 E11.37157
G1 X117.305 Y94.770 E11.60764
G1 X117.382 Y94.514 E11.63972
G1 X120.332 Y91.292 E12.16394
G1 X127.314 Y91.292 E13.00178
G1 X126.965 Y92.453 E13.14726
G1 X127.303 Y92.471 E13.18788
G1 X131.840 Y92.804 E13.73378
G1 X136.369 Y93.232 E14.27968
G1 X140.887 Y93.755 E14.82546
G1 X145.394 Y94.373 E15.37136
G1 X149.886 Y95.085 E15.91713
G1 X152.272 Y95.515 E16.20807
G1 X152.272 Y95.514 E16.20819
G1 X154.362 Y95.889 E16.46299
G1 X158.823 Y96.789 E17.00910
G1 X163.697 Y97.881 E17.60848
G1 X162.578 Y100.385 E17.93760
G1 X167.540 Y101.589 E18.55031
G1 X168.170 Y101.762 E18.62871
G1 X174.102 Y103.402 E19.36726
G1 X180.602 Y105.423 E20.18409
G1 X181.220 Y105.637 E20.26257
G1 X190.059 Y108.698 E21.38505
G1 X188.724 Y112.368 E21.85368
G1 X187.039 Y116.995 E22.44460
G1 X177.861 Y113.818 E23.61007
G1 X173.276 Y112.393 E24.18623
G1 X171.620 Y111.877 E24.39438
G1 X165.334 Y110.139 E25.17700
G1 X160.671 Y109.009 E25.75275
G1 X158.984 Y108.598 E25.96112
G1 X152.585 Y107.259 E26.74563
G1 X149.846 Y106.777 E27.07936
G1 X147.537 Y108.160 E27.40234
G1 X146.291 Y108.905 E27.57655
G1 X143.487 Y110.107 E27.94264
G1 X142.346 Y110.597 E28.09165
G1 X138.167 Y111.817 E28.61406
G1 X138.850 Y111.893 E28.69653
G1 X140.559 Y112.139 E28.90372
G1 X145.099 Y112.792 E29.45413
G1 X151.315 Y113.888 E30.21155
G1 X157.494 Y115.181 E30.96909
G1 X163.628 Y116.668 E31.72649
G1 X165.293 Y117.128 E31.93378
G1 X169.714 Y118.350 E32.48419
G1 X175.742 Y120.225 E33.24174
G1 X184.732 Y123.336 E34.38331
G1 X183.166 Y127.639 E34.93280
G1 X180.859 Y133.974 E35.74184
G1 X172.223 Y130.985 E36.83847
G1 X166.503 Y129.206 E37.55730
G1 X162.313 Y128.049 E38.07892
G1 X160.795 Y127.629 E38.26793
G1 X156.539 Y126.597 E38.79345
G1 X154.982 Y126.219 E38.98571
G1 X149.165 Y125.002 E39.69887
G1 X144.870 Y124.245 E40.22221
G1 X143.329 Y123.972 E40.41001
G1 X138.986 Y123.348 E40.93652
G1 X137.417 Y123.122 E41.12674
G1 X133.074 Y122.639 E41.65112
G1 X131.502 Y122.463 E41.84094
G1 X130.068 Y122.350 E42.01355
G1 X125.704 Y122.002 E42.53889
G1 X123.425 Y121.889 E42.81271
G1 X122.647 Y121.851 E42.90618
G1 X118.552 Y121.717 E43.39784
G1 X117.084 Y121.668 E43.57410
G1 X114.193 Y121.622 E43.92106
G1 X113.660 Y121.614 E43.98503
G1 X113.141 Y121.621 E44.04732
G1 X110.609 Y121.662 E44.35120
G1 X106.187 Y121.801 E44.88210
G1 X104.674 Y121.852 E45.06376
G1 X102.527 Y121.954 E45.32169
G1 X101.780 Y121.990 E45.41144
G1 X95.818 Y122.464 E46.12913
G1 X91.491 Y122.946 E46.65159
G1 X89.936 Y123.120 E46.83935
G1 X85.591 Y123.744 E47.36610
G1 X85.591 Y123.743 E47.36622
G1 X84.018 Y123.970 E47.55694
G1 X79.722 Y124.727 E48.08040
G1 X78.158 Y125.004 E48.27100
G1 X72.342 Y126.220 E48.98401
G1 X68.086 Y127.253 E49.50956
G1 X66.521 Y127.633 E49.70282
G1 X62.335 Y128.790 E50.22397
G1 X60.822 Y129.209 E50.41236
G1 X55.109 Y130.985 E51.13029
G1 X46.471 Y133.974 E52.22715
G1 X46.008 Y132.701 E52.38970
G1 X44.143 Y133.419 E52.62951
G1 X41.267 Y125.518 E53.63849
G1 X43.126 Y124.808 E53.87729
G1 X42.582 Y123.338 E54.06538
G1 X46.200 Y122.091 E54.52460
G1 X51.590 Y120.226 E55.20903
G1 X52.171 Y120.045 E55.28205
G1 X57.619 Y118.350 E55.96672
G1 X58.704 Y118.051 E56.10178
G1 X63.703 Y116.668 E56.72419
G1 X69.838 Y115.181 E57.48171
G1 X76.017 Y113.888 E58.23925
G1 X82.234 Y112.792 E58.99679
G1 X83.944 Y112.546 E59.20410
G1 X83.944 Y112.547 E59.20422
G1 X88.482 Y111.893 E59.75441
G1 X89.166 Y111.817 E59.83699
G1 X84.988 Y110.598 E60.35926
G1 X84.816 Y110.524 E60.38173
G1 X82.664 Y110.850 E60.64291
G1 X81.532 Y111.022 E60.78031
G1 X78.524 Y111.541 E61.14661
G1 X77.407 Y111.735 E61.28265
G1 X74.393 Y112.319 E61.65106
G1 X74.393 Y112.320 E61.65118
G1 X73.278 Y112.537 E61.78749
G1 X71.589 Y112.902 E61.99485
G1 X70.953 Y113.040 E62.07294
G1 X69.678 Y113.317 E62.22951
G1 X66.181 Y114.141 E62.66065
G1 X65.089 Y114.402 E62.79538
G1 X60.988 Y115.470 E63.30391
G1 X58.055 Y116.299 E63.66966
G1 X57.498 Y116.457 E63.73914
G1 X56.954 Y116.612 E63.80701
G1 X53.473 Y117.675 E64.24378
G1 X53.473 Y117.676 E64.24390
G1 X52.921 Y117.845 E64.31317
G1 X49.477 Y118.976 E64.74817
G1 X49.477 Y118.977 E64.74829
G1 X48.929 Y119.158 E64.81754
G1 X45.020 Y120.535 E65.31487
G1 X40.121 Y122.375 E65.94285
G1 X38.425 Y117.711 E66.53839
G1 X37.243 Y114.484 E66.95079
G1 X39.121 Y113.778 E67.19154
G1 X32.945 Y96.807 E69.35873
G10
G1 Z1.300
G0 F12000 X38.343 Y99.359
;TYPE:WALL-INNER
G1 Z0.300
G11
G1 F1200 X41.814 Y98.137 E69.80030
G1 X46.242 Y96.682 E70.35962
G1 X50.697 Y95.319 E70.91868
G1 X54.239 Y94.317 E71.36040
G1 X56.857 Y103.954 E72.55875
G1 X60.706 Y102.923 E73.03691
G1 X64.503 Y101.990 E73.50611
G1 X66.209 Y103.627 E73.78983
G1 X66.797 Y104.193 E73.88777
G1 X73.862 Y102.714 E74.75395
G1 X80.263 Y101.587 E75.53388
G1 X80.075 Y99.737 E75.75702
G1 X74.414 Y99.897 E76.43661
G1 X78.136 Y99.228 E76.89041
G1 X82.550 Y98.529 E77.42669
G1 X86.982 Y97.921 E77.96351
G1 X91.392 Y97.410 E78.49625
G1 X95.854 Y96.989 E79.03407
G1 X100.282 Y96.664 E79.56686
G1 X101.128 Y96.620 E79.66852
G1 X102.105 Y99.252 E80.00542
G1 X103.541 Y99.185 E80.17792
G1 X106.731 Y99.031 E80.56117
G1 X105.918 Y96.329 E80.89977
G1 X106.205 Y96.642 E80.95073
G1 X106.921 Y99.021 E81.24886
G1 X113.666 Y98.913 E82.05836
G1 X120.411 Y99.021 E82.86787
G1 X121.039 Y96.932 E83.12963
G1 X121.125 Y96.646 E83.16547
G1 X121.414 Y96.331 E83.21677
G1 X120.601 Y99.033 E83.55536
G1 X122.585 Y99.126 E83.79371
G1 X125.227 Y99.253 E84.11111
G1 X126.196 Y96.642 E84.44531
G1 X126.204 Y96.620 E84.44812
G1 X127.050 Y96.664 E84.54978
G1 X131.478 Y96.988 E85.08256
G1 X135.940 Y97.411 E85.62040
G1 X140.350 Y97.921 E86.15313
G1 X144.782 Y98.529 E86.68995
G1 X149.196 Y99.228 E87.22623
G1 X152.920 Y99.897 E87.68026
G1 X148.901 Y99.784 E88.16273
G1 X147.258 Y99.736 E88.35998
G1 X147.069 Y101.587 E88.58325
G1 X152.219 Y102.493 E89.21074
G1 X152.861 Y102.608 E89.28901
G1 X153.466 Y102.714 E89.36272
G1 X159.995 Y104.080 E90.16316
G1 X166.493 Y105.657 E90.96555
G1 X172.917 Y107.432 E91.76532
G1 X179.296 Y109.416 E92.56697
G1 X184.654 Y111.270 E93.24733
G1 X184.507 Y111.674 E93.29892
G1 X179.158 Y109.823 E93.97815
G1 X172.799 Y107.845 E94.77729
G1 X166.379 Y106.071 E95.57656
G1 X159.906 Y104.500 E96.37587
G1 X153.387 Y103.136 E97.17509
G1 X148.525 Y102.279 E97.76753
G1 X148.059 Y102.951 E97.86566
G1 X144.374 Y105.157 E98.38104
G1 X140.924 Y106.637 E98.83153
G1 X134.457 Y108.524 E99.63993
G1 X130.650 Y115.206 E100.56278
G1 X138.316 Y116.060 E101.48839
G1 X144.431 Y116.939 E102.22973
G1 X150.521 Y118.013 E102.97181
G1 X156.568 Y119.279 E103.71318
G1 X162.580 Y120.736 E104.45550
G1 X168.527 Y122.380 E105.19591
G1 X174.435 Y124.218 E105.93839
G1 X179.325 Y125.910 E106.55932
G1 X178.327 Y128.653 E106.90959
G1 X173.520 Y126.990 E107.51997
G1 X167.708 Y125.182 E108.25038
G1 X161.841 Y123.561 E108.98080
G1 X155.925 Y122.125 E109.71133
G1 X149.967 Y120.879 E110.44176
G1 X143.973 Y119.821 E111.17216
G1 X137.948 Y118.956 E111.90257
G1 X131.899 Y118.281 E112.63296
G1 X125.979 Y117.811 E113.34559
G1 X123.633 Y117.694 E113.62746
G1 X122.815 Y117.655 E113.72573
G1 X117.159 Y117.468 E114.40482
G1 X113.667 Y117.413 E114.82392
G1 X113.074 Y117.421 E114.89508
G1 X110.533 Y117.462 E115.20004
G1 X106.048 Y117.604 E115.73851
G1 X104.516 Y117.655 E115.92245
G1 X101.501 Y117.799 E116.28467
G1 X95.433 Y118.281 E117.01512
G1 X89.384 Y118.956 E117.74551
G1 X83.359 Y119.821 E118.47592
G1 X77.365 Y120.879 E119.20632
G1 X71.407 Y122.125 E119.93675
G1 X65.491 Y123.561 E120.66728
G1 X59.624 Y125.182 E121.39770
G1 X53.812 Y126.990 E122.12810
G1 X49.006 Y128.653 E122.73837
G1 X48.496 Y127.251 E122.91740
G1 X48.007 Y125.910 E123.08869
G1 X52.897 Y124.218 E123.70962
G1 X58.805 Y122.380 E124.45210
G1 X64.752 Y120.736 E125.19250
G1 X70.764 Y119.279 E125.93483
G1 X76.811 Y118.013 E126.67620
G1 X82.901 Y116.939 E127.41828
G1 X89.016 Y116.060 E128.15962
G1 X96.681 Y115.206 E129.08511
G1 X92.875 Y108.524 E130.00790
G1 X86.407 Y106.637 E130.81642
G1 X85.859 Y106.402 E130.88797
G1 X85.373 Y106.192 E130.95150
G1 X80.891 Y106.871 E131.49548
G1 X76.661 Y107.601 E132.01058
G1 X72.446 Y108.420 E132.52584
G1 X70.061 Y108.936 E132.81866
G1 X68.737 Y109.224 E132.98126
G1 X65.207 Y110.055 E133.41644
G1 X64.073 Y110.326 E133.55635
G1 X59.919 Y111.408 E134.07146
G1 X56.907 Y112.259 E134.44705
G1 X55.787 Y112.577 E134.58676
G1 X51.682 Y113.832 E135.10187
G1 X48.160 Y114.988 E135.54669
G1 X47.602 Y115.173 E135.61724
G1 X43.553 Y116.599 E136.13237
G1 X44.489 Y116.247 E136.25237
G1 X38.343 Y99.359 E138.40896
G0 F12000 X57.180 Y103.393
G0 X66.930 Y103.733
G0 X97.109 Y105.589
G1 F1200 X102.241 Y114.772 E139.67133
G1 X109.061 Y114.550 E140.49016
G1 X106.360 Y105.589 E141.61327
G1 X97.109 Y105.589 E142.72339
G0 F12000 X107.552 Y99.448
G1 F1200 X111.198 Y111.578 E144.24332
G1 X113.666 Y111.407 E144.54019
G1 X116.134 Y111.578 E144.83706
G1 X119.788 Y99.423 E146.36014
G1 X114.859 Y99.361 E146.95167
G1 X113.666 Y99.348 E147.09484
G1 X109.271 Y99.393 E147.62226
G1 X107.552 Y99.448 E147.82865
G0 F12000 X119.145 Y99.895
G0 X120.972 Y105.589
G1 F1200 X118.337 Y114.333 E148.92454
G1 X125.079 Y114.794 E149.73547
G1 X130.224 Y105.589 E151.00090
G1 X120.972 Y105.589 E152.11114
G0 F12000 X121.269 Y105.989
G1 F1200 X118.865 Y113.968 E153.11114
G1 X124.853 Y114.377 E153.83137
G1 X129.542 Y105.989 E154.98453
G1 X121.269 Y105.989 E155.97729
G0 F12000 X119.252 Y99.816
G1 F1200 X113.667 Y99.748 E156.64754
G1 X109.279 Y99.793 E157.17412
G1 X108.085 Y99.831 E157.31748
G1 X111.489 Y111.157 E158.73665
G1 X113.666 Y111.006 E158.99852
G1 X115.843 Y111.157 E159.26039
G1 X119.252 Y99.816 E160.68146
G0 F12000 X120.115 Y98.616
G1 F1200 X120.656 Y96.817 E160.90689
G1 X120.768 Y96.443 E160.95374
G1 X122.005 Y95.092 E161.17355
G1 X122.203 Y95.092 E161.19731
G1 X121.131 Y98.657 E161.64404
G1 X124.954 Y98.839 E162.10332
G1 X125.933 Y96.204 E162.44064
G1 X127.071 Y96.264 E162.57738
G1 X131.522 Y96.591 E163.11294
G1 X135.965 Y97.011 E163.64848
G1 X140.417 Y97.526 E164.18628
G1 X144.832 Y98.131 E164.72103
G1 X149.251 Y98.832 E165.25795
G1 X153.657 Y99.624 E165.79514
G1 X157.663 Y100.431 E166.28552
G1 X147.617 Y100.148 E167.49151
G1 X147.505 Y101.257 E167.62527
G1 X152.286 Y102.099 E168.20782
G1 X152.930 Y102.214 E168.28632
G1 X153.555 Y102.323 E168.36246
G1 X160.081 Y103.689 E169.16255
G1 X166.597 Y105.270 E169.96715
G1 X173.023 Y107.046 E170.76718
G1 X179.419 Y109.035 E171.57096
G1 X185.169 Y111.025 E172.30111
G1 X184.748 Y112.181 E172.44875
G1 X179.033 Y110.203 E173.17446
G1 X172.686 Y108.229 E173.97209
G1 X166.279 Y106.458 E174.76976
G1 X159.818 Y104.891 E175.56756
G1 X153.312 Y103.529 E176.36520
G1 X148.708 Y102.717 E176.92621
G1 X148.339 Y103.250 E177.00400
G1 X144.554 Y105.516 E177.53337
G1 X141.064 Y107.013 E177.98908
G1 X134.725 Y108.863 E178.78149
G1 X131.299 Y114.876 E179.61195
G1 X138.360 Y115.662 E180.46450
G1 X144.497 Y116.544 E181.20851
G1 X150.606 Y117.622 E181.95292
G1 X156.655 Y118.888 E182.69452
G1 X162.677 Y120.347 E183.43807
G1 X168.634 Y121.994 E184.17973
G1 X174.558 Y123.837 E184.92422
G1 X179.841 Y125.665 E185.59506
G1 X178.568 Y129.160 E186.04141
G1 X173.395 Y127.370 E186.69828
G1 X167.595 Y125.566 E187.42717
G1 X161.741 Y123.948 E188.15599
G1 X155.837 Y122.516 E188.88501
G1 X149.892 Y121.272 E189.61386
G1 X143.910 Y120.216 E190.34280
G1 X137.898 Y119.353 E191.07164
G1 X131.861 Y118.680 E191.80057
G1 X125.954 Y118.210 E192.51165
G1 X122.800 Y118.054 E192.89059
G1 X117.150 Y117.868 E193.56896
G1 X113.667 Y117.813 E193.98697
G1 X113.080 Y117.821 E194.05741
G1 X110.543 Y117.862 E194.36189
G1 X106.061 Y118.003 E194.90000
G1 X104.533 Y118.054 E195.08346
G1 X101.526 Y118.198 E195.44472
G1 X95.471 Y118.680 E196.17361
G1 X89.434 Y119.353 E196.90254
G1 X83.422 Y120.216 E197.63138
G1 X77.440 Y121.272 E198.36032
G1 X71.495 Y122.516 E199.08917
G1 X65.591 Y123.948 E199.81819
G1 X59.737 Y125.566 E200.54701
G1 X53.937 Y127.370 E201.27590
G1 X48.764 Y129.160 E201.93277
G1 X48.259 Y127.770 E202.11024
G1 X46.390 Y128.483 E202.35028
G1 X46.117 Y127.732 E202.44617
G1 X47.985 Y127.019 E202.68611
G1 X47.492 Y125.664 E202.85913
G1 X52.774 Y123.837 E203.52982
G1 X58.698 Y121.994 E204.27431
G1 X64.648 Y120.349 E205.01509
G1 X70.677 Y118.888 E205.75951
G1 X76.726 Y117.622 E206.50112
G1 X82.835 Y116.544 E207.24553
G1 X88.972 Y115.662 E207.98953
G1 X96.033 Y114.876 E208.84209
G1 X92.607 Y108.863 E209.67255
G1 X86.276 Y107.015 E210.46397
G1 X85.701 Y106.769 E210.53902
G1 X85.320 Y106.605 E210.58880
G1 X80.955 Y107.266 E211.11857
G1 X76.733 Y107.995 E211.63271
G1 X72.527 Y108.812 E212.14686
G1 X68.826 Y109.614 E212.60129
G1 X65.300 Y110.444 E213.03597
G1 X64.170 Y110.714 E213.17539
G1 X60.024 Y111.794 E213.68951
G1 X55.901 Y112.960 E214.20368
G1 X51.803 Y114.213 E214.71791
G1 X48.285 Y115.368 E215.16224
G1 X47.731 Y115.551 E215.23225
G1 X43.690 Y116.975 E215.74640
G1 X42.380 Y117.467 E215.91432
G1 X42.107 Y116.716 E216.01021
G1 X43.978 Y116.012 E216.25010
G1 X37.829 Y99.116 E218.40772
G1 X41.681 Y97.760 E218.89776
G1 X46.114 Y96.303 E219.45772
G1 X50.600 Y94.931 E220.02065
G1 X54.519 Y93.822 E220.50940
G1 X57.138 Y103.464 E221.70836
G1 X60.602 Y102.537 E222.13867
G1 X64.622 Y101.550 E222.63539
G1 X66.923 Y103.758 E223.01808
G1 X73.778 Y102.323 E223.85851
G1 X79.827 Y101.257 E224.59557
G1 X79.715 Y100.147 E224.72945
G1 X69.670 Y100.431 E225.93533
G1 X73.675 Y99.624 E226.42559
G1 X78.081 Y98.832 E226.96278
G1 X82.500 Y98.132 E227.49968
G1 X86.915 Y97.526 E228.03444
G1 X91.367 Y97.011 E228.57225
G1 X95.810 Y96.591 E229.10778
G1 X100.261 Y96.264 E229.64334
G1 X101.400 Y96.204 E229.78021
G1 X102.378 Y98.839 E230.11749
G1 X106.201 Y98.657 E230.57677
G1 X105.129 Y95.092 E231.02349
G1 X105.328 Y95.092 E231.04737
G1 X106.562 Y96.440 E231.26667
G1 X107.217 Y98.616 E231.53937
G1 X113.666 Y98.513 E232.31335
G1 X120.115 Y98.616 E233.08733
G0 F12000 X108.189 Y99.907
G0 X106.063 Y105.989
G1 F1200 X97.790 Y105.989 E234.08009
G1 X102.471 Y114.365 E235.23152
G1 X108.528 Y114.167 E235.95875
G1 X106.063 Y105.989 E236.98372
G0 F12000 X105.766 Y106.389
;TYPE:WALL-OUTER
G1 F1200 X98.472 Y106.389 E237.85900
G1 X102.702 Y113.957 E238.89939
G1 X107.995 Y113.784 E239.53489
G1 X105.766 Y106.389 E240.46172
G0 F12000 X106.052 Y106.304
G0 X108.189 Y99.907
G0 X108.608 Y99.914
G0 X108.618 Y100.214
G1 F1200 X111.780 Y110.736 E241.78014
G1 X113.666 Y110.605 E242.00701
G1 X115.552 Y110.736 E242.23387
G1 X118.716 Y100.209 E243.55294
G1 X113.666 Y100.148 E244.15898
G1 X109.288 Y100.193 E244.68437
G1 X108.618 Y100.214 E244.76481
G0 F12000 X108.608 Y99.914
G0 X107.226 Y98.297
G0 X107.513 Y98.211
