;FLAVOR:UltiGCode
;TIME:3771
;MATERIAL:5938
;MATERIAL2:0
;NOZZLE_DIAMETER:0.400000
;NOZZLE_DIAMETER2:0.400000

;Layer count: 38
;LAYER:0
M107
G0 F12000 X42.476 Y92.320 Z0.300
G0 X44.556 Y93.040
;TYPE:SKIRT
G1 F1200 X45.309 Y90.972 E0.26410
G1 X51.188 Y93.007 E1.01065
G1 X56.734 Y94.738 E1.70783
G1 X62.497 Y96.344 E2.42574
G1 X68.234 Y97.747 E3.13447
G1 X71.802 Y98.507 E3.57224
G1 X74.446 Y99.060 E3.89638
G1 X80.311 Y100.095 E4.61106
G1 X85.797 Y100.883 E5.27613
G1 X91.770 Y101.561 E5.99749
G1 X96.943 Y101.984 E6.62033
G1 X98.062 Y102.073 E6.75503
G1 X100.966 Y102.212 E7.10391
G1 X106.531 Y102.395 E7.77207
G1 X109.788 Y102.446 E8.16296
G1 X109.938 Y102.449 E8.18096
G1 X113.152 Y102.399 E8.56669
G1 X113.687 Y102.385 E8.63091
G1 X118.936 Y102.212 E9.26113
G1 X121.849 Y102.072 E9.61110
G1 X122.578 Y102.015 E9.69884
G1 X127.794 Y101.599 E10.32675
G1 X133.709 Y100.940 E11.04094
G1 X139.589 Y100.095 E11.75379
G1 X145.106 Y99.122 E12.42605
G1 X145.799 Y98.988 E12.51075
G1 X151.266 Y97.844 E13.18100
G1 X157.095 Y96.430 E13.90076
G1 X162.444 Y94.952 E14.56670
G1 X162.444 Y94.951 E14.56682
G1 X163.156 Y94.742 E14.65586
G1 X168.507 Y93.078 E15.32831
G1 X174.121 Y91.135 E16.04120
G1 X175.816 Y90.488 E16.25891
G1 X175.816 Y90.487 E16.25903
G1 X178.974 Y89.273 E16.66503
G1 X181.850 Y97.173 E17.67390
G1 X179.982 Y97.887 E17.91387
G1 X184.362 Y109.922 E19.45074
G1 X186.239 Y109.231 E19.69076
G1 X189.113 Y117.124 E20.69876
G1 X184.232 Y118.921 E21.32291
G1 X181.557 Y119.884 E21.66408
G1 X177.069 Y121.399 E22.23250
G1 X173.010 Y122.671 E22.74293
G1 X172.441 Y122.842 E22.81423
G1 X168.359 Y124.028 E23.32433
G1 X163.965 Y125.206 E23.87023
G1 X159.836 Y126.220 E24.38043
G1 X159.259 Y126.355 E24.45154
G1 X155.108 Y127.283 E24.96196
G1 X150.926 Y128.126 E25.47389
G1 X146.465 Y128.935 E26.01794
G1 X145.878 Y129.034 E26.08938
G1 X141.679 Y129.700 E26.59955
G1 X137.466 Y130.277 E27.10983
G1 X136.877 Y130.351 E27.18107
G1 X132.653 Y130.840 E27.69133
G1 X128.416 Y131.240 E28.20204
G1 X127.658 Y131.302 E28.29330
G1 X125.779 Y131.439 E28.51938
G1 X125.052 Y131.493 E28.60686
G1 X123.589 Y131.601 E28.78290
G1 X123.265 Y131.618 E28.82183
G1 X123.617 Y132.771 E28.96649
G1 X116.617 Y132.771 E29.80649
G1 X115.193 Y131.217 E30.05943
G1 X114.528 Y130.490 E30.17766
G1 X105.372 Y130.490 E31.27638
G1 X104.611 Y131.321 E31.41159
G1 X103.285 Y132.771 E31.64738
G1 X96.294 Y132.771 E32.48630
G1 X96.642 Y131.619 E32.63071
G1 X96.590 Y131.616 E32.63696
G1 X94.856 Y131.494 E32.84556
G1 X92.534 Y131.324 E33.12494
G1 X91.776 Y131.268 E33.21615
G1 X91.025 Y131.198 E33.30666
G1 X88.670 Y130.975 E33.59052
G1 X87.528 Y130.867 E33.72818
G1 X83.011 Y130.350 E34.27375
G1 X78.504 Y129.738 E34.81956
G1 X74.025 Y129.036 E35.36360
G1 X73.438 Y128.937 E35.43503
G1 X69.251 Y128.182 E35.94558
G1 X65.069 Y127.340 E36.45749
G1 X60.630 Y126.354 E37.00315
G1 X56.226 Y125.277 E37.54720
G1 X55.649 Y125.129 E37.61868
G1 X51.541 Y124.028 E38.12904
G1 X47.173 Y122.760 E38.67484
G1 X42.832 Y121.400 E39.22073
G1 X38.523 Y119.949 E39.76634
G1 X35.195 Y118.758 E40.19050
G1 X35.949 Y116.684 E40.45532
G1 X33.882 Y115.939 E40.71898
G1 X35.222 Y112.251 E41.18984
G1 X42.476 Y92.320 E43.73505
G1 X44.556 Y93.040 E43.99918
G10
G1 Z0.400
G0 F12000 X45.009 Y97.641
;TYPE:WALL-INNER
G1 Z0.300
G11
G1 F1200 X47.088 Y98.360 E44.26316
G1 X47.841 Y96.293 E44.52714
G1 X49.896 Y97.004 E44.78809
G1 X55.545 Y98.767 E45.49821
G1 X61.408 Y100.401 E46.22858
G1 X67.320 Y101.847 E46.95894
G1 X70.929 Y102.615 E47.40171
G1 X73.649 Y103.184 E47.73518
G1 X79.643 Y104.242 E48.46558
G1 X85.291 Y105.053 E49.15029
G1 X91.338 Y105.739 E49.88058
G1 X96.610 Y106.171 E50.51534
G1 X97.785 Y106.264 E50.65678
G1 X100.801 Y106.408 E51.01912
G1 X106.457 Y106.595 E51.69821
G1 X109.715 Y106.646 E52.08922
G1 X109.949 Y106.650 E52.11730
G1 X113.223 Y106.599 E52.51023
G1 X113.801 Y106.584 E52.57961
G1 X119.099 Y106.408 E53.21572
G1 X122.115 Y106.264 E53.57805
G1 X122.911 Y106.202 E53.67386
G1 X128.183 Y105.782 E54.30851
G1 X134.233 Y105.107 E55.03901
G1 X140.257 Y104.242 E55.76931
G1 X145.870 Y103.251 E56.45328
G1 X146.629 Y103.105 E56.54603
G1 X152.209 Y101.938 E57.23012
G1 X158.125 Y100.502 E57.96066
G1 X163.619 Y98.984 E58.64464
G1 X164.360 Y98.766 E58.73733
G1 X169.804 Y97.073 E59.42147
G1 X175.531 Y95.092 E60.14866
G1 X174.622 Y95.439 E60.26542
G1 X181.448 Y114.194 E62.66045
G1 X181.853 Y115.313 E62.80325
G1 X180.164 Y115.921 E63.01866
G1 X175.780 Y117.402 E63.57395
G1 X171.781 Y118.655 E64.07683
G1 X171.254 Y118.814 E64.14289
G1 X167.239 Y119.980 E64.64460
G1 X162.914 Y121.139 E65.18191
G1 X158.860 Y122.135 E65.68286
G1 X158.315 Y122.262 E65.75001
G1 X154.224 Y123.177 E66.25306
G1 X150.146 Y123.999 E66.75226
G1 X145.742 Y124.798 E67.28937
G1 X145.205 Y124.888 E67.35470
G1 X141.060 Y125.545 E67.85831
G1 X136.913 Y126.113 E68.36060
G1 X136.368 Y126.182 E68.42652
G1 X132.225 Y126.662 E68.92701
G1 X128.042 Y127.056 E69.43119
G1 X127.330 Y127.114 E69.51691
G1 X125.467 Y127.251 E69.74108
G1 X123.334 Y127.408 E69.99773
G1 X122.577 Y127.448 E70.08870
G1 X119.234 Y127.622 E70.49040
G1 X117.689 Y127.707 E70.67608
G1 X117.696 Y127.731 E70.67908
G1 X117.409 Y127.417 E70.73013
G1 X117.070 Y126.290 E70.87135
G1 X102.832 Y126.290 E72.57991
G1 X102.491 Y127.418 E72.72132
G1 X102.202 Y127.734 E72.77271
G1 X102.211 Y127.704 E72.77647
G1 X96.854 Y127.424 E73.42019
G1 X95.155 Y127.304 E73.62457
G1 X92.843 Y127.136 E73.90275
G1 X92.136 Y127.083 E73.98782
G1 X91.419 Y127.016 E74.07424
G1 X87.969 Y126.689 E74.49009
G1 X83.522 Y126.181 E75.02720
G1 X79.109 Y125.582 E75.56162
G1 X74.694 Y124.889 E76.09791
G1 X74.153 Y124.798 E76.16374
G1 X70.039 Y124.057 E76.66536
G1 X65.941 Y123.231 E77.16701
G1 X61.574 Y122.261 E77.70382
G1 X57.251 Y121.205 E78.23784
G1 X56.709 Y121.065 E78.30501
G1 X52.661 Y119.980 E78.80792
G1 X48.389 Y118.739 E79.34175
G1 X44.140 Y117.408 E79.87606
G1 X40.590 Y116.213 E80.32555
G1 X40.947 Y115.233 E80.45071
G1 X41.343 Y114.161 E80.58785
G1 X39.923 Y113.651 E80.76890
G1 X39.268 Y113.415 E80.85245
G1 X45.009 Y97.641 E82.86680
G0 F12000 X83.648 Y118.142
G1 F1200 X85.583 Y124.728 E83.69052
G1 X87.861 Y124.992 E83.96571
G1 X92.267 Y125.409 E84.49680
G1 X96.681 Y125.732 E85.02789
G1 X101.101 Y125.964 E85.55902
G1 X105.525 Y126.103 E86.09017
G1 X109.950 Y126.150 E86.62120
G1 X114.375 Y126.103 E87.15223
G1 X118.746 Y125.966 E87.67700
G1 X123.219 Y125.732 E88.21450
G1 X127.357 Y125.430 E88.71238
G1 X131.757 Y125.018 E89.24269
G1 X132.316 Y124.960 E89.31013
G1 X136.435 Y124.483 E89.80771
G1 X140.820 Y123.882 E90.33883
G1 X144.916 Y123.234 E90.83646
G1 X147.392 Y122.802 E91.13807
G1 X145.485 Y120.047 E91.54015
G1 X141.115 Y117.438 E92.15089
G1 X140.105 Y117.597 E92.27359
G1 X138.839 Y117.776 E92.42702
G1 X135.632 Y118.214 E92.81543
G1 X131.388 Y118.706 E93.32812
G1 X127.093 Y119.111 E93.84581
G1 X122.832 Y119.424 E94.35851
G1 X118.540 Y119.649 E94.87425
G1 X114.233 Y119.784 E95.39135
G1 X109.950 Y119.830 E95.90534
G1 X105.667 Y119.784 E96.41933
G1 X101.360 Y119.649 E96.93642
G1 X97.068 Y119.424 E97.45217
G1 X92.807 Y119.112 E97.96486
G1 X88.512 Y118.705 E98.48257
G1 X83.648 Y118.142 E99.07014
G0 F12000 X84.202 Y118.609
G1 F1200 X85.892 Y124.361 E99.78956
G1 X87.903 Y124.594 E100.03249
G1 X92.301 Y125.010 E100.56261
G1 X96.706 Y125.333 E101.09263
G1 X101.118 Y125.565 E101.62280
G1 X105.534 Y125.703 E102.15298
G1 X109.950 Y125.750 E102.68293
G1 X114.367 Y125.703 E103.21300
G1 X118.729 Y125.567 E103.73669
G1 X123.194 Y125.333 E104.27323
G1 X127.324 Y125.031 E104.77015
G1 X131.718 Y124.620 E105.29973
G1 X132.273 Y124.562 E105.36669
G1 X136.385 Y124.086 E105.86343
G1 X140.762 Y123.487 E106.39357
G1 X144.850 Y122.840 E106.89023
G1 X146.707 Y122.516 E107.11644
G1 X145.205 Y120.346 E107.43313
G1 X141.034 Y117.855 E108.01612
G1 X140.167 Y117.992 E108.12145
G1 X138.891 Y118.172 E108.27608
G1 X135.699 Y118.609 E108.66270
G1 X131.413 Y119.105 E109.18045
G1 X127.137 Y119.509 E109.69585
G1 X122.853 Y119.824 E110.21132
G1 X118.557 Y120.049 E110.72755
G1 X114.245 Y120.184 E111.24524
G1 X109.950 Y120.230 E111.76067
G1 X105.655 Y120.184 E112.27610
G1 X101.343 Y120.049 E112.79380
G1 X97.047 Y119.824 E113.31002
G1 X92.763 Y119.509 E113.82549
G1 X88.487 Y119.105 E114.34090
G1 X84.202 Y118.609 E114.85853
G0 F12000 X83.489 Y126.580
G1 F1200 X79.048 Y125.977 E115.39634
G1 X74.639 Y125.285 E115.93190
G1 X74.087 Y125.192 E115.99907
G1 X69.970 Y124.451 E116.50105
G1 X65.862 Y123.623 E117.00392
G1 X61.487 Y122.651 E117.54172
G1 X57.145 Y121.590 E118.07809
G1 X56.616 Y121.455 E118.14361
G1 X52.557 Y120.366 E118.64791
G1 X48.277 Y119.123 E119.18273
G1 X44.000 Y117.783 E119.72057
G1 X40.074 Y116.461 E120.21769
G1 X40.570 Y115.099 E120.39163
G1 X40.828 Y114.401 E120.48093
G1 X38.755 Y113.655 E120.74530
G1 X44.768 Y97.134 E122.85505
G1 X46.847 Y97.853 E123.11903
G1 X47.600 Y95.786 E123.38301
G1 X50.021 Y96.624 E123.69045
G1 X55.658 Y98.384 E124.39909
G1 X61.509 Y100.014 E125.12795
G1 X67.409 Y101.457 E125.85681
G1 X71.011 Y102.224 E126.29875
G1 X73.724 Y102.791 E126.63134
G1 X79.706 Y103.847 E127.36028
G1 X85.342 Y104.656 E128.04353
G1 X91.377 Y105.341 E128.77238
G1 X96.642 Y105.772 E129.40629
G1 X97.810 Y105.865 E129.54690
G1 X100.817 Y106.009 E129.90815
G1 X106.466 Y106.195 E130.58640
G1 X109.722 Y106.246 E130.97717
G1 X109.949 Y106.250 E131.00441
G1 X113.215 Y106.199 E131.39638
G1 X113.789 Y106.184 E131.46528
G1 X119.083 Y106.009 E132.10091
G1 X122.090 Y105.865 E132.46216
G1 X128.145 Y105.383 E133.19106
G1 X134.182 Y104.710 E133.91999
G1 X140.194 Y103.847 E134.64882
G1 X145.798 Y102.858 E135.33170
G1 X146.550 Y102.713 E135.42360
G1 X152.121 Y101.547 E136.10660
G1 X158.025 Y100.115 E136.83563
G1 X163.509 Y98.599 E137.51839
G1 X164.245 Y98.383 E137.61043
G1 X169.679 Y96.693 E138.29332
G1 X175.419 Y94.707 E139.02218
G1 X176.727 Y94.207 E139.19022
G1 X177.000 Y94.959 E139.28622
G1 X175.132 Y95.672 E139.52616
G1 X182.096 Y114.806 E141.96959
G1 X183.973 Y114.115 E142.20960
G1 X184.247 Y114.867 E142.30565
G1 X182.935 Y115.349 E142.47338
G1 X180.300 Y116.297 E142.80942
G1 X175.900 Y117.784 E143.36675
G1 X171.891 Y119.039 E143.87086
G1 X171.366 Y119.198 E143.93668
G1 X167.343 Y120.366 E144.43938
G1 X163.016 Y121.525 E144.97692
G1 X158.946 Y122.525 E145.47985
G1 X158.413 Y122.651 E145.54557
G1 X154.312 Y123.567 E146.04982
G1 X150.205 Y124.395 E146.55257
G1 X145.814 Y125.192 E147.08810
G1 X145.268 Y125.283 E147.15453
G1 X141.117 Y125.941 E147.65886
G1 X136.974 Y126.509 E148.16068
G1 X136.424 Y126.578 E148.22719
G1 X132.250 Y127.061 E148.73141
G1 X128.087 Y127.454 E149.23320
G1 X127.362 Y127.513 E149.32048
G1 X123.355 Y127.808 E149.80262
G1 X119.255 Y128.022 E150.29529
G1 X118.218 Y128.079 E150.41992
G1 X118.487 Y128.971 E150.53172
G1 X118.288 Y128.971 E150.55560
G1 X117.053 Y127.621 E150.77517
G1 X116.772 Y126.690 E150.89186
G1 X103.129 Y126.690 E152.52902
G1 X102.847 Y127.621 E152.64576
G1 X101.612 Y128.971 E152.86532
G1 X101.413 Y128.971 E152.88920
G1 X101.682 Y128.077 E153.00123
G1 X96.829 Y127.824 E153.58438
G1 X95.127 Y127.703 E153.78913
G1 X92.093 Y127.481 E154.15419
G1 X87.928 Y127.088 E154.65621
G1 X83.489 Y126.580 E155.19237
G0 F12000 X83.431 Y126.976
;TYPE:WALL-OUTER
G1 F1200 X78.998 Y126.375 E155.72919
G1 X74.570 Y125.679 E156.26708
G1 X74.022 Y125.587 E156.33376
G1 X69.886 Y124.842 E156.83806
G1 X65.772 Y124.013 E157.34167
G1 X61.400 Y123.042 E157.87909
G1 X57.053 Y121.980 E158.41607
G1 X56.511 Y121.840 E158.48325
G1 X52.458 Y120.754 E158.98676
G1 X48.158 Y119.505 E159.52409
G1 X43.885 Y118.166 E160.06144
G1 X39.637 Y116.736 E160.59930
G1 X39.559 Y116.709 E160.60921
G1 X40.312 Y114.641 E160.87331
G1 X38.241 Y113.896 E161.13742
G1 X44.527 Y96.627 E163.34272
G1 X46.606 Y97.346 E163.60670
G1 X47.359 Y95.279 E163.87068
G1 X50.146 Y96.244 E164.22460
G1 X55.771 Y98.000 E164.93173
G1 X61.610 Y99.627 E165.65910
G1 X67.498 Y101.067 E166.38649
G1 X73.800 Y102.398 E167.15941
G1 X79.769 Y103.452 E167.88677
G1 X85.393 Y104.259 E168.56856
G1 X91.416 Y104.943 E169.29597
G1 X97.835 Y105.466 E170.06880
G1 X100.833 Y105.609 E170.42897
G1 X106.476 Y105.795 E171.10650
G1 X109.950 Y105.850 E171.52343
G1 X113.206 Y105.799 E171.91420
G1 X113.777 Y105.784 E171.98274
G1 X119.067 Y105.609 E172.61789
G1 X122.065 Y105.466 E172.97806
G1 X128.107 Y104.985 E173.70539
G1 X134.131 Y104.313 E174.43275
G1 X140.131 Y103.452 E175.16013
G1 X145.725 Y102.465 E175.84178
G1 X146.471 Y102.321 E175.93295
G1 X152.033 Y101.157 E176.61485
G1 X157.924 Y99.728 E177.34227
G1 X163.400 Y98.214 E178.02404
G1 X164.129 Y98.000 E178.11522
G1 X169.554 Y96.313 E178.79697
G1 X175.282 Y94.331 E179.52431
G1 X176.964 Y93.688 E179.74040
G1 X177.511 Y95.191 E179.93233
G1 X175.643 Y95.905 E180.17231
G1 X182.335 Y114.292 E182.52034
G1 X184.212 Y113.601 E182.76036
G1 X184.759 Y115.104 E182.95229
G1 X183.069 Y115.726 E183.16839
G1 X180.435 Y116.674 E183.50432
G1 X176.019 Y118.166 E184.06367
G1 X172.010 Y119.421 E184.56777
G1 X171.477 Y119.582 E184.63458
G1 X167.442 Y120.754 E185.13879
G1 X163.121 Y121.912 E185.67561
G1 X159.043 Y122.913 E186.17950
G1 X158.498 Y123.041 E186.24668
G1 X154.403 Y123.957 E186.75022
G1 X150.288 Y124.786 E187.25394
G1 X145.878 Y125.586 E187.79178
G1 X145.331 Y125.679 E187.85836
G1 X141.180 Y126.336 E188.36268
G1 X137.022 Y126.906 E188.86631
G1 X136.470 Y126.976 E188.93308
G1 X132.296 Y127.458 E189.43729
G1 X128.117 Y127.853 E189.94100
G1 X127.395 Y127.912 E190.02793
G1 X123.376 Y128.208 E190.51152
G1 X118.748 Y128.450 E191.06764
G1 X119.026 Y129.371 E191.18308
G1 X118.112 Y129.371 E191.29276
G1 X116.696 Y127.824 E191.54443
G1 X116.474 Y127.090 E191.63645
G1 X103.426 Y127.090 E193.20221
G1 X103.204 Y127.824 E193.29423
G1 X101.788 Y129.371 E193.54589
G1 X100.874 Y129.371 E193.65557
G1 X101.152 Y128.450 E193.77102
G1 X96.801 Y128.222 E194.29385
G1 X92.057 Y127.879 E194.86462
G1 X87.883 Y127.485 E195.36772
G1 X83.431 Y126.976 E195.90544
G0 F12000 X83.467 Y126.679
G0 X85.914 Y124.079
G0 X86.201 Y123.994
G1 F1200 X87.945 Y124.196 E196.11612
G1 X92.334 Y124.611 E196.64515
G1 X96.731 Y124.934 E197.17421
G1 X101.135 Y125.165 E197.70342
G1 X105.542 Y125.303 E198.23252
G1 X109.950 Y125.350 E198.76151
G1 X114.358 Y125.303 E199.29050
G1 X118.712 Y125.167 E199.81324
G1 X123.169 Y124.934 E200.34881
G1 X127.291 Y124.632 E200.84477
G1 X131.679 Y124.222 E201.37363
G1 X132.229 Y124.165 E201.43998
G1 X136.335 Y123.689 E201.93600
G1 X140.703 Y123.091 E202.46505
G1 X144.785 Y122.445 E202.96098
G1 X146.022 Y122.229 E203.11167
G1 X144.926 Y120.645 E203.34281
G1 X140.953 Y118.273 E203.89808
G1 X140.230 Y118.387 E203.98591
G1 X135.745 Y119.006 E204.52921
G1 X131.459 Y119.502 E205.04697
G1 X127.168 Y119.908 E205.56419
G1 X122.874 Y120.224 E206.08086
G1 X118.566 Y120.449 E206.59852
G1 X114.258 Y120.584 E207.11574
G1 X109.950 Y120.630 E207.63273
G1 X105.642 Y120.584 E208.14972
G1 X101.334 Y120.449 E208.66693
G1 X97.026 Y120.223 E209.18460
G1 X92.732 Y119.908 E209.70127
G1 X88.441 Y119.502 E210.21849
G1 X84.756 Y119.076 E210.66363
G1 X86.201 Y123.994 E211.27874
G0 F12000 X86.188 Y124.937
;TYPE:SKIN
G1 F1200 X87.774 Y126.524 E211.54798
G0 F12000 X88.404 Y126.588
G1 F1200 X86.828 Y125.012 E211.81543
G0 F12000 X87.468 Y125.086
G1 F1200 X89.028 Y126.647 E212.08026
G0 F12000 X89.654 Y126.706
G1 F1200 X88.102 Y125.155 E212.34356
G0 F12000 X88.727 Y125.213
G1 F1200 X90.279 Y126.765 E212.60694
G0 F12000 X90.904 Y126.825
G1 F1200 X89.351 Y125.272 E212.87049
G0 F12000 X89.976 Y125.331
G1 F1200 X91.528 Y126.883 E213.13388
G0 F12000 X92.153 Y126.943
G1 F1200 X90.600 Y125.390 E213.39743
G0 F12000 X91.225 Y125.449
