;FLAVOR:UltiGCode
;TIME:5488
;MATERIAL:5417
;MATERIAL2:0
;NOZZLE_DIAMETER:0.400000
;NOZZLE_DIAMETER2:0.400000

;Layer count: 63
;LAYER:0
M107
G0 F12000 X44.513 Y89.769 Z0.300
;TYPE:SKIRT
G1 F1200 X53.160 Y92.751 E1.09761
G1 X57.341 Y94.044 E1.62277
G1 X58.874 Y94.519 E1.81536
G1 X64.574 Y96.087 E2.52477
G1 X70.397 Y97.492 E3.24358
G1 X76.210 Y98.700 E3.95605
G1 X82.077 Y99.727 E4.67079
G1 X87.962 Y100.566 E5.38413
G1 X92.313 Y101.045 E5.90941
G1 X93.910 Y101.222 E6.10222
G1 X98.244 Y101.560 E6.62388
G1 X99.688 Y101.674 E6.79770
G1 X101.962 Y101.783 E7.07089
G1 X102.738 Y101.820 E7.16412
G1 X106.836 Y101.949 E7.65612
G1 X108.304 Y101.996 E7.83237
G1 X110.836 Y102.032 E8.13624
G1 X111.626 Y102.044 E8.23105
G1 X111.719 Y102.045 E8.24221
G1 X112.250 Y102.037 E8.30594
G1 X114.783 Y101.995 E8.60994
G1 X119.201 Y101.849 E9.14039
G1 X120.715 Y101.796 E9.32218
G1 X122.862 Y101.692 E9.58012
G1 X123.603 Y101.655 E9.66916
G1 X129.566 Y101.173 E10.38705
G1 X135.477 Y100.507 E11.10086
G1 X137.038 Y100.281 E11.29013
G1 X141.370 Y99.651 E11.81544
G1 X142.922 Y99.376 E12.00458
G1 X147.226 Y98.611 E12.52915
G1 X148.776 Y98.285 E12.71922
G1 X148.776 Y98.286 E12.71934
G1 X153.037 Y97.389 E13.24187
G1 X154.589 Y97.010 E13.43358
G1 X158.826 Y95.976 E13.95695
G1 X160.361 Y95.550 E14.14811
G1 X160.361 Y95.551 E14.14823
G1 X164.553 Y94.386 E14.67033
G1 X170.263 Y92.602 E15.38820
G1 X174.037 Y91.291 E15.86762
G1 X178.429 Y89.763 E16.42565
G1 X181.168 Y97.263 E17.38379
G1 X181.167 Y97.263 E17.38391
G1 X182.315 Y100.400 E17.78476
G1 X177.787 Y101.970 E18.35986
G1 X177.787 Y101.971 E18.35998
G1 X173.800 Y103.356 E18.86646
G1 X167.775 Y105.239 E19.62395
G1 X163.358 Y106.464 E20.17400
G1 X163.358 Y106.465 E20.17412
G1 X161.692 Y106.929 E20.38165
G1 X157.239 Y108.014 E20.93164
G1 X155.559 Y108.424 E21.13916
G1 X151.074 Y109.367 E21.68912
G1 X149.382 Y109.724 E21.89663
G1 X144.868 Y110.526 E22.44680
G1 X144.868 Y110.525 E22.44692
G1 X143.166 Y110.829 E22.65439
G1 X136.927 Y111.733 E23.41089
G1 X134.291 Y112.043 E23.72939
G1 X137.941 Y118.400 E24.60903
G1 X138.658 Y118.301 E24.69589
G1 X141.804 Y117.865 E25.07701
G1 X146.041 Y117.189 E25.59188
G1 X147.172 Y116.984 E25.72982
G1 X150.291 Y116.418 E26.11021
G1 X152.386 Y115.989 E26.36682
G1 X157.046 Y115.007 E26.93831
G1 X163.388 Y113.460 E27.72166
G1 X165.072 Y112.993 E27.93137
G1 X169.665 Y111.717 E28.50340
G1 X175.923 Y109.762 E29.29015
G1 X180.091 Y108.314 E29.81964
G1 X180.091 Y108.315 E29.81976
G1 X184.630 Y106.735 E30.39649
G1 X186.318 Y111.357 E30.98696
G1 X187.663 Y115.030 E31.45635
G1 X178.679 Y118.151 E32.59763
G1 X172.182 Y120.181 E33.41444
G1 X166.256 Y121.826 E34.15245
G1 X166.256 Y121.827 E34.15257
G1 X165.624 Y122.003 E34.23129
G1 X160.664 Y123.212 E34.84392
G1 X161.796 Y125.718 E35.17390
G1 X156.978 Y126.798 E35.76640
G1 X152.752 Y127.658 E36.28392
G1 X150.367 Y128.096 E36.57490
G1 X148.275 Y128.475 E36.83003
G1 X143.787 Y129.199 E37.37555
G1 X139.282 Y129.828 E37.92140
G1 X134.796 Y130.359 E38.46347
G1 X134.460 Y130.398 E38.50407
G1 X130.250 Y130.802 E39.01159
G1 X129.616 Y130.856 E39.08794
G1 X125.395 Y131.172 E39.59588
G1 X125.059 Y131.190 E39.63626
G1 X125.409 Y132.349 E39.78154
G1 X118.425 Y132.360 E40.61962
G1 X116.274 Y130.014 E41.00156
G1 X115.470 Y129.139 E41.14416
G1 X115.393 Y128.884 E41.17612
G1 X111.757 Y128.946 E41.61251
G1 X110.085 Y128.923 E41.81317
G1 X108.119 Y128.894 E42.04911
G1 X108.044 Y129.147 E42.08078
G1 X105.095 Y132.376 E42.60554
G1 X98.113 Y132.387 E43.44338
G1 X98.461 Y131.222 E43.58928
G1 X98.122 Y131.205 E43.63001
G1 X93.585 Y130.878 E44.17586
G1 X89.056 Y130.456 E44.72170
G1 X84.537 Y129.938 E45.26753
G1 X80.030 Y129.326 E45.81333
G1 X75.537 Y128.621 E46.35909
G1 X73.446 Y128.248 E46.61397
G1 X71.058 Y127.821 E46.90508
G1 X66.598 Y126.927 E47.45092
G1 X61.724 Y125.845 E48.05004
G1 X62.838 Y123.338 E48.37924
G1 X57.872 Y122.139 E48.99229
G1 X51.309 Y120.333 E49.80912
G1 X50.684 Y120.140 E49.88762
G1 X44.807 Y118.320 E50.62590
G1 X44.189 Y118.108 E50.70430
G1 X35.345 Y115.059 E51.82688
G1 X37.206 Y109.922 E52.48253
G1 X38.358 Y106.758 E52.88659
G1 X45.906 Y109.359 E53.84462
G1 X47.553 Y109.927 E54.05368
G1 X53.796 Y111.860 E54.83793
G1 X60.058 Y113.583 E55.61730
G1 X66.437 Y115.122 E56.40474
G1 X71.111 Y116.093 E56.97759
G1 X72.827 Y116.450 E57.18792
G1 X77.452 Y117.277 E57.75173
G1 X80.562 Y117.765 E58.12949
G1 X81.695 Y117.943 E58.26712
G1 X85.545 Y118.466 E58.73336
G1 X89.178 Y112.101 E59.61282
G1 X86.543 Y111.797 E59.93112
G1 X84.841 Y111.555 E60.13742
G1 X80.301 Y110.907 E60.68774
G1 X74.083 Y109.818 E61.44525
G1 X67.903 Y108.534 E62.20269
G1 X61.767 Y107.054 E62.96013
G1 X60.101 Y106.597 E63.16743
G1 X55.680 Y105.380 E63.71769
G1 X54.030 Y104.870 E63.92493
G1 X49.649 Y103.513 E64.47529
G1 X40.654 Y100.413 E65.61699
G1 X44.513 Y89.769 E66.97563
G10
G1 Z0.400
G0 F12000 X47.053 Y95.087
;TYPE:WALL-INNER
G1 Z0.300
G11
G1 F1200 X51.862 Y96.746 E67.58608
G1 X57.677 Y98.545 E68.31651
G1 X63.545 Y100.159 E69.04682
G1 X69.463 Y101.588 E69.77739
G1 X75.422 Y102.826 E70.50774
G1 X81.417 Y103.876 E71.23809
G1 X87.444 Y104.734 E71.96863
G1 X93.493 Y105.402 E72.69892
G1 X99.415 Y105.865 E73.41173
G1 X101.761 Y105.978 E73.69357
G1 X102.578 Y106.016 E73.79172
G1 X108.235 Y106.196 E74.47090
G1 X110.774 Y106.232 E74.77561
G1 X111.563 Y106.244 E74.87030
G1 X111.727 Y106.246 E74.88999
G1 X114.860 Y106.195 E75.26600
G1 X119.346 Y106.046 E75.80461
G1 X120.878 Y105.993 E75.98856
G1 X123.893 Y105.846 E76.35079
G1 X129.960 Y105.355 E77.08121
G1 X136.009 Y104.674 E77.81168
G1 X142.032 Y103.799 E78.54203
G1 X148.025 Y102.735 E79.27243
G1 X153.981 Y101.481 E80.00282
G1 X159.894 Y100.039 E80.73318
G1 X165.760 Y98.409 E81.46377
G1 X171.569 Y96.595 E82.19404
G1 X175.903 Y95.089 E82.74463
G1 X176.904 Y97.831 E83.09491
G1 X172.469 Y99.372 E83.65832
G1 X166.601 Y101.206 E84.39607
G1 X160.629 Y102.864 E85.13982
G1 X154.627 Y104.328 E85.88117
G1 X148.581 Y105.600 E86.62258
G1 X142.492 Y106.682 E87.36470
G1 X136.367 Y107.570 E88.10739
G1 X132.073 Y108.076 E88.62623
G1 X127.426 Y108.522 E89.18643
G1 X135.683 Y122.902 E91.17627
G1 X138.053 Y122.624 E91.46262
G1 X142.408 Y122.022 E91.99019
G1 X146.749 Y121.329 E92.51771
G1 X151.074 Y120.545 E93.04517
G1 X153.231 Y120.103 E93.30939
G1 X157.985 Y119.101 E93.89240
G1 X164.455 Y117.523 E94.69156
G1 X170.872 Y115.740 E95.49077
G1 X177.229 Y113.755 E96.28993
G1 X182.104 Y112.061 E96.90925
G1 X182.251 Y112.464 E96.96072
G1 X177.367 Y114.161 E97.58117
G1 X170.998 Y116.150 E98.38186
G1 X164.561 Y117.938 E99.18354
G1 X158.650 Y119.380 E99.91366
G1 X158.095 Y119.516 E99.98223
G1 X151.544 Y120.896 E100.78561
G1 X146.927 Y121.715 E101.34830
G1 X145.151 Y122.033 E101.56481
G1 X145.342 Y123.881 E101.78775
G1 X150.968 Y123.715 E102.46316
G1 X149.611 Y123.964 E102.62872
G1 X147.557 Y124.337 E102.87923
G1 X143.155 Y125.046 E103.41428
G1 X138.754 Y125.661 E103.94753
G1 X134.304 Y126.188 E104.48526
G1 X129.877 Y126.619 E105.01901
G1 X129.286 Y126.669 E105.09019
G1 X125.138 Y126.979 E105.58934
G1 X124.292 Y127.024 E105.69100
G1 X123.312 Y124.393 E106.02791
G1 X121.875 Y124.462 E106.20055
G1 X118.686 Y124.619 E106.58369
G1 X119.502 Y127.319 E106.92217
G1 X119.213 Y127.004 E106.97346
G1 X118.496 Y124.631 E107.27094
G1 X111.749 Y124.746 E108.08070
G1 X105.006 Y124.647 E108.88994
G1 X104.294 Y127.026 E109.18793
G1 X104.006 Y127.341 E109.23915
G1 X104.260 Y126.493 E109.34538
G1 X104.818 Y124.635 E109.57818
G1 X102.832 Y124.545 E109.81674
G1 X100.190 Y124.422 E110.13412
G1 X99.215 Y127.055 E110.47105
G1 X98.370 Y127.012 E110.57258
G1 X93.942 Y126.694 E111.10531
G1 X89.499 Y126.279 E111.64079
G1 X85.048 Y125.769 E112.17841
G1 X80.635 Y125.170 E112.71282
G1 X76.221 Y124.477 E113.24899
G1 X72.496 Y123.812 E113.70306
G1 X76.514 Y123.920 E114.18539
G1 X78.158 Y123.966 E114.38275
G1 X78.344 Y122.114 E114.60611
G1 X72.554 Y121.103 E115.31142
G1 X71.930 Y120.993 E115.38745
G1 X71.370 Y120.877 E115.45608
G1 X65.401 Y119.635 E116.18770
G1 X58.930 Y118.074 E116.98650
G1 X52.472 Y116.297 E117.79026
G1 X46.126 Y114.332 E118.58745
G1 X40.747 Y112.478 E119.27020
G1 X40.894 Y112.074 E119.32179
G1 X46.245 Y113.919 E120.00100
G1 X52.607 Y115.889 E120.80021
G1 X59.029 Y117.655 E121.59945
G1 X65.504 Y119.218 E122.39877
G1 X72.022 Y120.573 E123.19765
G1 X76.745 Y121.417 E123.77339
G1 X81.087 Y122.100 E124.30084
G1 X85.443 Y122.690 E124.82833
G1 X87.815 Y122.961 E125.11482
G1 X96.035 Y108.559 E127.10475
G1 X91.363 Y108.125 E127.66780
G1 X87.093 Y107.633 E128.18359
G1 X80.957 Y106.758 E128.92736
G1 X74.871 Y105.692 E129.66880
G1 X68.821 Y104.435 E130.41030
G1 X62.816 Y102.987 E131.15156
G1 X56.850 Y101.346 E131.89406
G1 X50.959 Y99.522 E132.63409
G1 X46.057 Y97.833 E133.25627
G1 X47.053 Y95.087 E133.60680
G0 F12000 X95.229 Y108.979
G0 X95.185 Y118.091
G1 F1200 X104.437 Y118.080 E134.71704
G1 X107.127 Y109.115 E135.84022
G1 X100.306 Y108.902 E136.65914
G1 X95.185 Y118.091 E137.92150
G0 F12000 X105.628 Y124.245
G1 F1200 X110.558 Y124.301 E138.51314
G1 X111.750 Y124.312 E138.65618
G1 X116.146 Y124.261 E139.18374
G1 X117.864 Y124.202 E139.39002
G1 X114.203 Y112.078 E140.90978
G1 X111.733 Y112.252 E141.20692
G1 X109.268 Y112.085 E141.50339
G1 X105.628 Y124.245 E143.02657
G0 F12000 X117.226 Y123.745
G0 X119.048 Y118.061
G1 F1200 X128.301 Y118.050 E144.13693
G1 X123.145 Y108.852 E145.40227
G1 X116.403 Y109.321 E146.21327
G1 X119.048 Y118.061 E147.30905
G0 F12000 X119.345 Y117.660
G1 F1200 X127.619 Y117.651 E148.30193
G1 X122.920 Y109.268 E149.45515
G1 X116.931 Y109.686 E150.17557
G1 X119.345 Y117.660 E151.17534
G0 F12000 X117.331 Y123.820
G1 F1200 X113.912 Y112.500 E152.59435
G1 X111.735 Y112.653 E152.85623
G1 X109.560 Y112.506 E153.11783
G1 X106.164 Y123.851 E154.53891
G1 X110.562 Y123.901 E155.06671
G1 X111.750 Y123.912 E155.20927
G1 X116.137 Y123.861 E155.73575
G1 X117.331 Y123.820 E155.87911
G0 F12000 X118.200 Y125.036
G1 F1200 X111.751 Y125.146 E156.65311
G1 X105.302 Y125.052 E157.42707
G1 X104.651 Y127.226 E157.69939
G1 X103.417 Y128.578 E157.91905
G1 X103.218 Y128.579 E157.94293
G1 X104.286 Y125.011 E158.38986
G1 X100.463 Y124.836 E158.84910
G1 X99.488 Y127.470 E159.18614
G1 X98.350 Y127.412 E159.32288
G1 X93.902 Y127.092 E159.85802
G1 X89.455 Y126.677 E160.39398
G1 X85.015 Y126.168 E160.93027
G1 X80.574 Y125.565 E161.46808
G1 X76.166 Y124.873 E162.00351
G1 X71.759 Y124.086 E162.54072
G1 X67.758 Y123.284 E163.03039
G1 X77.798 Y123.555 E164.23563
G1 X77.909 Y122.445 E164.36949
G1 X72.484 Y121.497 E165.03036
G1 X71.877 Y121.390 E165.10432
G1 X65.311 Y120.025 E165.90909
G1 X58.819 Y118.459 E166.71047
G1 X52.382 Y116.688 E167.51161
G1 X45.984 Y114.707 E168.31533
G1 X40.232 Y112.725 E169.04540
G1 X40.652 Y111.567 E169.19322
G1 X46.369 Y113.538 E169.91889
G1 X52.720 Y115.505 E170.71672
G1 X59.129 Y117.268 E171.51437
G1 X65.592 Y118.828 E172.31220
G1 X72.098 Y120.180 E173.10960
G1 X76.812 Y121.023 E173.68426
G1 X81.145 Y121.704 E174.21060
G1 X85.493 Y122.293 E174.73712
G1 X87.598 Y122.534 E174.99138
G1 X95.380 Y108.900 E176.87520
G1 X91.340 Y108.525 E177.36209
G1 X87.026 Y108.028 E177.88319
G1 X80.897 Y107.153 E178.62613
G1 X74.788 Y106.084 E179.37035
G1 X68.743 Y104.828 E180.11124
G1 X62.725 Y103.376 E180.85412
G1 X56.736 Y101.729 E181.59949
G1 X50.827 Y99.900 E182.34176
G1 X45.543 Y98.079 E183.01243
G1 X46.811 Y94.581 E183.45892
G1 X51.987 Y96.365 E184.11590
G1 X57.789 Y98.161 E184.84473
G1 X63.645 Y99.772 E185.57356
G1 X69.551 Y101.198 E186.30265
G1 X75.497 Y102.433 E187.03139
G1 X81.480 Y103.481 E187.76028
G1 X87.494 Y104.337 E188.48924
G1 X93.531 Y105.003 E189.21807
G1 X99.440 Y105.466 E189.92933
G1 X102.593 Y105.617 E190.30812
G1 X108.244 Y105.796 E190.98658
G1 X111.726 Y105.846 E191.40446
G1 X114.851 Y105.795 E191.77951
G1 X119.332 Y105.647 E192.31753
G1 X120.861 Y105.593 E192.50112
G1 X123.867 Y105.447 E192.86227
G1 X129.922 Y104.957 E193.59124
G1 X135.958 Y104.277 E194.32014
G1 X141.968 Y103.404 E195.04891
G1 X147.949 Y102.342 E195.77786
G1 X153.893 Y101.091 E196.50677
G1 X159.793 Y99.652 E197.23552
G1 X165.647 Y98.026 E197.96459
G1 X171.444 Y96.215 E198.69339
G1 X176.143 Y94.582 E199.29035
G1 X177.419 Y98.076 E199.73671
G1 X172.611 Y99.746 E200.34749
G1 X166.690 Y101.596 E201.09188
G1 X160.734 Y103.251 E201.83368
G1 X154.708 Y104.720 E202.57798
G1 X148.667 Y105.991 E203.31877
G1 X142.558 Y107.077 E204.06334
G1 X136.428 Y107.965 E204.80662
G1 X132.121 Y108.473 E205.32704
G1 X128.082 Y108.861 E205.81395
G1 X135.899 Y122.474 E207.69768
G1 X138.003 Y122.227 E207.95190
G1 X142.349 Y121.627 E208.47836
G1 X146.682 Y120.935 E209.00491
G1 X150.999 Y120.152 E209.53140
G1 X153.150 Y119.711 E209.79489
G1 X157.896 Y118.711 E210.37692
G1 X164.354 Y117.136 E211.17459
G1 X170.759 Y115.357 E211.97229
G1 X177.104 Y113.375 E212.76997
G1 X182.344 Y111.554 E213.43566
G1 X182.766 Y112.708 E213.58311
G1 X177.491 Y114.541 E214.25324
G1 X171.098 Y116.538 E215.05695
G1 X164.666 Y118.325 E215.85803
G1 X158.165 Y119.910 E216.66100
G1 X151.630 Y121.287 E217.46242
G1 X146.997 Y122.109 E218.02706
G1 X145.587 Y122.361 E218.19894
G1 X145.702 Y123.470 E218.33274
G1 X155.734 Y123.174 E219.53710
G1 X152.024 Y123.928 E219.99140
G1 X149.684 Y124.358 E220.27690
G1 X147.631 Y124.730 E220.52728
G1 X143.228 Y125.440 E221.06246
G1 X138.801 Y126.058 E221.59885
G1 X134.351 Y126.585 E222.13658
G1 X129.911 Y127.017 E222.67190
G1 X129.310 Y127.068 E222.74428
G1 X125.159 Y127.379 E223.24380
G1 X124.020 Y127.440 E223.38067
G1 X123.039 Y124.807 E223.71785
G1 X119.216 Y124.993 E224.17715
G1 X120.293 Y128.557 E224.62393
G1 X120.094 Y128.558 E224.64781
G1 X118.856 Y127.209 E224.86753
G1 X118.200 Y125.036 E225.13991
G0 F12000 X106.271 Y123.772
G0 X104.140 Y117.681
G1 F1200 X106.594 Y109.498 E226.16508
G1 X100.537 Y109.309 E226.89227
G1 X95.866 Y117.690 E228.04364
G1 X104.140 Y117.681 E229.03652
G0 F12000 X103.842 Y117.281
;TYPE:WALL-OUTER
G1 F1200 X106.061 Y109.882 E229.96347
G1 X100.768 Y109.716 E230.59895
G1 X96.547 Y117.289 E231.63933
G1 X103.842 Y117.281 E232.51473
G0 F12000 X104.128 Y117.368
G0 X106.271 Y123.772
G0 X106.695 Y123.756
G0 X106.699 Y123.457
G1 F1200 X111.749 Y123.512 E233.12077
G1 X116.128 Y123.461 E233.64629
G1 X116.798 Y123.438 E233.72673
G1 X113.621 Y112.921 E235.04510
G1 X111.736 Y113.054 E235.27186
G1 X109.851 Y112.927 E235.49857
G1 X106.699 Y123.457 E236.81757
G0 F12000 X106.695 Y123.756
G0 X105.602 Y125.157
G0 X105.599 Y125.456
G1 F1200 X105.008 Y127.429 E237.06472
G1 X103.593 Y128.978 E237.31648
G1 X102.681 Y128.980 E237.42592
G1 X103.756 Y125.388 E237.87585
G1 X100.737 Y125.249 E238.23852
G1 X99.761 Y127.884 E238.57571
G1 X98.329 Y127.811 E238.74777
G1 X93.868 Y127.490 E239.28448
G1 X89.410 Y127.074 E239.82176
G1 X84.957 Y126.564 E240.35962
G1 X80.524 Y125.963 E240.89644
G1 X76.097 Y125.267 E241.43421
G1 X71.689 Y124.480 E241.97153
G1 X67.298 Y123.600 E242.50893
G1 X66.519 Y123.427 E242.60469
G1 X66.772 Y122.858 E242.67941
G1 X77.437 Y123.145 E243.95968
G1 X77.474 Y122.775 E244.00430
G1 X71.797 Y121.782 E244.69588
G1 X65.230 Y120.417 E245.50076
G1 X58.725 Y118.847 E246.30378
G1 X52.259 Y117.068 E247.10853
G1 X45.860 Y115.087 E247.91236
G1 X39.718 Y112.970 E248.69196
G1 X40.410 Y111.061 E248.93562
G1 X46.494 Y113.158 E249.70785
G1 X52.832 Y115.121 E250.50406
G1 X59.229 Y116.881 E251.30022
G1 X65.679 Y118.437 E252.09642
G1 X72.174 Y119.787 E252.89248
G1 X76.878 Y120.628 E253.46591
G1 X81.203 Y121.308 E253.99129
G1 X85.542 Y121.896 E254.51673
G1 X87.381 Y122.107 E254.73886
G1 X94.725 Y109.241 E256.51659
G1 X91.294 Y108.922 E256.93009
G1 X86.975 Y108.424 E257.45180
