;FLAVOR:UltiGCode
;TIME:4218
;MATERIAL:6979
;MATERIAL2:0
;NOZZLE_DIAMETER:0.400000
;NOZZLE_DIAMETER2:0.400000

;Layer count: 38
;LAYER:0
M107
G0 F12000 X41.696 Y91.612 Z0.300
G0 X43.789 Y92.336
;TYPE:SKIRT
G1 F1200 X44.551 Y90.271 E0.26413
G1 X50.622 Y92.372 E1.03505
G1 X55.971 Y94.035 E1.70723
G1 X56.684 Y94.244 E1.79639
G1 X62.042 Y95.726 E2.46349
G1 X67.857 Y97.137 E3.18154
G1 X71.235 Y97.844 E3.59568
G1 X73.497 Y98.317 E3.87300
G1 X79.162 Y99.321 E4.56339
G1 X85.058 Y100.181 E5.27840
G1 X90.999 Y100.855 E5.99589
G1 X96.170 Y101.278 E6.61848
G1 X97.230 Y101.361 E6.74607
G1 X100.014 Y101.497 E7.08055
G1 X105.413 Y101.677 E7.72879
G1 X109.019 Y101.741 E8.16158
G1 X109.158 Y101.744 E8.17826
G1 X112.381 Y101.693 E8.56507
G1 X117.787 Y101.518 E9.21413
G1 X120.930 Y101.373 E9.59169
G1 X121.859 Y101.304 E9.70348
G1 X127.024 Y100.893 E10.32524
G1 X132.556 Y100.276 E10.99319
G1 X133.307 Y100.181 E11.08403
G1 X138.817 Y99.389 E11.75203
G1 X144.683 Y98.354 E12.46682
G1 X147.123 Y97.844 E12.76595
G1 X150.501 Y97.137 E13.18009
G1 X156.324 Y95.724 E13.89913
G1 X162.015 Y94.151 E14.60766
G1 X167.370 Y92.486 E15.28060
G1 X173.014 Y90.545 E15.99681
G1 X175.045 Y89.782 E16.25716
G1 X175.045 Y89.781 E16.25728
G1 X178.203 Y88.567 E16.66328
G1 X181.079 Y96.467 E17.67215
G1 X179.211 Y97.181 E17.91212
G1 X180.851 Y101.685 E18.48732
G1 X182.723 Y100.981 E18.72732
G1 X185.596 Y108.875 E19.73539
G1 X183.724 Y109.579 E19.97539
G1 X189.900 Y126.550 E22.14257
G1 X185.743 Y128.013 E22.67140
G1 X185.743 Y128.012 E22.67152
G1 X182.394 Y129.192 E23.09761
G1 X177.874 Y130.678 E23.66857
G1 X173.324 Y132.070 E24.23956
G1 X165.516 Y134.278 E25.21326
G1 X163.338 Y124.461 E26.41994
G1 X159.052 Y125.517 E26.94964
G1 X154.615 Y126.514 E27.49536
G1 X150.157 Y127.420 E28.04126
G1 X145.694 Y128.229 E28.58554
G1 X145.107 Y128.328 E28.65698
G1 X140.908 Y128.994 E29.16716
G1 X136.401 Y129.611 E29.71304
G1 X131.883 Y130.134 E30.25882
G1 X130.458 Y130.269 E30.43059
G1 X128.454 Y130.458 E30.67213
G1 X127.356 Y130.562 E30.80448
G1 X126.596 Y130.618 E30.89593
G1 X122.818 Y130.895 E31.35051
G1 X122.494 Y130.912 E31.38944
G1 X122.846 Y132.065 E31.53411
G1 X115.845 Y132.065 E32.37423
G1 X113.757 Y129.784 E32.74531
G1 X104.601 Y129.784 E33.84403
G1 X103.555 Y130.927 E34.02995
G1 X102.506 Y132.065 E34.21568
G1 X95.523 Y132.065 E35.05364
G1 X95.872 Y130.913 E35.19809
G1 X95.540 Y130.895 E35.23798
G1 X94.078 Y130.787 E35.41390
G1 X93.351 Y130.733 E35.50138
G1 X91.473 Y130.596 E35.72734
G1 X90.716 Y130.535 E35.81848
G1 X86.476 Y130.134 E36.32955
G1 X82.238 Y129.644 E36.84149
G1 X77.733 Y129.032 E37.38706
G1 X73.254 Y128.330 E37.93110
G1 X72.667 Y128.231 E38.00254
G1 X68.480 Y127.476 E38.51308
G1 X64.021 Y126.577 E39.05893
G1 X59.857 Y125.647 E39.57092
G1 X55.455 Y124.571 E40.11471
G1 X54.878 Y124.423 E40.18619
G1 X50.770 Y123.322 E40.69655
G1 X46.402 Y122.054 E41.24235
G1 X42.061 Y120.694 E41.78823
G1 X37.752 Y119.243 E42.33384
G1 X34.423 Y118.052 E42.75812
G1 X35.178 Y115.978 E43.02298
G1 X33.111 Y115.234 E43.28659
G1 X34.455 Y111.533 E43.75909
G1 X35.581 Y108.441 E44.15397
G1 X40.397 Y95.207 E45.84394
G1 X40.573 Y94.726 E45.90540
G1 X41.696 Y91.612 E46.30264
G1 X43.789 Y92.336 E46.56840
G10
G1 Z0.400
G0 F12000 X47.070 Y95.587
;TYPE:WALL-INNER
G1 Z0.300
G11
G1 F1200 X49.325 Y96.367 E46.85473
G1 X54.768 Y98.059 E47.53872
G1 X55.509 Y98.277 E47.63141
G1 X61.004 Y99.796 E48.31554
G1 X66.920 Y101.232 E49.04607
G1 X72.721 Y102.445 E49.75725
G1 X78.498 Y103.469 E50.46129
G1 X84.519 Y104.347 E51.19146
G1 X90.567 Y105.033 E51.92187
G1 X95.839 Y105.465 E52.55663
G1 X96.961 Y105.553 E52.69168
G1 X99.841 Y105.693 E53.03769
G1 X105.332 Y105.877 E53.69698
G1 X109.178 Y105.944 E54.15857
G1 X112.455 Y105.893 E54.55186
G1 X117.974 Y105.714 E55.21449
G1 X121.153 Y105.567 E55.59638
G1 X122.189 Y105.491 E55.72103
G1 X127.412 Y105.076 E56.34976
G1 X133.076 Y104.444 E57.03366
G1 X133.843 Y104.347 E57.12644
G1 X139.486 Y103.536 E57.81055
G1 X145.480 Y102.478 E58.54095
G1 X151.438 Y101.232 E59.27138
G1 X157.354 Y99.796 E60.00191
G1 X163.221 Y98.175 E60.73233
G1 X168.670 Y96.480 E61.41712
G1 X174.424 Y94.502 E62.14726
G1 X175.717 Y94.016 E62.31301
G1 X173.851 Y94.733 E62.55290
G1 X178.356 Y107.109 E64.13335
G1 X180.227 Y106.406 E64.37319
G1 X178.356 Y107.110 E64.61308
G1 X184.502 Y123.998 E66.76967
G1 X181.051 Y125.213 E67.20871
G1 X176.602 Y126.675 E67.77067
G1 X172.130 Y128.043 E68.33186
G1 X168.653 Y129.027 E68.76549
G1 X166.488 Y119.269 E69.96492
G1 X162.974 Y120.210 E70.40146
G1 X162.346 Y120.379 E70.47950
G1 X158.099 Y121.426 E71.00440
G1 X153.727 Y122.409 E71.54214
G1 X149.363 Y123.295 E72.07650
G1 X144.971 Y124.092 E72.61215
G1 X144.434 Y124.182 E72.67749
G1 X140.289 Y124.839 E73.18110
G1 X135.864 Y125.445 E73.71705
G1 X131.454 Y125.956 E74.24979
G1 X126.992 Y126.377 E74.78761
G1 X126.286 Y126.430 E74.87257
G1 X122.563 Y126.703 E75.32053
G1 X121.532 Y126.757 E75.44442
G1 X116.916 Y126.997 E75.99909
G1 X116.924 Y127.023 E76.00235
G1 X116.638 Y126.710 E76.05323
G1 X116.299 Y125.584 E76.19434
G1 X102.061 Y125.584 E77.90290
G1 X101.720 Y126.711 E78.04420
G1 X101.431 Y127.027 E78.09558
G1 X101.440 Y126.998 E78.09923
G1 X95.794 Y126.702 E78.77768
G1 X91.798 Y126.409 E79.25849
G1 X91.088 Y126.351 E79.34397
G1 X86.904 Y125.955 E79.84829
G1 X82.772 Y125.478 E80.34743
G1 X78.338 Y124.876 E80.88439
G1 X73.923 Y124.183 E81.42067
G1 X73.382 Y124.092 E81.48651
G1 X69.268 Y123.351 E81.98813
G1 X64.906 Y122.471 E82.52212
G1 X60.804 Y121.555 E83.02648
G1 X56.480 Y120.499 E83.56061
G1 X55.938 Y120.359 E83.62778
G1 X51.890 Y119.274 E84.13069
G1 X47.618 Y118.033 E84.66452
G1 X43.369 Y116.702 E85.19883
G1 X39.820 Y115.507 E85.64821
G1 X40.567 Y113.454 E85.91037
G1 X38.497 Y112.709 E86.17437
G1 X44.238 Y96.935 E88.18872
G1 X46.317 Y97.654 E88.45270
G1 X47.070 Y95.587 E88.71668
G0 F12000 X132.460 Y117.810
G1 F1200 X133.205 Y124.062 E89.47223
G1 X135.664 Y123.777 E89.76928
G1 X140.049 Y123.176 E90.30040
G1 X144.420 Y122.484 E90.83146
G1 X148.776 Y121.700 E91.36258
G1 X150.514 Y121.350 E91.57532
G1 X150.980 Y119.763 E91.77380
G1 X151.834 Y117.416 E92.07351
G1 X152.640 Y115.565 E92.31577
G1 X151.865 Y114.619 E92.46252
G1 X150.410 Y114.934 E92.64117
G1 X146.438 Y115.705 E93.12670
G1 X145.920 Y115.800 E93.18990
G1 X141.965 Y116.485 E93.67157
G1 X137.966 Y117.089 E94.15689
G1 X137.452 Y117.162 E94.21919
G1 X132.460 Y117.810 E94.82325
G0 F12000 X132.904 Y118.155
G1 F1200 X133.555 Y123.619 E95.48357
G1 X135.614 Y123.380 E95.73231
G1 X139.991 Y122.781 E96.26245
G1 X144.353 Y122.090 E96.79241
G1 X148.701 Y121.307 E97.32257
G1 X150.199 Y121.006 E97.50592
G1 X150.604 Y119.626 E97.67850
G1 X151.463 Y117.265 E97.97999
G1 X152.176 Y115.629 E98.19415
G1 X151.711 Y115.062 E98.28214
G1 X150.487 Y115.327 E98.43243
G1 X146.516 Y116.098 E98.91784
G1 X145.992 Y116.194 E98.98177
G1 X142.024 Y116.881 E99.46501
G1 X138.032 Y117.484 E99.94949
G1 X137.504 Y117.558 E100.01347
G1 X132.904 Y118.155 E100.57010
G0 F12000 X133.606 Y123.553
G0 X135.931 Y125.840
G1 F1200 X131.479 Y126.355 E101.10790
G1 X127.035 Y126.775 E101.64356
G1 X122.584 Y127.102 E102.17912
G1 X121.553 Y127.157 E102.30301
G1 X117.447 Y127.370 E102.79639
G1 X117.717 Y128.265 E102.90857
G1 X117.519 Y128.265 E102.93233
G1 X116.284 Y126.916 E103.15181
G1 X116.001 Y125.984 E103.26869
G1 X102.358 Y125.984 E104.90585
G1 X102.077 Y126.914 E105.02243
G1 X100.840 Y128.265 E105.24225
G1 X100.642 Y128.265 E105.26601
G1 X100.911 Y127.371 E105.37804
G1 X95.773 Y127.102 E105.99544
G1 X91.766 Y126.807 E106.47758
G1 X91.042 Y126.749 E106.56474
G1 X86.879 Y126.355 E107.06653
G1 X82.718 Y125.874 E107.56918
G1 X78.277 Y125.271 E108.10699
G1 X73.868 Y124.579 E108.64254
G1 X73.316 Y124.486 E108.70972
G1 X69.199 Y123.745 E109.21170
G1 X64.817 Y122.861 E109.74813
G1 X60.717 Y121.945 E110.25226
G1 X56.374 Y120.884 E110.78875
G1 X55.845 Y120.749 E110.85426
G1 X51.786 Y119.660 E111.35857
G1 X47.506 Y118.417 E111.89339
G1 X43.229 Y117.077 E112.43123
G1 X39.303 Y115.756 E112.92830
G1 X40.054 Y113.694 E113.19164
G1 X37.984 Y112.949 E113.45564
G1 X43.967 Y96.509 E115.55502
G1 X43.996 Y96.428 E115.56535
G1 X46.076 Y97.147 E115.82944
G1 X46.828 Y95.080 E116.09338
G1 X49.450 Y95.987 E116.42632
G1 X54.883 Y97.676 E117.10905
G1 X55.619 Y97.892 E117.20110
G1 X61.104 Y99.409 E117.88401
G1 X67.008 Y100.841 E118.61303
G1 X72.797 Y102.052 E119.32275
G1 X78.561 Y103.074 E120.02522
G1 X84.571 Y103.950 E120.75404
G1 X90.606 Y104.635 E121.48289
G1 X95.871 Y105.066 E122.11680
G1 X96.987 Y105.154 E122.25114
G1 X99.857 Y105.294 E122.59595
G1 X105.342 Y105.477 E123.25451
G1 X109.178 Y105.544 E123.71490
G1 X112.445 Y105.493 E124.10699
G1 X117.959 Y105.315 E124.76901
G1 X121.129 Y105.168 E125.14982
G1 X122.159 Y105.092 E125.27376
G1 X127.374 Y104.677 E125.90154
G1 X133.029 Y104.047 E126.58434
G1 X133.789 Y103.951 E126.67626
G1 X139.423 Y103.141 E127.35929
G1 X145.405 Y102.085 E128.08823
G1 X151.350 Y100.841 E128.81708
G1 X157.254 Y99.409 E129.54610
G1 X163.108 Y97.791 E130.27492
G1 X168.546 Y96.100 E130.95831
G1 X174.288 Y94.126 E131.68693
G1 X175.955 Y93.499 E131.90065
G1 X176.229 Y94.253 E131.99692
G1 X174.361 Y94.966 E132.23685
G1 X178.594 Y106.593 E133.72168
G1 X180.466 Y105.890 E133.96164
G1 X180.739 Y106.641 E134.05753
G1 X178.867 Y107.345 E134.29753
G1 X185.016 Y124.241 E136.45514
G1 X181.166 Y125.596 E136.94492
G1 X176.730 Y127.054 E137.50526
G1 X172.244 Y128.426 E138.06819
G1 X168.354 Y129.527 E138.55333
G1 X166.188 Y119.763 E139.75349
G1 X162.462 Y120.762 E140.21640
G1 X158.174 Y121.819 E140.74637
G1 X153.827 Y122.797 E141.28104
G1 X149.434 Y123.689 E141.81896
G1 X145.043 Y124.486 E142.35449
G1 X144.497 Y124.577 E142.42092
G1 X140.346 Y125.235 E142.92525
G1 X135.931 Y125.840 E143.46001
G0 F12000 X135.977 Y126.237
;TYPE:WALL-OUTER
G1 F1200 X131.525 Y126.752 E143.99781
G1 X127.067 Y127.174 E144.53516
G1 X122.605 Y127.502 E145.07204
G1 X117.977 Y127.744 E145.62816
G1 X118.255 Y128.665 E145.74361
G1 X117.342 Y128.665 E145.85317
G1 X115.924 Y127.116 E146.10517
G1 X115.703 Y126.384 E146.19693
G1 X102.655 Y126.384 E147.76269
G1 X102.434 Y127.116 E147.85444
G1 X101.016 Y128.665 E148.10645
G1 X100.103 Y128.665 E148.21601
G1 X100.381 Y127.744 E148.33145
G1 X95.752 Y127.501 E148.88770
G1 X91.734 Y127.206 E149.37116
G1 X91.013 Y127.148 E149.45795
G1 X86.833 Y126.752 E149.96180
G1 X82.660 Y126.270 E150.46589
G1 X78.227 Y125.669 E151.00272
G1 X73.799 Y124.973 E151.54060
G1 X73.251 Y124.881 E151.60728
G1 X69.115 Y124.136 E152.11159
G1 X64.726 Y123.251 E152.64887
G1 X60.630 Y122.336 E153.15250
G1 X56.282 Y121.274 E153.68960
G1 X55.740 Y121.134 E153.75678
G1 X51.687 Y120.048 E154.26029
G1 X47.387 Y118.799 E154.79762
G1 X43.114 Y117.460 E155.33497
G1 X38.866 Y116.030 E155.87283
G1 X38.788 Y116.003 E155.88274
G1 X39.541 Y113.935 E156.14684
G1 X37.470 Y113.190 E156.41095
G1 X43.756 Y95.921 E158.61625
G1 X45.835 Y96.640 E158.88023
G1 X46.588 Y94.573 E159.14421
G1 X49.575 Y95.607 E159.52352
G1 X54.999 Y97.293 E160.20512
G1 X55.728 Y97.507 E160.29629
G1 X61.205 Y99.022 E160.97821
G1 X67.096 Y100.451 E161.70563
G1 X72.873 Y101.659 E162.41387
G1 X78.625 Y102.679 E163.11488
G1 X84.622 Y103.553 E163.84212
G1 X90.645 Y104.237 E164.56952
G1 X97.012 Y104.755 E165.33609
G1 X99.874 Y104.894 E165.67993
G1 X105.352 Y105.077 E166.33766
G1 X109.179 Y105.144 E166.79697
G1 X112.436 Y105.093 E167.18786
G1 X117.943 Y104.915 E167.84904
G1 X121.105 Y104.769 E168.22889
G1 X122.128 Y104.693 E168.35199
G1 X127.336 Y104.279 E168.97892
G1 X132.982 Y103.650 E169.66063
G1 X133.736 Y103.554 E169.75184
G1 X139.360 Y102.746 E170.43365
G1 X145.329 Y101.692 E171.16101
G1 X151.262 Y100.451 E171.88838
G1 X157.153 Y99.022 E172.61580
G1 X162.995 Y97.407 E173.34313
G1 X168.421 Y95.720 E174.02500
G1 X174.153 Y93.749 E174.75237
G1 X176.193 Y92.982 E175.01390
G1 X176.740 Y94.485 E175.20583
G1 X174.872 Y95.199 E175.44581
G1 X178.831 Y106.076 E176.83482
G1 X180.703 Y105.373 E177.07478
G1 X181.251 Y106.877 E177.26686
G1 X179.378 Y107.580 E177.50693
G1 X185.530 Y124.483 E179.66546
G1 X181.297 Y125.974 E180.20401
G1 X176.847 Y127.437 E180.76613
G1 X172.361 Y128.809 E181.32906
G1 X168.055 Y130.028 E181.86609
G1 X165.888 Y120.258 E183.06698
G1 X162.558 Y121.151 E183.48070
G1 X158.274 Y122.207 E184.01017
G1 X153.906 Y123.189 E184.54741
G1 X149.517 Y124.080 E185.08484
G1 X145.107 Y124.880 E185.62267
G1 X144.560 Y124.973 E185.68925
G1 X140.409 Y125.630 E186.19358
G1 X135.977 Y126.237 E186.73038
G0 F12000 X135.930 Y125.942
G0 X135.611 Y123.280
G0 X135.564 Y122.983
G1 F1200 X139.932 Y122.385 E187.25943
G1 X144.286 Y121.695 E187.78843
G1 X148.626 Y120.914 E188.31760
G1 X149.883 Y120.661 E188.47146
G1 X150.221 Y119.509 E188.61553
G1 X151.093 Y117.111 E188.92172
G1 X151.711 Y115.694 E189.10723
G1 X151.556 Y115.505 E189.13656
G1 X150.563 Y115.720 E189.25848
G1 X146.594 Y116.491 E189.74367
G1 X146.064 Y116.587 E189.80830
G1 X142.084 Y117.276 E190.29300
G1 X138.085 Y117.880 E190.77833
G1 X137.553 Y117.955 E190.84280
G1 X133.348 Y118.501 E191.35163
G1 X133.905 Y123.176 E191.91660
G1 X135.564 Y122.983 E192.11703
G0 F12000 X135.529 Y123.932
;TYPE:SKIN
G1 F1200 X136.774 Y125.178 E192.32839
G0 F12000 X136.277 Y125.246
G1 F1200 X135.022 Y123.991 E192.54137
G0 F12000 X134.515 Y124.050
G1 F1200 X135.778 Y125.313 E192.75571
G0 F12000 X135.271 Y125.372
G1 F1200 X134.008 Y124.109 E192.97005
G0 F12000 X133.502 Y124.168
G1 F1200 X134.764 Y125.430 E193.18422
G0 F12000 X134.257 Y125.489
G1 F1200 X114.716 Y105.948 E196.50044
G0 F12000 X115.261 Y105.928
G1 F1200 X133.019 Y123.685 E199.51398
G0 F12000 X132.943 Y123.043
G1 F1200 X115.807 Y105.907 E202.42206
G0 F12000 X116.352 Y105.887
G1 F1200 X132.866 Y122.401 E205.22458
G0 F12000 X132.789 Y121.758
G1 F1200 X116.897 Y105.866 E207.92154
G0 F12000 X117.442 Y105.846
G1 F1200 X132.713 Y121.116 E210.51303
G0 F12000 X132.636 Y120.474
G1 F1200 X117.988 Y105.826 E212.99888
G0 F12000 X118.533 Y105.805
G1 F1200 X132.560 Y119.832 E215.37934
G0 F12000 X132.483 Y119.189
G1 F1200 X119.078 Y105.785 E217.65416
G0 F12000 X119.624 Y105.764
G1 F1200 X132.407 Y118.547 E219.82351
G0 F12000 X132.330 Y117.905
G1 F1200 X120.169 Y105.744 E221.88730
G0 F12000 X120.714 Y105.723
G1 F1200 X132.636 Y117.645 E223.91053
G0 F12000 X133.136 Y117.580
G1 F1200 X121.256 Y105.699 E225.92671
G0 F12000 X121.780 Y105.658
G1 F1200 X133.637 Y117.515 E227.93891
G0 F12000 X134.138 Y117.450
G1 F1200 X122.304 Y105.617 E229.94713
G0 F12000 X122.829 Y105.575
G1 F1200 X134.638 Y117.385 E231.95126
G0 F12000 X135.139 Y117.320
G1 F1200 X123.354 Y105.534 E233.95133
G0 F12000 X123.878 Y105.493
G1 F1200 X135.640 Y117.255 E235.94741
G0 F12000 X136.140 Y117.190
G1 F1200 X124.402 Y105.452 E237.93941
G0 F12000 X124.927 Y105.411
G1 F1200 X136.641 Y117.125 E239.92734
G0 F12000 X137.141 Y117.060
G1 F1200 X125.452 Y105.370 E241.91112
G0 F12000 X125.976 Y105.328
G1 F1200 X137.638 Y116.990 E243.89022
G0 F12000 X138.130 Y116.917
G1 F1200 X126.500 Y105.287 E245.86390
G0 F12000 X127.025 Y105.246
G1 F1200 X138.622 Y116.843 E247.83198
G0 F12000 X139.114 Y116.770
G1 F1200 X127.545 Y105.201 E249.79530
G0 F12000 X128.054 Y105.143
G1 F1200 X139.606 Y116.695 E251.75574
G0 F12000 X140.098 Y116.622
G1 F1200 X128.561 Y105.085 E253.71363
G0 F12000 X129.070 Y105.028
G1 F1200 X140.590 Y116.548 E255.66864
G0 F12000 X141.081 Y116.474
G1 F1200 X129.578 Y104.970 E257.62085
G0 F12000 X130.086 Y104.913
G1 F1200 X141.574 Y116.401 E259.57043
G0 F12000 X142.063 Y116.324
G1 F1200 X130.594 Y104.855 E261.51678
G0 F12000 X131.102 Y104.798
G1 F1200 X142.544 Y116.240 E263.45856
G0 F12000 X143.027 Y116.157
