;FLAVOR:UltiGCode
;TIME:4230
;MATERIAL:6964
;MATERIAL2:0
;NOZZLE_DIAMETER:0.400000
;NOZZLE_DIAMETER2:0.400000

;Layer count: 38
;LAYER:0
M107
G0 F12000 X44.553 Y91.612 Z0.300
G0 X46.646 Y92.336
;TYPE:SKIRT
G1 F1200 X47.408 Y90.271 E0.26413
G1 X53.274 Y92.301 E1.00901
G1 X58.820 Y94.032 E1.70619
G1 X64.583 Y95.638 E2.42411
G1 X70.320 Y97.041 E3.13283
G1 X73.888 Y97.801 E3.57060
G1 X73.888 Y97.802 E3.57072
G1 X76.354 Y98.317 E3.87302
G1 X82.019 Y99.321 E4.56342
G1 X87.915 Y100.181 E5.27842
G1 X93.856 Y100.855 E5.99592
G1 X99.027 Y101.278 E6.61851
G1 X100.087 Y101.361 E6.74610
G1 X102.871 Y101.497 E7.08058
G1 X108.270 Y101.677 E7.72882
G1 X111.876 Y101.741 E8.16161
G1 X112.015 Y101.744 E8.17829
G1 X115.454 Y101.689 E8.59102
G1 X121.020 Y101.506 E9.25930
G1 X123.935 Y101.366 E9.60951
G1 X124.664 Y101.309 E9.69725
G1 X129.545 Y100.920 E10.28483
G1 X130.246 Y100.853 E10.36933
G1 X135.794 Y100.234 E11.03922
G1 X141.314 Y99.441 E11.70842
G1 X142.033 Y99.326 E11.79580
G1 X147.547 Y98.353 E12.46770
G1 X149.824 Y97.877 E12.74685
G1 X153.144 Y97.182 E13.15389
G1 X158.801 Y95.817 E13.85221
G1 X164.540 Y94.242 E14.56635
G1 X165.242 Y94.036 E14.65414
G1 X170.593 Y92.372 E15.32660
G1 X175.860 Y90.549 E15.99542
G1 X177.902 Y89.782 E16.25718
G1 X177.902 Y89.781 E16.25730
G1 X181.060 Y88.567 E16.66330
G1 X183.936 Y96.467 E17.67216
G1 X182.068 Y97.181 E17.91214
G1 X186.447 Y109.212 E19.44852
G1 X188.321 Y108.513 E19.68853
G1 X190.065 Y113.303 E20.30024
G1 X191.200 Y116.418 E20.69808
G1 X186.319 Y118.215 E21.32224
G1 X183.466 Y119.242 E21.68610
G1 X179.154 Y120.694 E22.23209
G1 X175.096 Y121.965 E22.74238
G1 X174.527 Y122.136 E22.81368
G1 X170.444 Y123.322 E23.32389
G1 X166.337 Y124.423 E23.83413
G1 X165.762 Y124.570 E23.90535
G1 X161.634 Y125.585 E24.41546
G1 X157.194 Y126.577 E24.96140
G1 X153.012 Y127.420 E25.47333
G1 X148.551 Y128.229 E26.01739
G1 X147.964 Y128.328 E26.08882
G1 X143.765 Y128.994 E26.59900
G1 X139.552 Y129.571 E27.10928
G1 X138.963 Y129.645 E27.18051
G1 X134.739 Y130.134 E27.69078
G1 X130.502 Y130.534 E28.20148
G1 X129.744 Y130.596 E28.29274
G1 X127.865 Y130.733 E28.51882
G1 X127.138 Y130.787 E28.60630
G1 X125.675 Y130.895 E28.78234
G1 X125.351 Y130.912 E28.82127
G1 X125.703 Y132.065 E28.96594
G1 X118.703 Y132.065 E29.80594
G1 X117.279 Y130.511 E30.05887
G1 X116.614 Y129.784 E30.17710
G1 X107.459 Y129.784 E31.27570
G1 X105.370 Y132.065 E31.64687
G1 X98.383 Y132.065 E32.48531
G1 X98.731 Y130.913 E32.62972
G1 X98.676 Y130.910 E32.63633
G1 X96.942 Y130.788 E32.84492
G1 X94.620 Y130.618 E33.12431
G1 X93.862 Y130.562 E33.21552
G1 X93.111 Y130.492 E33.30603
G1 X90.756 Y130.269 E33.58989
G1 X89.614 Y130.161 E33.72754
G1 X85.097 Y129.644 E34.27312
G1 X80.606 Y129.035 E34.81697
G1 X80.017 Y128.949 E34.88840
G1 X75.814 Y128.282 E35.39907
G1 X71.337 Y127.476 E35.94495
G1 X66.878 Y126.577 E36.49080
G1 X62.438 Y125.585 E37.03673
G1 X58.022 Y124.500 E37.58241
G1 X57.877 Y124.461 E37.60043
G1 X55.699 Y134.278 E38.80712
G1 X49.052 Y132.399 E39.63601
G1 X47.891 Y132.070 E39.78082
G1 X43.341 Y130.678 E40.35180
G1 X39.967 Y129.570 E40.77795
G1 X38.820 Y129.192 E40.92287
G1 X35.826 Y128.137 E41.30381
G1 X35.826 Y128.138 E41.30393
G1 X31.786 Y126.716 E41.81788
G1 X40.059 Y103.984 E44.72076
G1 X40.060 Y103.984 E44.72088
G1 X43.254 Y95.207 E45.84169
G1 X43.429 Y94.729 E45.90277
G1 X44.553 Y91.612 E46.30039
G1 X46.646 Y92.336 E46.56615
G10
G1 Z0.400
G0 F12000 X49.927 Y95.587
;TYPE:WALL-INNER
G1 Z0.300
G11
G1 F1200 X51.982 Y96.298 E46.82709
G1 X57.631 Y98.061 E47.53722
G1 X63.494 Y99.695 E48.26759
G1 X69.406 Y101.141 E48.99794
G1 X73.015 Y101.909 E49.44072
G1 X75.578 Y102.445 E49.75493
G1 X81.355 Y103.469 E50.45898
G1 X87.376 Y104.347 E51.18914
G1 X93.424 Y105.033 E51.91956
G1 X98.696 Y105.465 E52.55432
G1 X99.818 Y105.553 E52.68937
G1 X102.698 Y105.693 E53.03538
G1 X108.189 Y105.877 E53.69467
G1 X112.035 Y105.944 E54.15626
G1 X115.529 Y105.889 E54.57559
G1 X121.185 Y105.702 E55.25468
G1 X124.201 Y105.558 E55.61701
G1 X124.997 Y105.496 E55.71282
G1 X129.935 Y105.102 E56.30726
G1 X130.653 Y105.034 E56.39381
G1 X136.319 Y104.401 E57.07796
G1 X141.960 Y103.591 E57.76182
G1 X142.723 Y103.469 E57.85455
G1 X148.337 Y102.478 E58.53864
G1 X154.080 Y101.277 E59.24271
G1 X159.842 Y99.886 E59.95401
G1 X165.704 Y98.278 E60.68344
G1 X166.446 Y98.060 E60.77624
G1 X171.890 Y96.367 E61.46038
G1 X177.282 Y94.502 E62.14503
G1 X178.574 Y94.016 E62.31068
G1 X176.708 Y94.733 E62.55056
G1 X183.534 Y113.488 E64.94559
G1 X183.940 Y114.607 E65.08843
G1 X182.085 Y115.275 E65.32503
G1 X177.846 Y116.702 E65.86176
G1 X173.867 Y117.949 E66.36214
G1 X173.340 Y118.108 E66.42819
G1 X169.325 Y119.274 E66.92990
G1 X165.278 Y120.358 E67.43266
G1 X164.735 Y120.497 E67.49992
G1 X160.678 Y121.495 E68.00127
G1 X156.310 Y122.471 E68.53836
G1 X152.232 Y123.293 E69.03756
G1 X147.820 Y124.093 E69.57563
G1 X147.291 Y124.182 E69.64000
G1 X143.146 Y124.839 E70.14361
G1 X138.999 Y125.407 E70.64590
G1 X138.454 Y125.476 E70.71182
G1 X134.311 Y125.956 E71.21231
G1 X130.128 Y126.350 E71.71649
G1 X129.416 Y126.408 E71.80221
G1 X127.553 Y126.545 E72.02638
G1 X125.420 Y126.702 E72.28303
G1 X124.663 Y126.742 E72.37400
G1 X121.320 Y126.916 E72.77570
G1 X119.775 Y127.001 E72.96138
G1 X119.782 Y127.025 E72.96438
G1 X119.495 Y126.711 E73.01543
G1 X119.156 Y125.584 E73.15665
G1 X104.918 Y125.584 E74.86521
G1 X104.578 Y126.711 E75.00647
G1 X104.291 Y127.023 E75.05734
G1 X104.299 Y126.998 E75.06049
G1 X98.940 Y126.718 E75.70445
G1 X97.241 Y126.598 E75.90884
G1 X94.929 Y126.430 E76.18701
G1 X94.222 Y126.377 E76.27209
G1 X93.505 Y126.310 E76.35850
G1 X90.055 Y125.983 E76.77436
G1 X85.608 Y125.475 E77.31147
G1 X81.188 Y124.875 E77.84673
G1 X80.656 Y124.798 E77.91124
G1 X76.505 Y124.139 E78.41560
G1 X72.125 Y123.351 E78.94964
G1 X67.762 Y122.471 E79.48374
G1 X63.394 Y121.495 E80.02082
G1 X59.056 Y120.429 E80.55687
G1 X58.241 Y120.211 E80.65811
G1 X54.727 Y119.268 E81.09471
G1 X52.562 Y129.027 E82.29426
G1 X49.085 Y128.043 E82.72789
G1 X44.613 Y126.675 E83.28908
G1 X40.164 Y125.213 E83.85104
G1 X37.184 Y124.164 E84.23015
G1 X42.586 Y109.324 E86.12527
G1 X44.660 Y110.055 E86.38915
G1 X45.803 Y106.915 E86.79014
G1 X46.164 Y105.918 E86.91738
G1 X44.091 Y105.189 E87.18108
G1 X47.095 Y96.935 E88.23511
G1 X49.174 Y97.654 E88.49909
G1 X49.927 Y95.587 E88.76308
G0 F12000 X69.350 Y114.619
G1 F1200 X68.575 Y115.565 E88.90983
G1 X69.379 Y117.411 E89.15145
G1 X70.235 Y119.763 E89.45180
G1 X70.701 Y121.351 E89.65039
G1 X72.154 Y121.642 E89.82822
G1 X76.523 Y122.435 E90.36106
G1 X80.892 Y123.132 E90.89197
G1 X83.903 Y123.552 E91.25679
G1 X85.459 Y123.764 E91.44524
G1 X86.924 Y123.936 E91.62224
G1 X88.010 Y124.066 E91.75349
G1 X88.755 Y117.810 E92.50952
G1 X83.496 Y117.127 E93.14590
G1 X79.250 Y116.485 E93.66121
G1 X75.041 Y115.758 E94.17377
G1 X70.805 Y114.934 E94.69162
G1 X69.350 Y114.619 E94.87026
G0 F12000 X69.504 Y115.062
G1 F1200 X69.039 Y115.629 E94.95826
G1 X69.752 Y117.265 E95.17241
G1 X70.611 Y119.626 E95.47390
G1 X71.017 Y121.006 E95.64652
G1 X72.229 Y121.249 E95.79485
G1 X76.590 Y122.040 E96.32671
G1 X80.951 Y122.736 E96.85665
G1 X83.958 Y123.155 E97.22098
G1 X85.509 Y123.367 E97.40883
G1 X86.972 Y123.539 E97.58560
G1 X87.660 Y123.621 E97.66874
G1 X88.311 Y118.155 E98.32930
G1 X83.444 Y117.524 E98.91823
G1 X79.191 Y116.881 E99.43439
G1 X74.964 Y116.150 E99.94916
G1 X70.728 Y115.327 E100.46698
G1 X69.504 Y115.062 E100.61726
G0 F12000 X69.074 Y115.635
G0 X67.674 Y122.861
G1 F1200 X63.300 Y121.883 E101.15510
G1 X58.970 Y120.819 E101.69016
G1 X55.027 Y119.764 E102.17997
G1 X52.861 Y129.527 E103.38001
G1 X48.971 Y128.427 E103.86512
G1 X44.485 Y127.054 E104.42809
G1 X40.049 Y125.596 E104.98842
G1 X36.670 Y124.407 E105.41827
G1 X42.345 Y108.815 E107.40939
G1 X44.420 Y109.546 E107.67339
G1 X45.427 Y106.779 E108.02674
G1 X45.650 Y106.162 E108.10546
G1 X43.576 Y105.432 E108.36931
G1 X46.854 Y96.428 E109.51917
G1 X48.933 Y97.147 E109.78314
G1 X49.685 Y95.080 E110.04709
G1 X52.107 Y95.918 E110.35463
G1 X57.744 Y97.678 E111.06328
G1 X63.595 Y99.308 E111.79213
G1 X69.495 Y100.751 E112.52100
G1 X73.097 Y101.518 E112.96293
G1 X75.654 Y102.052 E113.27639
G1 X81.418 Y103.074 E113.97886
G1 X87.428 Y103.950 E114.70768
G1 X93.463 Y104.635 E115.43653
G1 X98.728 Y105.066 E116.07045
G1 X99.844 Y105.154 E116.20478
G1 X102.714 Y105.294 E116.54959
G1 X108.199 Y105.477 E117.20816
G1 X112.036 Y105.544 E117.66867
G1 X115.520 Y105.489 E118.08680
G1 X121.169 Y105.303 E118.76505
G1 X124.176 Y105.159 E119.12630
G1 X129.900 Y104.704 E119.81535
G1 X130.612 Y104.636 E119.90118
G1 X136.268 Y104.004 E120.58412
G1 X141.900 Y103.195 E121.26690
G1 X142.656 Y103.075 E121.35875
G1 X148.262 Y102.085 E122.04188
G1 X153.992 Y100.886 E122.74437
G1 X159.742 Y99.499 E123.45416
G1 X165.595 Y97.893 E124.18248
G1 X166.331 Y97.677 E124.27453
G1 X171.765 Y95.987 E124.95742
G1 X177.146 Y94.125 E125.64070
G1 X178.812 Y93.499 E125.85427
G1 X179.086 Y94.253 E125.95054
G1 X177.218 Y94.966 E126.19047
G1 X184.182 Y114.100 E128.63390
G1 X186.059 Y113.410 E128.87388
G1 X186.333 Y114.161 E128.96981
G1 X185.021 Y114.643 E129.13754
G1 X182.210 Y115.655 E129.49605
G1 X177.986 Y117.077 E130.03088
G1 X173.977 Y118.333 E130.53502
G1 X173.452 Y118.492 E130.60085
G1 X169.429 Y119.660 E131.10354
G1 X165.371 Y120.747 E131.60767
G1 X164.840 Y120.883 E131.67345
G1 X160.772 Y121.883 E132.17614
G1 X156.398 Y122.861 E132.71398
G1 X152.291 Y123.689 E133.21674
G1 X147.900 Y124.486 E133.75227
G1 X147.354 Y124.577 E133.81869
G1 X143.203 Y125.235 E134.32303
G1 X139.060 Y125.803 E134.82484
G1 X138.510 Y125.872 E134.89136
G1 X134.336 Y126.355 E135.39558
G1 X130.173 Y126.748 E135.89736
G1 X129.448 Y126.807 E135.98465
G1 X125.441 Y127.102 E136.46679
G1 X121.341 Y127.316 E136.95946
G1 X120.304 Y127.373 E137.08409
G1 X120.573 Y128.265 E137.19589
G1 X120.374 Y128.265 E137.21977
G1 X119.139 Y126.915 E137.43933
G1 X118.858 Y125.984 E137.55603
G1 X105.215 Y125.984 E139.19319
G1 X104.934 Y126.913 E139.30966
G1 X103.697 Y128.265 E139.52956
G1 X103.498 Y128.265 E139.55344
G1 X103.768 Y127.371 E139.66550
G1 X98.915 Y127.118 E140.24865
G1 X97.213 Y126.997 E140.45341
G1 X94.179 Y126.775 E140.81846
G1 X90.014 Y126.382 E141.32048
G1 X85.575 Y125.874 E141.85664
G1 X81.134 Y125.271 E142.39445
G1 X80.595 Y125.192 E142.45982
G1 X76.449 Y124.535 E142.96355
G1 X72.043 Y123.742 E143.50076
G1 X67.674 Y122.861 E144.03560
G0 F12000 X67.583 Y123.251
;TYPE:WALL-OUTER
G1 F1200 X63.213 Y122.274 E144.57294
G1 X58.865 Y121.206 E145.11021
G1 X55.327 Y120.258 E145.54975
G1 X53.160 Y130.028 E146.75064
G1 X48.854 Y128.809 E147.28767
G1 X44.368 Y127.437 E147.85060
G1 X39.918 Y125.974 E148.41272
G1 X36.156 Y124.649 E148.89134
G1 X42.104 Y108.307 E150.97824
G1 X44.179 Y109.037 E151.24220
G1 X45.137 Y106.405 E151.57831
G1 X43.062 Y105.675 E151.84227
G1 X46.613 Y95.921 E153.08790
G1 X48.692 Y96.640 E153.35188
G1 X49.445 Y94.573 E153.61586
G1 X52.232 Y95.538 E153.96979
G1 X57.857 Y97.294 E154.67691
G1 X63.696 Y98.921 E155.40428
G1 X69.584 Y100.361 E156.13167
G1 X75.730 Y101.659 E156.88546
G1 X81.482 Y102.679 E157.58647
G1 X87.479 Y103.553 E158.31371
G1 X93.502 Y104.237 E159.04111
G1 X99.869 Y104.755 E159.80768
G1 X102.731 Y104.894 E160.15152
G1 X108.209 Y105.077 E160.80925
G1 X112.036 Y105.144 E161.26856
G1 X115.510 Y105.089 E161.68549
G1 X121.153 Y104.903 E162.36302
G1 X124.151 Y104.760 E162.72319
G1 X129.865 Y104.305 E163.41104
G1 X130.571 Y104.238 E163.49614
G1 X136.217 Y103.607 E164.17788
G1 X141.840 Y102.800 E164.85955
G1 X142.590 Y102.680 E164.95070
G1 X148.186 Y101.692 E165.63260
G1 X153.904 Y100.496 E166.33361
G1 X159.642 Y99.112 E167.04192
G1 X165.486 Y97.508 E167.76913
G1 X166.215 Y97.294 E167.86030
G1 X171.640 Y95.607 E168.54205
G1 X177.010 Y93.749 E169.22394
G1 X179.050 Y92.982 E169.48547
G1 X179.597 Y94.485 E169.67740
G1 X177.729 Y95.199 E169.91738
G1 X184.421 Y113.586 E172.26541
G1 X186.298 Y112.895 E172.50543
G1 X186.845 Y114.398 E172.69736
G1 X185.155 Y115.020 E172.91346
G1 X182.349 Y116.030 E173.27133
G1 X178.101 Y117.460 E173.80919
G1 X174.096 Y118.715 E174.31284
G1 X173.563 Y118.876 E174.37965
G1 X169.528 Y120.048 E174.88386
G1 X165.476 Y121.133 E175.38723
G1 X164.933 Y121.272 E175.45449
G1 X160.859 Y122.274 E175.95794
G1 X156.489 Y123.251 E176.49529
G1 X152.374 Y124.080 E176.99901
G1 X147.964 Y124.880 E177.53685
G1 X147.417 Y124.973 E177.60343
G1 X143.266 Y125.630 E178.10775
G1 X139.108 Y126.200 E178.61138
G1 X138.556 Y126.270 E178.67815
G1 X134.382 Y126.752 E179.18236
G1 X130.203 Y127.147 E179.68607
G1 X129.481 Y127.206 E179.77300
G1 X125.462 Y127.502 E180.25659
G1 X120.834 Y127.744 E180.81270
G1 X121.112 Y128.665 E180.92815
G1 X120.198 Y128.665 E181.03783
G1 X118.782 Y127.118 E181.28949
G1 X118.560 Y126.384 E181.38151
G1 X105.512 Y126.384 E182.94727
G1 X105.291 Y127.116 E183.03903
G1 X103.873 Y128.665 E183.29103
G1 X102.960 Y128.665 E183.40059
G1 X103.238 Y127.744 E183.51604
G1 X98.887 Y127.516 E184.03888
G1 X94.143 Y127.173 E184.60964
G1 X89.969 Y126.779 E185.11275
G1 X85.517 Y126.270 E185.65047
G1 X81.082 Y125.668 E186.18755
G1 X80.530 Y125.587 E186.25450
G1 X76.379 Y124.929 E186.75884
G1 X71.972 Y124.136 E187.29617
G1 X67.583 Y123.251 E187.83345
G0 F12000 X67.651 Y122.959
G0 X71.273 Y120.955
G0 X71.332 Y120.661
G1 F1200 X72.304 Y120.856 E187.95242
G1 X76.657 Y121.646 E188.48331
G1 X81.010 Y122.341 E189.01228
G1 X85.560 Y122.970 E189.56348
G1 X87.310 Y123.176 E189.77493
G1 X87.867 Y118.501 E190.33989
G1 X83.397 Y117.922 E190.88078
G1 X79.131 Y117.276 E191.39853
G1 X74.884 Y116.542 E191.91573
G1 X70.652 Y115.720 E192.43306
G1 X69.659 Y115.505 E192.55498
G1 X69.504 Y115.694 E192.58431
G1 X70.122 Y117.111 E192.76982
G1 X70.990 Y119.497 E193.07450
G1 X71.332 Y120.661 E193.22008
G0 F12000 X70.487 Y121.116
;TYPE:SKIN
G1 F1200 X46.992 Y97.621 E197.20731
G0 F12000 X47.144 Y97.207
G1 F1200 X70.251 Y120.314 E201.12870
G0 F12000 X70.904 Y121.533
G1 F1200 X72.677 Y123.306 E201.42959
G0 F12000 X73.367 Y123.431
G1 F1200 X71.611 Y121.674 E201.72768
G0 F12000 X72.314 Y121.811
G1 F1200 X74.057 Y123.554 E202.02348
G0 F12000 X74.747 Y123.679
G1 F1200 X73.005 Y121.937 E202.31910
G0 F12000 X73.696 Y122.062
G1 F1200 X75.437 Y123.803 E202.61456
G0 F12000 X76.127 Y123.927
G1 F1200 X74.388 Y122.188 E202.90968
G0 F12000 X75.079 Y122.313
G1 F1200 X76.809 Y124.044 E203.20335
G0 F12000 X77.481 Y124.150
G1 F1200 X75.770 Y122.439 E203.49372
G0 F12000 X76.462 Y122.565
G1 F1200 X78.154 Y124.257 E203.78086
G0 F12000 X78.826 Y124.364
G1 F1200 X77.136 Y122.673 E204.06775
G0 F12000 X77.809 Y122.781
G1 F1200 X79.499 Y124.471 E204.35455
G0 F12000 X80.171 Y124.578
G1 F1200 X78.483 Y122.889 E204.64110
G0 F12000 X79.156 Y122.996
G1 F1200 X80.839 Y124.680 E204.92680
G0 F12000 X81.495 Y124.770
G1 F1200 X79.829 Y123.104 E205.20953
G0 F12000 X71.984 Y123.178
G1 F1200 X46.842 Y98.036 E209.47627
G0 F12000 X46.690 Y98.451
G1 F1200 X71.274 Y123.035 E213.64831
G0 F12000 X70.566 Y122.892
G1 F1200 X46.540 Y98.866 E217.72566
G0 F12000 X46.389 Y99.281
G1 F1200 X69.857 Y122.749 E221.70831
G0 F12000 X69.149 Y122.606
G1 F1200 X46.238 Y99.695 E225.59644
G0 F12000 X47.843 Y97.341
G1 F1200 X69.984 Y119.481 E229.35380
G0 F12000 X69.660 Y118.592
G1 F1200 X48.708 Y97.640 E232.90948
G0 F12000 X49.313 Y97.679
G1 F1200 X69.337 Y117.703 E236.30766
G0 F12000 X68.931 Y116.732
G1 F1200 X49.464 Y97.265 E239.61132
G0 F12000 X49.615 Y96.850
G1 F1200 X68.494 Y115.729 E242.81519
G0 F12000 X68.619 Y115.288
G1 F1200 X49.766 Y96.435 E246.01465
G0 F12000 X49.918 Y96.021
G1 F1200 X68.874 Y114.977 E249.23159
G0 F12000 X69.128 Y114.666
