;FLAVOR:UltiGCode
;TIME:5149
;MATERIAL:4750
;MATERIAL2:0
;NOZZLE_DIAMETER:0.400000
;NOZZLE_DIAMETER2:0.400000

;Layer count: 113
;LAYER:0
M107
G0 F12000 X52.867 Y97.436 Z0.300
;TYPE:SKIRT
G1 F1200 X60.813 Y100.212 E1.01003
G1 X65.675 Y101.736 E1.62146
G1 X70.588 Y103.105 E2.23349
G1 X75.492 Y104.306 E2.83936
G1 X80.490 Y105.363 E3.45238
G1 X85.480 Y106.254 E4.06065
G1 X90.481 Y106.984 E4.66713
G1 X95.577 Y107.563 E5.28259
G1 X100.663 Y107.979 E5.89494
G1 X100.663 Y107.978 E5.89506
G1 X100.979 Y108.003 E5.93310
G1 X105.691 Y108.227 E6.49918
G1 X110.819 Y108.319 E7.11464
G1 X110.819 Y108.318 E7.11476
G1 X111.119 Y108.323 E7.15077
G1 X115.890 Y108.248 E7.72336
G1 X116.220 Y108.242 E7.76296
G1 X120.925 Y108.019 E8.32820
G1 X125.978 Y107.628 E8.93637
G1 X131.053 Y107.073 E9.54900
G1 X136.048 Y106.366 E10.15437
G1 X141.083 Y105.489 E10.76767
G1 X146.073 Y104.456 E11.37917
G1 X150.988 Y103.275 E11.98576
G1 X155.877 Y101.935 E12.59407
G1 X160.760 Y100.427 E13.20734
G1 X164.707 Y99.073 E13.70807
G1 X167.957 Y97.941 E14.12105
G1 X169.237 Y101.466 E14.57108
G1 X169.447 Y102.042 E14.64465
G1 X172.267 Y101.013 E15.00487
G1 X173.531 Y104.494 E15.44928
G1 X175.746 Y110.575 E16.22590
G1 X172.911 Y111.555 E16.58585
G1 X173.561 Y113.341 E16.81393
G1 X166.187 Y115.892 E17.75026
G1 X160.840 Y117.555 E18.42222
G1 X155.440 Y119.047 E19.09450
G1 X149.998 Y120.367 E19.76647
G1 X144.517 Y121.515 E20.43846
G1 X139.001 Y122.487 E21.11058
G1 X133.457 Y123.284 E21.78270
G1 X127.891 Y123.905 E22.45477
G1 X122.308 Y124.349 E23.12684
G1 X116.713 Y124.615 E23.79900
G1 X111.114 Y124.703 E24.47096
G1 X105.515 Y124.615 E25.14293
G1 X99.920 Y124.349 E25.81508
G1 X94.337 Y123.905 E26.48716
G1 X88.771 Y123.284 E27.15922
G1 X83.227 Y122.487 E27.83134
G1 X77.711 Y121.515 E28.50346
G1 X72.230 Y120.367 E29.17545
G1 X66.788 Y119.047 E29.84743
G1 X61.388 Y117.555 E30.51971
G1 X56.040 Y115.892 E31.19178
G1 X50.749 Y114.061 E31.86364
G1 X47.256 Y112.730 E32.31220
G1 X48.723 Y108.838 E32.81132
G1 X49.371 Y107.080 E33.03615
G1 X49.354 Y107.074 E33.03832
G1 X51.602 Y100.895 E33.82734
G1 X52.867 Y97.436 E34.26931
G10
G1 Z0.400
G0 F12000 X55.391 Y102.766
;TYPE:WALL-INNER
G1 Z0.300
G11
G1 F1200 X59.507 Y104.204 E34.79251
G1 X64.483 Y105.764 E35.41828
G1 X69.506 Y107.164 E36.04402
G1 X74.571 Y108.404 E36.66977
G1 X79.672 Y109.483 E37.29543
G1 X84.805 Y110.399 E37.92112
G1 X89.963 Y111.153 E38.54666
G1 X95.145 Y111.741 E39.17249
G1 X100.326 Y112.165 E39.79629
G1 X105.550 Y112.425 E40.42394
G1 X111.113 Y112.524 E41.09161
G1 X115.961 Y112.448 E41.67344
G1 X116.327 Y112.442 E41.71737
G1 X121.184 Y112.211 E42.30087
G1 X126.382 Y111.809 E42.92649
G1 X131.566 Y111.242 E43.55228
G1 X136.727 Y110.511 E44.17778
G1 X141.864 Y109.616 E44.80351
G1 X146.970 Y108.560 E45.42919
G1 X152.040 Y107.342 E46.05490
G1 X157.068 Y105.963 E46.68054
G1 X162.050 Y104.425 E47.30622
G1 X165.424 Y103.268 E47.73425
G1 X166.937 Y107.426 E48.26521
G1 X169.755 Y106.400 E48.62509
G1 X170.338 Y108.001 E48.82955
G1 X168.847 Y108.517 E49.01888
G1 X167.504 Y108.983 E49.18947
G1 X168.153 Y110.767 E49.41728
G1 X164.881 Y111.899 E49.83275
G1 X159.653 Y113.525 E50.48975
G1 X154.392 Y114.979 E51.14474
G1 X149.072 Y116.269 E51.80164
G1 X143.722 Y117.390 E52.45758
G1 X138.333 Y118.340 E53.11423
G1 X132.927 Y119.117 E53.76962
G1 X127.490 Y119.723 E54.42610
G1 X122.041 Y120.157 E55.08205
G1 X116.581 Y120.416 E55.73799
G1 X111.114 Y120.503 E56.39411
G1 X105.647 Y120.416 E57.05023
G1 X100.187 Y120.157 E57.70617
G1 X94.738 Y119.723 E58.36212
G1 X89.301 Y119.117 E59.01860
G1 X83.895 Y118.340 E59.67399
G1 X78.506 Y117.390 E60.33064
G1 X73.156 Y116.269 E60.98658
G1 X67.836 Y114.979 E61.64348
G1 X62.575 Y113.525 E62.29847
G1 X57.347 Y111.899 E62.95547
G1 X55.493 Y111.258 E63.19087
G1 X56.995 Y107.129 E63.71812
G1 X57.557 Y105.590 E63.91472
G1 X54.737 Y104.563 E64.27487
G1 X55.391 Y102.766 E64.50434
G0 F12000 X55.150 Y102.258
G1 F1200 X59.633 Y103.825 E65.07422
G1 X64.597 Y105.380 E65.69844
G1 X69.607 Y106.777 E66.32258
G1 X74.660 Y108.014 E66.94684
G1 X79.748 Y109.090 E67.57091
G1 X84.869 Y110.004 E68.19514
G1 X90.015 Y110.756 E68.81922
G1 X95.184 Y111.343 E69.44348
G1 X100.717 Y111.795 E70.10966
G1 X105.563 Y112.025 E70.69183
G1 X111.113 Y112.124 E71.35794
G1 X116.314 Y112.042 E71.98213
G1 X121.159 Y111.812 E72.56419
G1 X126.345 Y111.410 E73.18838
G1 X131.516 Y110.845 E73.81259
G1 X136.665 Y110.116 E74.43663
G1 X141.789 Y109.223 E75.06078
G1 X146.883 Y108.170 E75.68498
G1 X151.940 Y106.954 E76.30912
G1 X156.956 Y105.579 E76.93325
G1 X161.926 Y104.045 E77.55741
G1 X165.665 Y102.762 E78.03177
G1 X167.176 Y106.913 E78.56186
G1 X169.994 Y105.887 E78.92174
G1 X170.854 Y108.246 E79.22304
G1 X168.019 Y109.227 E79.58303
G1 X168.669 Y111.012 E79.81099
G1 X165.005 Y112.280 E80.27626
G1 X159.761 Y113.911 E80.93527
G1 X154.489 Y115.368 E81.59163
G1 X149.159 Y116.660 E82.24975
G1 X143.807 Y117.781 E82.90593
G1 X138.399 Y118.735 E83.56491
G1 X132.967 Y119.515 E84.22343
G1 X127.535 Y120.121 E84.87932
G1 X122.059 Y120.557 E85.53852
G1 X116.603 Y120.816 E86.19397
G1 X111.114 Y120.903 E86.85274
G1 X105.625 Y120.816 E87.51150
G1 X100.169 Y120.557 E88.16696
G1 X94.693 Y120.121 E88.82616
G1 X89.261 Y119.515 E89.48204
G1 X83.829 Y118.735 E90.14057
G1 X78.421 Y117.781 E90.79955
G1 X73.069 Y116.660 E91.45572
G1 X67.739 Y115.368 E92.11385
G1 X62.467 Y113.911 E92.77020
G1 X57.224 Y112.280 E93.42910
G1 X52.148 Y110.524 E94.07364
G1 X52.217 Y110.341 E94.09711
G1 X55.012 Y111.408 E94.45612
G1 X57.043 Y105.828 E95.16869
G1 X54.224 Y104.802 E95.52868
G1 X55.150 Y102.258 E95.85356
G0 F12000 X54.909 Y101.751
;TYPE:WALL-OUTER
G1 F1200 X59.759 Y103.445 E96.47004
G1 X64.710 Y104.997 E97.09266
G1 X69.708 Y106.390 E97.71528
G1 X74.749 Y107.624 E98.33806
G1 X79.825 Y108.697 E98.96064
G1 X84.933 Y109.609 E99.58330
G1 X90.066 Y110.359 E100.20580
G1 X95.223 Y110.945 E100.82862
G1 X100.743 Y111.396 E101.49323
G1 X105.576 Y111.625 E102.07384
G1 X111.114 Y111.724 E102.73850
G1 X116.301 Y111.642 E103.36102
G1 X121.134 Y111.413 E103.94163
G1 X126.308 Y111.012 E104.56437
G1 X131.466 Y110.448 E105.18702
G1 X136.602 Y109.721 E105.80949
G1 X141.714 Y108.830 E106.43217
G1 X146.796 Y107.779 E107.05492
G1 X151.841 Y106.567 E107.67754
G1 X156.844 Y105.195 E108.30007
G1 X161.802 Y103.664 E108.92275
G1 X165.906 Y102.255 E109.44345
G1 X167.415 Y106.400 E109.97278
G1 X170.234 Y105.374 E110.33277
G1 X171.369 Y108.492 E110.73095
G1 X168.534 Y109.472 E111.09090
G1 X169.184 Y111.258 E111.31897
G1 X165.130 Y112.660 E111.83372
G1 X159.885 Y114.291 E112.49285
G1 X154.584 Y115.756 E113.15282
G1 X149.252 Y117.050 E113.81123
G1 X143.868 Y118.176 E114.47129
G1 X138.460 Y119.130 E115.13027
G1 X133.030 Y119.910 E115.78856
G1 X127.565 Y120.520 E116.44843
G1 X122.096 Y120.955 E117.10678
G1 X116.603 Y121.216 E117.76669
G1 X111.114 Y121.303 E118.42545
G1 X105.625 Y121.216 E119.08421
G1 X100.132 Y120.955 E119.74412
G1 X94.663 Y120.520 E120.40247
G1 X89.198 Y119.910 E121.06234
G1 X83.768 Y119.130 E121.72063
G1 X78.360 Y118.176 E122.37961
G1 X72.976 Y117.049 E123.03969
G1 X67.644 Y115.756 E123.69808
G1 X62.343 Y114.291 E124.35804
G1 X57.098 Y112.660 E125.01717
G1 X51.913 Y110.866 E125.67556
G1 X51.632 Y110.759 E125.71164
G1 X51.913 Y110.014 E125.80719
G1 X51.984 Y109.823 E125.83164
G1 X54.775 Y110.889 E126.19016
G1 X56.530 Y106.067 E126.80593
G1 X53.711 Y105.041 E127.16592
G1 X54.909 Y101.751 E127.58608
G0 F12000 X55.007 Y102.102
G0 X55.386 Y103.186
;TYPE:SKIN
G1 F1200 X57.686 Y105.486 E127.97641
G0 F12000 X57.727 Y105.527
G1 F1200 X66.725 Y114.525 E129.50342
G0 F12000 X67.506 Y114.741
G1 F1200 X55.834 Y103.069 E131.48422
G0 F12000 X55.234 Y103.601
G1 F1200 X56.797 Y105.163 E131.74939
G0 F12000 X55.908 Y104.840
G1 F1200 X55.083 Y104.015 E131.88939
G0 F12000 X54.933 Y104.430
G1 F1200 X55.019 Y104.516 E131.90399
G0 F12000 X56.703 Y103.372
G1 F1200 X68.269 Y114.938 E133.86680
G0 F12000 X69.016 Y115.119
G1 F1200 X57.572 Y103.675 E135.80891
G0 F12000 X58.442 Y103.980
G1 F1200 X69.763 Y115.300 E137.73007
G0 F12000 X70.510 Y115.482
G1 F1200 X59.311 Y104.283 E139.63060
G0 F12000 X57.576 Y105.942
G1 F1200 X65.943 Y114.309 E141.05053
G0 F12000 X65.162 Y114.093
G1 F1200 X57.425 Y106.357 E142.36346
G0 F12000 X57.274 Y106.771
G1 F1200 X64.380 Y113.878 E143.56947
G0 F12000 X63.599 Y113.662
G1 F1200 X57.123 Y107.186 E144.66848
G0 F12000 X56.972 Y107.601
G1 F1200 X62.817 Y113.446 E145.66041
G0 F12000 X62.006 Y113.201
G1 F1200 X56.821 Y108.016 E146.54033
G0 F12000 X56.670 Y108.430
G1 F1200 X61.185 Y112.946 E147.30664
G0 F12000 X60.364 Y112.690
G1 F1200 X56.519 Y108.844 E147.95924
G0 F12000 X56.368 Y109.260
G1 F1200 X59.543 Y112.434 E148.49797
G0 F12000 X58.722 Y112.179
G1 F1200 X56.217 Y109.674 E148.92309
G0 F12000 X56.066 Y110.089
G1 F1200 X57.901 Y111.924 E149.23450
G0 F12000 X57.064 Y111.652
G1 F1200 X55.915 Y110.503 E149.42949
G0 F12000 X55.764 Y110.918
G1 F1200 X56.199 Y111.353 E149.50331
G0 F12000 X60.144 Y104.550
G1 F1200 X71.257 Y115.663 E151.38925
G0 F12000 X72.003 Y115.844
G1 F1200 X60.968 Y104.808 E153.26204
G0 F12000 X61.791 Y105.066
G1 F1200 X72.750 Y116.025 E155.12184
G0 F12000 X73.483 Y116.193
G1 F1200 X62.615 Y105.324 E156.96628
G0 F12000 X63.439 Y105.583
G1 F1200 X74.199 Y116.343 E158.79232
G0 F12000 X74.915 Y116.493
G1 F1200 X64.263 Y105.841 E160.60002
G0 F12000 X65.056 Y106.068
G1 F1200 X75.630 Y116.642 E162.39449
G0 F12000 X76.346 Y116.792
G1 F1200 X65.840 Y106.287 E164.17733
G0 F12000 X66.625 Y106.505
G1 F1200 X77.061 Y116.942 E165.94846
G0 F12000 X77.777 Y117.092
G1 F1200 X67.409 Y106.725 E167.70789
G0 F12000 X68.194 Y106.943
G1 F1200 X78.493 Y117.242 E169.45569
G0 F12000 X79.181 Y117.365
G1 F1200 X68.978 Y107.162 E171.18719
G0 F12000 X69.749 Y107.367
G1 F1200 X79.868 Y117.486 E172.90444
G0 F12000 X80.555 Y117.607
G1 F1200 X70.498 Y107.550 E174.61117
G0 F12000 X71.247 Y107.734
G1 F1200 X81.242 Y117.729 E176.30738
G0 F12000 X81.928 Y117.849
G1 F1200 X71.996 Y107.917 E177.99290
G0 F12000 X72.745 Y108.101
G1 F1200 X82.615 Y117.970 E179.66781
G0 F12000 X83.302 Y118.091
G1 F1200 X73.494 Y108.284 E181.33219
G0 F12000 X74.243 Y108.467
G1 F1200 X83.986 Y118.210 E182.98564
G0 F12000 X84.647 Y118.305
G1 F1200 X74.973 Y108.631 E184.62737
G0 F12000 X75.690 Y108.783
G1 F1200 X85.308 Y118.400 E186.25951
G0 F12000 X85.968 Y118.495
G1 F1200 X76.407 Y108.934 E187.88207
G0 F12000 X77.125 Y109.086
G1 F1200 X86.629 Y118.590 E189.49495
G0 F12000 X87.290 Y118.685
G1 F1200 X77.842 Y109.238 E191.09824
G0 F12000 X78.560 Y109.390
G1 F1200 X87.950 Y118.780 E192.69178
G0 F12000 X88.611 Y118.875
G1 F1200 X79.277 Y109.541 E194.27581
G0 F12000 X79.980 Y109.679
G1 F1200 X89.272 Y118.970 E195.85263
G0 F12000 X89.910 Y119.042
G1 F1200 X80.669 Y109.802 E197.42080
G0 F12000 X81.358 Y109.925
G1 F1200 X90.547 Y119.114 E198.98022
G0 F12000 X91.183 Y119.184
G1 F1200 X82.046 Y110.047 E200.53082
G0 F12000 X82.735 Y110.170
G1 F1200 X91.819 Y119.255 E202.07251
G0 F12000 X92.457 Y119.327
G1 F1200 X83.423 Y110.293 E203.60563
G0 F12000 X84.112 Y110.416
G1 F1200 X93.093 Y119.397 E205.12976
G0 F12000 X93.729 Y119.468
G1 F1200 X84.800 Y110.539 E206.64506
G0 F12000 X85.463 Y110.636
G1 F1200 X94.366 Y119.539 E208.15595
G0 F12000 X94.994 Y119.602
G1 F1200 X86.125 Y110.732 E209.66116
G0 F12000 X86.788 Y110.829
G1 F1200 X95.609 Y119.650 E211.15813
G0 F12000 X96.223 Y119.699
G1 F1200 X87.450 Y110.926 E212.64696
G0 F12000 X88.113 Y111.024
G1 F1200 X96.838 Y119.749 E214.12764
G0 F12000 X97.453 Y119.798
G1 F1200 X88.776 Y111.121 E215.60017
G0 F12000 X89.439 Y111.217
G1 F1200 X98.067 Y119.846 E217.06448
G0 F12000 X98.682 Y119.895
G1 F1200 X90.094 Y111.307 E218.52191
G0 F12000 X90.732 Y111.379
G1 F1200 X99.297 Y119.945 E219.97552
G0 F12000 X99.912 Y119.993
G1 F1200 X91.370 Y111.452 E221.42506
G0 F12000 X92.008 Y111.524
G1 F1200 X100.515 Y120.031 E222.86875
G0 F12000 X101.109 Y120.059
G1 F1200 X92.646 Y111.597 E224.30488
G0 F12000 X93.285 Y111.669
G1 F1200 X101.703 Y120.087 E225.73347
G0 F12000 X102.297 Y120.116
G1 F1200 X93.922 Y111.741 E227.15475
G0 F12000 X94.561 Y111.814
G1 F1200 X102.890 Y120.143 E228.56823
G0 F12000 X103.484 Y120.172
G1 F1200 X95.197 Y111.884 E229.97466
G0 F12000 X95.812 Y111.935
G1 F1200 X104.078 Y120.200 E231.37737
G0 F12000 X104.672 Y120.228
G1 F1200 X96.429 Y111.985 E232.77625
G0 F12000 X97.046 Y112.036
G1 F1200 X105.266 Y120.256 E234.17123
G0 F12000 X105.853 Y120.278
G1 F1200 X97.662 Y112.087 E235.56129
G0 F12000 X98.278 Y112.137
G1 F1200 X106.428 Y120.287 E236.94439
G0 F12000 X107.002 Y120.296
G1 F1200 X98.894 Y112.188 E238.32036
G0 F12000 X99.511 Y112.239
G1 F1200 X107.577 Y120.305 E239.68921
G0 F12000 X108.152 Y120.314
G1 F1200 X100.127 Y112.289 E241.05110
G0 F12000 X100.728 Y112.325
G1 F1200 X108.727 Y120.324 E242.40857
G0 F12000 X109.302 Y120.333
G1 F1200 X101.324 Y112.355 E243.76248
G0 F12000 X101.919 Y112.384
G1 F1200 X109.877 Y120.342 E245.11300
G0 F12000 X110.452 Y120.351
G1 F1200 X102.514 Y112.414 E246.46004
G0 F12000 X103.109 Y112.443
G1 F1200 X111.027 Y120.360 E247.80368
G0 F12000 X111.586 Y120.354
G1 F1200 X103.704 Y112.473 E249.14122
G0 F12000 X104.300 Y112.502
G1 F1200 X112.142 Y120.345 E250.47213
G0 F12000 X112.700 Y120.336
G1 F1200 X104.895 Y112.532 E251.79660
G0 F12000 X105.491 Y112.562
G1 F1200 X113.256 Y120.327 E253.11437
G0 F12000 X113.813 Y120.319
G1 F1200 X106.068 Y112.574 E254.42874
G0 F12000 X106.644 Y112.584
G1 F1200 X114.370 Y120.309 E255.73980
G0 F12000 X114.927 Y120.301
G1 F1200 X107.220 Y112.594 E257.04772
G0 F12000 X107.796 Y112.604
G1 F1200 X115.483 Y120.292 E258.35233
G0 F12000 X116.041 Y120.283
G1 F1200 X108.372 Y112.615 E259.65372
G0 F12000 X108.948 Y112.625
G1 F1200 X116.596 Y120.273 E260.95163
G0 F12000 X117.137 Y120.248
G1 F1200 X109.524 Y112.635 E262.24360
G0 F12000 X110.100 Y112.645
G1 F1200 X117.677 Y120.223 E263.52954
G0 F12000 X118.217 Y120.197
G1 F1200 X110.675 Y112.655 E264.80946
G0 F12000 X111.247 Y112.661
G1 F1200 X118.757 Y120.172 E266.08403
G0 F12000 X119.297 Y120.145
G1 F1200 X111.804 Y112.652 E267.35564
G0 F12000 X112.361 Y112.644
G1 F1200 X119.837 Y120.120 E268.62436
G0 F12000 X120.377 Y120.095
G1 F1200 X112.918 Y112.635 E269.89028
G0 F12000 X113.475 Y112.626
G1 F1200 X120.918 Y120.069 E271.15340
G0 F12000 X121.458 Y120.044
G1 F1200 X114.032 Y112.618 E272.41363
G0 F12000 X114.589 Y112.609
G1 F1200 X121.998 Y120.018 E273.67098
G0 F12000 X122.523 Y119.977
G1 F1200 X115.146 Y112.601 E274.92281
G0 F12000 X115.703 Y112.591
G1 F1200 X123.047 Y119.935 E276.16913
G0 F12000 X123.571 Y119.894
G1 F1200 X116.260 Y112.583 E277.40985
G0 F12000 X116.802 Y112.560
G1 F1200 X124.095 Y119.852 E278.64743
G0 F12000 X124.619 Y119.810
G1 F1200 X117.342 Y112.534 E279.88229
G0 F12000 X117.882 Y112.508
G1 F1200 X125.143 Y119.769 E281.11452
G0 F12000 X125.667 Y119.727
G1 F1200 X118.422 Y112.483 E282.34395
G0 F12000 X118.962 Y112.457
G1 F1200 X126.190 Y119.685 E283.57059
G0 F12000 X126.714 Y119.643
G1 F1200 X119.503 Y112.432 E284.79433
G0 F12000 X120.042 Y112.405
G1 F1200 X127.238 Y119.602 E286.01562
G0 F12000 X127.754 Y119.551
G1 F1200 X120.582 Y112.380 E287.23266
G0 F12000 X121.123 Y112.355
G1 F1200 X128.263 Y119.495 E288.44436
G0 F12000 X128.772 Y119.438
G1 F1200 X121.649 Y112.316 E289.65309
G0 F12000 X122.175 Y112.275
G1 F1200 X129.281 Y119.382 E290.85910
G0 F12000 X129.790 Y119.324
G1 F1200 X122.699 Y112.234 E292.06240
G0 F12000 X123.225 Y112.194
G1 F1200 X130.299 Y119.268 E293.26290
G0 F12000 X130.808 Y119.211
G1 F1200 X123.750 Y112.153 E294.46068
G0 F12000 X124.275 Y112.113
G1 F1200 X131.317 Y119.155 E295.65575
G0 F12000 X131.826 Y119.098
G1 F1200 X124.800 Y112.072 E296.84810
