;FLAVOR:UltiGCode
;TIME:9753
;MATERIAL:5720
;MATERIAL2:0
;NOZZLE_DIAMETER:0.400000
;NOZZLE_DIAMETER2:0.400000

;Layer count: 63
;LAYER:0
M106 S255
G0 F12000 X44.513 Y89.770 Z0.300
;TYPE:SKIRT
G1 F1200 X49.035 Y91.328 E0.57394
G1 X53.160 Y92.750 E1.09753
G1 X58.844 Y94.510 E1.81156
G1 X60.381 Y94.933 E2.00286
G1 X64.581 Y96.089 E2.52560
G1 X68.842 Y97.116 E3.05156
G1 X70.396 Y97.491 E3.24340
G1 X76.210 Y98.700 E3.95600
G1 X82.080 Y99.728 E4.67112
G1 X83.643 Y99.950 E4.86056
G1 X87.966 Y100.566 E5.38456
G1 X92.312 Y101.045 E5.90924
G1 X93.907 Y101.221 E6.10180
G1 X99.680 Y101.672 E6.79667
G1 X101.963 Y101.783 E7.07096
G1 X102.738 Y101.820 E7.16406
G1 X108.302 Y101.996 E7.83208
G1 X111.196 Y102.037 E8.17939
G1 X111.726 Y102.045 E8.24300
G1 X112.249 Y102.037 E8.30577
G1 X114.781 Y101.994 E8.60965
G1 X114.781 Y101.995 E8.60977
G1 X116.607 Y101.938 E8.82900
G1 X120.716 Y101.796 E9.32237
G1 X121.486 Y101.759 E9.41488
G1 X123.606 Y101.655 E9.66958
G1 X125.199 Y101.527 E9.86136
G1 X129.565 Y101.173 E10.38700
G1 X135.471 Y100.507 E11.10021
G1 X141.354 Y99.654 E11.81355
G1 X147.225 Y98.611 E12.52910
G1 X148.775 Y98.285 E12.71917
G1 X148.775 Y98.286 E12.71929
G1 X153.036 Y97.389 E13.24182
G1 X157.294 Y96.350 E13.76777
G1 X158.846 Y95.971 E13.95949
G1 X164.552 Y94.385 E14.67016
G1 X170.263 Y92.602 E15.38811
G1 X178.428 Y89.764 E16.42541
G1 X179.776 Y93.454 E16.89683
G1 X179.964 Y93.968 E16.96250
G1 X182.314 Y100.397 E17.78391
G1 X173.800 Y103.356 E18.86553
G1 X167.773 Y105.239 E19.62325
G1 X166.108 Y105.701 E19.83060
G1 X161.691 Y106.928 E20.38071
G1 X157.238 Y108.013 E20.93070
G1 X155.558 Y108.423 E21.13822
G1 X149.381 Y109.724 E21.89572
G1 X144.867 Y110.525 E22.44586
G1 X144.867 Y110.524 E22.44598
G1 X143.166 Y110.827 E22.65332
G1 X137.437 Y111.659 E23.34801
G1 X140.670 Y112.597 E23.75197
G1 X144.603 Y114.273 E24.26499
G1 X148.651 Y116.708 E24.83186
G1 X150.641 Y116.354 E25.07441
G1 X152.369 Y115.991 E25.28630
G1 X152.369 Y115.992 E25.28642
G1 X157.040 Y115.009 E25.85922
G1 X163.399 Y113.457 E26.64470
G1 X169.665 Y111.716 E27.42510
G1 X175.923 Y109.761 E28.21185
G1 X184.630 Y106.736 E29.31795
G1 X186.318 Y111.357 E29.90831
G1 X187.663 Y115.030 E30.37769
G1 X179.255 Y117.951 E31.44581
G1 X178.679 Y118.152 E31.51901
G1 X178.051 Y118.347 E31.59792
G1 X178.051 Y118.346 E31.59804
G1 X172.181 Y120.181 E32.33606
G1 X171.550 Y120.356 E32.41464
G1 X165.624 Y122.003 E33.15271
G1 X160.664 Y123.212 E33.76534
G1 X161.794 Y125.714 E34.09478
G1 X156.910 Y126.813 E34.69551
G1 X152.752 Y127.658 E35.20467
G1 X150.367 Y128.096 E35.49566
G1 X147.976 Y128.530 E35.78727
G1 X143.783 Y129.199 E36.29679
G1 X139.281 Y129.827 E36.84226
G1 X134.764 Y130.362 E37.38809
G1 X130.237 Y130.802 E37.93389
G1 X125.705 Y131.147 E38.47930
G1 X125.058 Y131.184 E38.55707
G1 X125.411 Y132.352 E38.70349
G1 X120.067 Y132.357 E39.34477
G1 X118.429 Y132.364 E39.54133
G1 X116.274 Y130.014 E39.92395
G1 X115.471 Y129.140 E40.06638
G1 X115.394 Y128.884 E40.09846
G1 X111.757 Y128.946 E40.53496
G1 X110.085 Y128.923 E40.73562
G1 X108.118 Y128.894 E40.97169
G1 X108.042 Y129.148 E41.00350
G1 X105.095 Y132.377 E41.52810
G1 X102.648 Y132.379 E41.82174
G1 X98.109 Y132.399 E42.36642
G1 X98.461 Y131.223 E42.51373
G1 X98.230 Y131.211 E42.54149
G1 X93.586 Y130.877 E43.10021
G1 X89.056 Y130.455 E43.64616
G1 X84.537 Y129.938 E44.19198
G1 X80.030 Y129.326 E44.73778
G1 X75.535 Y128.621 E45.28378
G1 X73.147 Y128.194 E45.57488
G1 X71.057 Y127.821 E45.82964
G1 X66.598 Y126.927 E46.37537
G1 X61.719 Y125.845 E46.97508
G1 X62.836 Y123.336 E47.30465
G1 X57.871 Y122.139 E47.91752
G1 X51.308 Y120.333 E48.73435
G1 X45.430 Y118.514 E49.47271
G1 X44.804 Y118.320 E49.55136
G1 X35.346 Y115.059 E50.75188
G1 X36.675 Y111.387 E51.22050
G1 X38.354 Y106.757 E51.81150
G1 X47.533 Y109.921 E52.97658
G1 X52.125 Y111.341 E53.55337
G1 X53.805 Y111.862 E53.76444
G1 X60.065 Y113.585 E54.54357
G1 X61.768 Y113.995 E54.75377
G1 X66.437 Y115.121 E55.33012
G1 X72.817 Y116.448 E56.11210
G1 X75.561 Y116.928 E56.44638
G1 X79.114 Y114.794 E56.94373
G1 X80.275 Y114.295 E57.09538
G1 X81.042 Y113.965 E57.19557
G1 X80.880 Y113.430 E57.26265
G1 X80.881 Y113.430 E57.26277
G1 X80.317 Y111.573 E57.49566
G1 X80.402 Y110.921 E57.57457
G1 X80.301 Y110.907 E57.58680
G1 X74.083 Y109.818 E58.34432
G1 X67.902 Y108.534 E59.10187
G1 X61.766 Y107.054 E59.85931
G1 X60.100 Y106.596 E60.06665
G1 X55.679 Y105.379 E60.61690
G1 X49.649 Y103.513 E61.37436
G1 X40.654 Y100.413 E62.51606
G1 X44.513 Y89.770 E63.87458
G10
G1 Z0.400
G0 F12000 X47.052 Y95.088
;TYPE:WALL-INNER
G1 Z0.300
G11
G1 F1200 X51.862 Y96.745 E64.48507
G1 X57.677 Y98.545 E65.21554
G1 X63.545 Y100.159 E65.94585
G1 X69.462 Y101.587 E66.67627
G1 X75.422 Y102.826 E67.40676
G1 X81.417 Y103.876 E68.13711
G1 X87.443 Y104.734 E68.86753
G1 X93.493 Y105.402 E69.59794
G1 X99.414 Y105.864 E70.31062
G1 X101.760 Y105.978 E70.59247
G1 X101.973 Y105.988 E70.61806
G1 X99.860 Y109.910 E71.15266
G1 X99.217 Y112.053 E71.42114
G1 X104.307 Y112.046 E72.03194
G1 X106.081 Y106.127 E72.77344
G1 X108.234 Y106.196 E73.03193
G1 X111.132 Y106.237 E73.37973
G1 X111.726 Y106.246 E73.45101
G1 X112.319 Y106.237 E73.52218
G1 X114.859 Y106.194 E73.82703
G1 X116.750 Y106.135 E74.05406
G1 X117.374 Y106.114 E74.12898
G1 X118.912 Y111.198 E74.76636
G1 X119.201 Y112.144 E74.88506
G1 X120.045 Y112.143 E74.98634
G1 X120.057 Y122.543 E76.23434
G1 X123.248 Y122.540 E76.61726
G1 X125.057 Y122.536 E76.83435
G1 X125.045 Y112.137 E78.08223
G1 X124.288 Y112.138 E78.17307
G1 X123.605 Y109.881 E78.45604
G1 X121.481 Y105.964 E78.99073
G1 X123.892 Y105.846 E79.28040
G1 X129.959 Y105.356 E80.01081
G1 X136.008 Y104.673 E80.74130
G1 X142.032 Y103.799 E81.47175
G1 X148.024 Y102.735 E82.20204
G1 X153.980 Y101.481 E82.93243
G1 X159.894 Y100.039 E83.66290
G1 X165.759 Y98.409 E84.39338
G1 X171.569 Y96.595 E85.12377
G1 X175.901 Y95.089 E85.67412
G1 X176.904 Y97.831 E86.02449
G1 X172.469 Y99.372 E86.58790
G1 X166.601 Y101.205 E87.32561
G1 X160.637 Y102.861 E88.06837
G1 X154.626 Y104.327 E88.81083
G1 X148.581 Y105.600 E89.55214
G1 X142.496 Y106.680 E90.29375
G1 X136.377 Y107.568 E91.03573
G1 X128.715 Y108.433 E91.96101
G1 X132.186 Y114.507 E92.80050
G1 X139.254 Y116.559 E93.68369
G1 X142.686 Y118.022 E94.13138
G1 X146.486 Y120.307 E94.66348
G1 X147.115 Y121.247 E94.79920
G1 X151.466 Y120.473 E95.32952
G1 X157.984 Y119.101 E96.12882
G1 X164.454 Y117.523 E96.92797
G1 X170.872 Y115.739 E97.72734
G1 X177.229 Y113.754 E98.52650
G1 X182.104 Y112.061 E99.14577
G1 X182.251 Y112.464 E99.19725
G1 X177.359 Y114.164 E99.81873
G1 X176.804 Y114.336 E99.88845
G1 X171.009 Y116.147 E100.61702
G1 X164.569 Y117.936 E101.41908
G1 X158.650 Y119.380 E102.15019
G1 X158.095 Y119.516 E102.21876
G1 X151.543 Y120.896 E103.02225
G1 X150.942 Y121.002 E103.09549
G1 X146.927 Y121.716 E103.58485
G1 X146.287 Y121.830 E103.66285
G1 X145.152 Y122.028 E103.80111
G1 X145.340 Y123.880 E104.02449
G1 X150.969 Y123.715 E104.70026
G1 X149.611 Y123.964 E104.86594
G1 X147.260 Y124.391 E105.15268
G1 X143.162 Y125.045 E105.65066
G1 X138.754 Y125.660 E106.18474
G1 X134.301 Y126.187 E106.72283
G1 X129.885 Y126.617 E107.25526
G1 X125.416 Y126.957 E107.79309
G1 X124.291 Y127.022 E107.92831
G1 X123.632 Y125.254 E108.15473
G1 X123.308 Y124.393 E108.26512
G1 X121.874 Y124.462 E108.43740
G1 X118.687 Y124.619 E108.82031
G1 X119.245 Y126.472 E109.05253
G1 X119.501 Y127.318 E109.15860
G1 X119.213 Y127.004 E109.20973
G1 X118.496 Y124.630 E109.50731
G1 X111.749 Y124.746 E110.31707
G1 X105.005 Y124.647 E111.12644
G1 X104.382 Y126.735 E111.38792
G1 X104.294 Y127.023 E111.42405
G1 X104.007 Y127.338 E111.47519
G1 X104.260 Y126.493 E111.58104
G1 X104.818 Y124.635 E111.81384
G1 X102.832 Y124.545 E112.05240
G1 X100.190 Y124.421 E112.36979
G1 X99.215 Y127.056 E112.70694
G1 X98.477 Y127.018 E112.79562
G1 X93.942 Y126.693 E113.34121
G1 X89.498 Y126.278 E113.87682
G1 X85.048 Y125.769 E114.41430
G1 X80.635 Y125.170 E114.94871
G1 X76.220 Y124.477 E115.48500
G1 X72.492 Y123.811 E115.93944
G1 X76.514 Y123.920 E116.42226
G1 X78.158 Y123.966 E116.61962
G1 X78.344 Y122.115 E116.84286
G1 X71.933 Y120.993 E117.62387
G1 X71.369 Y120.876 E117.69299
G1 X65.401 Y119.634 E118.42449
G1 X58.929 Y118.074 E119.22338
G1 X52.480 Y116.299 E120.02603
G1 X46.106 Y114.326 E120.82672
G1 X40.747 Y112.479 E121.50692
G1 X40.894 Y112.074 E121.55862
G1 X46.245 Y113.919 E122.23784
G1 X52.607 Y115.888 E123.03701
G1 X59.029 Y117.655 E123.83629
G1 X65.503 Y119.217 E124.63546
G1 X72.024 Y120.573 E125.43472
G1 X76.887 Y121.424 E126.02715
G1 X77.354 Y120.750 E126.12555
G1 X81.030 Y118.543 E126.64006
G1 X84.484 Y117.057 E127.09127
G1 X86.212 Y116.550 E127.30737
G1 X84.703 Y111.563 E127.93261
G1 X92.599 Y112.253 E128.88374
G1 X94.747 Y108.475 E129.40525
G1 X87.078 Y107.630 E130.33110
G1 X80.957 Y106.758 E131.07304
G1 X74.870 Y105.692 E131.81460
G1 X68.820 Y104.435 E132.55610
G1 X62.815 Y102.987 E133.29735
G1 X56.859 Y101.348 E134.03864
G1 X50.949 Y99.519 E134.78103
G1 X46.057 Y97.833 E135.40195
G1 X47.052 Y95.088 E135.75233
G0 F12000 X93.952 Y108.882
G0 X98.426 Y112.171
G1 F1200 X98.438 Y122.570 E137.00021
G1 X103.438 Y122.564 E137.60021
G1 X103.426 Y112.164 E138.84821
G1 X100.235 Y112.167 E139.23113
G1 X98.426 Y112.171 E139.44821
G0 F12000 X102.968 Y112.624
G0 X108.187 Y114.015
G1 F1200 X111.737 Y114.257 E139.87520
G1 X113.772 Y114.113 E140.12001
G1 X115.285 Y114.005 E140.30203
G1 X113.946 Y109.573 E140.85761
G1 X110.655 Y109.577 E141.25253
G1 X109.517 Y109.580 E141.38909
G1 X108.650 Y112.476 E141.75185
G1 X108.187 Y114.015 E141.94471
G0 F12000 X108.716 Y113.651
G1 F1200 X111.737 Y113.856 E142.30806
G1 X114.758 Y113.643 E142.67148
G1 X113.649 Y109.973 E143.13155
G1 X109.815 Y109.979 E143.59163
G1 X108.716 Y113.651 E144.05158
G0 F12000 X104.009 Y111.646
G1 F1200 X105.786 Y105.718 E144.79422
G1 X108.243 Y105.796 E145.08920
G1 X111.726 Y105.846 E145.50721
G1 X114.849 Y105.794 E145.88202
G1 X116.737 Y105.736 E146.10869
G1 X117.667 Y105.704 E146.22035
G1 X119.295 Y111.081 E146.89452
G1 X119.497 Y111.743 E146.97758
G1 X123.749 Y111.739 E147.48782
G1 X123.234 Y110.036 E147.70132
G1 X120.827 Y105.595 E148.30748
G1 X123.867 Y105.447 E148.67271
G1 X129.921 Y104.957 E149.40156
G1 X135.957 Y104.276 E150.13048
G1 X141.969 Y103.404 E150.85947
G1 X147.948 Y102.342 E151.58818
G1 X153.892 Y101.091 E152.31709
G1 X159.793 Y99.652 E153.04596
G1 X165.646 Y98.026 E153.77492
G1 X171.444 Y96.215 E154.50383
G1 X176.142 Y94.582 E155.10067
G1 X177.419 Y98.075 E155.54697
G1 X172.611 Y99.746 E156.15778
G1 X166.689 Y101.596 E156.90229
G1 X160.742 Y103.248 E157.64295
G1 X154.713 Y104.717 E158.38759
G1 X148.667 Y105.991 E159.12905
G1 X142.558 Y107.076 E159.87360
G1 X136.423 Y107.966 E160.61751
G1 X129.364 Y108.762 E161.46995
G1 X132.453 Y114.168 E162.21711
G1 X139.389 Y116.181 E163.08377
G1 X142.872 Y117.666 E163.53814
G1 X146.767 Y120.009 E164.08359
G1 X147.302 Y120.807 E164.19888
G1 X151.390 Y120.080 E164.69713
G1 X157.896 Y118.711 E165.49495
G1 X164.353 Y117.136 E166.29251
G1 X170.759 Y115.356 E167.09035
G1 X177.104 Y113.374 E167.88803
G1 X182.344 Y111.554 E168.55368
G1 X182.766 Y112.708 E168.70113
G1 X177.482 Y114.544 E169.37240
G1 X171.098 Y116.538 E170.17498
G1 X164.674 Y118.323 E170.97506
G1 X158.159 Y119.912 E171.77978
G1 X151.635 Y121.286 E172.57983
G1 X146.997 Y122.109 E173.14509
G1 X146.353 Y122.224 E173.22359
G1 X145.588 Y122.358 E173.31679
G1 X145.700 Y123.469 E173.45078
G1 X155.741 Y123.173 E174.65623
G1 X152.024 Y123.928 E175.11138
G1 X149.684 Y124.358 E175.39688
G1 X147.335 Y124.784 E175.68336
G1 X143.227 Y125.440 E176.18256
G1 X138.801 Y126.057 E176.71882
G1 X134.350 Y126.584 E177.25667
G1 X129.907 Y127.017 E177.79235
G1 X125.458 Y127.355 E178.32777
G1 X124.020 Y127.438 E178.50062
G1 X123.258 Y125.395 E178.76228
G1 X123.037 Y124.807 E178.83766
G1 X119.217 Y124.993 E179.29660
G1 X120.293 Y128.557 E179.74335
G1 X120.093 Y128.557 E179.76735
G1 X118.857 Y127.209 E179.98681
G1 X118.200 Y125.035 E180.25934
G1 X111.751 Y125.146 E181.03334
G1 X105.302 Y125.052 E181.80730
G1 X104.651 Y127.227 E182.07974
G1 X103.418 Y128.578 E182.29923
G1 X103.218 Y128.578 E182.32323
G1 X104.286 Y125.011 E182.77004
G1 X102.813 Y124.945 E182.94698
G1 X100.464 Y124.834 E183.22918
G1 X99.488 Y127.471 E183.56659
G1 X98.457 Y127.418 E183.69048
G1 X93.902 Y127.091 E184.23848
G1 X89.454 Y126.676 E184.77456
G1 X85.015 Y126.168 E185.31072
G1 X80.574 Y125.565 E185.84853
G1 X76.173 Y124.874 E186.38312
G1 X71.759 Y124.086 E186.92117
G1 X67.753 Y123.283 E187.41146
G1 X77.797 Y123.555 E188.61718
G1 X77.909 Y122.445 E188.75105
G1 X71.876 Y121.389 E189.48602
G1 X65.311 Y120.024 E190.29067
G1 X58.818 Y118.459 E191.09214
G1 X52.382 Y116.688 E191.89317
G1 X45.993 Y114.710 E192.69575
G1 X40.233 Y112.724 E193.42688
G1 X40.652 Y111.567 E193.57455
G1 X46.370 Y113.538 E194.30033
G1 X52.720 Y115.504 E195.09801
G1 X59.129 Y117.268 E195.89569
G1 X65.591 Y118.827 E196.69338
G1 X72.099 Y120.180 E197.49104
G1 X76.704 Y120.986 E198.05204
G1 X77.074 Y120.452 E198.13000
G1 X80.850 Y118.184 E198.65857
G1 X84.344 Y116.681 E199.11500
G1 X85.713 Y116.280 E199.28618
G1 X84.190 Y111.252 E199.91661
G1 X84.208 Y111.118 E199.93284
G1 X92.378 Y111.832 E200.91697
G1 X94.098 Y108.806 E201.33465
G1 X87.035 Y108.028 E202.18734
G1 X80.897 Y107.153 E202.93135
G1 X74.787 Y106.084 E203.67568
G1 X68.742 Y104.828 E204.41658
G1 X62.724 Y103.376 E205.15946
G1 X56.736 Y101.728 E205.90474
G1 X50.826 Y99.900 E206.64709
G1 X45.543 Y98.079 E207.31765
G1 X46.811 Y94.580 E207.76425
G1 X51.987 Y96.364 E208.42123
G1 X57.789 Y98.161 E209.15010
G1 X63.645 Y99.772 E209.87892
G1 X69.550 Y101.197 E210.60787
G1 X75.497 Y102.433 E211.33676
G1 X81.480 Y103.481 E212.06565
G1 X87.493 Y104.337 E212.79448
G1 X93.531 Y105.003 E213.52344
G1 X99.439 Y105.465 E214.23456
G1 X102.593 Y105.617 E214.61348
G1 X102.626 Y105.618 E214.61744
G1 X100.232 Y110.064 E215.22339
G1 X99.755 Y111.652 E215.42236
G1 X104.009 Y111.646 E215.93284
G0 F12000 X103.026 Y112.564
G1 F1200 X98.826 Y112.570 E216.43684
G1 X98.838 Y122.170 E217.58884
G1 X103.038 Y122.164 E218.09284
G1 X103.026 Y112.564 E219.24484
G0 F12000 X109.845 Y110.018
G0 X113.620 Y110.014
G0 X120.445 Y112.543
G1 F1200 X120.457 Y122.143 E220.39685
G1 X124.657 Y122.137 E220.90085
G1 X124.645 Y112.537 E222.05285
G1 X120.445 Y112.543 E222.55685
G0 F12000 X120.846 Y112.942
;TYPE:WALL-OUTER
G1 F1200 X120.856 Y121.742 E223.61285
G1 X124.256 Y121.738 E224.02085
G1 X124.246 Y112.938 E225.07685
G1 X120.846 Y112.942 E225.48485
G0 F12000 X120.546 Y112.942
G0 X119.793 Y111.643
G0 X119.793 Y111.343
G1 F1200 X123.210 Y111.340 E225.89489
G1 X122.863 Y110.191 E226.03892
G1 X120.505 Y105.841 E226.63268
G1 X118.128 Y105.844 E226.91792
G1 X119.793 Y111.343 E227.60738
G0 F12000 X119.793 Y111.643
G0 X114.517 Y113.194
G0 X114.230 Y113.279
G1 F1200 X113.352 Y110.374 E227.97156
G1 X110.113 Y110.378 E228.36024
G1 X109.243 Y113.286 E228.72448
G1 X111.736 Y113.455 E229.02433
G1 X114.230 Y113.279 E229.32435
G0 F12000 X114.517 Y113.194
G0 X114.857 Y105.694
G0 X114.840 Y105.394
G1 F1200 X120.843 Y105.194 E230.04511
G1 X123.841 Y105.048 E230.40530
G1 X129.882 Y104.559 E231.13259
G1 X135.906 Y103.879 E231.86006
G1 X141.905 Y103.009 E232.58747
G1 X147.872 Y101.949 E233.31472
G1 X153.803 Y100.701 E234.04203
G1 X159.692 Y99.265 E234.76941
G1 X165.533 Y97.642 E235.49689
G1 X171.319 Y95.835 E236.22428
G1 X176.383 Y94.075 E236.86762
G1 X177.934 Y98.320 E237.40995
G1 X172.737 Y100.126 E238.07018
G1 X166.810 Y101.977 E238.81529
G1 X160.831 Y103.638 E239.55994
G1 X154.808 Y105.107 E240.30389
G1 X148.729 Y106.386 E241.04934
