;FLAVOR:UltiGCode
;TIME:5459
;MATERIAL:9289
;MATERIAL2:0
;NOZZLE_DIAMETER:0.400000
;NOZZLE_DIAMETER2:0.400000

;Layer count: 34
;LAYER:0
M107
G0 F12000 X53.212 Y78.528 Z0.300
G0 X55.282 Y79.273
;TYPE:SKIRT
G1 F1200 X56.014 Y77.260 E0.25704
G1 X61.790 Y79.204 E0.98836
G1 X64.790 Y80.142 E1.36555
G1 X67.953 Y81.067 E1.76100
G1 X71.225 Y81.949 E2.16766
G1 X74.483 Y82.753 E2.57035
G1 X77.756 Y83.490 E2.97294
G1 X81.014 Y84.152 E3.37189
G1 X84.575 Y84.798 E3.80619
G1 X87.646 Y85.285 E4.17931
G1 X90.995 Y85.748 E4.58501
G1 X94.305 Y86.136 E4.98493
G1 X97.617 Y86.453 E5.38419
G1 X101.000 Y86.707 E5.79129
G1 X104.326 Y86.886 E6.19099
G1 X107.657 Y86.995 E6.59092
G1 X111.071 Y87.036 E7.00063
G1 X111.273 Y87.039 E7.02487
G1 X114.648 Y87.003 E7.42990
G1 X117.937 Y86.900 E7.82477
G1 X121.087 Y86.736 E8.20328
G1 X124.672 Y86.476 E8.63461
G1 X127.999 Y86.161 E9.03564
G1 X131.366 Y85.772 E9.44237
G1 X134.622 Y85.326 E9.83673
G1 X138.000 Y84.791 E10.24715
G1 X141.009 Y84.250 E10.61402
G1 X144.332 Y83.585 E11.02068
G1 X147.825 Y82.809 E11.45006
G1 X150.877 Y82.060 E11.82717
G1 X154.099 Y81.201 E12.22731
G1 X157.326 Y80.268 E12.63042
G1 X160.523 Y79.272 E13.03224
G1 X163.715 Y78.203 E13.43619
G1 X165.859 Y77.436 E13.70944
G1 X170.903 Y75.564 E14.35506
G1 X172.642 Y80.348 E14.96589
G1 X173.793 Y83.467 E15.36484
G1 X171.903 Y84.163 E15.60653
G1 X182.942 Y114.493 E19.47971
G1 X184.819 Y113.802 E19.71972
G1 X187.692 Y121.698 E20.72802
G1 X185.815 Y122.388 E20.96799
G1 X188.029 Y128.471 E21.74480
G1 X180.719 Y131.149 E22.67901
G1 X180.138 Y132.554 E22.86146
G1 X179.539 Y133.996 E23.04883
G1 X177.104 Y134.884 E23.35986
G1 X172.977 Y136.375 E23.88643
G1 X172.909 Y135.177 E24.03042
G1 X169.675 Y136.117 E24.43456
G1 X165.280 Y137.295 E24.98058
G1 X160.863 Y138.380 E25.52637
G1 X156.741 Y139.301 E26.03321
G1 X156.106 Y139.435 E26.11109
G1 X153.715 Y139.918 E26.40380
G1 X153.715 Y146.514 E27.19532
G1 X145.746 Y146.514 E28.15160
G1 X143.774 Y142.292 E28.71078
G1 X143.455 Y141.715 E28.78990
G1 X142.995 Y141.788 E28.84579
G1 X138.486 Y142.406 E29.39193
G1 X137.341 Y142.538 E29.53024
G1 X133.968 Y142.929 E29.93771
G1 X132.821 Y143.037 E30.07596
G1 X129.440 Y143.357 E30.48349
G1 X124.902 Y143.690 E31.02952
G1 X120.472 Y143.922 E31.56184
G1 X119.097 Y143.973 E31.72696
G1 X117.558 Y144.017 E31.91171
G1 X114.297 Y144.097 E32.30315
G1 X113.520 Y144.099 E32.39639
G1 X111.268 Y144.108 E32.66663
G1 X110.508 Y144.106 E32.75783
G1 X108.233 Y144.097 E33.03084
G1 X103.886 Y143.991 E33.55263
G1 X102.511 Y143.939 E33.71775
G1 X100.948 Y143.864 E33.90553
G1 X97.628 Y143.690 E34.30447
G1 X93.092 Y143.357 E34.85026
G1 X91.943 Y143.249 E34.98874
G1 X88.563 Y142.929 E35.39616
G1 X87.417 Y142.797 E35.53459
G1 X84.043 Y142.406 E35.94218
G1 X79.538 Y141.788 E36.48784
G1 X79.284 Y141.748 E36.51870
G1 X78.885 Y142.474 E36.61811
G1 X77.936 Y144.510 E36.88766
G1 X76.998 Y146.514 E37.15318
G1 X68.816 Y146.514 E38.13502
G1 X68.816 Y139.919 E38.92642
G1 X66.107 Y139.372 E39.25806
G1 X61.668 Y138.380 E39.80388
G1 X57.250 Y137.295 E40.34980
G1 X53.172 Y136.202 E40.85643
G1 X52.546 Y136.028 E40.93440
G1 X49.620 Y135.177 E41.30006
G1 X49.551 Y136.388 E41.44562
G1 X42.989 Y133.995 E42.28379
G1 X41.807 Y131.138 E42.65481
G1 X38.353 Y129.881 E43.09588
G1 X34.969 Y128.643 E43.52828
G1 X36.247 Y125.136 E43.97620
G1 X37.855 Y120.716 E44.54061
G1 X38.635 Y118.577 E44.81382
G1 X53.212 Y78.528 E49.92815
G1 X55.282 Y79.273 E50.19214
G10
G1 Z0.400
G0 F12000 X58.559 Y82.548
;TYPE:WALL-INNER
G1 Z0.300
G11
G1 F1200 X60.488 Y83.197 E50.43637
G1 X63.546 Y84.154 E50.82088
G1 X66.850 Y85.120 E51.23396
G1 X70.173 Y86.015 E51.64693
G1 X73.513 Y86.840 E52.05978
G1 X76.871 Y87.596 E52.47282
G1 X80.243 Y88.281 E52.88573
G1 X83.861 Y88.938 E53.32699
G1 X87.027 Y89.439 E53.71164
G1 X90.436 Y89.911 E54.12462
G1 X93.854 Y90.311 E54.53758
G1 X97.281 Y90.639 E54.95070
G1 X100.712 Y90.897 E55.36358
G1 X104.149 Y91.082 E55.77662
G1 X107.588 Y91.195 E56.18952
G1 X111.265 Y91.239 E56.63079
G1 X114.706 Y91.203 E57.04373
G1 X118.146 Y91.095 E57.45674
G1 X121.347 Y90.928 E57.84138
G1 X125.014 Y90.663 E58.28257
G1 X128.441 Y90.339 E58.69564
G1 X131.859 Y89.943 E59.10854
G1 X135.269 Y89.476 E59.52156
G1 X138.668 Y88.938 E59.93452
G1 X141.823 Y88.370 E60.31921
G1 X145.197 Y87.695 E60.73211
G1 X148.787 Y86.898 E61.17340
G1 X151.900 Y86.134 E61.55804
G1 X155.226 Y85.248 E61.97108
G1 X158.531 Y84.292 E62.38394
G1 X161.816 Y83.269 E62.79681
G1 X165.079 Y82.175 E63.20980
G1 X167.315 Y81.376 E63.49473
G1 X168.400 Y80.973 E63.63362
G1 X166.524 Y81.668 E63.87369
G1 X180.437 Y119.890 E68.75475
G1 X182.649 Y125.969 E69.53102
G1 X176.976 Y128.047 E70.25602
G1 X176.976 Y129.211 E70.39570
G1 X176.799 Y129.638 E70.45116
G1 X176.796 Y129.584 E70.45765
G1 X172.827 Y130.827 E70.95674
G1 X168.555 Y132.069 E71.49061
G1 X164.229 Y133.228 E72.02804
G1 X159.907 Y134.290 E72.56211
G1 X155.841 Y135.198 E73.06204
G1 X155.247 Y135.324 E73.13491
G1 X151.170 Y136.147 E73.63402
G1 X150.395 Y136.285 E73.72848
G1 X149.515 Y136.449 E73.83590
G1 X149.515 Y142.314 E74.53970
G1 X148.420 Y142.314 E74.67110
G1 X147.517 Y140.381 E74.92712
G1 X146.358 Y138.285 E75.21453
G1 X145.600 Y137.123 E75.38102
G1 X142.383 Y137.632 E75.77186
G1 X137.950 Y138.240 E76.30880
G1 X133.540 Y138.751 E76.84154
G1 X129.078 Y139.172 E77.37936
G1 X124.650 Y139.497 E77.91215
G1 X120.277 Y139.726 E78.43763
G1 X118.964 Y139.776 E78.59530
G1 X117.445 Y139.818 E78.77765
G1 X114.228 Y139.897 E79.16381
G1 X113.504 Y139.899 E79.25069
G1 X111.265 Y139.908 E79.51937
G1 X110.523 Y139.906 E79.60841
G1 X108.302 Y139.897 E79.87493
G1 X104.009 Y139.792 E80.39025
G1 X102.696 Y139.743 E80.54792
G1 X101.161 Y139.669 E80.73233
G1 X97.881 Y139.497 E81.12647
G1 X93.453 Y139.173 E81.65925
G1 X88.991 Y138.750 E82.19709
G1 X84.580 Y138.241 E82.72992
G1 X80.140 Y137.631 E83.26773
G1 X79.557 Y137.539 E83.33856
G1 X77.076 Y137.146 E83.63999
G1 X76.451 Y138.183 E83.78528
G1 X75.140 Y140.568 E84.11187
G1 X74.327 Y142.314 E84.34299
G1 X73.016 Y142.314 E84.50031
G1 X73.016 Y136.443 E85.20483
G1 X71.361 Y136.147 E85.40658
G1 X66.993 Y135.266 E85.94130
G1 X62.617 Y134.288 E86.47937
G1 X58.305 Y133.229 E87.01219
G1 X54.274 Y132.149 E87.51297
G1 X53.701 Y131.990 E87.58433
G1 X49.704 Y130.827 E88.08386
G1 X45.731 Y129.583 E88.58344
G1 X45.728 Y129.630 E88.58909
G1 X45.566 Y129.237 E88.64010
G1 X45.640 Y128.063 E88.78126
G1 X40.352 Y126.139 E89.45652
G1 X41.814 Y122.121 E89.96961
G1 X43.884 Y122.866 E90.23360
G1 X44.857 Y120.192 E90.57507
G1 X45.390 Y118.733 E90.76146
G1 X43.319 Y117.986 E91.02566
G1 X55.727 Y83.897 E95.37889
G1 X57.797 Y84.642 E95.64289
G1 X58.559 Y82.548 E95.91029
G0 F12000 X117.302 Y111.545
G1 F1200 X117.071 Y112.102 E95.98265
G1 X117.001 Y112.635 E96.04716
G1 X117.001 Y114.064 E96.21864
G1 X117.071 Y114.596 E96.28303
G1 X117.302 Y115.154 E96.35550
G1 X117.669 Y115.631 E96.42772
G1 X118.146 Y115.998 E96.49994
G1 X118.704 Y116.229 E96.57242
G1 X119.301 Y116.308 E96.64468
G1 X119.899 Y116.229 E96.71706
G1 X120.456 Y115.998 E96.78942
G1 X120.933 Y115.631 E96.86164
G1 X121.300 Y115.154 E96.93387
G1 X121.531 Y114.596 E97.00634
G1 X121.601 Y114.064 E97.07073
G1 X121.601 Y112.635 E97.24221
G1 X121.531 Y112.102 E97.30672
G1 X121.300 Y111.545 E97.37908
G1 X120.933 Y111.068 E97.45130
G1 X120.456 Y110.701 E97.52352
G1 X119.899 Y110.470 E97.59588
G1 X119.301 Y110.391 E97.66826
G1 X118.704 Y110.470 E97.74053
G1 X118.146 Y110.701 E97.81300
G1 X117.669 Y111.068 E97.88522
G1 X117.302 Y111.545 E97.95744
G0 F12000 X117.651 Y111.747
G1 F1200 X117.460 Y112.206 E98.01710
G1 X117.401 Y112.661 E98.07216
G1 X117.401 Y114.038 E98.23740
G1 X117.460 Y114.491 E98.29222
G1 X117.651 Y114.952 E98.35210
G1 X117.954 Y115.346 E98.41174
G1 X118.348 Y115.649 E98.47139
G1 X118.809 Y115.840 E98.53127
G1 X119.301 Y115.904 E98.59080
G1 X119.795 Y115.840 E98.65058
G1 X120.254 Y115.649 E98.71024
G1 X120.648 Y115.346 E98.76988
G1 X120.951 Y114.952 E98.82953
G1 X121.142 Y114.491 E98.88941
G1 X121.201 Y114.038 E98.94422
G1 X121.201 Y112.661 E99.10946
G1 X121.142 Y112.206 E99.16452
G1 X120.951 Y111.747 E99.22418
G1 X120.648 Y111.353 E99.28382
G1 X120.254 Y111.050 E99.34347
G1 X119.795 Y110.859 E99.40313
G1 X119.301 Y110.795 E99.46290
G1 X118.809 Y110.859 E99.52244
G1 X118.348 Y111.050 E99.58232
G1 X117.954 Y111.353 E99.64196
G1 X117.651 Y111.747 E99.70161
G0 F12000 X118.129 Y90.696
G1 F1200 X121.322 Y90.529 E100.08529
G1 X124.981 Y90.264 E100.52552
G1 X128.399 Y89.941 E100.93751
G1 X131.809 Y89.546 E101.34945
G1 X135.211 Y89.081 E101.76148
G1 X138.601 Y88.544 E102.17335
G1 X141.748 Y87.977 E102.55707
G1 X145.114 Y87.304 E102.96899
G1 X148.696 Y86.508 E103.40931
G1 X151.801 Y85.746 E103.79297
G1 X155.119 Y84.862 E104.20502
G1 X158.416 Y83.909 E104.61686
G1 X161.693 Y82.888 E105.02874
G1 X164.948 Y81.797 E105.44070
G1 X167.178 Y81.000 E105.72487
G1 X168.638 Y80.457 E105.91180
G1 X168.914 Y81.215 E106.00860
G1 X167.037 Y81.906 E106.24862
G1 X180.675 Y119.377 E111.03370
G1 X182.552 Y118.686 E111.27372
G1 X182.826 Y119.438 E111.36976
G1 X180.949 Y120.128 E111.60974
G1 X183.161 Y126.208 E112.38613
G1 X177.376 Y128.327 E113.12543
G1 X177.376 Y129.291 E113.24111
G1 X176.670 Y130.997 E113.46267
G1 X176.482 Y131.066 E113.48670
G1 X176.427 Y130.119 E113.60053
G1 X172.939 Y131.211 E114.03913
G1 X168.659 Y132.455 E114.57398
G1 X164.331 Y133.614 E115.11164
G1 X160.001 Y134.678 E115.64670
G1 X155.928 Y135.588 E116.14751
G1 X155.332 Y135.715 E116.22063
G1 X151.259 Y136.537 E116.71925
G1 X150.466 Y136.679 E116.81592
G1 X149.915 Y136.782 E116.88319
G1 X149.915 Y142.714 E117.59503
G1 X148.165 Y142.714 E117.80503
G1 X147.160 Y140.563 E118.08993
G1 X146.015 Y138.492 E118.37390
G1 X145.406 Y137.559 E118.50760
G1 X142.433 Y138.029 E118.86880
G1 X138.017 Y138.635 E119.40368
G1 X133.565 Y139.150 E119.94148
G1 X129.122 Y139.570 E120.47702
G1 X124.671 Y139.897 E121.01258
G1 X120.307 Y140.126 E121.53698
G1 X118.970 Y140.175 E121.69753
G1 X117.456 Y140.218 E121.87928
G1 X114.238 Y140.297 E122.26556
G1 X111.266 Y140.308 E122.62220
G1 X108.293 Y140.297 E122.97896
G1 X104.007 Y140.192 E123.49344
G1 X102.670 Y140.142 E123.65399
G1 X101.140 Y140.069 E123.83780
G1 X97.860 Y139.897 E124.23194
G1 X93.409 Y139.570 E124.76750
G1 X88.966 Y139.150 E125.30304
G1 X84.513 Y138.635 E125.84096
G1 X80.097 Y138.030 E126.37583
G1 X77.279 Y137.584 E126.71820
G1 X76.798 Y138.382 E126.83001
G1 X75.497 Y140.749 E127.15412
G1 X74.581 Y142.714 E127.41429
G1 X72.616 Y142.714 E127.65009
G1 X72.616 Y136.778 E128.36241
G1 X71.272 Y136.537 E128.52626
G1 X66.904 Y135.656 E129.06097
G1 X62.530 Y134.678 E129.59881
G1 X58.199 Y133.614 E130.13399
G1 X54.170 Y132.535 E130.63451
G1 X53.583 Y132.372 E130.70761
G1 X49.592 Y131.211 E131.20638
G1 X46.102 Y130.118 E131.64524
G1 X46.048 Y131.065 E131.75907
G1 X45.861 Y130.997 E131.78294
G1 X45.162 Y129.307 E132.00241
G1 X45.221 Y128.336 E132.11914
G1 X39.839 Y126.378 E132.80639
G1 X41.574 Y121.610 E133.41526
G1 X43.645 Y122.355 E133.67937
G1 X44.481 Y120.056 E133.97292
G1 X44.877 Y118.973 E134.11130
G1 X42.806 Y118.227 E134.37545
G1 X55.487 Y83.386 E138.82469
G1 X57.557 Y84.131 E139.08869
G1 X58.317 Y82.045 E139.35510
G1 X60.612 Y82.817 E139.64566
G1 X63.662 Y83.771 E140.02915
G1 X66.958 Y84.735 E140.44124
G1 X70.273 Y85.628 E140.85322
G1 X73.605 Y86.451 E141.26508
G1 X76.954 Y87.205 E141.67702
G1 X80.319 Y87.888 E142.08905
G1 X83.928 Y88.544 E142.52923
G1 X87.086 Y89.044 E142.91291
G1 X90.487 Y89.514 E143.32491
G1 X93.896 Y89.914 E143.73679
G1 X97.315 Y90.241 E144.14895
G1 X100.737 Y90.498 E144.56074
G1 X104.166 Y90.682 E144.97281
G1 X107.597 Y90.795 E145.38476
G1 X111.266 Y90.839 E145.82507
G1 X114.698 Y90.803 E146.23693
G1 X118.129 Y90.696 E146.64885
G0 F12000 X118.112 Y90.296
;TYPE:WALL-OUTER
G1 F1200 X121.297 Y90.130 E147.03157
G1 X124.948 Y89.865 E147.47084
G1 X128.357 Y89.543 E147.88174
G1 X131.759 Y89.149 E148.29271
G1 X135.152 Y88.685 E148.70366
G1 X138.534 Y88.149 E149.11457
G1 X141.673 Y87.584 E149.49730
G1 X145.031 Y86.913 E149.90823
G1 X148.605 Y86.119 E150.34756
G1 X151.702 Y85.359 E150.73023
G1 X155.012 Y84.477 E151.14129
G1 X158.301 Y83.526 E151.55214
G1 X161.570 Y82.507 E151.96303
G1 X164.817 Y81.419 E152.37396
G1 X167.041 Y80.624 E152.65738
G1 X168.877 Y79.942 E152.89241
G1 X169.425 Y81.452 E153.08518
G1 X167.549 Y82.143 E153.32508
G1 X180.914 Y118.863 E158.01428
G1 X182.791 Y118.172 E158.25429
G1 X183.338 Y119.676 E158.44634
G1 X181.461 Y120.366 E158.68632
G1 X183.674 Y126.446 E159.46274
G1 X177.776 Y128.606 E160.21647
G1 X177.776 Y129.369 E160.30803
G1 X176.972 Y131.313 E160.56048
G1 X176.114 Y131.626 E160.67007
G1 X176.058 Y130.653 E160.78703
G1 X173.058 Y131.593 E161.16429
G1 X168.758 Y132.843 E161.70165
G1 X164.436 Y134.001 E162.23858
G1 X160.088 Y135.069 E162.77585
G1 X156.017 Y135.979 E163.27642
G1 X155.415 Y136.106 E163.35025
G1 X151.329 Y136.931 E163.85047
G1 X150.538 Y137.072 E163.94689
G1 X150.315 Y137.114 E163.97412
G1 X150.315 Y143.114 E164.69412
G1 X147.910 Y143.114 E164.98272
G1 X146.803 Y140.744 E165.29661
G1 X145.672 Y138.698 E165.57715
G1 X145.213 Y137.994 E165.67800
G1 X142.496 Y138.424 E166.00809
G1 X138.063 Y139.032 E166.54503
G1 X133.611 Y139.547 E167.08284
G1 X129.153 Y139.969 E167.62019
G1 X124.692 Y140.297 E168.15695
G1 X120.319 Y140.525 E168.68243
G1 X118.985 Y140.575 E168.84262
G1 X114.247 Y140.697 E169.41137
G1 X111.266 Y140.708 E169.76909
G1 X108.283 Y140.697 E170.12705
G1 X103.992 Y140.592 E170.64213
G1 X102.658 Y140.542 E170.80232
G1 X97.839 Y140.296 E171.38135
G1 X93.378 Y139.969 E171.91811
G1 X88.920 Y139.547 E172.45546
G1 X84.467 Y139.032 E172.99338
G1 X80.035 Y138.425 E173.53019
G1 X77.483 Y138.021 E173.84024
G1 X77.145 Y138.582 E173.91883
G1 X75.854 Y140.930 E174.24037
G1 X74.836 Y143.114 E174.52953
G1 X72.216 Y143.114 E174.84393
G1 X72.216 Y137.113 E175.56405
G1 X71.201 Y136.931 E175.68779
G1 X66.813 Y136.046 E176.22495
G1 X62.443 Y135.069 E176.76230
G1 X58.094 Y134.001 E177.29968
G1 X54.069 Y132.922 E177.79974
G1 X53.476 Y132.757 E177.87360
G1 X49.473 Y131.593 E178.37386
G1 X46.472 Y130.653 E178.75123
G1 X46.416 Y131.626 E178.86818
G1 X45.559 Y131.313 E178.97767
G1 X44.758 Y129.375 E179.22931
G1 X44.790 Y128.805 E179.29782
G1 X44.802 Y128.609 E179.32138
G1 X39.326 Y126.616 E180.02067
G1 X41.335 Y121.099 E180.72524
G1 X43.405 Y121.844 E180.98924
G1 X44.363 Y119.213 E181.32523
G1 X42.292 Y118.467 E181.58939
G1 X55.248 Y82.875 E186.13460
G1 X57.318 Y83.620 E186.39859
G1 X58.074 Y81.541 E186.66406
G1 X60.735 Y82.436 E187.00095
G1 X63.778 Y83.388 E187.38357
G1 X67.066 Y84.350 E187.79467
G1 X70.373 Y85.241 E188.20566
G1 X73.697 Y86.062 E188.61653
G1 X77.038 Y86.814 E189.02748
G1 X80.394 Y87.495 E189.43840
G1 X83.995 Y88.149 E189.87759
G1 X87.145 Y88.648 E190.26031
G1 X90.538 Y89.117 E190.67134
G1 X93.939 Y89.516 E191.08226
G1 X97.349 Y89.842 E191.49332
G1 X100.763 Y90.099 E191.90416
G1 X104.183 Y90.283 E192.31515
G1 X107.606 Y90.395 E192.72613
G1 X111.266 Y90.439 E193.16537
G1 X114.689 Y90.403 E193.57615
G1 X118.112 Y90.296 E193.98711
G0 F12000 X118.135 Y90.595
G0 X119.338 Y110.902
G0 X119.301 Y111.198
G1 F1200 X118.913 Y111.249 E194.03407
G1 X118.550 Y111.399 E194.08120
G1 X118.239 Y111.638 E194.12827
G1 X118.000 Y111.949 E194.17534
G1 X117.850 Y112.311 E194.22236
G1 X117.801 Y112.687 E194.26786
G1 X117.801 Y114.012 E194.42686
G1 X117.850 Y114.387 E194.47224
G1 X118.000 Y114.750 E194.51938
G1 X118.239 Y115.061 E194.56644
G1 X118.550 Y115.300 E194.61351
G1 X118.913 Y115.450 E194.66064
G1 X119.301 Y115.501 E194.70760
G1 X119.690 Y115.450 E194.75468
G1 X120.052 Y115.300 E194.80170
