;FLAVOR:UltiGCode
;TIME:5945
;MATERIAL:6017
;MATERIAL2:0
;NOZZLE_DIAMETER:0.400000
;NOZZLE_DIAMETER2:0.400000

;Layer count: 63
;LAYER:0
M107
G0 F12000 X46.948 Y89.108 Z0.300
;TYPE:SKIRT
G1 F1200 X55.128 Y91.940 E1.03876
G1 X56.636 Y92.408 E1.22824
G1 X60.802 Y93.704 E1.75179
G1 X66.559 Y95.295 E2.46853
G1 X70.794 Y96.322 E2.99146
G1 X72.351 Y96.700 E3.18372
G1 X78.163 Y97.916 E3.89626
G1 X84.002 Y98.946 E4.60776
G1 X85.591 Y99.174 E4.80039
G1 X89.912 Y99.796 E5.32426
G1 X94.259 Y100.280 E5.84912
G1 X95.831 Y100.456 E6.03894
G1 X97.265 Y100.569 E6.21155
G1 X101.629 Y100.917 E6.73690
G1 X103.908 Y101.030 E7.01071
G1 X104.686 Y101.068 E7.10418
G1 X108.781 Y101.202 E7.59585
G1 X110.249 Y101.251 E7.77211
G1 X113.140 Y101.297 E8.11907
G1 X113.673 Y101.305 E8.18304
G1 X114.192 Y101.298 E8.24532
G1 X116.703 Y101.257 E8.54668
G1 X118.563 Y101.202 E8.76998
G1 X118.563 Y101.203 E8.77010
G1 X122.657 Y101.067 E9.26165
G1 X124.806 Y100.965 E9.51982
G1 X125.556 Y100.929 E9.60992
G1 X127.144 Y100.803 E9.80108
G1 X131.515 Y100.455 E10.32726
G1 X135.842 Y99.973 E10.84972
G1 X137.402 Y99.798 E11.03809
G1 X138.987 Y99.571 E11.23023
G1 X138.987 Y99.572 E11.23035
G1 X143.305 Y98.951 E11.75384
G1 X149.178 Y97.915 E12.46948
G1 X150.723 Y97.592 E12.65889
G1 X154.997 Y96.697 E13.18289
G1 X159.247 Y95.666 E13.70769
G1 X160.812 Y95.286 E13.90094
G1 X164.998 Y94.129 E14.42210
G1 X166.511 Y93.710 E14.61049
G1 X172.214 Y91.937 E15.32716
G1 X180.390 Y89.107 E16.36539
G1 X181.733 Y92.804 E16.83740
G1 X181.732 Y92.804 E16.83752
G1 X182.404 Y94.650 E17.07326
G1 X182.405 Y94.650 E17.07338
G1 X184.261 Y99.746 E17.72419
G1 X175.743 Y102.694 E18.80584
G1 X169.714 Y104.569 E19.56350
G1 X168.048 Y105.029 E19.77090
G1 X163.629 Y106.251 E20.32108
G1 X159.175 Y107.330 E20.87102
G1 X157.495 Y107.738 E21.07848
G1 X153.009 Y108.676 E21.62844
G1 X151.317 Y109.031 E21.83591
G1 X146.803 Y109.826 E22.38592
G1 X145.100 Y110.127 E22.59345
G1 X138.851 Y111.026 E23.35105
G1 X138.168 Y111.102 E23.43352
G1 X142.345 Y112.321 E23.95566
G1 X145.131 Y113.515 E24.31939
G1 X146.292 Y114.014 E24.47104
G1 X147.537 Y114.758 E24.64508
G1 X149.848 Y116.143 E24.96839
G1 X152.591 Y115.659 E25.30264
G1 X154.294 Y115.303 E25.51141
G1 X158.970 Y114.324 E26.08470
G1 X165.329 Y112.781 E26.86992
G1 X167.003 Y112.319 E27.07831
G1 X171.602 Y111.047 E27.65091
G1 X176.188 Y109.622 E28.22719
G1 X176.188 Y109.623 E28.22731
G1 X177.842 Y109.108 E28.43519
G1 X182.027 Y107.660 E28.96660
G1 X182.027 Y107.659 E28.96672
G1 X186.570 Y106.085 E29.54367
G1 X188.251 Y110.712 E30.13442
G1 X189.592 Y114.387 E30.60386
G1 X185.988 Y115.632 E31.06142
G1 X180.604 Y117.496 E31.74512
G1 X174.102 Y119.517 E32.56218
G1 X173.471 Y119.691 E32.64073
G1 X167.543 Y121.330 E33.37878
G1 X162.583 Y122.533 E33.99124
G1 X163.713 Y125.035 E34.32068
G1 X158.824 Y126.130 E34.92189
G1 X154.663 Y126.969 E35.43126
G1 X152.279 Y127.404 E35.72206
G1 X149.887 Y127.834 E36.01371
G1 X145.709 Y128.495 E36.52130
G1 X145.080 Y128.588 E36.59760
G1 X140.889 Y129.164 E37.10525
G1 X136.702 Y129.648 E37.61103
G1 X136.702 Y129.647 E37.61115
G1 X136.371 Y129.687 E37.65116
G1 X132.160 Y130.084 E38.15872
G1 X131.525 Y130.138 E38.23520
G1 X127.304 Y130.448 E38.74308
G1 X126.967 Y130.466 E38.78358
G1 X127.317 Y131.627 E38.92909
G1 X120.334 Y131.627 E39.76705
G1 X118.137 Y129.229 E40.15733
G1 X117.381 Y128.401 E40.29187
G1 X117.305 Y128.148 E40.32357
G1 X113.667 Y128.206 E40.76019
G1 X110.029 Y128.148 E41.19680
G1 X109.951 Y128.405 E41.22903
G1 X107.001 Y131.627 E41.75325
G1 X100.019 Y131.627 E42.59109
G1 X100.368 Y130.466 E42.73657
G1 X100.138 Y130.454 E42.76421
G1 X95.494 Y130.115 E43.32297
G1 X90.964 Y129.687 E43.86899
G1 X86.446 Y129.164 E44.41477
G1 X81.939 Y128.546 E44.96067
G1 X77.447 Y127.834 E45.50644
G1 X75.061 Y127.404 E45.79737
G1 X75.061 Y127.405 E45.79749
G1 X72.971 Y127.030 E46.05230
G1 X68.813 Y126.192 E46.56129
G1 X65.779 Y125.527 E46.93402
G1 X65.746 Y125.558 E46.93945
G1 X64.275 Y125.197 E47.12121
G1 X63.628 Y125.055 E47.20069
G1 X63.635 Y125.040 E47.20268
G1 X59.815 Y124.102 E47.67470
G1 X57.181 Y133.797 E48.88027
G1 X53.460 Y132.746 E49.34426
G1 X49.522 Y131.632 E49.83536
G1 X44.974 Y130.241 E50.40608
G1 X44.341 Y130.033 E50.48604
G1 X40.453 Y128.755 E50.97715
G1 X39.889 Y128.557 E51.04888
G1 X33.417 Y126.277 E51.87231
G1 X41.691 Y103.543 E54.77545
G1 X43.767 Y104.275 E55.03960
G1 X44.520 Y102.206 E55.30381
G1 X48.764 Y103.702 E55.84381
G1 X52.440 Y104.914 E56.30829
G1 X52.989 Y105.095 E56.37765
G1 X56.455 Y106.154 E56.81255
G1 X56.981 Y106.315 E56.87857
G1 X61.006 Y107.454 E57.38053
G1 X65.109 Y108.522 E57.88930
G1 X66.180 Y108.777 E58.02141
G1 X69.201 Y109.498 E58.39411
G1 X70.463 Y109.772 E58.54908
G1 X72.684 Y110.252 E58.82175
G1 X73.292 Y110.385 E58.89644
G1 X76.320 Y110.972 E59.26656
G1 X77.450 Y111.192 E59.40471
G1 X80.460 Y111.711 E59.77124
G1 X81.565 Y111.902 E59.90581
G1 X84.817 Y112.394 E60.30049
G1 X84.988 Y112.321 E60.32280
G1 X89.165 Y111.102 E60.84495
G1 X88.483 Y111.026 E60.92729
G1 X86.774 Y110.780 E61.13449
G1 X82.234 Y110.127 E61.68489
G1 X76.018 Y109.031 E62.44232
G1 X69.839 Y107.738 E63.19986
G1 X63.706 Y106.251 E63.95714
G1 X63.076 Y106.078 E64.03554
G1 X57.618 Y104.569 E64.71507
G1 X57.038 Y104.388 E64.78798
G1 X51.591 Y102.693 E65.47254
G1 X43.075 Y99.745 E66.55396
G1 X44.320 Y96.321 E66.99116
G1 X44.319 Y96.321 E66.99128
G1 X44.927 Y94.652 E67.20443
G1 X45.687 Y92.561 E67.47141
G1 X45.689 Y92.562 E67.47168
G1 X46.948 Y89.108 E67.91284
G10
G1 Z0.400
G0 F12000 X51.558 Y95.148
;TYPE:WALL-INNER
G1 Z0.300
G11
G1 F1200 X53.813 Y95.929 E68.19921
G1 X59.625 Y97.737 E68.92961
G1 X65.492 Y99.358 E69.66003
G1 X71.408 Y100.794 E70.39057
G1 X77.366 Y102.040 E71.12099
G1 X83.360 Y103.098 E71.85139
G1 X89.385 Y103.963 E72.58181
G1 X95.434 Y104.638 E73.31219
G1 X101.354 Y105.108 E74.02483
G1 X103.700 Y105.225 E74.30670
G1 X104.518 Y105.264 E74.40497
G1 X110.174 Y105.451 E75.08406
G1 X113.666 Y105.506 E75.50315
G1 X114.259 Y105.498 E75.57432
G1 X116.799 Y105.457 E75.87916
G1 X118.689 Y105.401 E76.10606
G1 X122.816 Y105.264 E76.60157
G1 X125.832 Y105.120 E76.96390
G1 X131.900 Y104.638 E77.69436
G1 X137.949 Y103.963 E78.42474
G1 X143.974 Y103.098 E79.15515
G1 X149.968 Y102.040 E79.88555
G1 X155.926 Y100.794 E80.61598
G1 X161.842 Y99.358 E81.34651
G1 X167.709 Y97.737 E82.07693
G1 X173.521 Y95.929 E82.80734
G1 X177.855 Y94.429 E83.35769
G1 X178.854 Y97.172 E83.70800
G1 X174.436 Y98.701 E84.26901
G1 X168.528 Y100.539 E85.01149
G1 X162.574 Y102.185 E85.75277
G1 X156.577 Y103.639 E86.49326
G1 X150.522 Y104.906 E87.23559
G1 X144.432 Y105.980 E87.97767
G1 X138.321 Y106.859 E88.71854
G1 X130.652 Y107.713 E89.64451
G1 X134.458 Y114.395 E90.56730
G1 X140.925 Y116.282 E91.37570
G1 X144.379 Y117.763 E91.82667
G1 X148.059 Y119.967 E92.34141
G1 X148.526 Y120.640 E92.43971
G1 X153.388 Y119.783 E93.03215
G1 X159.907 Y118.419 E93.83137
G1 X166.380 Y116.848 E94.63068
G1 X172.799 Y115.074 E95.42983
G1 X179.159 Y113.096 E96.22909
G1 X184.035 Y111.408 E96.84828
G1 X184.182 Y111.813 E96.89998
G1 X179.308 Y113.500 E97.51891
G1 X172.918 Y115.487 E98.32192
G1 X166.494 Y117.262 E99.12169
G1 X160.574 Y118.698 E99.85269
G1 X159.995 Y118.839 E99.92420
G1 X153.461 Y120.207 E100.72528
G1 X152.863 Y120.311 E100.79812
G1 X148.204 Y121.133 E101.36583
G1 X147.071 Y121.330 E101.50383
G1 X147.257 Y123.182 E101.72719
G1 X152.889 Y123.023 E102.40330
G1 X151.529 Y123.271 E102.56919
G1 X149.197 Y123.691 E102.85353
G1 X145.069 Y124.344 E103.35505
G1 X144.493 Y124.430 E103.42494
G1 X140.351 Y124.998 E103.92663
G1 X136.220 Y125.476 E104.42566
G1 X131.780 Y125.901 E104.96089
G1 X131.200 Y125.951 E105.03075
G1 X127.051 Y126.255 E105.52997
G1 X126.205 Y126.299 E105.63162
G1 X125.228 Y123.667 E105.96852
G1 X123.792 Y123.734 E106.14103
G1 X120.602 Y123.888 E106.52428
G1 X121.415 Y126.590 E106.86287
G1 X121.128 Y126.277 E106.91383
G1 X120.412 Y123.898 E107.21196
G1 X113.667 Y124.006 E108.02147
G1 X106.922 Y123.898 E108.83097
G1 X106.294 Y125.987 E109.09273
G1 X106.208 Y126.273 E109.12857
G1 X105.919 Y126.588 E109.17987
G1 X106.732 Y123.886 E109.51847
G1 X104.748 Y123.793 E109.75681
G1 X102.106 Y123.666 E110.07422
G1 X101.129 Y126.300 E110.41134
G1 X100.390 Y126.261 E110.50014
G1 X95.855 Y125.931 E111.04578
G1 X91.393 Y125.508 E111.58362
G1 X86.983 Y124.998 E112.11635
G1 X82.551 Y124.390 E112.65317
G1 X78.137 Y123.691 E113.18945
G1 X74.415 Y123.022 E113.64325
G1 X80.076 Y123.182 E114.32284
G1 X80.264 Y121.332 E114.54598
G1 X74.345 Y120.290 E115.26719
G1 X66.799 Y118.726 E116.19195
G1 X64.505 Y120.929 E116.57361
G1 X60.703 Y119.995 E117.04342
G1 X56.858 Y118.965 E117.52108
G1 X54.240 Y128.602 E118.71944
G1 X50.698 Y127.600 E119.16116
G1 X46.243 Y126.237 E119.72022
G1 X41.814 Y124.782 E120.27964
G1 X41.281 Y124.594 E120.34747
G1 X38.815 Y123.726 E120.66118
G1 X44.217 Y108.886 E122.55630
G1 X46.291 Y109.617 E122.82018
G1 X47.044 Y107.549 E123.08428
G1 X51.682 Y109.087 E123.67065
G1 X55.789 Y110.342 E124.18598
G1 X59.920 Y111.511 E124.70117
G1 X64.074 Y112.593 E125.21628
G1 X68.250 Y113.589 E125.73146
G1 X69.575 Y113.877 E125.89417
G1 X72.447 Y114.499 E126.24680
G1 X76.662 Y115.318 E126.76206
G1 X80.892 Y116.048 E127.27716
G1 X85.373 Y116.726 E127.82100
G1 X86.408 Y116.282 E127.95615
G1 X92.876 Y114.395 E128.76467
G1 X96.682 Y107.713 E129.68746
G1 X89.017 Y106.859 E130.61295
G1 X82.902 Y105.980 E131.35429
G1 X76.812 Y104.906 E132.09637
G1 X70.765 Y103.640 E132.83774
G1 X64.752 Y102.183 E133.58018
G1 X64.194 Y102.029 E133.64964
G1 X58.798 Y100.537 E134.32146
G1 X52.898 Y98.701 E135.06295
G1 X50.559 Y97.892 E135.35994
G1 X51.558 Y95.148 E135.71037
G0 F12000 X95.888 Y108.119
G0 X92.597 Y114.044
G0 X97.109 Y117.330
G1 F1200 X106.361 Y117.330 E136.82061
G1 X109.061 Y108.369 E137.94368
G1 X102.242 Y108.147 E138.76239
G1 X97.109 Y117.330 E140.02482
G0 F12000 X107.545 Y123.496
G1 F1200 X112.474 Y123.558 E140.61634
G1 X113.667 Y123.571 E140.75951
G1 X118.062 Y123.526 E141.28694
G1 X119.781 Y123.471 E141.49333
G1 X116.135 Y111.341 E143.01326
G1 X113.667 Y111.512 E143.31013
G1 X111.199 Y111.341 E143.60700
G1 X107.545 Y123.496 E145.13008
G0 F12000 X119.144 Y123.012
G0 X120.973 Y117.330
G1 F1200 X130.225 Y117.330 E146.24032
G1 X125.080 Y108.125 E147.50575
G1 X118.337 Y108.586 E148.31680
G1 X120.973 Y117.330 E149.41273
G0 F12000 X121.270 Y116.930
G1 F1200 X129.543 Y116.930 E150.40549
G1 X124.854 Y108.542 E151.55864
G1 X118.865 Y108.951 E152.27900
G1 X121.270 Y116.930 E153.27903
G0 F12000 X119.248 Y123.088
G1 F1200 X115.844 Y111.762 E154.69820
G1 X113.667 Y111.913 E154.96007
G1 X111.490 Y111.762 E155.22194
G1 X108.081 Y123.103 E156.64301
G1 X113.666 Y123.171 E157.31326
G1 X118.054 Y123.126 E157.83985
G1 X119.248 Y123.088 E157.98320
G0 F12000 X120.116 Y124.303
G1 F1200 X113.667 Y124.406 E158.75718
G1 X107.218 Y124.303 E159.53116
G1 X106.677 Y126.102 E159.75659
G1 X106.565 Y126.476 E159.80344
G1 X105.328 Y127.827 E160.02325
G1 X105.130 Y127.827 E160.04701
G1 X106.202 Y124.262 E160.49373
G1 X102.379 Y124.080 E160.95301
G1 X101.401 Y126.715 E161.29029
G1 X100.369 Y126.661 E161.41430
G1 X95.811 Y126.328 E161.96272
G1 X91.368 Y125.908 E162.49825
G1 X86.916 Y125.393 E163.03606
G1 X82.501 Y124.788 E163.57081
G1 X78.082 Y124.087 E164.10772
G1 X73.676 Y123.295 E164.64491
G1 X69.669 Y122.488 E165.13541
G1 X79.716 Y122.772 E166.34153
G1 X79.828 Y121.662 E166.47541
G1 X74.275 Y120.684 E167.15202
G1 X73.780 Y120.596 E167.21235
G1 X66.924 Y119.161 E168.05290
G1 X64.623 Y121.369 E168.43558
G1 X60.601 Y120.381 E168.93257
G1 X57.140 Y119.455 E169.36250
G1 X54.520 Y129.097 E170.56150
G1 X50.601 Y127.988 E171.05024
G1 X46.115 Y126.616 E171.61318
G1 X41.680 Y125.158 E172.17340
G1 X38.301 Y123.969 E172.60325
G1 X43.976 Y108.377 E174.59437
G1 X46.051 Y109.108 E174.85837
G1 X46.804 Y107.041 E175.12235
G1 X47.531 Y107.297 E175.21484
G1 X51.803 Y108.706 E175.75465
G1 X55.902 Y109.959 E176.26900
G1 X60.025 Y111.125 E176.78316
G1 X64.171 Y112.205 E177.29728
G1 X68.339 Y113.199 E177.81147
G1 X72.527 Y114.107 E178.32571
G1 X76.734 Y114.924 E178.83998
G1 X80.956 Y115.653 E179.35411
G1 X85.320 Y116.314 E179.88377
G1 X86.273 Y115.905 E180.00821
G1 X92.608 Y114.056 E180.80013
G1 X96.034 Y108.043 E181.63059
G1 X88.973 Y107.257 E182.48315
G1 X82.836 Y106.375 E183.22716
G1 X76.727 Y105.297 E183.97156
G1 X70.678 Y104.031 E184.71317
G1 X64.649 Y102.570 E185.45759
G1 X58.699 Y100.925 E186.19837
G1 X52.775 Y99.082 E186.94286
G1 X47.965 Y97.417 E187.55366
G1 X47.980 Y97.376 E187.55890
G1 X50.059 Y98.096 E187.82292
G1 X51.290 Y94.714 E188.25481
G1 X49.212 Y93.994 E188.51871
G1 X49.238 Y93.922 E188.52790
G1 X53.938 Y95.549 E189.12474
G1 X59.738 Y97.353 E189.85362
G1 X65.592 Y98.971 E190.58244
G1 X71.496 Y100.403 E191.31147
G1 X77.441 Y101.647 E192.04032
G1 X83.423 Y102.703 E192.76926
G1 X89.435 Y103.566 E193.49809
G1 X95.472 Y104.239 E194.22702
G1 X101.379 Y104.709 E194.93810
G1 X104.533 Y104.865 E195.31704
G1 X110.183 Y105.051 E195.99541
G1 X113.666 Y105.106 E196.41342
G1 X114.253 Y105.098 E196.48387
G1 X116.790 Y105.057 E196.78835
G1 X118.677 Y105.001 E197.01489
G1 X122.800 Y104.865 E197.50992
G1 X125.807 Y104.721 E197.87117
G1 X131.862 Y104.239 E198.60007
G1 X137.899 Y103.566 E199.32900
G1 X143.911 Y102.703 E200.05783
G1 X149.892 Y101.647 E200.78665
G1 X155.838 Y100.403 E201.51562
G1 X161.742 Y98.971 E202.24464
G1 X167.596 Y97.353 E202.97346
G1 X173.396 Y95.549 E203.70235
G1 X178.096 Y93.922 E204.29919
G1 X179.369 Y97.418 E204.74565
G1 X174.559 Y99.082 E205.35642
G1 X168.636 Y100.925 E206.10079
G1 X162.678 Y102.572 E206.84256
G1 X156.656 Y104.031 E207.58611
G1 X150.607 Y105.297 E208.32772
G1 X144.498 Y106.375 E209.07212
G1 X138.361 Y107.257 E209.81613
G1 X131.300 Y108.044 E210.66870
G1 X134.726 Y114.056 E211.49906
G1 X141.065 Y115.906 E212.29147
G1 X144.555 Y117.403 E212.74717
G1 X148.340 Y119.669 E213.27655
G1 X148.709 Y120.201 E213.35424
G1 X153.312 Y119.390 E213.91511
G1 X159.819 Y118.028 E214.71287
G1 X166.280 Y116.461 E215.51067
G1 X172.687 Y114.690 E216.30834
G1 X179.034 Y112.716 E217.10596
G1 X184.277 Y110.901 E217.77176
G1 X184.698 Y112.057 E217.91939
G1 X179.420 Y113.884 E218.58962
G1 X173.024 Y115.873 E219.39340
G1 X166.598 Y117.649 E220.19343
G1 X160.089 Y119.228 E220.99716
G1 X153.550 Y120.597 E221.79885
G1 X148.917 Y121.413 E222.36337
G1 X148.273 Y121.527 E222.44185
G1 X147.506 Y121.660 E222.53526
G1 X147.618 Y122.772 E222.66938
G1 X157.663 Y122.488 E223.87526
G1 X153.941 Y123.238 E224.33088
G1 X151.602 Y123.665 E224.61620
G1 X149.252 Y124.087 E224.90271
G1 X145.137 Y124.738 E225.40265
G1 X144.541 Y124.826 E225.47494
G1 X140.418 Y125.393 E225.97436
G1 X135.966 Y125.908 E226.51216
G1 X131.823 Y126.300 E227.01154
G1 X131.222 Y126.350 E227.08391
G1 X127.072 Y126.655 E227.58326
G1 X125.933 Y126.715 E227.72013
G1 X124.955 Y124.080 E228.05740
G1 X121.132 Y124.262 E228.51668
G1 X122.204 Y127.827 E228.96341
G1 X122.005 Y127.827 E228.98729
G1 X120.771 Y126.479 E229.20659
G1 X120.116 Y124.303 E229.47928
G0 F12000 X108.188 Y123.024
G0 X106.064 Y116.930
G1 F1200 X108.528 Y108.752 E230.50422
G1 X102.472 Y108.555 E231.23132
G1 X97.791 Y116.930 E232.38265
G1 X106.064 Y116.930 E233.37541
G0 F12000 X105.767 Y116.530
;TYPE:WALL-OUTER
G1 F1200 X107.995 Y109.135 E234.30221
G1 X102.703 Y108.962 E234.93759
G1 X98.473 Y116.530 E235.97798
G1 X105.767 Y116.530 E236.85326
G0 F12000 X106.052 Y116.617
G0 X108.188 Y123.024
G0 X108.613 Y123.009
G0 X108.617 Y122.710
G1 F1200 X113.667 Y122.771 E237.45930
G1 X118.045 Y122.726 E237.98469
G1 X118.715 Y122.705 E238.06513
G1 X115.553 Y112.183 E239.38355
