;FLAVOR:UltiGCode
;TIME:4211
;MATERIAL:7122
;MATERIAL2:0
;NOZZLE_DIAMETER:0.400000
;NOZZLE_DIAMETER2:0.400000

;Layer count: 58
;LAYER:0
M107
G0 F12000 X79.080 Y85.248 Z0.300
G0 X77.800 Y87.095
;TYPE:SKIRT
G1 F1200 X79.080 Y85.248 E0.26966
G1 X83.198 Y85.566 E0.76529
G1 X85.639 Y86.031 E1.06348
G1 X87.195 Y86.529 E1.25953
G1 X87.576 Y86.651 E1.30754
G1 X88.990 Y87.301 E1.49429
G1 X90.005 Y87.924 E1.63720
G1 X91.137 Y88.946 E1.82021
G1 X91.218 Y88.874 E1.83322
G1 X90.341 Y87.628 E2.01606
G1 X89.845 Y86.544 E2.15911
G1 X89.474 Y85.383 E2.30537
G1 X89.475 Y85.383 E2.30549
G1 X89.371 Y85.062 E2.34598
G1 X88.991 Y83.063 E2.59016
G1 X88.855 Y81.026 E2.83514
G1 X88.825 Y80.587 E2.88794
G1 X88.915 Y78.556 E3.13190
G1 X89.010 Y76.453 E3.38452
G1 X95.160 Y73.229 E4.21778
G1 X98.288 Y75.192 E4.66093
G1 X98.663 Y75.428 E4.71410
G1 X100.606 Y76.973 E5.01199
G1 X101.749 Y78.133 E5.20741
G1 X102.031 Y78.419 E5.25561
G1 X102.983 Y79.653 E5.44263
G1 X103.593 Y80.677 E5.58566
G1 X104.120 Y82.109 E5.76877
G1 X104.225 Y82.083 E5.78175
G1 X104.028 Y80.571 E5.96472
G1 X104.092 Y79.381 E6.10773
G1 X104.363 Y77.845 E6.29490
G1 X104.838 Y76.284 E6.49070
G1 X104.954 Y75.902 E6.53860
G1 X105.958 Y73.631 E6.83657
G1 X106.981 Y71.875 E7.08044
G1 X108.044 Y70.058 E7.33305
G1 X114.986 Y70.061 E8.16609
G1 X117.065 Y73.635 E8.66226
G1 X117.881 Y75.486 E8.90500
G1 X117.882 Y75.486 E8.90512
G1 X118.068 Y75.906 E8.96024
G1 X118.657 Y77.850 E9.20400
G1 X118.927 Y79.386 E9.39114
G1 X118.969 Y80.183 E9.48691
G1 X118.970 Y80.183 E9.48703
G1 X118.992 Y80.571 E9.53367
G1 X118.793 Y82.087 E9.71715
G1 X118.897 Y82.113 E9.73001
G1 X119.177 Y81.355 E9.82698
G1 X119.426 Y80.683 E9.91298
G1 X120.036 Y79.660 E10.05591
G1 X120.780 Y78.696 E10.20203
G1 X120.781 Y78.696 E10.20215
G1 X120.986 Y78.429 E10.24255
G1 X122.414 Y76.979 E10.48676
G1 X124.016 Y75.709 E10.73208
G1 X124.358 Y75.437 E10.78452
G1 X127.863 Y73.239 E11.28098
G1 X132.022 Y75.424 E11.84474
G1 X134.012 Y76.469 E12.11447
G1 X134.174 Y80.151 E12.55673
G1 X134.194 Y80.597 E12.61031
G1 X134.026 Y83.078 E12.90871
G1 X133.720 Y84.684 E13.10490
G1 X133.644 Y85.077 E13.15293
G1 X133.252 Y86.301 E13.30716
G1 X133.104 Y86.701 E13.35834
G1 X132.673 Y87.642 E13.48254
G1 X131.796 Y88.887 E13.66528
G1 X131.877 Y88.959 E13.67829
G1 X133.008 Y87.939 E13.86105
G1 X133.936 Y87.370 E13.99168
G1 X135.113 Y86.817 E14.14773
G1 X135.436 Y86.668 E14.19041
G1 X137.376 Y86.049 E14.43478
G1 X139.817 Y85.585 E14.73294
G1 X141.842 Y85.430 E14.97665
G1 X143.936 Y85.264 E15.22872
G1 X146.607 Y89.136 E15.79319
G1 X147.882 Y90.988 E16.06300
G1 X146.312 Y94.327 E16.50577
G1 X146.123 Y94.728 E16.55896
G1 X144.823 Y96.845 E16.85708
G1 X143.558 Y98.434 E17.10080
G1 X142.687 Y99.292 E17.24752
G1 X142.446 Y99.529 E17.28808
G1 X141.809 Y100.022 E17.38474
G1 X141.504 Y100.257 E17.43094
G1 X140.149 Y100.952 E17.61368
G1 X140.187 Y101.053 E17.62663
G1 X140.964 Y100.854 E17.72288
G1 X141.663 Y100.674 E17.80950
G1 X142.567 Y100.616 E17.91820
G1 X142.567 Y100.615 E17.91832
G1 X142.849 Y100.596 E17.95224
G1 X144.408 Y100.679 E18.13958
G1 X146.017 Y100.962 E18.33563
G1 X146.412 Y101.032 E18.38377
G1 X148.364 Y101.627 E18.62865
G1 X148.364 Y101.628 E18.62877
G1 X148.785 Y101.755 E18.68153
G1 X150.651 Y102.559 E18.92536
G1 X152.583 Y103.393 E19.17787
G1 X153.418 Y110.287 E20.01120
G1 X150.477 Y112.511 E20.45367
G1 X150.477 Y112.512 E20.45379
G1 X150.123 Y112.780 E20.50707
G1 X147.986 Y114.053 E20.80556
G1 X146.492 Y114.711 E21.00146
G1 X146.492 Y114.710 E21.00158
G1 X146.127 Y114.872 E21.04950
G1 X144.957 Y115.225 E21.19615
G1 X144.635 Y115.323 E21.23654
G1 X143.853 Y115.460 E21.33181
G1 X143.474 Y115.530 E21.37806
G1 X141.939 Y115.515 E21.56227
G1 X141.926 Y115.622 E21.57520
G1 X142.710 Y115.808 E21.67189
G1 X143.409 Y115.974 E21.75810
G1 X144.499 Y116.458 E21.90122
G1 X145.545 Y117.080 E22.04726
G1 X145.545 Y117.081 E22.04738
G1 X145.834 Y117.251 E22.08761
G1 X147.445 Y118.495 E22.33186
G1 X149.213 Y120.241 E22.63004
G1 X151.815 Y123.454 E23.12617
G1 X149.348 Y129.948 E23.95979
G1 X145.271 Y130.624 E24.45571
G1 X142.790 Y130.757 E24.75386
G1 X140.763 Y130.620 E24.99765
G1 X139.231 Y130.326 E25.18485
G1 X138.459 Y130.080 E25.28208
G1 X138.094 Y129.962 E25.32811
G1 X136.754 Y129.243 E25.51059
G1 X136.693 Y129.332 E25.52354
G1 X137.302 Y129.862 E25.62042
G1 X137.843 Y130.333 E25.70650
G1 X138.404 Y131.040 E25.81480
G1 X138.582 Y131.263 E25.84904
G1 X139.314 Y132.456 E26.01700
G1 X140.241 Y134.425 E26.27816
G1 X140.866 Y136.388 E26.52537
G1 X140.865 Y136.388 E26.52549
G1 X140.999 Y136.804 E26.57793
G1 X141.811 Y140.861 E27.07443
G1 X136.610 Y145.467 E27.90811
G1 X132.684 Y144.170 E28.40427
G1 X130.426 Y143.135 E28.70234
G1 X129.033 Y142.279 E28.89854
G1 X128.693 Y142.069 E28.94650
G1 X127.615 Y141.211 E29.11183
G1 X126.657 Y140.278 E29.27230
G1 X125.785 Y138.989 E29.45905
G1 X125.689 Y139.039 E29.47204
G1 X126.243 Y140.460 E29.65506
G1 X126.444 Y141.531 E29.78582
G1 X126.569 Y143.171 E29.98319
G1 X126.482 Y144.813 E30.18051
G1 X126.461 Y145.214 E30.22870
G1 X126.028 Y147.661 E30.52690
G1 X124.862 Y151.626 E31.02284
G1 X118.117 Y153.287 E31.85643
G1 X115.244 Y150.315 E32.35246
G1 X113.725 Y148.349 E32.65060
G1 X112.890 Y146.944 E32.84672
G1 X112.686 Y146.601 E32.89461
G1 X112.058 Y145.175 E33.08159
G1 X111.824 Y144.404 E33.17828
G1 X111.712 Y144.038 E33.22421
G1 X111.543 Y142.522 E33.40726
G1 X111.435 Y142.522 E33.42022
G1 X111.265 Y144.035 E33.60292
G1 X110.918 Y145.174 E33.74580
G1 X110.380 Y146.394 E33.90580
G1 X110.124 Y146.877 E33.97140
G1 X109.249 Y148.347 E34.17669
G1 X107.998 Y149.964 E34.42202
G1 X107.728 Y150.313 E34.47497
G1 X104.854 Y153.283 E34.97092
G1 X98.110 Y151.618 E35.80449
G1 X96.946 Y147.651 E36.30060
G1 X96.595 Y145.655 E36.54380
G1 X96.516 Y145.206 E36.59851
G1 X96.408 Y143.176 E36.84245
G1 X96.514 Y141.622 E37.02936
G1 X96.665 Y140.821 E37.12718
G1 X96.740 Y140.442 E37.17354
G1 X97.291 Y139.030 E37.35542
G1 X97.195 Y138.980 E37.36841
G1 X96.744 Y139.647 E37.46503
G1 X96.341 Y140.242 E37.55127
G1 X95.503 Y141.089 E37.69425
G1 X94.283 Y142.059 E37.88128
G1 X92.899 Y142.909 E38.07618
G1 X92.555 Y143.121 E38.12467
G1 X90.293 Y144.157 E38.42323
G1 X86.365 Y145.450 E38.91947
G1 X82.853 Y142.334 E39.48288
G1 X82.852 Y142.335 E39.48305
G1 X81.169 Y140.843 E39.75294
G1 X81.981 Y136.789 E40.24908
G1 X82.738 Y134.422 E40.54729
G1 X83.585 Y132.575 E40.79113
G1 X84.402 Y131.248 E40.97813
G1 X85.142 Y130.315 E41.12103
G1 X86.293 Y129.315 E41.30400
G1 X86.232 Y129.227 E41.31685
G1 X84.887 Y129.948 E41.49997
G1 X84.017 Y130.224 E41.60950
G1 X84.017 Y130.223 E41.60962
G1 X83.759 Y130.306 E41.64214
G1 X82.224 Y130.600 E41.82969
G1 X80.196 Y130.737 E42.07361
G1 X78.152 Y130.626 E42.31925
G1 X77.711 Y130.601 E42.37225
G1 X75.709 Y130.268 E42.61579
G1 X73.635 Y129.918 E42.86819
G1 X71.176 Y123.427 E43.70113
G1 X73.780 Y120.216 E44.19723
G1 X75.218 Y118.798 E44.43958
G1 X75.546 Y118.474 E44.49490
G1 X77.157 Y117.231 E44.73908
G1 X78.209 Y116.606 E44.88592
G1 X78.501 Y116.433 E44.92664
G1 X79.587 Y115.953 E45.06913
G1 X81.070 Y115.603 E45.25198
G1 X81.057 Y115.495 E45.26503
G1 X79.534 Y115.509 E45.44780
G1 X78.362 Y115.301 E45.59063
G1 X77.195 Y114.948 E45.73694
G1 X76.867 Y114.848 E45.77809
G1 X75.012 Y114.029 E46.02142
G1 X73.253 Y112.981 E46.26712
G1 X72.873 Y112.754 E46.32024
G1 X69.581 Y110.260 E46.81585
G1 X70.421 Y103.364 E47.64948
G1 X73.813 Y101.906 E48.09253
G1 X74.216 Y101.732 E48.14521
G1 X76.596 Y101.009 E48.44369
G1 X78.597 Y100.658 E48.68748
G1 X79.816 Y100.593 E48.83397
G1 X79.816 Y100.594 E48.83409
G1 X80.151 Y100.575 E48.87435
G1 X81.342 Y100.655 E49.01760
G1 X82.818 Y101.034 E49.20046
G1 X82.857 Y100.933 E49.21345
G1 X82.138 Y100.564 E49.31043
G1 X81.500 Y100.236 E49.39652
G1 X80.640 Y99.570 E49.52704
G1 X79.457 Y98.425 E49.72461
G1 X78.185 Y96.822 E49.97017
G1 X76.886 Y94.705 E50.26822
G1 X75.129 Y90.964 E50.76419
G1 X77.800 Y87.095 E51.32836
G10
G1 Z0.400
G0 F12000 X81.159 Y89.621
;TYPE:WALL-INNER
G1 Z0.300
G11
G1 F1200 X82.644 Y89.736 E51.50709
G1 X84.602 Y90.109 E51.74628
G1 X85.912 Y90.528 E51.91133
G1 X86.047 Y90.571 E51.92833
G1 X87.014 Y91.016 E52.05606
G1 X87.478 Y91.301 E52.12141
G1 X90.005 Y93.583 E52.53000
G1 X90.728 Y93.957 E52.62768
G1 X91.682 Y93.914 E52.74227
G1 X92.325 Y93.502 E52.83391
G1 X95.596 Y90.607 E53.35809
G1 X96.084 Y90.017 E53.44997
G1 X96.241 Y89.075 E53.56457
G1 X95.957 Y88.312 E53.66226
G1 X93.998 Y85.527 E54.07086
G1 X93.771 Y85.031 E54.13632
G1 X93.475 Y84.105 E54.25298
G1 X93.448 Y84.021 E54.26357
G1 X93.165 Y82.534 E54.44521
G1 X93.046 Y80.746 E54.66024
G1 X93.032 Y80.534 E54.68574
G1 X93.097 Y79.053 E54.86363
G1 X94.972 Y78.070 E55.11768
G1 X96.053 Y78.748 E55.27080
G1 X96.229 Y78.859 E55.29577
G1 X97.794 Y80.103 E55.53567
G1 X98.862 Y81.187 E55.71828
G1 X99.502 Y82.017 E55.84405
G1 X99.788 Y82.496 E55.91100
G1 X100.772 Y85.171 E56.25303
G1 X100.962 Y85.687 E56.31901
G1 X101.430 Y86.356 E56.41698
G1 X102.293 Y86.760 E56.53133
G1 X103.054 Y86.696 E56.62297
G1 X103.641 Y86.552 E56.69550
G1 X107.297 Y85.651 E57.14735
G1 X108.001 Y85.356 E57.23894
G1 X108.581 Y84.596 E57.35367
G1 X108.682 Y83.785 E57.45174
G1 X108.243 Y80.413 E57.85980
G1 X108.273 Y79.860 E57.92625
G1 X108.456 Y78.824 E58.05250
G1 X108.898 Y77.368 E58.23509
G1 X109.707 Y75.540 E58.47497
G1 X110.453 Y74.259 E58.65286
G1 X112.570 Y74.260 E58.90690
G1 X113.315 Y75.541 E59.08473
G1 X114.123 Y77.372 E59.32489
G1 X114.564 Y78.825 E59.50710
G1 X114.746 Y79.861 E59.63333
G1 X114.776 Y80.411 E59.69942
G1 X114.334 Y83.789 E60.10824
G1 X114.437 Y84.597 E60.20598
G1 X115.013 Y85.358 E60.32051
G1 X115.719 Y85.654 E60.41238
G1 X119.959 Y86.701 E60.93646
G1 X120.721 Y86.766 E61.02823
G1 X121.585 Y86.363 E61.14264
G1 X122.052 Y85.694 E61.24054
G1 X123.230 Y82.503 E61.64872
G1 X123.516 Y82.024 E61.71567
G1 X124.105 Y81.262 E61.83124
G1 X124.160 Y81.192 E61.84192
G1 X125.224 Y80.112 E62.02385
G1 X126.626 Y79.000 E62.23859
G1 X126.791 Y78.868 E62.26394
G1 X128.048 Y78.080 E62.44197
G1 X129.922 Y79.065 E62.69602
G1 X129.978 Y80.341 E62.84929
G1 X129.987 Y80.547 E62.87403
G1 X129.852 Y82.547 E63.11458
G1 X129.596 Y83.891 E63.27876
G1 X129.566 Y84.039 E63.29688
G1 X129.280 Y84.932 E63.40940
G1 X129.018 Y85.537 E63.48852
G1 X127.374 Y87.872 E63.83120
G1 X127.056 Y88.322 E63.89732
G1 X126.772 Y89.086 E63.99513
G1 X126.929 Y90.027 E64.10961
G1 X127.415 Y90.617 E64.20134
G1 X130.231 Y93.113 E64.65290
G1 X130.684 Y93.515 E64.72557
G1 X131.329 Y93.928 E64.81748
G1 X132.282 Y93.971 E64.93196
G1 X133.006 Y93.596 E65.02980
G1 X135.537 Y91.315 E65.43866
G1 X135.931 Y91.073 E65.49415
G1 X136.885 Y90.625 E65.62062
G1 X136.964 Y90.590 E65.63099
G1 X138.416 Y90.126 E65.81391
G1 X140.368 Y89.755 E66.05235
G1 X141.854 Y89.642 E66.23118
G1 X143.055 Y91.384 E66.48509
G1 X142.421 Y92.730 E66.66363
G1 X141.378 Y94.429 E66.90286
G1 X140.431 Y95.620 E67.08545
G1 X139.744 Y96.296 E67.20111
G1 X139.243 Y96.696 E67.27804
G1 X136.215 Y98.249 E67.68641
G1 X135.608 Y98.792 E67.78414
G1 X135.309 Y99.699 E67.89874
G1 X135.466 Y100.448 E67.99057
G1 X137.014 Y104.533 E68.51479
G1 X137.393 Y105.196 E68.60643
G1 X138.216 Y105.680 E68.72100
G1 X139.033 Y105.684 E68.81904
G1 X142.011 Y104.922 E69.18792
G1 X142.326 Y104.840 E69.22698
G1 X142.851 Y104.806 E69.29011
G1 X142.879 Y104.804 E69.29348
G1 X143.934 Y104.860 E69.42026
G1 X145.285 Y105.098 E69.58487
G1 X145.436 Y105.125 E69.60328
G1 X147.333 Y105.703 E69.84125
G1 X148.703 Y106.293 E70.02025
G1 X148.958 Y108.394 E70.27422
G1 X147.939 Y109.165 E70.42756
G1 X147.772 Y109.291 E70.45266
G1 X146.057 Y110.313 E70.69223
G1 X144.666 Y110.926 E70.87464
G1 X143.741 Y111.205 E70.99058
G1 X143.112 Y111.326 E71.06744
G1 X139.712 Y111.294 E71.47546
G1 X138.921 Y111.492 E71.57331
G1 X138.235 Y112.158 E71.68804
G1 X138.027 Y112.894 E71.77982
G1 X137.499 Y117.229 E72.30387
G1 X137.525 Y117.993 E72.39560
G1 X138.031 Y118.803 E72.51021
G1 X138.751 Y119.186 E72.60807
G1 X142.061 Y119.971 E73.01629
G1 X142.570 Y120.197 E73.08312
G1 X143.398 Y120.690 E73.19876
G1 X144.669 Y121.657 E73.39040
G1 X146.101 Y123.072 E73.63198
G1 X147.031 Y124.220 E73.80927
G1 X146.279 Y126.199 E74.06332
G1 X144.813 Y126.442 E74.24164
G1 X142.819 Y126.549 E74.48127
G1 X141.298 Y126.446 E74.66420
G1 X140.272 Y126.249 E74.78957
G1 X139.742 Y126.080 E74.85633
G1 X137.229 Y124.731 E75.19859
G1 X136.745 Y124.470 E75.26458
G1 X135.951 Y124.279 E75.36258
G1 X135.036 Y124.550 E75.47709
G1 X134.509 Y125.104 E75.56884
G1 X132.027 Y128.698 E76.09297
G1 X131.694 Y129.387 E76.18480
G1 X131.767 Y130.339 E76.29938
G1 X132.226 Y131.012 E76.39713
G1 X134.793 Y133.246 E76.80549
G1 X135.119 Y133.657 E76.86844
G1 X135.611 Y134.451 E76.98053
G1 X136.324 Y135.965 E77.18135
G1 X136.863 Y137.663 E77.39513
G1 X136.927 Y137.860 E77.41999
G1 X137.218 Y139.317 E77.59828
G1 X135.634 Y140.721 E77.85228
G1 X134.219 Y140.253 E78.03112
G1 X132.409 Y139.424 E78.27002
G1 X131.235 Y138.702 E78.43541
G1 X131.111 Y138.626 E78.45286
G1 X130.396 Y138.056 E78.56259
G1 X129.894 Y137.568 E78.64660
G1 X127.994 Y134.759 E79.05355
G1 X127.381 Y134.222 E79.15135
G1 X126.445 Y134.035 E79.26589
G1 X125.721 Y134.280 E79.35761
G1 X121.853 Y136.309 E79.88175
G1 X121.239 Y136.764 E79.97346
G1 X120.859 Y137.641 E80.08815
G1 X120.952 Y138.451 E80.18599
G1 X122.186 Y141.617 E80.59375
G1 X122.274 Y142.084 E80.65077
G1 X122.361 Y143.216 E80.78701
G1 X122.280 Y144.736 E80.96967
G1 X121.932 Y146.706 E81.20973
G1 X121.514 Y148.125 E81.38725
G1 X119.458 Y148.632 E81.64136
G1 X118.426 Y147.563 E81.81966
G1 X117.206 Y145.985 E82.05901
G1 X116.426 Y144.671 E82.24238
G1 X116.004 Y143.715 E82.36778
G1 X115.843 Y143.187 E82.43402
G1 X115.465 Y139.803 E82.84263
G1 X115.172 Y139.041 E82.94060
G1 X114.429 Y138.441 E83.05520
G1 X113.673 Y138.322 E83.14703
G1 X109.913 Y138.322 E83.59823
G1 X109.307 Y138.321 E83.67095
G1 X108.551 Y138.440 E83.76279
G1 X107.809 Y139.039 E83.87722
G1 X107.515 Y139.799 E83.97501
G1 X107.134 Y143.182 E84.38354
G1 X106.972 Y143.713 E84.45016
G1 X106.599 Y144.560 E84.56121
G1 X105.774 Y145.975 E84.75777
G1 X104.548 Y147.559 E84.99813
G1 X103.516 Y148.626 E85.17626
G1 X101.461 Y148.119 E85.43026
G1 X101.042 Y146.689 E85.60907
G1 X100.732 Y144.927 E85.82376
G1 X100.697 Y144.728 E85.84801
G1 X100.616 Y143.207 E86.03078
G1 X100.688 Y142.156 E86.15720
G1 X100.790 Y141.617 E86.22303
G1 X102.027 Y138.446 E86.63148
G1 X102.123 Y137.636 E86.72936
G1 X101.744 Y136.759 E86.84400
G1 X101.130 Y136.302 E86.93585
G1 X100.594 Y136.021 E87.00847
G1 X97.263 Y134.271 E87.46000
G1 X96.539 Y134.025 E87.55176
G1 X95.603 Y134.210 E87.66625
G1 X94.989 Y134.748 E87.76421
G1 X93.082 Y137.563 E88.17223
G1 X92.693 Y137.957 E88.23867
G1 X91.862 Y138.618 E88.36609
G1 X90.694 Y139.334 E88.53049
G1 X90.568 Y139.412 E88.54827
G1 X88.762 Y140.239 E88.78663
G1 X87.345 Y140.705 E88.96563
G1 X85.761 Y139.301 E89.21963
G1 X86.052 Y137.850 E89.39722
G1 X86.662 Y135.940 E89.63782
G1 X87.295 Y134.561 E89.81991
G1 X87.849 Y133.661 E89.94673
G1 X88.190 Y133.231 E90.01258
G1 X90.759 Y130.998 E90.42104
G1 X91.219 Y130.325 E90.51886
G1 X91.292 Y129.374 E90.63332
G1 X90.961 Y128.685 E90.72505
G1 X88.480 Y125.088 E91.24940
G1 X87.953 Y124.534 E91.34116
G1 X87.038 Y124.263 E91.45567
G1 X86.245 Y124.454 E91.55355
G1 X83.246 Y126.062 E91.96190
G1 X82.746 Y126.220 E92.02483
G1 X81.690 Y126.426 E92.15393
G1 X80.168 Y126.529 E92.33699
G1 X78.383 Y126.432 E92.55151
G1 X78.175 Y126.421 E92.57650
G1 X76.709 Y126.177 E92.75484
G1 X75.959 Y124.198 E93.00880
G1 X76.897 Y123.040 E93.18763
G1 X78.172 Y121.785 E93.40232
G1 X78.315 Y121.643 E93.42650
