;FLAVOR:UltiGCode
;TIME:2278
;MATERIAL:2934
;MATERIAL2:0
;NOZZLE_DIAMETER:0.400000
;NOZZLE_DIAMETER2:0.400000

;Layer count: 114
;LAYER:0
M107
G0 F12000 X69.550 Y96.173 Z0.300
;TYPE:SKIRT
G1 F1200 X78.950 Y96.173 E1.12800
G1 X78.950 Y103.657 E2.02608
G1 X115.011 Y109.598 E6.41173
G1 X115.126 Y109.525 E6.42808
G1 X115.964 Y109.132 E6.53915
G1 X116.823 Y108.821 E6.64878
G1 X117.688 Y108.605 E6.75576
G1 X118.594 Y108.469 E6.86570
G1 X119.499 Y108.424 E6.97444
G1 X120.385 Y108.467 E7.08088
G1 X121.290 Y108.600 E7.19065
G1 X122.155 Y108.815 E7.29761
G1 X123.001 Y109.117 E7.40540
G1 X123.356 Y109.283 E7.45243
G1 X144.050 Y103.899 E10.01838
G1 X144.050 Y96.173 E10.94550
G1 X153.450 Y96.173 E12.07350
G1 X153.450 Y111.168 E13.87290
G1 X150.450 Y111.947 E14.24484
G1 X150.450 Y116.979 E14.84868
G1 X147.031 Y117.805 E15.27076
G1 X136.275 Y120.411 E16.59882
G1 X136.275 Y115.634 E17.17206
G1 X128.701 Y117.605 E18.11121
G1 X128.703 Y117.659 E18.11770
G1 X128.658 Y118.530 E18.22236
G1 X128.530 Y119.405 E18.32847
G1 X128.308 Y120.296 E18.43866
G1 X128.034 Y121.064 E18.53651
G1 X127.968 Y121.222 E18.55706
G1 X127.625 Y121.949 E18.65352
G1 X127.162 Y122.727 E18.76216
G1 X126.616 Y123.462 E18.87204
G1 X126.020 Y124.124 E18.97893
G1 X125.351 Y124.729 E19.08717
G1 X124.618 Y125.278 E19.19706
G1 X123.837 Y125.745 E19.30626
G1 X123.020 Y126.131 E19.41469
G1 X122.173 Y126.434 E19.52264
G1 X121.294 Y126.656 E19.63143
G1 X120.401 Y126.786 E19.73972
G1 X119.500 Y126.832 E19.84798
G1 X118.599 Y126.786 E19.95624
G1 X117.705 Y126.656 E20.06465
G1 X116.825 Y126.434 E20.17356
G1 X115.977 Y126.131 E20.28162
G1 X115.161 Y125.745 E20.38994
G1 X114.385 Y125.281 E20.49844
G1 X113.662 Y124.742 E20.60666
G1 X112.990 Y124.137 E20.71516
G1 X112.395 Y123.477 E20.82180
G1 X111.859 Y122.759 E20.92932
G1 X111.492 Y122.151 E21.01454
G1 X111.397 Y122.000 E21.03595
G1 X111.005 Y121.163 E21.14686
G1 X110.692 Y120.303 E21.25668
G1 X110.477 Y119.435 E21.36399
G1 X110.341 Y118.534 E21.47333
G1 X110.332 Y118.356 E21.49472
G1 X69.550 Y111.636 E26.45455
G1 X69.550 Y96.173 E28.31011
G10
G1 Z0.400
G0 F12000 X73.750 Y100.373
;TYPE:WALL-INNER
G1 Z0.300
G11
G1 F1200 X74.750 Y100.373 E28.43011
G1 X74.750 Y107.222 E29.25199
G1 X115.988 Y114.017 E34.26728
G1 X116.719 Y113.473 E34.37663
G1 X117.149 Y113.215 E34.43680
G1 X117.573 Y113.016 E34.49301
G1 X118.051 Y112.843 E34.55401
G1 X118.506 Y112.730 E34.61027
G1 X119.011 Y112.654 E34.67155
G1 X119.500 Y112.629 E34.73031
G1 X119.985 Y112.653 E34.78858
G1 X120.475 Y112.725 E34.84801
G1 X120.935 Y112.839 E34.90488
G1 X121.400 Y113.005 E34.96413
G1 X121.866 Y113.223 E35.02586
G1 X122.268 Y113.465 E35.08217
G1 X122.707 Y113.792 E35.14786
G1 X148.250 Y107.146 E38.31507
G1 X148.250 Y100.373 E39.12783
G1 X149.250 Y100.373 E39.24783
G1 X149.250 Y107.920 E40.15347
G1 X146.250 Y108.699 E40.52541
G1 X141.341 Y109.976 E41.13410
G1 X140.419 Y110.215 E41.24839
G1 X123.687 Y114.571 E43.32316
G1 X124.282 Y116.174 E43.52834
G1 X124.402 Y116.651 E43.58737
G1 X124.473 Y117.139 E43.64654
G1 X124.499 Y117.636 E43.70627
G1 X124.473 Y118.116 E43.76395
G1 X124.404 Y118.595 E43.82202
G1 X124.282 Y119.081 E43.88215
G1 X124.121 Y119.535 E43.93996
G1 X123.912 Y119.977 E43.99863
G1 X123.669 Y120.386 E44.05572
G1 X123.357 Y120.805 E44.11840
G1 X123.047 Y121.150 E44.17406
G1 X122.670 Y121.490 E44.23498
G1 X122.278 Y121.784 E44.29378
G1 X121.858 Y122.036 E44.35256
G1 X121.419 Y122.243 E44.41080
G1 X120.950 Y122.411 E44.47058
G1 X120.476 Y122.530 E44.52923
G1 X119.987 Y122.602 E44.58854
G1 X119.500 Y122.626 E44.64705
G1 X119.011 Y122.601 E44.70581
G1 X118.523 Y122.530 E44.76499
G1 X118.048 Y122.411 E44.82375
G1 X117.584 Y122.245 E44.88288
G1 X117.138 Y122.033 E44.94214
G1 X116.724 Y121.786 E44.99999
G1 X116.333 Y121.495 E45.05848
G1 X115.964 Y121.163 E45.11804
G1 X115.642 Y120.805 E45.17583
G1 X115.350 Y120.414 E45.23439
G1 X115.092 Y119.988 E45.29415
G1 X114.888 Y119.551 E45.35202
G1 X114.715 Y119.077 E45.41257
G1 X114.601 Y118.615 E45.46968
G1 X114.526 Y118.116 E45.53023
G1 X114.501 Y117.628 E45.58886
G1 X114.525 Y117.152 E45.64606
G1 X114.599 Y116.640 E45.70814
G1 X114.714 Y116.180 E45.76503
G1 X115.183 Y114.897 E45.92896
G1 X73.750 Y108.071 E50.96794
G1 X73.750 Y100.373 E51.89170
G0 F12000 X73.302 Y108.451
G0 X114.543 Y115.272
G0 X115.891 Y116.447
G1 F1200 X115.775 Y116.931 E51.95143
G1 X115.746 Y117.889 E52.06644
G1 X115.781 Y118.353 E52.12228
G1 X115.891 Y118.809 E52.17857
G1 X116.077 Y119.253 E52.23633
G1 X116.325 Y119.653 E52.29281
G1 X116.631 Y120.009 E52.34914
G1 X116.984 Y120.310 E52.40481
G1 X117.393 Y120.558 E52.46221
G1 X117.820 Y120.736 E52.51772
G1 X118.276 Y120.845 E52.57398
G1 X118.708 Y120.881 E52.62600
G1 X120.292 Y120.881 E52.81608
G1 X120.723 Y120.845 E52.86798
G1 X121.178 Y120.736 E52.92413
G1 X121.616 Y120.555 E52.98100
G1 X122.024 Y120.303 E53.03855
G1 X122.381 Y119.997 E53.09497
G1 X122.680 Y119.644 E53.15048
G1 X122.928 Y119.243 E53.20706
G1 X123.108 Y118.805 E53.26389
G1 X123.223 Y118.324 E53.32323
G1 X123.252 Y117.367 E53.43813
G1 X123.217 Y116.902 E53.49408
G1 X123.108 Y116.449 E53.55000
G1 X122.927 Y116.012 E53.60676
G1 X122.676 Y115.604 E53.66424
G1 X122.374 Y115.251 E53.71999
G1 X122.009 Y114.942 E53.77737
G1 X121.617 Y114.702 E53.83253
G1 X121.181 Y114.519 E53.88927
G1 X120.688 Y114.401 E53.95010
G1 X118.756 Y114.376 E54.18196
G1 X118.284 Y114.407 E54.23872
G1 X117.818 Y114.519 E54.29624
G1 X117.377 Y114.705 E54.35367
G1 X116.980 Y114.948 E54.40953
G1 X116.618 Y115.261 E54.46695
G1 X116.315 Y115.618 E54.52314
G1 X116.074 Y116.011 E54.57846
G1 X115.891 Y116.447 E54.63521
G0 F12000 X116.272 Y116.572
G1 F1200 X116.173 Y116.984 E54.68605
G1 X116.146 Y117.880 E54.79362
G1 X116.177 Y118.290 E54.84296
G1 X116.272 Y118.684 E54.89160
G1 X116.434 Y119.069 E54.94172
G1 X116.648 Y119.416 E54.99064
G1 X116.914 Y119.724 E55.03948
G1 X117.219 Y119.985 E55.08765
G1 X117.575 Y120.201 E55.13762
G1 X117.945 Y120.354 E55.18567
G1 X118.340 Y120.449 E55.23442
G1 X118.724 Y120.481 E55.28066
G1 X120.276 Y120.481 E55.46690
G1 X120.659 Y120.449 E55.51302
G1 X121.055 Y120.355 E55.56186
G1 X121.433 Y120.198 E55.61097
G1 X121.787 Y119.979 E55.66093
G1 X122.096 Y119.714 E55.70977
G1 X122.356 Y119.409 E55.75787
G1 X122.570 Y119.060 E55.80699
G1 X122.727 Y118.681 E55.85622
G1 X122.825 Y118.271 E55.90681
G1 X122.852 Y117.376 E56.01426
G1 X122.821 Y116.965 E56.06372
G1 X122.726 Y116.573 E56.11212
G1 X122.570 Y116.195 E56.16119
G1 X122.351 Y115.841 E56.21114
G1 X122.091 Y115.535 E56.25933
G1 X121.774 Y115.267 E56.30914
G1 X121.434 Y115.059 E56.35697
G1 X121.056 Y114.900 E56.40618
G1 X120.639 Y114.800 E56.45764
G1 X118.767 Y114.776 E56.68230
G1 X118.345 Y114.804 E56.73305
G1 X117.943 Y114.900 E56.78264
G1 X117.560 Y115.062 E56.83255
G1 X117.217 Y115.272 E56.88081
G1 X116.903 Y115.543 E56.93058
G1 X116.640 Y115.853 E56.97936
G1 X116.431 Y116.194 E57.02736
G1 X116.272 Y116.572 E57.07657
G0 F12000 X114.330 Y116.067
G1 F1200 X114.641 Y115.213 E57.18563
G1 X73.350 Y108.411 E62.20733
G1 X73.350 Y99.973 E63.21989
G1 X75.150 Y99.973 E63.43589
G1 X75.150 Y106.882 E64.26497
G1 X115.886 Y113.594 E69.21920
G1 X116.502 Y113.136 E69.31132
G1 X116.960 Y112.862 E69.37536
G1 X117.422 Y112.645 E69.43661
G1 X117.932 Y112.461 E69.50167
G1 X118.434 Y112.335 E69.56378
G1 X118.971 Y112.255 E69.62893
G1 X119.501 Y112.228 E69.69262
G1 X120.010 Y112.253 E69.75377
G1 X120.559 Y112.334 E69.82036
G1 X121.052 Y112.456 E69.88131
G1 X121.560 Y112.638 E69.94606
G1 X122.044 Y112.864 E70.01016
G1 X122.495 Y113.134 E70.07324
G1 X122.792 Y113.356 E70.11773
G1 X147.850 Y106.837 E73.22479
G1 X147.850 Y99.973 E74.04847
G1 X149.650 Y99.973 E74.26447
G1 X149.650 Y108.229 E75.25519
G1 X146.650 Y109.008 E75.62712
G1 X146.650 Y113.988 E76.22472
G1 X140.075 Y115.581 E77.03655
G1 X140.075 Y110.719 E77.61999
G1 X124.216 Y114.846 E79.58645
G1 X124.665 Y116.057 E79.74144
G1 X124.796 Y116.574 E79.80544
G1 X124.873 Y117.103 E79.86959
G1 X124.900 Y117.636 E79.93363
G1 X124.873 Y118.152 E79.99564
G1 X124.798 Y118.667 E80.05809
G1 X124.665 Y119.199 E80.12389
G1 X124.494 Y119.680 E80.18515
G1 X124.267 Y120.161 E80.24898
G1 X123.998 Y120.613 E80.31210
G1 X123.668 Y121.058 E80.37858
G1 X123.326 Y121.437 E80.43984
G1 X122.936 Y121.790 E80.50296
G1 X122.499 Y122.118 E80.56853
G1 X122.039 Y122.392 E80.63278
G1 X121.571 Y122.614 E80.69494
G1 X121.069 Y122.793 E80.75889
G1 X120.553 Y122.923 E80.82275
G1 X120.024 Y123.001 E80.88691
G1 X119.500 Y123.027 E80.94987
G1 X118.975 Y123.001 E81.01295
G1 X118.446 Y122.924 E81.07710
G1 X117.929 Y122.793 E81.14110
G1 X117.431 Y122.615 E81.20456
G1 X116.956 Y122.390 E81.26763
G1 X116.496 Y122.115 E81.33194
G1 X116.081 Y121.806 E81.39403
G1 X115.681 Y121.446 E81.45861
G1 X115.333 Y121.060 E81.52098
G1 X115.014 Y120.633 E81.58494
G1 X114.734 Y120.167 E81.65017
G1 X114.520 Y119.710 E81.71073
G1 X114.330 Y119.189 E81.77728
G1 X114.208 Y118.697 E81.83810
G1 X114.127 Y118.155 E81.90387
G1 X114.100 Y117.627 E81.96731
G1 X114.125 Y117.118 E82.02846
G1 X114.206 Y116.567 E82.09529
G1 X114.330 Y116.067 E82.15711
G0 F12000 X118.767 Y114.776
G0 X121.433 Y115.060
G0 X139.997 Y110.820
G0 X140.819 Y114.634
G1 F1200 X145.898 Y113.402 E82.78427
G1 X145.898 Y109.204 E83.28803
G1 X140.819 Y110.525 E83.91778
G1 X140.819 Y114.634 E84.41086
G0 F12000 X141.219 Y114.125
;TYPE:WALL-OUTER
G1 F1200 X145.498 Y113.087 E84.93923
G1 X145.498 Y109.721 E85.34315
G1 X141.219 Y110.834 E85.87372
G1 X141.219 Y114.125 E86.26864
G0 F12000 X140.919 Y114.125
G0 X139.975 Y111.236
G0 X139.675 Y111.236
G1 F1200 X124.745 Y115.122 E88.11993
G1 X125.049 Y115.941 E88.22477
G1 X125.188 Y116.495 E88.29331
G1 X125.270 Y117.053 E88.36098
G1 X125.299 Y117.623 E88.42947
G1 X125.300 Y117.638 E88.43128
G1 X125.270 Y118.197 E88.49845
G1 X125.190 Y118.746 E88.56503
G1 X125.048 Y119.316 E88.63552
G1 X124.863 Y119.834 E88.70153
G1 X124.621 Y120.349 E88.76981
G1 X124.331 Y120.837 E88.83793
G1 X123.983 Y121.304 E88.90782
G1 X123.605 Y121.725 E88.97571
G1 X123.191 Y122.099 E89.04266
G1 X122.725 Y122.448 E89.11253
G1 X122.229 Y122.745 E89.18190
G1 X121.715 Y122.988 E89.25013
G1 X121.188 Y123.176 E89.31727
G1 X120.631 Y123.316 E89.38619
G1 X120.070 Y123.398 E89.45422
G1 X119.500 Y123.427 E89.52271
G1 X118.930 Y123.398 E89.59120
G1 X118.367 Y123.316 E89.65947
G1 X117.810 Y123.176 E89.72839
G1 X117.287 Y122.989 E89.79504
G1 X116.766 Y122.742 E89.86423
G1 X116.269 Y122.445 E89.93371
G1 X115.827 Y122.116 E89.99983
G1 X115.396 Y121.727 E90.06950
G1 X115.022 Y121.312 E90.13654
G1 X114.682 Y120.857 E90.20470
G1 X114.384 Y120.362 E90.27404
G1 X114.148 Y119.858 E90.34082
G1 X113.948 Y119.310 E90.41082
G1 X113.816 Y118.776 E90.47683
G1 X113.729 Y118.195 E90.54733
G1 X113.700 Y117.628 E90.61546
G1 X113.728 Y117.069 E90.68262
G1 X113.812 Y116.492 E90.75259
G1 X113.947 Y115.947 E90.81997
G1 X114.100 Y115.530 E90.87327
G1 X72.950 Y108.751 E95.87783
G1 X72.950 Y99.573 E96.97919
G1 X75.550 Y99.573 E97.29119
G1 X75.550 Y106.543 E98.12759
G1 X115.783 Y113.172 E103.02064
G1 X116.269 Y112.810 E103.09336
G1 X116.765 Y112.512 E103.16280
G1 X117.268 Y112.276 E103.22947
G1 X117.816 Y112.077 E103.29943
G1 X118.350 Y111.944 E103.36547
G1 X118.932 Y111.857 E103.43609
G1 X119.500 Y111.828 E103.50433
G1 X120.057 Y111.856 E103.57126
G1 X120.634 Y111.940 E103.64123
G1 X121.173 Y112.074 E103.70788
G1 X121.703 Y112.263 E103.77540
G1 X122.237 Y112.513 E103.84616
G1 X122.718 Y112.802 E103.91349
G1 X122.877 Y112.921 E103.93732
G1 X147.450 Y106.528 E106.98424
G1 X147.450 Y99.573 E107.81884
G1 X150.050 Y99.573 E108.13084
G1 X150.050 Y108.538 E109.20664
G1 X147.050 Y109.317 E109.57858
G1 X147.050 Y114.303 E110.17690
G1 X139.675 Y116.089 E111.08748
G1 X139.675 Y111.236 E111.66984
G0 F12000 X139.975 Y111.236
G0 X139.997 Y110.820
G0 X124.303 Y114.892
G0 X122.622 Y116.583
G0 X122.345 Y116.697
G1 F1200 X122.213 Y116.378 E111.71127
G1 X122.027 Y116.077 E111.75373
G1 X121.808 Y115.820 E111.79425
G1 X121.539 Y115.592 E111.83657
G1 X121.251 Y115.416 E111.87707
G1 X120.931 Y115.281 E111.91875
G1 X120.589 Y115.199 E111.96095
G1 X118.778 Y115.176 E112.17829
G1 X118.405 Y115.201 E112.22315
G1 X118.068 Y115.281 E112.26471
G1 X117.743 Y115.419 E112.30708
G1 X117.454 Y115.596 E112.34775
G1 X117.188 Y115.826 E112.38995
G1 X116.965 Y116.088 E112.43123
G1 X116.788 Y116.377 E112.47190
G1 X116.653 Y116.697 E112.51358
G1 X116.572 Y117.037 E112.55552
G1 X116.547 Y117.871 E112.65564
G1 X116.574 Y118.228 E112.69861
G1 X116.653 Y118.559 E112.73944
G1 X116.791 Y118.885 E112.78192
G1 X116.972 Y119.179 E112.82335
G1 X117.197 Y119.440 E112.86470
G1 X117.454 Y119.660 E112.90530
G1 X117.756 Y119.843 E112.94767
G1 X118.069 Y119.973 E112.98834
G1 X118.403 Y120.053 E113.02956
G1 X118.741 Y120.081 E113.07026
G1 X120.259 Y120.081 E113.25242
G1 X120.596 Y120.053 E113.29300
G1 X120.931 Y119.973 E113.33433
G1 X121.250 Y119.841 E113.37576
G1 X121.550 Y119.655 E113.41811
G1 X121.812 Y119.431 E113.45948
G1 X122.031 Y119.173 E113.50009
G1 X122.213 Y118.878 E113.54168
G1 X122.345 Y118.558 E113.58322
G1 X122.426 Y118.218 E113.62516
G1 X122.451 Y117.385 E113.72517
G1 X122.424 Y117.027 E113.76825
G1 X122.345 Y116.697 E113.80897
G0 F12000 X123.074 Y116.003
;TYPE:SKIN
G1 F1200 X124.338 Y117.267 E114.02348
G0 F12000 X124.346 Y117.840
G1 F1200 X123.346 Y116.840 E114.19318
G0 F12000 X123.388 Y117.449
G1 F1200 X124.295 Y118.356 E114.34711
G0 F12000 X124.201 Y118.827
G1 F1200 X123.371 Y117.997 E114.48796
G0 F12000 X123.320 Y118.512
G1 F1200 X124.069 Y119.261 E114.61507
G0 F12000 X123.905 Y119.662
G1 F1200 X123.197 Y118.954 E114.73522
G0 F12000 X123.025 Y119.348
G1 F1200 X123.713 Y120.037 E114.85206
G0 F12000 X123.496 Y120.384
G1 F1200 X122.809 Y119.698 E114.96857
G0 F12000 X124.246 Y116.609
G1 F1200 X120.515 Y112.878 E115.60174
G0 F12000 X119.858 Y112.787
G1 F1200 X121.623 Y114.552 E115.90127
G0 F12000 X120.784 Y114.279
G1 F1200 X119.286 Y112.780 E116.15557
G0 F12000 X118.772 Y112.832
G1 F1200 X120.193 Y114.253 E116.39672
G0 F12000 X121.329 Y113.127
G1 F1200 X123.986 Y115.784 E116.84763
G0 F12000 X123.653 Y114.885
G1 F1200 X122.706 Y113.938 E117.00834
G0 F12000 X123.155 Y113.821
G1 F1200 X123.743 Y114.409 E117.10813
G0 F12000 X124.192 Y114.293
G1 F1200 X123.603 Y113.704 E117.20809
G0 F12000 X124.052 Y113.587
G1 F1200 X124.641 Y114.176 E117.30804
G0 F12000 X125.090 Y114.059
G1 F1200 X124.501 Y113.470 E117.40800
G0 F12000 X124.950 Y113.354
G1 F1200 X125.539 Y113.942 E117.50787
G0 F12000 X125.988 Y113.825
G1 F1200 X125.399 Y113.237 E117.60774
G0 F12000 X125.848 Y113.120
G1 F1200 X126.437 Y113.709 E117.70770
G0 F12000 X126.886 Y113.592
G1 F1200 X126.297 Y113.003 E117.80766
G0 F12000 X126.746 Y112.886
G1 F1200 X127.335 Y113.475 E117.90761
G0 F12000 X127.783 Y113.358
G1 F1200 X127.195 Y112.770 E118.00740
G0 F12000 X127.644 Y112.653
G1 F1200 X128.232 Y113.241 E118.10719
G0 F12000 X128.681 Y113.125
G1 F1200 X128.093 Y112.536 E118.20706
G0 F12000 X128.542 Y112.420
G1 F1200 X129.130 Y113.008 E118.30685
G0 F12000 X129.579 Y112.891
G1 F1200 X128.990 Y112.302 E118.40680
G0 F12000 X129.439 Y112.186
G1 F1200 X130.028 Y112.775 E118.50676
G0 F12000 X130.476 Y112.657
G1 F1200 X129.888 Y112.069 E118.60655
G0 F12000 X130.337 Y111.952
G1 F1200 X130.925 Y112.540 E118.70633
G0 F12000 X131.374 Y112.424
G1 F1200 X130.786 Y111.836 E118.80612
G0 F12000 X131.235 Y111.719
G1 F1200 X131.823 Y112.307 E118.90591
G0 F12000 X132.272 Y112.190
G1 F1200 X131.683 Y111.601 E119.00586
G0 F12000 X132.132 Y111.485
G1 F1200 X132.721 Y112.074 E119.10582
G0 F12000 X133.170 Y111.957
G1 F1200 X132.581 Y111.368 E119.20578
G0 F12000 X133.030 Y111.251
