;FLAVOR:UltiGCode
;TIME:1898
;MATERIAL:2535
;MATERIAL2:0
;NOZZLE_DIAMETER:0.400000
;NOZZLE_DIAMETER2:0.400000

;Layer count: 114
;LAYER:0
M107
G0 F12000 X69.550 Y96.594 Z0.300
;TYPE:SKIRT
G1 F1200 X78.949 Y96.594 E1.12788
G1 X78.949 Y104.080 E2.02620
G1 X117.268 Y110.394 E6.68649
G1 X118.867 Y110.077 E6.88210
G1 X119.524 Y109.937 E6.96271
G1 X121.193 Y110.268 E7.16689
G1 X144.049 Y104.321 E10.00093
G1 X144.049 Y96.594 E10.92817
G1 X153.450 Y96.594 E12.05629
G1 X153.450 Y111.590 E13.85581
G1 X150.449 Y112.370 E14.22790
G1 X150.449 Y117.398 E14.83126
G1 X141.197 Y119.640 E15.97363
G1 X136.274 Y120.835 E16.58155
G1 X136.274 Y116.058 E17.15479
G1 X127.800 Y118.262 E18.20550
G1 X127.311 Y120.724 E18.50671
G1 X127.169 Y121.387 E18.58807
G1 X125.393 Y124.048 E18.97198
G1 X122.711 Y125.840 E19.35905
G1 X120.229 Y126.332 E19.66269
G1 X119.573 Y126.472 E19.74318
G1 X116.387 Y125.840 E20.13295
G1 X113.705 Y124.048 E20.52002
G1 X111.913 Y121.367 E20.90699
G1 X111.436 Y118.958 E21.20168
G1 X73.730 Y112.747 E25.78738
G1 X69.550 Y112.057 E26.29576
G1 X69.550 Y96.594 E28.15132
G10
G1 Z0.400
G0 F12000 X117.954 Y121.623
;TYPE:FILL
G1 Z0.300
G11
G1 F1200 X118.332 Y121.719 E28.17297
G1 X119.037 Y121.859 E28.20725
G1 X119.658 Y121.916 E28.24112
G1 X120.139 Y121.832 E28.26660
G1 X120.610 Y121.739 E28.29224
G1 X121.047 Y121.612 E28.31818
G1 X121.456 Y121.457 E28.33760
G1 X121.680 Y121.116 E28.35694
G1 X122.126 Y120.998 E28.37604
G1 X122.189 Y120.779 E28.40338
G0 F12000 X122.164 Y120.628
;TYPE:WALL-INNER
G1 F1200 X122.984 Y119.399 E28.58068
G1 X123.270 Y117.955 E28.75732
G1 X123.026 Y116.720 E28.90839
G1 X122.979 Y116.502 E28.93515
G1 X122.167 Y115.286 E29.11061
G1 X121.123 Y114.589 E29.26125
G1 X121.008 Y114.514 E29.27772
G1 X121.318 Y114.576 E29.31566
G1 X148.249 Y107.568 E32.65500
G1 X148.249 Y100.794 E33.46788
G1 X149.250 Y100.794 E33.58800
G1 X149.250 Y108.342 E34.49376
G1 X146.297 Y109.110 E34.85991
G1 X140.418 Y110.640 E35.58889
G1 X122.333 Y115.344 E37.83130
G1 X123.226 Y116.679 E38.02404
G1 X123.529 Y118.205 E38.21073
G1 X123.227 Y119.728 E38.39705
G1 X122.363 Y121.021 E38.58366
G1 X121.073 Y121.883 E38.76984
G1 X119.548 Y122.185 E38.95640
G1 X118.025 Y121.883 E39.14272
G1 X116.732 Y121.019 E39.32933
G1 X115.870 Y119.729 E39.51551
G1 X115.568 Y118.205 E39.70194
G1 X116.110 Y115.472 E40.03629
G1 X73.750 Y108.493 E45.18802
G1 X73.750 Y100.794 E46.11190
G1 X74.749 Y100.794 E46.23178
G1 X74.749 Y107.644 E47.05378
G1 X117.681 Y114.718 E52.27509
G1 X117.016 Y115.163 E52.37111
G1 X116.834 Y115.281 E52.39713
G1 X116.014 Y116.510 E52.57443
G1 X115.726 Y117.955 E52.75124
G1 X116.014 Y119.399 E52.92793
G1 X116.831 Y120.623 E53.10453
G1 X117.874 Y121.320 E53.25506
G1 X118.060 Y121.441 E53.28169
G1 X119.498 Y121.728 E53.45765
G1 X120.943 Y121.440 E53.63446
G1 X121.981 Y120.747 E53.78423
G1 X122.164 Y120.628 E53.81042
G0 F12000 X121.753 Y120.418
G1 F1200 X121.877 Y120.338 E53.82813
G1 X122.607 Y119.243 E53.98606
G1 X122.863 Y117.955 E54.14364
G1 X122.635 Y116.801 E54.28480
G1 X122.604 Y116.661 E54.30200
G1 X121.879 Y115.574 E54.45879
G1 X120.903 Y114.923 E54.59958
G1 X120.783 Y114.845 E54.61675
G1 X119.638 Y114.617 E54.75685
G1 X119.503 Y114.588 E54.77342
G1 X118.345 Y114.819 E54.91512
G1 X118.205 Y114.849 E54.93230
G1 X117.245 Y115.491 E55.07089
G1 X117.121 Y115.571 E55.08859
G1 X116.391 Y116.666 E55.24652
G1 X116.134 Y117.955 E55.40424
G1 X116.391 Y119.243 E55.56185
G1 X117.119 Y120.334 E55.71924
G1 X118.094 Y120.986 E55.85999
G1 X118.214 Y121.064 E55.87716
G1 X119.498 Y121.320 E56.03428
G1 X120.787 Y121.063 E56.19200
G1 X121.753 Y120.418 E56.33138
G0 F12000 X122.652 Y121.309
G1 F1200 X121.230 Y122.259 E56.53660
G1 X119.547 Y122.593 E56.74250
G1 X117.868 Y122.259 E56.94793
G1 X116.444 Y121.308 E57.15341
G1 X115.494 Y119.886 E57.35863
G1 X115.160 Y118.204 E57.56441
G1 X115.637 Y115.800 E57.85851
G1 X73.350 Y108.833 E63.00136
G1 X73.350 Y100.394 E64.01404
G1 X75.149 Y100.394 E64.22992
G1 X75.149 Y107.304 E65.05912
G1 X117.638 Y114.306 E70.22657
G1 X117.870 Y114.150 E70.26012
G1 X119.552 Y113.816 E70.46590
G1 X121.306 Y114.165 E70.68051
G1 X147.849 Y107.259 E73.97171
G1 X147.849 Y100.394 E74.79551
G1 X149.650 Y100.394 E75.01163
G1 X149.650 Y108.651 E76.00247
G1 X146.649 Y109.431 E76.37456
G1 X146.649 Y114.409 E76.97192
G1 X140.074 Y116.002 E77.78374
G1 X140.074 Y111.143 E78.36682
G1 X122.978 Y115.590 E80.48661
G1 X123.602 Y116.524 E80.62141
G1 X123.937 Y118.209 E80.82756
G1 X123.604 Y119.883 E81.03238
G1 X122.652 Y121.309 E81.23813
G0 F12000 X123.114 Y115.642
G0 X139.996 Y111.244
G0 X140.818 Y115.057
G1 F1200 X145.897 Y113.825 E81.86528
G1 X145.897 Y109.626 E82.36916
G1 X140.818 Y110.949 E82.99898
G1 X140.818 Y115.057 E83.49194
G0 F12000 X141.218 Y114.548
;TYPE:WALL-OUTER
G1 F1200 X145.497 Y113.510 E84.02031
G1 X145.497 Y110.143 E84.42435
G1 X141.218 Y111.258 E84.95498
G1 X141.218 Y114.548 E85.34978
G0 F12000 X140.918 Y114.548
G0 X139.974 Y111.660
G0 X139.674 Y111.660
G1 F1200 X123.623 Y115.835 E87.33999
G1 X123.980 Y116.368 E87.41697
G1 X124.344 Y118.203 E87.64146
G1 X123.982 Y120.035 E87.86555
G1 X122.941 Y121.597 E88.09081
G1 X121.385 Y122.637 E88.31539
G1 X119.550 Y123.000 E88.53986
G1 X117.713 Y122.637 E88.76456
G1 X116.156 Y121.597 E88.98925
G1 X115.116 Y120.041 E89.21384
G1 X114.753 Y118.207 E89.43819
G1 X115.164 Y116.127 E89.69261
G1 X72.950 Y109.173 E94.82656
G1 X72.950 Y99.994 E95.92804
G1 X75.549 Y99.994 E96.23992
G1 X75.549 Y106.965 E97.07644
G1 X117.546 Y113.885 E102.18404
G1 X117.714 Y113.772 E102.20834
G1 X119.546 Y113.409 E102.43245
G1 X121.294 Y113.755 E102.64628
G1 X147.449 Y106.950 E105.88937
G1 X147.449 Y99.994 E106.72409
G1 X150.050 Y99.994 E107.03621
G1 X150.050 Y108.960 E108.11213
G1 X147.049 Y109.740 E108.48422
G1 X147.049 Y114.724 E109.08230
G1 X139.674 Y116.511 E109.99291
G1 X139.674 Y111.660 E110.57503
G0 F12000 X139.974 Y111.660
G0 X139.996 Y111.244
G0 X123.114 Y115.642
G0 X122.535 Y116.812
G0 X122.243 Y116.882
G1 F1200 X122.229 Y116.820 E110.58265
G1 X121.590 Y115.863 E110.72074
G1 X120.683 Y115.257 E110.85164
G1 X120.630 Y115.222 E110.85926
G1 X119.560 Y115.010 E110.99016
G1 X119.500 Y114.997 E110.99752
G1 X118.426 Y115.210 E111.12891
G1 X118.364 Y115.224 E111.13654
G1 X117.463 Y115.826 E111.26657
G1 X117.408 Y115.862 E111.27446
G1 X116.768 Y116.822 E111.41292
G1 X116.542 Y117.955 E111.55155
G1 X116.768 Y119.087 E111.69008
G1 X117.408 Y120.046 E111.82843
G1 X118.314 Y120.652 E111.95923
G1 X118.367 Y120.687 E111.96685
G1 X119.498 Y120.912 E112.10523
G1 X120.631 Y120.686 E112.24387
G1 X121.535 Y120.083 E112.37427
G1 X121.590 Y120.047 E112.38215
G1 X122.230 Y119.087 E112.52061
G1 X122.455 Y117.955 E112.65910
G1 X122.243 Y116.882 E112.79035
G0 F12000 X122.535 Y116.812
G0 X122.232 Y115.161
;TYPE:SKIN
G1 F1200 X121.693 Y114.622 E112.88182
G0 F12000 X122.142 Y114.506
G1 F1200 X122.732 Y115.095 E112.98187
G0 F12000 X123.181 Y114.979
G1 F1200 X122.591 Y114.389 E113.08199
G0 F12000 X123.040 Y114.271
G1 F1200 X123.630 Y114.862 E113.18220
G0 F12000 X124.078 Y114.745
G1 F1200 X123.489 Y114.155 E113.28225
G0 F12000 X123.938 Y114.038
G1 F1200 X124.527 Y114.628 E113.38229
G0 F12000 X124.976 Y114.511
G1 F1200 X124.387 Y113.921 E113.48233
G0 F12000 X124.836 Y113.805
G1 F1200 X125.425 Y114.395 E113.58237
G0 F12000 X125.874 Y114.278
G1 F1200 X125.285 Y113.688 E113.68241
G0 F12000 X125.734 Y113.571
G1 F1200 X126.323 Y114.160 E113.78237
G0 F12000 X126.772 Y114.044
G1 F1200 X126.182 Y113.454 E113.88249
G0 F12000 X126.631 Y113.337
G1 F1200 X127.221 Y113.927 E113.98262
G0 F12000 X127.670 Y113.810
G1 F1200 X127.080 Y113.221 E114.08266
G0 F12000 X127.529 Y113.104
G1 F1200 X128.119 Y113.694 E114.18279
G0 F12000 X128.567 Y113.576
G1 F1200 X127.978 Y112.987 E114.28274
G0 F12000 X128.427 Y112.871
G1 F1200 X129.016 Y113.460 E114.38270
G0 F12000 X129.465 Y113.343
G1 F1200 X128.875 Y112.753 E114.48283
G0 F12000 X129.324 Y112.637
G1 F1200 X129.914 Y113.226 E114.58287
G0 F12000 X130.363 Y113.110
G1 F1200 X129.773 Y112.520 E114.68300
G0 F12000 X130.222 Y112.403
G1 F1200 X130.812 Y112.993 E114.78312
G0 F12000 X131.260 Y112.876
G1 F1200 X130.671 Y112.287 E114.88308
G0 F12000 X131.120 Y112.170
G1 F1200 X131.709 Y112.759 E114.98304
G0 F12000 X132.158 Y112.642
G1 F1200 X131.569 Y112.053 E115.08299
G0 F12000 X132.018 Y111.936
G1 F1200 X132.607 Y112.526 E115.18303
G0 F12000 X133.056 Y112.409
G1 F1200 X132.467 Y111.819 E115.28307
G0 F12000 X132.916 Y111.703
G1 F1200 X133.505 Y112.292 E115.38303
G0 F12000 X133.954 Y112.175
G1 F1200 X133.365 Y111.586 E115.48299
G0 F12000 X133.814 Y111.469
G1 F1200 X134.403 Y112.058 E115.58294
G0 F12000 X134.852 Y111.942
G1 F1200 X134.263 Y111.353 E115.68290
G0 F12000 X134.711 Y111.235
G1 F1200 X135.301 Y111.825 E115.78303
G0 F12000 X135.749 Y111.708
G1 F1200 X135.160 Y111.119 E115.88298
G0 F12000 X135.609 Y111.002
G1 F1200 X136.198 Y111.591 E115.98294
G0 F12000 X136.647 Y111.474
G1 F1200 X136.058 Y110.885 E116.08290
G0 F12000 X136.507 Y110.768
G1 F1200 X137.096 Y111.358 E116.18294
G0 F12000 X137.545 Y111.241
G1 F1200 X136.956 Y110.652 E116.28290
G0 F12000 X137.404 Y110.534
G1 F1200 X137.994 Y111.124 E116.38302
G0 F12000 X138.443 Y111.007
G1 F1200 X137.854 Y110.418 E116.48298
G0 F12000 X138.303 Y110.301
G1 F1200 X138.892 Y110.890 E116.58293
G0 F12000 X139.341 Y110.773
G1 F1200 X138.752 Y110.184 E116.68289
G0 F12000 X139.201 Y110.068
G1 F1200 X139.790 Y110.657 E116.78285
G0 F12000 X140.239 Y110.540
G1 F1200 X139.650 Y109.951 E116.88280
G0 F12000 X140.099 Y109.834
G1 F1200 X140.687 Y110.423 E116.98268
G0 F12000 X141.136 Y110.306
G1 F1200 X140.547 Y109.717 E117.08263
G0 F12000 X140.996 Y109.600
G1 F1200 X141.585 Y110.189 E117.18259
G0 F12000 X142.034 Y110.073
G1 F1200 X141.445 Y109.484 E117.28255
G0 F12000 X141.894 Y109.367
G1 F1200 X142.483 Y109.956 E117.38250
G0 F12000 X142.931 Y109.839
G1 F1200 X142.343 Y109.250 E117.48237
G0 F12000 X142.792 Y109.134
G1 F1200 X143.380 Y109.722 E117.58216
G0 F12000 X143.829 Y109.605
G1 F1200 X143.240 Y109.016 E117.68212
G0 F12000 X143.689 Y108.900
G1 F1200 X144.278 Y109.489 E117.78208
G0 F12000 X144.727 Y109.372
G1 F1200 X144.138 Y108.783 E117.88203
G0 F12000 X144.587 Y108.666
G1 F1200 X145.176 Y109.255 E117.98199
G0 F12000 X145.625 Y109.138
G1 F1200 X145.036 Y108.550 E118.08186
G0 F12000 X145.485 Y108.433
G1 F1200 X146.074 Y109.021 E118.18173
G0 F12000 X146.523 Y108.905
G1 F1200 X145.934 Y108.316 E118.28169
G0 F12000 X146.383 Y108.199
G1 F1200 X146.972 Y108.788 E118.38165
G0 F12000 X147.421 Y108.671
G1 F1200 X146.832 Y108.082 E118.48160
G0 F12000 X147.281 Y107.966
G1 F1200 X147.869 Y108.554 E118.58139
G0 F12000 X148.318 Y108.437
G1 F1200 X147.730 Y107.849 E118.68118
G0 F12000 X148.179 Y107.732
G1 F1200 X148.767 Y108.320 E118.78096
G0 F12000 X149.109 Y108.096
G1 F1200 X148.387 Y107.375 E118.90341
G0 F12000 X148.387 Y106.809
G1 F1200 X149.109 Y107.531 E119.02593
G0 F12000 X149.109 Y106.965
G1 F1200 X148.387 Y106.244 E119.14838
G0 F12000 X148.387 Y105.678
G1 F1200 X149.109 Y106.399 E119.27082
G0 F12000 X149.109 Y105.834
G1 F1200 X148.387 Y105.112 E119.39335
G0 F12000 X148.387 Y104.547
G1 F1200 X149.109 Y105.268 E119.51579
G0 F12000 X149.109 Y104.702
G1 F1200 X148.387 Y103.981 E119.63823
G0 F12000 X148.387 Y103.415
G1 F1200 X149.109 Y104.137 E119.76076
G0 F12000 X149.109 Y103.571
G1 F1200 X148.387 Y102.850 E119.88320
G0 F12000 X148.387 Y102.284
G1 F1200 X149.109 Y103.005 E120.00564
G0 F12000 X149.109 Y102.439
G1 F1200 X148.387 Y101.718 E120.12809
G0 F12000 X148.387 Y101.153
G1 F1200 X149.109 Y101.874 E120.25053
G0 F12000 X149.109 Y101.308
G1 F1200 X148.734 Y100.933 E120.31417
G0 F12000 X147.807 Y107.226
G0 X121.305 Y114.160
G0 X116.989 Y115.009
G1 F1200 X116.673 Y114.693 E120.36780
G0 F12000 X116.677 Y115.263
G1 F1200 X115.995 Y114.581 E120.48353
G0 F12000 X115.318 Y114.469
G1 F1200 X116.191 Y115.342 E120.63169
G0 F12000 X116.262 Y115.413
G1 F1200 X116.452 Y115.603 E120.66393
G0 F12000 X115.513 Y115.230
G1 F1200 X114.641 Y114.358 E120.81191
G0 F12000 X113.964 Y114.247
G1 F1200 X114.836 Y115.119 E120.95990
G0 F12000 X114.159 Y115.008
G1 F1200 X113.286 Y114.135 E121.10805
G0 F12000 X112.609 Y114.023
G1 F1200 X113.482 Y114.896 E121.25620
G0 F12000 X112.804 Y114.784
G1 F1200 X111.932 Y113.912 E121.40419
G0 F12000 X111.254 Y113.800
G1 F1200 X112.127 Y114.672 E121.55226
G0 F12000 X111.450 Y114.561
G1 F1200 X110.577 Y113.688 E121.70041
G0 F12000 X109.900 Y113.577
G1 F1200 X110.773 Y114.450 E121.84856
G0 F12000 X110.095 Y114.338
G1 F1200 X109.223 Y113.465 E121.99663
G0 F12000 X108.545 Y113.354
G1 F1200 X109.418 Y114.226 E122.14470
G0 F12000 X108.741 Y114.115
G1 F1200 X107.868 Y113.242 E122.29285
G0 F12000 X107.191 Y113.130
G1 F1200 X108.064 Y114.003 E122.44100
G0 F12000 X107.386 Y113.892
G1 F1200 X106.514 Y113.019 E122.58907
G0 F12000 X105.836 Y112.907
G1 F1200 X106.709 Y113.780 E122.73723
G0 F12000 X106.032 Y113.668
G1 F1200 X105.159 Y112.796 E122.88529
G0 F12000 X104.482 Y112.684
G1 F1200 X105.355 Y113.557 E123.03345
G0 F12000 X104.677 Y113.446
G1 F1200 X103.804 Y112.572 E123.18168
G0 F12000 X103.127 Y112.461
G1 F1200 X104.000 Y113.334 E123.32984
G0 F12000 X103.323 Y113.222
G1 F1200 X102.450 Y112.350 E123.47791
G0 F12000 X101.773 Y112.238
G1 F1200 X102.645 Y113.110 E123.62589
G0 F12000 X101.969 Y112.999
G1 F1200 X101.095 Y112.126 E123.77413
G0 F12000 X100.418 Y112.014
G1 F1200 X101.291 Y112.888 E123.92236
G0 F12000 X100.614 Y112.776
G1 F1200 X99.741 Y111.903 E124.07052
G0 F12000 X99.064 Y111.792
G1 F1200 X99.936 Y112.664 E124.21850
G0 F12000 X99.259 Y112.553
G1 F1200 X98.386 Y111.680 E124.36665
G0 F12000 X97.709 Y111.568
G1 F1200 X98.582 Y112.441 E124.51481
G0 F12000 X97.905 Y112.330
G1 F1200 X97.032 Y111.456 E124.66304
G0 F12000 X96.354 Y111.345
G1 F1200 X97.227 Y112.218 E124.81120
G0 F12000 X96.550 Y112.106
G1 F1200 X95.677 Y111.234 E124.95927
G0 F12000 X95.000 Y111.122
G1 F1200 X95.873 Y111.995 E125.10742
G0 F12000 X95.196 Y111.884
G1 F1200 X94.323 Y111.010 E125.25566
G0 F12000 X93.645 Y110.899
G1 F1200 X94.518 Y111.772 E125.40381
G0 F12000 X93.841 Y111.660
G1 F1200 X92.968 Y110.787 E125.55196
G0 F12000 X92.291 Y110.676
G1 F1200 X93.164 Y111.548 E125.70003
G0 F12000 X92.486 Y111.437
G1 F1200 X91.614 Y110.564 E125.84810
G0 F12000 X90.936 Y110.452
G1 F1200 X91.810 Y111.326 E125.99642
G0 F12000 X91.132 Y111.214
G1 F1200 X90.259 Y110.341 E126.14458
G0 F12000 X89.581 Y110.229
G1 F1200 X90.455 Y111.102 E126.29281
G0 F12000 X89.777 Y110.991
G1 F1200 X88.905 Y110.118 E126.44088
G0 F12000 X88.227 Y110.006
G1 F1200 X89.101 Y110.880 E126.58920
G0 F12000 X88.423 Y110.768
G1 F1200 X87.550 Y109.895 E126.73736
G0 F12000 X86.873 Y109.783
G1 F1200 X87.746 Y110.656 E126.88551
G0 F12000 X87.068 Y110.544
G1 F1200 X86.195 Y109.671 E127.03366
G0 F12000 X85.518 Y109.559
G1 F1200 X86.391 Y110.433 E127.18190
G0 F12000 X85.714 Y110.322
G1 F1200 X84.841 Y109.448 E127.33014
G0 F12000 X84.164 Y109.337
G1 F1200 X85.037 Y110.210 E127.47829
G0 F12000 X84.359 Y110.098
G1 F1200 X83.486 Y109.225 E127.62644
G0 F12000 X82.809 Y109.113
G1 F1200 X83.682 Y109.986 E127.77460
G0 F12000 X83.005 Y109.875
G1 F1200 X82.131 Y109.001 E127.92292
G0 F12000 X81.455 Y108.890
G1 F1200 X82.328 Y109.764 E128.07116
G0 F12000 X81.651 Y109.652
G1 F1200 X80.777 Y108.779 E128.21940
G0 F12000 X80.100 Y108.667
G1 F1200 X80.973 Y109.540 E128.36755
G0 F12000 X80.296 Y109.429
G1 F1200 X79.422 Y108.555 E128.51587
G0 F12000 X78.745 Y108.444
G1 F1200 X79.618 Y109.317 E128.66402
G0 F12000 X78.942 Y109.206
G1 F1200 X78.068 Y108.333 E128.81226
G0 F12000 X77.391 Y108.221
G1 F1200 X78.264 Y109.094 E128.96042
G0 F12000 X77.587 Y108.982
