;FLAVOR:UltiGCode
;TIME:1974
;MATERIAL:2445
;MATERIAL2:0
;NOZZLE_DIAMETER:0.400000
;NOZZLE_DIAMETER2:0.400000

;Layer count: 113
;LAYER:0
M107
G0 F12000 X69.551 Y97.043 Z0.300
;TYPE:SKIRT
G1 F1200 X78.951 Y97.043 E1.12800
G1 X78.951 Y104.528 E2.02620
G1 X119.376 Y111.189 E6.94261
G1 X144.049 Y104.769 E10.00196
G1 X144.049 Y97.043 E10.92908
G1 X153.449 Y97.043 E12.05708
G1 X153.449 Y112.035 E13.85612
G1 X150.449 Y112.816 E14.22812
G1 X150.449 Y117.847 E14.83184
G1 X147.032 Y118.674 E15.25372
G1 X136.274 Y121.281 E16.58204
G1 X136.274 Y116.505 E17.15516
G1 X126.877 Y118.953 E18.32044
G1 X126.873 Y119.070 E18.33449
G1 X126.829 Y119.533 E18.39030
G1 X126.749 Y120.032 E18.45094
G1 X126.536 Y120.868 E18.55447
G1 X126.197 Y121.730 E18.66562
G1 X125.751 Y122.541 E18.77668
G1 X125.211 Y123.287 E18.88720
G1 X124.606 Y123.933 E18.99340
G1 X124.182 Y124.306 E19.06117
G1 X123.517 Y124.790 E19.15987
G1 X123.032 Y125.075 E19.22737
G1 X122.243 Y125.446 E19.33200
G1 X121.414 Y125.716 E19.43662
G1 X120.915 Y125.827 E19.49797
G1 X120.462 Y125.900 E19.55303
G1 X119.998 Y125.944 E19.60896
G1 X119.530 Y125.958 E19.66514
G1 X119.064 Y125.944 E19.72109
G1 X118.608 Y125.899 E19.77607
G1 X118.157 Y125.828 E19.83086
G1 X117.705 Y125.726 E19.88646
G1 X117.219 Y125.586 E19.94715
G1 X116.412 Y125.267 E20.05129
G1 X115.646 Y124.847 E20.15612
G1 X115.172 Y124.526 E20.22481
G1 X114.550 Y124.010 E20.32179
G1 X114.179 Y123.643 E20.38441
G1 X113.835 Y123.251 E20.44700
G1 X113.325 Y122.547 E20.55132
G1 X112.905 Y121.785 E20.65573
G1 X112.681 Y121.268 E20.72334
G1 X112.426 Y120.485 E20.82216
G1 X112.315 Y119.986 E20.88350
G1 X112.243 Y119.539 E20.93783
G1 X73.767 Y113.200 E25.61719
G1 X69.551 Y112.504 E26.12996
G1 X69.551 Y97.043 E27.98528
G10
G1 Z0.400
G0 F12000 X119.515 Y121.490
;TYPE:FILL
G1 Z0.300
G11
G1 F1200 X119.636 Y121.611 E28.00582
G0 F12000 X119.746 Y121.750
;TYPE:WALL-INNER
G1 F1200 X119.532 Y121.756 E28.03151
G1 X118.944 Y121.700 E28.10239
G1 X118.745 Y121.655 E28.12687
G1 X118.577 Y121.606 E28.14787
G1 X118.201 Y121.458 E28.19636
G1 X117.996 Y121.345 E28.22445
G1 X120.711 Y121.356 E28.55025
G1 X121.058 Y121.362 E28.59190
G1 X120.692 Y121.534 E28.64043
G1 X120.133 Y121.699 E28.71037
G1 X119.746 Y121.750 E28.75721
G0 F12000 X122.201 Y120.282
G1 F1200 X121.917 Y120.660 E28.81394
G1 X122.229 Y120.230 E28.87770
G1 X122.201 Y120.282 E28.88478
G0 F12000 X122.679 Y118.400
G1 F1200 X122.682 Y118.520 E28.89919
G1 X122.647 Y118.154 E28.94331
G1 X122.679 Y118.400 E28.97308
G0 F12000 X122.192 Y116.902
G1 F1200 X121.717 Y116.328 E29.06248
G1 X121.397 Y116.064 E29.11226
G1 X121.087 Y115.857 E29.15700
G1 X117.932 Y115.858 E29.53560
G1 X117.394 Y116.295 E29.61877
G1 X117.220 Y116.469 E29.64830
G1 X116.882 Y116.904 E29.71440
G1 X116.701 Y117.233 E29.75946
G1 X117.195 Y116.099 E29.90790
G1 X73.751 Y108.940 E35.19148
G1 X73.751 Y101.243 E36.11512
G1 X74.751 Y101.243 E36.23512
G1 X74.751 Y108.092 E37.05700
G1 X119.574 Y115.478 E42.50830
G1 X148.249 Y108.016 E46.06390
G1 X148.249 Y101.243 E46.87666
G1 X149.249 Y101.243 E46.99666
G1 X149.249 Y108.788 E47.90206
G1 X146.249 Y109.569 E48.27406
G1 X141.652 Y110.765 E48.84406
G1 X140.474 Y111.073 E48.99017
G1 X121.755 Y115.945 E51.31129
G1 X122.391 Y117.297 E51.49059
G1 X122.192 Y116.902 E51.54366
G0 F12000 X120.963 Y116.266
G0 X118.079 Y116.270
G0 X116.614 Y117.432
G1 F1200 X116.652 Y117.346 E51.55494
G1 X116.550 Y117.629 E51.59104
G1 X116.614 Y117.432 E51.61590
G0 F12000 X116.393 Y118.809
G1 F1200 X116.389 Y118.687 E51.63055
G1 X116.429 Y119.115 E51.68213
G1 X116.393 Y118.809 E51.71910
G0 F12000 X115.987 Y118.602
G1 F1200 X116.012 Y118.173 E51.77067
G1 X116.097 Y117.728 E51.82504
G1 X116.239 Y117.291 E51.88017
G1 X116.623 Y116.410 E51.99550
G1 X73.351 Y109.280 E57.25816
G1 X73.351 Y100.843 E58.27060
G1 X75.151 Y100.843 E58.48660
G1 X75.151 Y107.752 E59.31568
G1 X119.555 Y115.070 E64.71604
G1 X147.849 Y107.707 E68.22440
G1 X147.849 Y100.843 E69.04808
G1 X149.649 Y100.843 E69.26408
G1 X149.649 Y109.097 E70.25456
G1 X146.649 Y109.878 E70.62656
G1 X146.649 Y114.857 E71.22404
G1 X140.074 Y116.450 E72.03586
G1 X140.074 Y111.589 E72.61918
G1 X122.322 Y116.211 E74.82044
G1 X122.834 Y117.300 E74.96485
G1 X122.971 Y117.717 E75.01752
G1 X123.078 Y118.379 E75.09799
G1 X123.085 Y118.607 E75.12536
G1 X123.022 Y119.273 E75.20564
G1 X122.914 Y119.697 E75.25814
G1 X122.751 Y120.110 E75.31142
G1 X122.535 Y120.504 E75.36534
G1 X122.273 Y120.865 E75.41887
G1 X121.961 Y121.199 E75.47372
G1 X121.433 Y121.606 E75.55372
G1 X121.251 Y121.714 E75.57911
G1 X120.846 Y121.904 E75.63279
G1 X120.409 Y122.046 E75.68793
G1 X119.767 Y122.149 E75.76596
G1 X119.531 Y122.156 E75.79429
G1 X119.101 Y122.130 E75.84598
G1 X118.856 Y122.091 E75.87575
G1 X118.454 Y121.988 E75.92555
G1 X118.027 Y121.819 E75.98066
G1 X117.630 Y121.602 E76.03495
G1 X117.460 Y121.487 E76.05958
G1 X117.105 Y121.192 E76.11497
G1 X116.807 Y120.876 E76.16709
G1 X116.540 Y120.508 E76.22165
G1 X116.239 Y119.921 E76.30081
G1 X116.096 Y119.480 E76.35645
G1 X115.994 Y118.842 E76.43398
G1 X115.987 Y118.602 E76.46279
G0 F12000 X116.785 Y118.626
G1 F1200 X116.832 Y119.123 E76.52270
G1 X116.977 Y119.619 E76.58471
G1 X117.211 Y120.081 E76.64685
G1 X117.518 Y120.478 E76.70708
G1 X118.055 Y120.945 E76.79247
G1 X120.718 Y120.956 E77.11204
G1 X120.984 Y120.961 E77.14396
G1 X121.295 Y120.720 E77.19118
G1 X121.556 Y120.476 E77.23405
G1 X121.939 Y119.950 E77.31213
G1 X122.091 Y119.626 E77.35508
G1 X122.199 Y119.292 E77.39720
G1 X122.266 Y118.941 E77.44008
G1 X122.288 Y118.595 E77.48168
G1 X122.242 Y118.109 E77.54027
G1 X122.091 Y117.591 E77.60501
G1 X121.855 Y117.122 E77.66802
G1 X121.433 Y116.613 E77.74736
G1 X121.158 Y116.385 E77.79023
G1 X120.966 Y116.257 E77.81792
G1 X118.074 Y116.258 E78.16496
G1 X117.662 Y116.593 E78.22868
G1 X117.520 Y116.734 E78.25269
G1 X117.217 Y117.124 E78.31195
G1 X117.041 Y117.443 E78.35567
G1 X116.869 Y117.922 E78.41675
G1 X116.791 Y118.416 E78.47676
G1 X116.785 Y118.626 E78.50197
G0 F12000 X117.520 Y116.735
G0 X118.079 Y116.270
G0 X121.157 Y116.386
G0 X139.996 Y111.690
G0 X140.818 Y115.505
G1 F1200 X145.898 Y114.272 E79.12927
G1 X145.898 Y110.074 E79.63303
G1 X140.818 Y111.396 E80.26294
G1 X140.818 Y115.505 E80.75602
G0 F12000 X141.218 Y114.996
;TYPE:WALL-OUTER
G1 F1200 X145.498 Y113.957 E81.28453
G1 X145.498 Y110.591 E81.68845
G1 X141.218 Y111.705 E82.21916
G1 X141.218 Y114.996 E82.61408
G0 F12000 X140.918 Y114.996
G0 X139.996 Y111.690
G0 X139.600 Y111.817
G0 X139.674 Y112.106
G1 F1200 X122.889 Y116.477 E84.69546
G1 X123.205 Y117.148 E84.78446
G1 X123.360 Y117.621 E84.84419
G1 X123.453 Y118.101 E84.90286
G1 X123.478 Y118.352 E84.93313
G1 X123.486 Y118.601 E84.96303
G1 X123.478 Y118.857 E84.99376
G1 X123.455 Y119.095 E85.02246
G1 X123.415 Y119.349 E85.05331
G1 X123.294 Y119.824 E85.11213
G1 X123.112 Y120.284 E85.17149
G1 X122.877 Y120.713 E85.23019
G1 X122.584 Y121.117 E85.29008
G1 X122.235 Y121.491 E85.35147
G1 X121.645 Y121.946 E85.44087
G1 X121.441 Y122.066 E85.46928
G1 X120.988 Y122.279 E85.52934
G1 X120.516 Y122.433 E85.58892
G1 X120.024 Y122.526 E85.64901
G1 X119.786 Y122.549 E85.67770
G1 X119.531 Y122.557 E85.70832
G1 X119.282 Y122.549 E85.73821
G1 X119.047 Y122.526 E85.76655
G1 X118.546 Y122.431 E85.82774
G1 X118.322 Y122.366 E85.85573
G1 X117.856 Y122.182 E85.91585
G1 X117.420 Y121.943 E85.97551
G1 X117.223 Y121.809 E86.00410
G1 X116.833 Y121.486 E86.06487
G1 X116.494 Y121.127 E86.12412
G1 X116.200 Y120.721 E86.18427
G1 X115.965 Y120.294 E86.24276
G1 X115.861 Y120.054 E86.27415
G1 X115.709 Y119.587 E86.33308
G1 X115.616 Y119.095 E86.39317
G1 X115.594 Y118.859 E86.42161
G1 X115.586 Y118.608 E86.45175
G1 X115.594 Y118.347 E86.48308
G1 X115.616 Y118.113 E86.51129
G1 X115.709 Y117.626 E86.57078
G1 X115.865 Y117.149 E86.63100
G1 X116.051 Y116.721 E86.68700
G1 X72.951 Y109.620 E91.92873
G1 X72.951 Y100.443 E93.02997
G1 X75.551 Y100.443 E93.34197
G1 X75.551 Y107.413 E94.17837
G1 X119.536 Y114.661 E99.52775
G1 X147.449 Y107.398 E102.98885
G1 X147.449 Y100.443 E103.82345
G1 X150.049 Y100.443 E104.13545
G1 X150.049 Y109.406 E105.21101
G1 X147.049 Y110.187 E105.58300
G1 X147.049 Y115.172 E106.18120
G1 X139.674 Y116.959 E107.09181
G1 X139.674 Y112.106 E107.67417
G0 F12000 X139.600 Y111.817
G0 X122.425 Y116.260
G0 X122.060 Y117.801
G0 X121.770 Y117.880
G1 F1200 X121.723 Y117.749 E107.69088
G1 X121.518 Y117.343 E107.74545
G1 X121.149 Y116.897 E107.81492
G1 X120.845 Y116.657 E107.86140
G1 X118.216 Y116.658 E108.17688
G1 X117.930 Y116.890 E108.22107
G1 X117.821 Y116.999 E108.23957
G1 X117.552 Y117.345 E108.29216
G1 X117.407 Y117.608 E108.32820
G1 X117.258 Y118.022 E108.38100
G1 X117.190 Y118.453 E108.43336
G1 X117.186 Y118.613 E108.45256
G1 X117.227 Y119.048 E108.50499
G1 X117.350 Y119.472 E108.55797
G1 X117.550 Y119.866 E108.61099
G1 X117.818 Y120.212 E108.66351
G1 X118.200 Y120.546 E108.72440
G1 X120.725 Y120.556 E109.02740
G1 X120.851 Y120.558 E109.04253
G1 X121.255 Y120.210 E109.10651
G1 X121.593 Y119.745 E109.17550
G1 X121.770 Y119.333 E109.22931
G1 X121.868 Y118.898 E109.28281
G1 X121.887 Y118.602 E109.31841
G1 X121.846 Y118.172 E109.37024
G1 X121.770 Y117.880 E109.40645
G0 F12000 X122.060 Y117.801
G0 X121.742 Y115.802
;TYPE:SKIN
G1 F1200 X121.151 Y115.211 E109.50674
G0 F12000 X121.599 Y115.094
G1 F1200 X122.190 Y115.685 E109.60704
G0 F12000 X122.639 Y115.568
G1 F1200 X122.048 Y114.977 E109.70734
G0 F12000 X122.497 Y114.861
G1 F1200 X123.088 Y115.452 E109.80763
G0 F12000 X123.537 Y115.335
G1 F1200 X122.946 Y114.744 E109.90793
G0 F12000 X123.395 Y114.627
G1 F1200 X123.986 Y115.218 E110.00822
G0 F12000 X124.435 Y115.101
G1 F1200 X123.844 Y114.510 E110.10852
G0 F12000 X124.293 Y114.393
G1 F1200 X124.884 Y114.984 E110.20882
G0 F12000 X125.333 Y114.868
G1 F1200 X124.742 Y114.276 E110.30920
G0 F12000 X125.191 Y114.160
G1 F1200 X125.781 Y114.750 E110.40932
G0 F12000 X126.230 Y114.634
G1 F1200 X125.640 Y114.043 E110.50953
G0 F12000 X126.089 Y113.926
G1 F1200 X126.679 Y114.517 E110.60975
G0 F12000 X127.128 Y114.400
G1 F1200 X126.538 Y113.810 E110.70987
G0 F12000 X126.987 Y113.693
G1 F1200 X127.576 Y114.283 E110.80991
G0 F12000 X128.025 Y114.166
G1 F1200 X127.435 Y113.576 E110.91004
G0 F12000 X127.884 Y113.459
G1 F1200 X128.474 Y114.049 E111.01017
G0 F12000 X128.923 Y113.933
G1 F1200 X128.333 Y113.342 E111.11038
G0 F12000 X128.782 Y113.226
G1 F1200 X129.372 Y113.815 E111.21042
G0 F12000 X129.821 Y113.699
G1 F1200 X129.231 Y113.109 E111.31055
G0 F12000 X129.680 Y112.992
G1 F1200 X130.270 Y113.582 E111.41067
G0 F12000 X130.719 Y113.465
G1 F1200 X130.128 Y112.875 E111.51088
G0 F12000 X130.577 Y112.758
G1 F1200 X131.167 Y113.348 E111.61101
G0 F12000 X131.616 Y113.231
G1 F1200 X131.026 Y112.642 E111.71105
G0 F12000 X131.475 Y112.525
G1 F1200 X132.065 Y113.115 E111.81118
G0 F12000 X132.514 Y112.998
G1 F1200 X131.924 Y112.408 E111.91130
G0 F12000 X132.373 Y112.292
G1 F1200 X132.962 Y112.881 E112.01126
G0 F12000 X133.411 Y112.764
G1 F1200 X132.822 Y112.174 E112.11130
G0 F12000 X133.271 Y112.058
G1 F1200 X133.860 Y112.647 E112.21126
G0 F12000 X134.309 Y112.531
G1 F1200 X133.720 Y111.941 E112.31130
G0 F12000 X134.169 Y111.824
G1 F1200 X134.758 Y112.413 E112.41126
G0 F12000 X135.207 Y112.297
G1 F1200 X134.618 Y111.708 E112.51121
G0 F12000 X135.067 Y111.591
G1 F1200 X135.656 Y112.180 E112.61117
G0 F12000 X136.105 Y112.063
G1 F1200 X135.515 Y111.473 E112.71130
G0 F12000 X135.964 Y111.357
G1 F1200 X136.553 Y111.946 E112.81125
G0 F12000 X137.002 Y111.829
G1 F1200 X136.413 Y111.240 E112.91121
G0 F12000 X136.862 Y111.123
G1 F1200 X137.451 Y111.712 E113.01117
G0 F12000 X137.900 Y111.596
G1 F1200 X137.311 Y111.007 E113.11112
G0 F12000 X137.760 Y110.890
G1 F1200 X138.348 Y111.478 E113.21091
G0 F12000 X138.797 Y111.362
G1 F1200 X138.209 Y110.773 E113.31078
G0 F12000 X138.657 Y110.656
G1 F1200 X139.247 Y111.245 E113.41082
G0 F12000 X139.696 Y111.128
G1 F1200 X139.106 Y110.539 E113.51086
G0 F12000 X139.556 Y110.423
G1 F1200 X140.144 Y111.011 E113.61065
G0 F12000 X140.593 Y110.894
G1 F1200 X140.005 Y110.306 E113.71044
G0 F12000 X140.454 Y110.189
G1 F1200 X141.042 Y110.778 E113.81031
G0 F12000 X141.491 Y110.661
G1 F1200 X140.903 Y110.073 E113.91010
G0 F12000 X141.351 Y109.955
G1 F1200 X141.939 Y110.544 E114.00997
G0 F12000 X142.388 Y110.427
G1 F1200 X141.800 Y109.839 E114.10976
G0 F12000 X142.249 Y109.722
G1 F1200 X142.837 Y110.310 E114.20954
G0 F12000 X143.286 Y110.194
G1 F1200 X142.698 Y109.605 E114.30941
G0 F12000 X143.147 Y109.489
G1 F1200 X143.735 Y110.076 E114.40912
G0 F12000 X144.184 Y109.960
G1 F1200 X143.596 Y109.372 E114.50890
G0 F12000 X144.044 Y109.255
G1 F1200 X144.633 Y109.843 E114.60877
G0 F12000 X145.082 Y109.726
G1 F1200 X144.493 Y109.138 E114.70865
G0 F12000 X144.942 Y109.021
G1 F1200 X145.531 Y109.610 E114.80860
G0 F12000 X145.979 Y109.492
G1 F1200 X145.391 Y108.905 E114.90831
G0 F12000 X145.840 Y108.788
G1 F1200 X146.428 Y109.375 E115.00801
G0 F12000 X146.877 Y109.259
G1 F1200 X146.289 Y108.671 E115.10779
G0 F12000 X146.738 Y108.554
G1 F1200 X147.326 Y109.142 E115.20758
G0 F12000 X147.774 Y109.025
G1 F1200 X147.187 Y108.437 E115.30728
G0 F12000 X147.636 Y108.320
G1 F1200 X148.223 Y108.908 E115.40699
G0 F12000 X148.672 Y108.791
G1 F1200 X148.085 Y108.204 E115.50660
G0 F12000 X148.387 Y107.941
G1 F1200 X149.108 Y108.661 E115.62888
G0 F12000 X149.108 Y108.096
G1 F1200 X148.387 Y107.375 E115.75123
G0 F12000 X148.387 Y106.809
G1 F1200 X149.108 Y107.530 E115.87359
G0 F12000 X149.108 Y106.964
G1 F1200 X148.387 Y106.244 E115.99586
G0 F12000 X148.387 Y105.678
G1 F1200 X149.108 Y106.399 E116.11822
G0 F12000 X149.108 Y105.833
G1 F1200 X148.387 Y105.112 E116.24058
G0 F12000 X148.387 Y104.547
G1 F1200 X149.108 Y105.267 E116.36285
G0 F12000 X149.108 Y104.702
G1 F1200 X148.387 Y103.981 E116.48521
G0 F12000 X148.387 Y103.415
G1 F1200 X149.108 Y104.136 E116.60757
G0 F12000 X149.108 Y103.570
G1 F1200 X148.387 Y102.850 E116.72984
G0 F12000 X148.387 Y102.284
G1 F1200 X149.108 Y103.004 E116.85211
G0 F12000 X149.108 Y102.439
G1 F1200 X148.387 Y101.718 E116.97447
G0 F12000 X148.617 Y101.382
G1 F1200 X149.108 Y101.873 E117.05780
G0 F12000 X147.807 Y107.674
G0 X121.091 Y115.717
G1 F1200 X120.613 Y115.522 E117.12377
G1 X120.106 Y115.581 E117.16986
G1 X119.599 Y115.639 E117.19604
G1 X119.036 Y115.642 E117.22172
G1 X118.414 Y115.586 E117.26631
G1 X117.889 Y115.343 E117.33573
G0 F12000 X117.779 Y115.800
G1 F1200 X117.212 Y115.232 E117.43204
G0 F12000 X116.534 Y115.120
G1 F1200 X117.467 Y116.053 E117.59037
G0 F12000 X116.727 Y115.878
G1 F1200 X115.857 Y115.008 E117.73802
G0 F12000 X115.179 Y114.897
G1 F1200 X116.049 Y115.766 E117.88557
G0 F12000 X115.372 Y115.655
G1 F1200 X114.502 Y114.785 E118.03322
G0 F12000 X113.825 Y114.673
G1 F1200 X114.695 Y115.544 E118.18095
G0 F12000 X114.018 Y115.432
G1 F1200 X113.147 Y114.561 E118.32876
G0 F12000 X112.470 Y114.450
G1 F1200 X113.340 Y115.320 E118.47640
G0 F12000 X112.663 Y115.208
G1 F1200 X111.793 Y114.339 E118.62396
G0 F12000 X111.116 Y114.227
G1 F1200 X111.985 Y115.097 E118.77152
G0 F12000 X111.309 Y114.986
G1 F1200 X110.438 Y114.115 E118.91934
G0 F12000 X109.761 Y114.003
G1 F1200 X110.631 Y114.874 E119.06706
G0 F12000 X109.954 Y114.762
G1 F1200 X109.083 Y113.892 E119.21479
G0 F12000 X108.406 Y113.780
G1 F1200 X109.276 Y114.651 E119.36252
G0 F12000 X108.599 Y114.539
G1 F1200 X107.729 Y113.668 E119.51025
G0 F12000 X107.051 Y113.557
G1 F1200 X107.922 Y114.427 E119.65798
G0 F12000 X107.245 Y114.316
G1 F1200 X106.374 Y113.445 E119.80579
G0 F12000 X105.697 Y113.334
G1 F1200 X106.568 Y114.204 E119.95352
G0 F12000 X105.890 Y114.093
