;FLAVOR:UltiGCode
;TIME:1991
;MATERIAL:2624
;MATERIAL2:0
;NOZZLE_DIAMETER:0.400000
;NOZZLE_DIAMETER2:0.400000

;Layer count: 114
;LAYER:0
M107
G0 F12000 X69.550 Y96.594 Z0.300
;TYPE:SKIRT
G1 F1200 X78.949 Y96.594 E1.12788
G1 X78.949 Y104.080 E2.02620
G1 X117.269 Y110.394 E6.68660
G1 X119.548 Y109.941 E6.96543
G1 X121.193 Y110.268 E7.16670
G1 X144.049 Y104.321 E10.00074
G1 X144.049 Y96.594 E10.92798
G1 X153.450 Y96.594 E12.05610
G1 X153.450 Y111.590 E13.85562
G1 X150.449 Y112.370 E14.22770
G1 X150.449 Y117.399 E14.83118
G1 X147.036 Y118.225 E15.25257
G1 X136.274 Y120.833 E16.58139
G1 X136.274 Y116.058 E17.15439
G1 X127.801 Y118.262 E18.20498
G1 X127.182 Y121.367 E18.58491
G1 X125.393 Y124.048 E18.97168
G1 X122.711 Y125.840 E19.35875
G1 X119.548 Y126.467 E19.74570
G1 X116.388 Y125.840 E20.13229
G1 X114.254 Y124.415 E20.44022
G1 X113.694 Y124.032 E20.52163
G1 X111.913 Y121.367 E20.90627
G1 X111.436 Y118.957 E21.20108
G1 X73.730 Y112.747 E25.78676
G1 X69.550 Y112.057 E26.29514
G1 X69.550 Y96.594 E28.15070
G10
G1 Z0.400
G0 F12000 X117.736 Y121.405
;TYPE:FILL
G1 Z0.300
G11
G1 F1200 X118.292 Y121.678 E28.20924
G1 X119.030 Y121.852 E28.25723
G1 X119.662 Y121.919 E28.29327
G1 X120.129 Y121.823 E28.31759
G1 X120.588 Y121.717 E28.34642
G1 X121.046 Y121.610 E28.37971
G1 X121.409 Y121.410 E28.39973
G1 X121.794 Y121.231 E28.41540
G1 X121.955 Y120.827 E28.44071
G1 X122.402 Y120.710 E28.47329
G1 X122.519 Y120.263 E28.49643
G1 X122.854 Y120.033 E28.50997
G1 X122.979 Y119.594 E28.53420
G1 X123.085 Y119.136 E28.56664
G1 X123.191 Y118.678 E28.59485
G1 X123.262 Y118.184 E28.61820
G1 X123.155 Y117.513 E28.65755
G1 X122.904 Y116.980 E28.72824
G0 F12000 X122.688 Y116.709
;TYPE:WALL-INNER
G1 F1200 X122.604 Y116.425 E28.76378
G1 X121.317 Y115.139 E28.98211
G1 X119.857 Y114.749 E29.16345
G1 X119.562 Y114.662 E29.20036
G1 X118.052 Y115.065 E29.38790
G1 X117.768 Y115.149 E29.42344
G1 X116.483 Y116.436 E29.64168
G1 X116.094 Y117.894 E29.82276
G1 X116.006 Y118.191 E29.85993
G1 X116.409 Y119.701 E30.04748
G1 X116.493 Y119.985 E30.08302
G1 X117.779 Y121.269 E30.30109
G1 X119.248 Y121.662 E30.48357
G1 X119.534 Y121.747 E30.51937
G1 X121.044 Y121.343 E30.70694
G1 X121.327 Y121.259 E30.74237
G1 X122.404 Y120.185 E30.92489
G1 X122.614 Y119.974 E30.96061
G1 X123.002 Y118.516 E31.14166
G1 X123.090 Y118.220 E31.17872
G1 X122.688 Y116.709 E31.36634
G0 F12000 X123.226 Y116.679
G1 F1200 X123.529 Y118.205 E31.55304
G1 X123.226 Y119.729 E31.73950
G1 X122.363 Y121.021 E31.92594
G1 X121.074 Y121.883 E32.11202
G1 X119.548 Y122.185 E32.29870
G1 X118.025 Y121.883 E32.48501
G1 X116.733 Y121.020 E32.67146
G1 X115.870 Y119.729 E32.85781
G1 X115.568 Y118.205 E33.04424
G1 X116.110 Y115.471 E33.37871
G1 X73.750 Y108.493 E38.53041
G1 X73.750 Y100.794 E39.45429
G1 X74.749 Y100.794 E39.57417
G1 X74.749 Y107.644 E40.39617
G1 X117.729 Y114.726 E45.62332
G1 X118.026 Y114.526 E45.66629
G1 X119.548 Y114.224 E45.85249
G1 X121.318 Y114.576 E46.06905
G1 X148.249 Y107.568 E49.40839
G1 X148.249 Y100.794 E50.22127
G1 X149.250 Y100.794 E50.34139
G1 X149.250 Y108.342 E51.24715
G1 X146.297 Y109.110 E51.61330
G1 X140.418 Y110.640 E52.34228
G1 X122.333 Y115.344 E54.58469
G1 X123.226 Y116.679 E54.77743
G0 F12000 X123.602 Y116.524
G1 F1200 X123.937 Y118.209 E54.98359
G1 X123.603 Y119.884 E55.18854
G1 X122.652 Y121.309 E55.39413
G1 X121.230 Y122.259 E55.59934
G1 X119.548 Y122.593 E55.80512
G1 X117.868 Y122.259 E56.01067
G1 X116.445 Y121.310 E56.21592
G1 X115.494 Y119.886 E56.42140
G1 X115.160 Y118.204 E56.62718
G1 X115.637 Y115.799 E56.92141
G1 X73.350 Y108.833 E62.06424
G1 X73.350 Y100.394 E63.07692
G1 X75.149 Y100.394 E63.29280
G1 X75.149 Y107.304 E64.12200
G1 X117.638 Y114.306 E69.28945
G1 X117.870 Y114.150 E69.32300
G1 X119.550 Y113.816 E69.52854
G1 X121.306 Y114.165 E69.74338
G1 X147.849 Y107.259 E73.03459
G1 X147.849 Y100.394 E73.85839
G1 X149.650 Y100.394 E74.07451
G1 X149.650 Y108.651 E75.06535
G1 X146.649 Y109.431 E75.43743
G1 X146.649 Y114.409 E76.03479
G1 X140.074 Y116.002 E76.84662
G1 X140.074 Y111.143 E77.42970
G1 X122.978 Y115.590 E79.54949
G1 X123.602 Y116.524 E79.68428
G0 F12000 X122.303 Y116.818
G1 F1200 X122.249 Y116.636 E79.70706
G1 X121.110 Y115.498 E79.90027
G1 X119.730 Y115.129 E80.07169
G1 X119.556 Y115.078 E80.09345
G1 X118.160 Y115.450 E80.26681
G1 X117.979 Y115.504 E80.28948
G1 X116.842 Y116.643 E80.48260
G1 X116.473 Y118.023 E80.65402
G1 X116.422 Y118.197 E80.67578
G1 X116.794 Y119.593 E80.84915
G1 X116.848 Y119.774 E80.87181
G1 X117.986 Y120.910 E81.06477
G1 X119.366 Y121.280 E81.23622
G1 X119.540 Y121.331 E81.25797
G1 X120.936 Y120.958 E81.43137
G1 X121.116 Y120.904 E81.45392
G1 X122.255 Y119.768 E81.64696
G1 X122.623 Y118.386 E81.81858
G1 X122.674 Y118.214 E81.84011
G1 X122.303 Y116.818 E82.01344
G0 F12000 X123.114 Y115.642
G0 X139.996 Y111.244
G0 X140.818 Y115.057
G1 F1200 X145.897 Y113.825 E82.64060
G1 X145.897 Y109.626 E83.14448
G1 X140.818 Y110.949 E83.77430
G1 X140.818 Y115.057 E84.26726
G0 F12000 X141.218 Y114.548
;TYPE:WALL-OUTER
G1 F1200 X145.497 Y113.510 E84.79563
G1 X145.497 Y110.143 E85.19967
G1 X141.218 Y111.258 E85.73029
G1 X141.218 Y114.548 E86.12509
G0 F12000 X140.918 Y114.548
G0 X139.974 Y111.660
G0 X139.674 Y111.660
G1 F1200 X123.623 Y115.835 E88.11531
G1 X123.980 Y116.368 E88.19229
G1 X124.344 Y118.203 E88.41678
G1 X123.980 Y120.041 E88.64162
G1 X122.941 Y121.597 E88.86614
G1 X121.385 Y122.637 E89.09073
G1 X119.548 Y123.001 E89.31545
G1 X117.713 Y122.637 E89.53995
G1 X116.160 Y121.600 E89.76403
G1 X115.116 Y120.041 E89.98919
G1 X114.753 Y118.207 E90.21354
G1 X115.164 Y116.126 E90.46808
G1 X72.950 Y109.173 E95.60201
G1 X72.950 Y99.994 E96.70349
G1 X75.549 Y99.994 E97.01537
G1 X75.549 Y106.965 E97.85189
G1 X117.546 Y113.885 E102.95949
G1 X117.714 Y113.772 E102.98378
G1 X119.548 Y113.408 E103.20816
G1 X121.294 Y113.755 E103.42178
G1 X147.449 Y106.950 E106.66487
G1 X147.449 Y99.994 E107.49959
G1 X150.050 Y99.994 E107.81171
G1 X150.050 Y108.960 E108.88763
G1 X147.049 Y109.740 E109.25971
G1 X147.049 Y114.724 E109.85779
G1 X139.674 Y116.511 E110.76840
G1 X139.674 Y111.660 E111.35052
G0 F12000 X139.974 Y111.660
G0 X139.996 Y111.244
G0 X123.114 Y115.642
G0 X122.209 Y116.857
G0 X121.918 Y116.926
G1 F1200 X121.894 Y116.847 E111.36043
G1 X120.903 Y115.857 E111.52852
G1 X119.632 Y115.517 E111.68641
G1 X119.551 Y115.493 E111.69654
G1 X118.269 Y115.835 E111.85576
G1 X118.190 Y115.859 E111.86567
G1 X117.201 Y116.850 E112.03368
G1 X116.861 Y118.121 E112.19156
G1 X116.837 Y118.202 E112.20170
G1 X117.179 Y119.484 E112.36092
G1 X117.203 Y119.563 E112.37083
G1 X118.193 Y120.551 E112.53867
G1 X119.464 Y120.892 E112.69658
G1 X119.545 Y120.916 E112.70672
G1 X120.827 Y120.573 E112.86597
G1 X120.905 Y120.549 E112.87576
G1 X121.896 Y119.561 E113.04369
G1 X122.234 Y118.289 E113.20162
G1 X122.259 Y118.208 E113.21180
G1 X121.918 Y116.926 E113.37099
G0 F12000 X122.738 Y116.232
;TYPE:SKIN
G1 F1200 X121.200 Y114.694 E113.63199
G0 F12000 X120.794 Y114.854
G1 F1200 X120.258 Y114.601 E113.68285
G1 X119.580 Y114.489 E113.72243
G1 X119.082 Y114.556 E113.74549
G1 X118.622 Y114.663 E113.77298
G1 X118.163 Y114.769 E113.80492
G1 X117.763 Y114.934 E113.82854
G1 X117.351 Y114.805 E113.88035
G0 F12000 X117.349 Y115.369
G1 F1200 X116.674 Y114.694 E113.99490
G0 F12000 X115.996 Y114.582
G1 F1200 X117.066 Y115.652 E114.17649
G0 F12000 X116.784 Y115.935
G1 F1200 X116.261 Y115.413 E114.26516
G0 F12000 X116.190 Y115.341
G1 F1200 X115.319 Y114.471 E114.41289
G0 F12000 X114.642 Y114.359
G1 F1200 X115.512 Y115.230 E114.56062
G0 F12000 X114.836 Y115.119
G1 F1200 X113.965 Y114.247 E114.70852
G0 F12000 X113.287 Y114.136
G1 F1200 X114.158 Y115.007 E114.85633
G0 F12000 X113.481 Y114.895
G1 F1200 X112.610 Y114.024 E115.00414
G0 F12000 X111.932 Y113.912
G1 F1200 X112.804 Y114.783 E115.15204
G0 F12000 X112.127 Y114.672
G1 F1200 X111.256 Y113.801 E115.29985
G0 F12000 X110.578 Y113.690
G1 F1200 X111.449 Y114.561 E115.44767
G0 F12000 X110.772 Y114.449
G1 F1200 X109.901 Y113.578 E115.59548
G0 F12000 X109.223 Y113.466
G1 F1200 X110.095 Y114.337 E115.74338
G0 F12000 X109.417 Y114.226
G1 F1200 X108.546 Y113.354 E115.89128
G0 F12000 X107.869 Y113.243
G1 F1200 X108.741 Y114.115 E116.03926
G0 F12000 X108.063 Y114.003
G1 F1200 X107.192 Y113.132 E116.18708
G0 F12000 X106.515 Y113.020
G1 F1200 X107.386 Y113.891 E116.33489
G0 F12000 X106.708 Y113.779
G1 F1200 X105.837 Y112.908 E116.48270
G0 F12000 X105.160 Y112.796
G1 F1200 X106.032 Y113.668 E116.63069
G0 F12000 X105.354 Y113.557
G1 F1200 X104.482 Y112.685 E116.77867
G0 F12000 X103.805 Y112.573
G1 F1200 X104.677 Y113.445 E116.92665
G0 F12000 X103.999 Y113.333
G1 F1200 X103.127 Y112.461 E117.07464
G0 F12000 X102.451 Y112.350
G1 F1200 X103.322 Y113.221 E117.22245
G0 F12000 X102.645 Y113.110
G1 F1200 X101.773 Y112.239 E117.37035
G0 F12000 X101.096 Y112.127
G1 F1200 X101.968 Y112.999 E117.51833
G0 F12000 X101.290 Y112.887
G1 F1200 X100.419 Y112.015 E117.66623
G0 F12000 X99.741 Y111.903
G1 F1200 X100.613 Y112.775 E117.81421
G0 F12000 X116.168 Y115.885
G1 F1200 X116.400 Y116.400 E117.87064
G1 X116.028 Y116.593 E117.90861
G1 X116.034 Y117.165 E117.94225
G1 X115.927 Y117.624 E117.97137
G1 X115.831 Y118.094 E117.99598
G1 X115.900 Y118.728 E118.03233
G1 X116.076 Y119.470 E118.07992
G1 X116.350 Y120.027 E118.15441
G0 F12000 X116.848 Y116.647
G0 X118.162 Y115.451
G0 X119.847 Y115.205
G0 X121.693 Y114.622
G1 F1200 X122.282 Y115.211 E118.25436
G0 F12000 X122.731 Y115.095
G1 F1200 X122.142 Y114.506 E118.35432
G0 F12000 X122.591 Y114.389
G1 F1200 X123.180 Y114.978 E118.45428
G0 F12000 X123.629 Y114.861
G1 F1200 X123.040 Y114.271 E118.55432
G0 F12000 X123.489 Y114.155
G1 F1200 X124.078 Y114.745 E118.65436
G0 F12000 X124.527 Y114.627
G1 F1200 X123.938 Y114.038 E118.75432
G0 F12000 X124.387 Y113.921
G1 F1200 X124.976 Y114.510 E118.85427
G0 F12000 X125.425 Y114.394
G1 F1200 X124.836 Y113.805 E118.95423
G0 F12000 X125.285 Y113.688
G1 F1200 X125.874 Y114.277 E119.05419
G0 F12000 X126.323 Y114.160
G1 F1200 X125.733 Y113.571 E119.15423
G0 F12000 X126.182 Y113.454
G1 F1200 X126.772 Y114.044 E119.25435
G0 F12000 X127.220 Y113.926
G1 F1200 X126.631 Y113.337 E119.35431
G0 F12000 X127.080 Y113.221
G1 F1200 X127.669 Y113.810 E119.45427
G0 F12000 X128.118 Y113.693
G1 F1200 X127.529 Y113.104 E119.55422
G0 F12000 X127.978 Y112.987
G1 F1200 X128.567 Y113.576 E119.65418
G0 F12000 X129.016 Y113.460
G1 F1200 X128.427 Y112.871 E119.75414
G0 F12000 X128.875 Y112.753
G1 F1200 X129.464 Y113.342 E119.85409
G0 F12000 X129.913 Y113.226
G1 F1200 X129.324 Y112.637 E119.95405
G0 F12000 X129.773 Y112.520
G1 F1200 X130.362 Y113.109 E120.05401
G0 F12000 X130.811 Y112.992
G1 F1200 X130.222 Y112.403 E120.15396
G0 F12000 X130.671 Y112.287
G1 F1200 X131.260 Y112.876 E120.25392
G0 F12000 X131.709 Y112.759
G1 F1200 X131.120 Y112.170 E120.35388
G0 F12000 X131.569 Y112.053
G1 F1200 X132.158 Y112.642 E120.45383
G0 F12000 X132.607 Y112.525
G1 F1200 X132.018 Y111.936 E120.55379
G0 F12000 X132.467 Y111.819
G1 F1200 X133.056 Y112.408 E120.65375
G0 F12000 X133.505 Y112.292
G1 F1200 X132.916 Y111.703 E120.75370
G0 F12000 X133.365 Y111.586
G1 F1200 X133.954 Y112.175 E120.85366
G0 F12000 X134.403 Y112.058
G1 F1200 X133.814 Y111.469 E120.95362
G0 F12000 X134.263 Y111.353
G1 F1200 X134.851 Y111.941 E121.05340
G0 F12000 X135.300 Y111.824
G1 F1200 X134.711 Y111.235 E121.15336
G0 F12000 X135.160 Y111.119
G1 F1200 X135.749 Y111.708 E121.25332
G0 F12000 X136.198 Y111.591
G1 F1200 X135.609 Y111.002 E121.35327
G0 F12000 X136.058 Y110.885
G1 F1200 X136.647 Y111.474 E121.45323
G0 F12000 X137.096 Y111.358
G1 F1200 X136.507 Y110.768 E121.55327
G0 F12000 X136.956 Y110.652
G1 F1200 X137.544 Y111.240 E121.65306
G0 F12000 X137.994 Y111.123
G1 F1200 X137.404 Y110.534 E121.75310
G0 F12000 X137.854 Y110.418
G1 F1200 X138.443 Y111.007 E121.85306
G0 F12000 X138.892 Y110.890
G1 F1200 X138.303 Y110.301 E121.95301
G0 F12000 X138.752 Y110.184
G1 F1200 X139.341 Y110.773 E122.05297
G0 F12000 X139.789 Y110.656
G1 F1200 X139.201 Y110.068 E122.15276
G0 F12000 X139.650 Y109.951
G1 F1200 X140.238 Y110.539 E122.25254
G0 F12000 X140.687 Y110.423
G1 F1200 X140.098 Y109.834 E122.35250
G0 F12000 X140.547 Y109.717
G1 F1200 X141.136 Y110.306 E122.45246
G0 F12000 X141.585 Y110.189
G1 F1200 X140.996 Y109.600 E122.55241
G0 F12000 X141.445 Y109.484
G1 F1200 X142.034 Y110.073 E122.65237
G0 F12000 X142.482 Y109.955
G1 F1200 X141.894 Y109.367 E122.75216
G0 F12000 X142.343 Y109.250
G1 F1200 X142.931 Y109.839 E122.85203
G0 F12000 X143.380 Y109.722
G1 F1200 X142.792 Y109.134 E122.95182
G0 F12000 X143.240 Y109.016
G1 F1200 X143.829 Y109.605 E123.05177
G0 F12000 X144.278 Y109.489
G1 F1200 X143.689 Y108.900 E123.15173
G0 F12000 X144.138 Y108.783
G1 F1200 X144.727 Y109.372 E123.25169
G0 F12000 X145.176 Y109.255
G1 F1200 X144.587 Y108.666 E123.35164
G0 F12000 X145.036 Y108.550
G1 F1200 X145.625 Y109.138 E123.45151
G0 F12000 X146.074 Y109.021
G1 F1200 X145.485 Y108.433 E123.55139
G0 F12000 X145.934 Y108.316
G1 F1200 X146.523 Y108.905 E123.65134
G0 F12000 X146.972 Y108.788
G1 F1200 X146.383 Y108.199 E123.75130
G0 F12000 X146.832 Y108.082
G1 F1200 X147.421 Y108.671 E123.85126
G0 F12000 X147.869 Y108.554
G1 F1200 X147.281 Y107.966 E123.95104
G0 F12000 X147.730 Y107.849
G1 F1200 X148.318 Y108.437 E124.05083
G0 F12000 X148.767 Y108.320
G1 F1200 X148.179 Y107.732 E124.15062
G0 F12000 X148.387 Y107.375
G1 F1200 X149.109 Y108.096 E124.27306
G0 F12000 X149.109 Y107.531
G1 F1200 X148.387 Y106.809 E124.39559
G0 F12000 X148.387 Y106.244
G1 F1200 X149.109 Y106.965 E124.51803
G0 F12000 X149.109 Y106.399
G1 F1200 X148.387 Y105.678 E124.64047
G0 F12000 X148.387 Y105.112
G1 F1200 X149.109 Y105.834 E124.76300
G0 F12000 X149.109 Y105.268
G1 F1200 X148.387 Y104.547 E124.88544
G0 F12000 X148.387 Y103.981
G1 F1200 X149.109 Y104.702 E125.00788
G0 F12000 X149.109 Y104.137
G1 F1200 X148.387 Y103.415 E125.13041
G0 F12000 X148.387 Y102.850
G1 F1200 X149.109 Y103.571 E125.25285
G0 F12000 X149.109 Y103.005
G1 F1200 X148.387 Y102.284 E125.37530
G0 F12000 X148.387 Y101.718
G1 F1200 X149.109 Y102.439 E125.49774
G0 F12000 X149.109 Y101.874
G1 F1200 X148.387 Y101.153 E125.62018
G0 F12000 X148.734 Y100.933
G1 F1200 X149.109 Y101.308 E125.68382
G0 F12000 X147.807 Y107.226
G0 X121.305 Y114.160
G0 X117.634 Y114.291
G0 X99.936 Y112.664
G1 F1200 X99.064 Y111.792 E125.83181
G0 F12000 X98.387 Y111.681
G1 F1200 X99.259 Y112.553 E125.97979
G0 F12000 X98.581 Y112.441
G1 F1200 X97.710 Y111.569 E126.12769
G0 F12000 X97.032 Y111.457
G1 F1200 X97.904 Y112.329 E126.27567
G0 F12000 X97.227 Y112.217
G1 F1200 X96.355 Y111.345 E126.42365
G0 F12000 X95.677 Y111.234
G1 F1200 X96.550 Y112.106 E126.57172
G0 F12000 X95.873 Y111.995
G1 F1200 X95.000 Y111.122 E126.71988
G0 F12000 X94.323 Y111.011
G1 F1200 X95.195 Y111.883 E126.86786
G0 F12000 X94.518 Y111.771
G1 F1200 X93.646 Y110.899 E127.01584
G0 F12000 X92.968 Y110.788
G1 F1200 X93.841 Y111.660 E127.16391
G0 F12000 X93.164 Y111.548
G1 F1200 X92.291 Y110.676 E127.31198
G0 F12000 X91.614 Y110.564
G1 F1200 X92.486 Y111.437 E127.46005
G0 F12000 X91.809 Y111.325
G1 F1200 X90.936 Y110.452 E127.60820
G0 F12000 X90.260 Y110.341
G1 F1200 X91.131 Y111.213 E127.75610
G0 F12000 X90.455 Y111.102
G1 F1200 X89.582 Y110.230 E127.90417
G0 F12000 X88.905 Y110.118
G1 F1200 X89.777 Y110.991 E128.05223
G0 F12000 X89.100 Y110.879
G1 F1200 X88.227 Y110.006 E128.20039
G0 F12000 X87.550 Y109.895
G1 F1200 X88.422 Y110.767 E128.34837
G0 F12000 X87.746 Y110.656
G1 F1200 X86.873 Y109.783 E128.49652
G0 F12000 X86.196 Y109.672
G1 F1200 X87.068 Y110.544 E128.64451
G0 F12000 X86.391 Y110.433
