;FLAVOR:UltiGCode
;TIME:1723
;MATERIAL:2282
;MATERIAL2:0
;NOZZLE_DIAMETER:0.400000
;NOZZLE_DIAMETER2:0.400000

;Layer count: 68
;LAYER:0
M107
G0 F12000 X69.551 Y96.793 Z0.300
;TYPE:SKIRT
G1 F1200 X78.951 Y96.793 E1.12800
G1 X78.951 Y104.476 E2.04996
G1 X103.604 Y110.449 E5.09391
G1 X104.542 Y110.305 E5.20779
G1 X144.049 Y104.246 E10.00406
G1 X144.049 Y96.793 E10.89842
G1 X153.449 Y96.793 E12.02642
G1 X153.449 Y112.315 E13.88906
G1 X111.303 Y118.777 E19.00568
G1 X111.299 Y118.912 E19.02189
G1 X111.187 Y119.782 E19.12715
G1 X111.056 Y120.370 E19.19944
G1 X110.768 Y121.252 E19.31078
G1 X110.348 Y122.143 E19.42898
G1 X109.820 Y122.974 E19.54713
G1 X109.192 Y123.734 E19.66544
G1 X108.483 Y124.400 E19.78217
G1 X107.689 Y124.981 E19.90023
G1 X106.824 Y125.458 E20.01877
G1 X105.894 Y125.828 E20.13887
G1 X104.954 Y126.069 E20.25532
G1 X104.028 Y126.190 E20.36739
G1 X103.467 Y126.209 E20.43475
G1 X102.921 Y126.192 E20.50030
G1 X102.059 Y126.082 E20.60458
G1 X101.469 Y125.953 E20.67705
G1 X100.587 Y125.666 E20.78835
G1 X99.683 Y125.244 E20.90807
G1 X98.858 Y124.720 E21.02535
G1 X98.100 Y124.096 E21.14317
G1 X97.422 Y123.379 E21.26158
G1 X96.840 Y122.580 E21.38020
G1 X96.364 Y121.718 E21.49837
G1 X95.998 Y120.800 E21.61696
G1 X95.753 Y119.850 E21.73469
G1 X95.631 Y118.922 E21.84701
G1 X95.612 Y118.360 E21.91449
G1 X95.617 Y118.186 E21.93537
G1 X86.726 Y116.031 E23.03319
G1 X86.726 Y121.030 E23.63307
G1 X81.802 Y119.838 E24.24101
G1 X72.551 Y117.596 E25.38327
G1 X72.551 Y112.596 E25.98327
G1 X72.372 Y112.553 E26.00536
G1 X69.551 Y111.868 E26.35372
G1 X69.551 Y96.793 E28.16272
G10
G1 Z0.400
G0 F12000 X73.751 Y100.993
;TYPE:WALL-INNER
G1 Z0.300
G11
G1 F1200 X74.751 Y100.993 E28.28272
G1 X74.751 Y107.780 E29.09716
G1 X103.366 Y114.712 E32.63028
G1 X102.797 Y114.766 E32.69886
G1 X102.320 Y114.887 E32.75792
G1 X101.703 Y115.155 E32.83864
G1 X101.143 Y115.536 E32.91992
G1 X100.653 Y116.028 E33.00324
G1 X100.501 Y116.223 E33.03291
G1 X100.327 Y116.499 E33.07207
G1 X101.103 Y115.192 E33.25447
G1 X98.830 Y114.643 E33.53507
G1 X82.526 Y110.691 E35.54821
G1 X76.751 Y109.293 E36.26122
G1 X73.751 Y108.565 E36.63167
G1 X73.751 Y100.993 E37.54031
G0 F12000 X75.194 Y107.431
G0 X103.525 Y114.709
G1 F1200 X148.249 Y107.852 E42.96990
G1 X148.249 Y100.993 E43.79298
G1 X149.249 Y100.993 E43.91298
G1 X149.249 Y108.710 E44.83902
G1 X106.063 Y115.332 E50.08191
G1 X106.643 Y116.561 E50.24499
G1 X106.289 Y116.041 E50.32048
G1 X105.953 Y115.683 E50.37940
G1 X105.422 Y115.271 E50.46005
G1 X104.839 Y114.974 E50.53856
G1 X104.563 Y114.874 E50.57379
G1 X103.937 Y114.735 E50.65074
G1 X103.525 Y114.709 E50.70028
G0 F12000 X105.206 Y115.612
G0 X106.856 Y117.013
G1 F1200 X106.882 Y117.094 E50.71048
G1 X106.746 Y116.780 E50.75155
G1 X106.856 Y117.013 E50.78247
G0 F12000 X107.106 Y118.123
G1 F1200 X107.110 Y118.269 E50.79999
G1 X107.060 Y117.744 E50.86328
G1 X107.106 Y118.123 E50.90909
G0 F12000 X107.001 Y119.256
G1 F1200 X106.972 Y119.346 E50.92044
G1 X107.059 Y118.950 E50.96909
G1 X107.001 Y119.256 E51.00647
G0 F12000 X105.027 Y121.205
G0 X102.568 Y121.894
G1 F1200 X102.318 Y121.813 E51.03800
G1 X102.694 Y121.922 E51.08498
G1 X102.568 Y121.894 E51.10047
G0 F12000 X101.702 Y121.551
G1 F1200 X101.629 Y121.505 E51.11082
G1 X101.929 Y121.658 E51.15123
G1 X101.702 Y121.551 E51.18135
G0 F12000 X101.511 Y121.903
G1 F1200 X101.094 Y121.639 E51.24057
G1 X100.697 Y121.312 E51.30229
G1 X100.350 Y120.945 E51.36290
G1 X100.050 Y120.533 E51.42406
G1 X99.808 Y120.095 E51.48411
G1 X99.617 Y119.614 E51.54621
G1 X99.490 Y119.125 E51.60684
G1 X99.423 Y118.613 E51.66880
G1 X99.415 Y118.355 E51.69978
G1 X99.422 Y118.106 E51.72967
G1 X99.486 Y117.602 E51.79064
G1 X99.539 Y117.359 E51.82048
G1 X99.698 Y116.870 E51.88219
G1 X99.910 Y116.416 E51.94231
G1 X100.482 Y115.454 E52.07662
G1 X82.926 Y111.201 E54.24427
G1 X82.926 Y116.200 E54.84415
G1 X76.351 Y114.607 E55.65598
G1 X76.351 Y109.607 E56.25598
G1 X73.351 Y108.880 E56.62640
G1 X73.351 Y100.593 E57.62084
G1 X75.151 Y100.593 E57.83684
G1 X75.151 Y107.465 E58.66148
G1 X103.438 Y114.318 E62.15412
G1 X147.849 Y107.508 E67.54573
G1 X147.849 Y100.593 E68.37553
G1 X149.649 Y100.593 E68.59153
G1 X149.649 Y109.053 E69.60673
G1 X106.653 Y115.646 E74.82655
G1 X107.229 Y116.867 E74.98856
G1 X107.391 Y117.366 E75.05151
G1 X107.485 Y117.868 E75.11280
G1 X107.513 Y118.367 E75.17278
G1 X107.506 Y118.616 E75.20267
G1 X107.441 Y119.117 E75.26329
G1 X107.384 Y119.373 E75.29476
G1 X107.231 Y119.842 E75.35396
G1 X107.013 Y120.305 E75.41537
G1 X106.734 Y120.744 E75.47779
G1 X106.418 Y121.126 E75.53728
G1 X106.055 Y121.467 E75.59705
G1 X105.637 Y121.773 E75.65921
G1 X105.203 Y122.013 E75.71873
G1 X104.709 Y122.209 E75.78250
G1 X104.235 Y122.330 E75.84121
G1 X103.720 Y122.398 E75.90354
G1 X103.462 Y122.406 E75.93452
G1 X103.213 Y122.399 E75.96441
G1 X102.710 Y122.335 E76.02525
G1 X102.467 Y122.282 E76.05510
G1 X101.985 Y122.125 E76.11593
G1 X101.511 Y121.903 E76.17874
G0 F12000 X101.736 Y121.111
G1 F1200 X102.273 Y121.384 E76.25103
G1 X102.837 Y121.547 E76.32148
G1 X103.469 Y121.608 E76.39767
G1 X103.877 Y121.582 E76.44673
G1 X104.279 Y121.505 E76.49585
G1 X104.668 Y121.377 E76.54499
G1 X105.029 Y121.206 E76.59292
G1 X105.214 Y121.096 E76.61875
G1 X105.540 Y120.859 E76.66712
G1 X105.841 Y120.576 E76.71670
G1 X106.211 Y120.100 E76.78904
G1 X106.479 Y119.572 E76.86010
G1 X106.562 Y119.345 E76.88910
G1 X106.689 Y118.773 E76.95941
G1 X106.716 Y118.348 E77.01052
G1 X106.660 Y117.757 E77.08175
G1 X106.555 Y117.343 E77.13301
G1 X106.314 Y116.789 E77.20550
G1 X105.976 Y116.292 E77.27763
G1 X105.683 Y115.980 E77.32899
G1 X105.207 Y115.610 E77.40134
G1 X104.679 Y115.342 E77.47239
G1 X104.451 Y115.259 E77.50151
G1 X103.880 Y115.132 E77.57170
G1 X103.455 Y115.105 E77.62281
G1 X102.865 Y115.161 E77.69392
G1 X102.450 Y115.266 E77.74529
G1 X101.897 Y115.507 E77.81768
G1 X101.394 Y115.849 E77.89067
G1 X101.102 Y116.125 E77.93889
G1 X100.829 Y116.453 E77.99010
G1 X100.615 Y116.791 E78.03810
G1 X100.438 Y117.166 E78.08786
G1 X100.318 Y117.545 E78.13557
G1 X100.238 Y117.960 E78.18629
G1 X100.213 Y118.362 E78.23462
G1 X100.238 Y118.762 E78.28271
G1 X100.276 Y118.991 E78.31057
G1 X100.440 Y119.551 E78.38059
G1 X100.615 Y119.920 E78.42960
G1 X100.725 Y120.106 E78.45553
G1 X100.962 Y120.433 E78.50399
G1 X101.232 Y120.721 E78.55136
G1 X101.400 Y120.868 E78.57815
G1 X101.736 Y121.111 E78.62791
G0 F12000 X99.421 Y118.111
G0 X100.356 Y115.507
G0 X83.003 Y111.298
G0 X82.182 Y115.255
G1 F1200 X82.182 Y111.020 E79.13611
G1 X77.094 Y109.787 E79.76434
G1 X77.094 Y114.022 E80.27254
G1 X82.182 Y115.255 E80.90078
G0 F12000 X81.782 Y114.746
;TYPE:WALL-OUTER
G1 F1200 X81.782 Y111.335 E81.31010
G1 X77.494 Y110.296 E81.83955
G1 X77.494 Y113.707 E82.24887
G1 X81.782 Y114.746 E82.77832
G0 F12000 X81.712 Y115.037
G0 X82.105 Y115.157
G0 X83.003 Y111.298
G0 X83.395 Y111.418
G0 X83.326 Y111.709
G1 F1200 X83.326 Y116.709 E83.37832
G1 X75.951 Y114.922 E84.28892
G1 X75.951 Y109.922 E84.88892
G1 X72.951 Y109.195 E85.25934
G1 X72.951 Y100.193 E86.33958
G1 X75.551 Y100.193 E86.65158
G1 X75.551 Y107.150 E87.48642
G1 X103.455 Y113.911 E90.93179
G1 X147.449 Y107.165 E96.27278
G1 X147.449 Y100.193 E97.10942
G1 X150.049 Y100.193 E97.42142
G1 X150.049 Y109.396 E98.52578
G1 X107.244 Y115.960 E103.72242
G1 X107.601 Y116.717 E103.82285
G1 X107.775 Y117.252 E103.89037
G1 X107.880 Y117.805 E103.95791
G1 X107.905 Y118.071 E103.98997
G1 X107.914 Y118.361 E104.02479
G1 X107.905 Y118.649 E104.05936
G1 X107.836 Y119.189 E104.12469
G1 X107.773 Y119.471 E104.15937
G1 X107.602 Y119.994 E104.22540
G1 X107.364 Y120.500 E104.29250
G1 X107.062 Y120.975 E104.36004
G1 X106.711 Y121.399 E104.42609
G1 X106.309 Y121.777 E104.49231
G1 X105.855 Y122.109 E104.55980
G1 X105.369 Y122.377 E104.62640
G1 X104.840 Y122.588 E104.69475
G1 X104.304 Y122.725 E104.76113
G1 X103.755 Y122.797 E104.82758
G1 X103.463 Y122.807 E104.86264
G1 X103.182 Y122.798 E104.89638
G1 X102.639 Y122.729 E104.96206
G1 X102.362 Y122.668 E104.99610
G1 X101.837 Y122.498 E105.06232
G1 X101.321 Y122.256 E105.13071
G1 X100.855 Y121.961 E105.19689
G1 X100.425 Y121.606 E105.26380
G1 X100.047 Y121.207 E105.32976
G1 X99.712 Y120.747 E105.39805
G1 X99.444 Y120.262 E105.46454
G1 X99.237 Y119.743 E105.53159
G1 X99.096 Y119.196 E105.59938
G1 X99.024 Y118.648 E105.66570
G1 X99.014 Y118.363 E105.69992
G1 X99.023 Y118.071 E105.73498
G1 X99.092 Y117.529 E105.80054
G1 X99.153 Y117.254 E105.83435
G1 X99.323 Y116.729 E105.90057
G1 X99.561 Y116.221 E105.96789
G1 X99.861 Y115.715 E106.03848
G1 X83.326 Y111.709 E108.08008
G0 F12000 X83.395 Y111.418
G0 X100.356 Y115.507
G0 X100.541 Y117.185
G0 X100.811 Y117.313
G1 F1200 X100.665 Y117.822 E108.14362
G1 X100.636 Y118.003 E108.16562
G1 X100.614 Y118.362 E108.20878
G1 X100.636 Y118.717 E108.25146
G1 X100.667 Y118.902 E108.27397
G1 X100.815 Y119.408 E108.33723
G1 X100.968 Y119.732 E108.38023
G1 X101.060 Y119.887 E108.40186
G1 X101.271 Y120.178 E108.44499
G1 X101.650 Y120.555 E108.50914
G1 X101.945 Y120.768 E108.55281
G1 X102.420 Y121.010 E108.61678
G1 X102.924 Y121.156 E108.67974
G1 X103.110 Y121.185 E108.70233
G1 X103.469 Y121.207 E108.74550
G1 X103.826 Y121.185 E108.78842
G1 X104.178 Y121.117 E108.83144
G1 X104.519 Y121.005 E108.87451
G1 X104.840 Y120.853 E108.91713
G1 X104.994 Y120.761 E108.93865
G1 X105.285 Y120.550 E108.98179
G1 X105.544 Y120.306 E109.02449
G1 X105.872 Y119.885 E109.08853
G1 X106.112 Y119.412 E109.15218
G1 X106.177 Y119.232 E109.17514
G1 X106.292 Y118.717 E109.23847
G1 X106.315 Y118.354 E109.28211
G1 X106.265 Y117.826 E109.34576
G1 X106.175 Y117.473 E109.38947
G1 X105.962 Y116.983 E109.45359
G1 X105.663 Y116.543 E109.51743
G1 X105.413 Y116.277 E109.56123
G1 X104.992 Y115.949 E109.62527
G1 X104.520 Y115.709 E109.68881
G1 X104.339 Y115.644 E109.71189
G1 X103.824 Y115.529 E109.77521
G1 X103.461 Y115.506 E109.81886
G1 X102.934 Y115.556 E109.88239
G1 X102.580 Y115.646 E109.92622
G1 X102.091 Y115.859 E109.99022
G1 X101.645 Y116.162 E110.05493
G1 X101.389 Y116.404 E110.09720
G1 X101.156 Y116.684 E110.14091
G1 X100.966 Y116.984 E110.18352
G1 X100.811 Y117.313 E110.22717
G0 F12000 X100.541 Y117.185
G0 X101.359 Y115.218
;TYPE:SKIN
G1 F1200 X101.290 Y115.149 E110.23888
G0 F12000 X101.213 Y115.073
G1 F1200 X100.238 Y114.098 E110.40434
G0 F12000 X99.492 Y113.917
G1 F1200 X100.467 Y114.892 E110.56980
G0 F12000 X100.985 Y114.279
G1 F1200 X101.705 Y114.999 E110.69199
G0 F12000 X102.100 Y114.828
G1 F1200 X101.732 Y114.460 E110.75444
G0 F12000 X104.761 Y114.660
G1 F1200 X104.995 Y114.894 E110.79415
G0 F12000 X105.252 Y114.585
G1 F1200 X105.882 Y115.216 E110.90115
G0 F12000 X106.372 Y115.141
G1 F1200 X105.742 Y114.510 E111.00815
G0 F12000 X106.232 Y114.435
G1 F1200 X106.863 Y115.066 E111.11524
G0 F12000 X107.354 Y114.991
G1 F1200 X106.723 Y114.360 E111.22232
G0 F12000 X107.213 Y114.284
G1 F1200 X107.844 Y114.915 E111.32940
G0 F12000 X108.335 Y114.840
G1 F1200 X107.704 Y114.209 E111.43649
G0 F12000 X108.195 Y114.134
G1 F1200 X108.825 Y114.765 E111.54349
G0 F12000 X109.315 Y114.689
G1 F1200 X108.685 Y114.059 E111.65040
G0 F12000 X109.175 Y113.984
G1 F1200 X109.806 Y114.614 E111.75740
G0 F12000 X110.297 Y114.539
G1 F1200 X109.666 Y113.909 E111.86440
G0 F12000 X110.156 Y113.833
G1 F1200 X110.787 Y114.464 E111.97148
G0 F12000 X111.278 Y114.389
G1 F1200 X110.647 Y113.758 E112.07857
G0 F12000 X111.138 Y113.683
G1 F1200 X111.768 Y114.313 E112.18548
G0 F12000 X112.258 Y114.238
G1 F1200 X111.628 Y113.608 E112.29240
G0 F12000 X112.118 Y113.533
G1 F1200 X112.749 Y114.163 E112.39940
G0 F12000 X113.239 Y114.088
G1 F1200 X112.609 Y113.458 E112.50631
G0 F12000 X113.099 Y113.382
G1 F1200 X113.730 Y114.013 E112.61340
G0 F12000 X114.221 Y113.938
G1 F1200 X113.590 Y113.307 E112.72048
G0 F12000 X114.081 Y113.232
G1 F1200 X114.711 Y113.862 E112.82740
G0 F12000 X115.201 Y113.787
G1 F1200 X114.571 Y113.156 E112.93439
G0 F12000 X115.061 Y113.081
G1 F1200 X115.692 Y113.712 E113.04148
G0 F12000 X116.182 Y113.637
G1 F1200 X115.552 Y113.006 E113.14848
G0 F12000 X116.042 Y112.931
G1 F1200 X116.673 Y113.562 E113.25556
G0 F12000 X117.164 Y113.487
G1 F1200 X116.533 Y112.856 E113.36265
G0 F12000 X117.024 Y112.781
G1 F1200 X117.654 Y113.411 E113.46956
G0 F12000 X118.144 Y113.336
G1 F1200 X117.514 Y112.705 E113.57656
G0 F12000 X118.004 Y112.630
G1 F1200 X118.635 Y113.261 E113.68365
G0 F12000 X119.125 Y113.185
G1 F1200 X118.495 Y112.555 E113.79056
G0 F12000 X118.985 Y112.480
G1 F1200 X119.616 Y113.110 E113.89756
G0 F12000 X120.107 Y113.035
G1 F1200 X119.476 Y112.405 E114.00456
G0 F12000 X119.967 Y112.330
G1 F1200 X120.597 Y112.960 E114.11147
G0 F12000 X121.087 Y112.885
G1 F1200 X120.457 Y112.254 E114.21847
G0 F12000 X120.947 Y112.179
G1 F1200 X121.578 Y112.810 E114.32556
G0 F12000 X122.068 Y112.734
G1 F1200 X121.438 Y112.104 E114.43247
G0 F12000 X121.928 Y112.029
G1 F1200 X122.559 Y112.659 E114.53947
G0 F12000 X123.049 Y112.584
G1 F1200 X122.419 Y111.954 E114.64639
G0 F12000 X122.910 Y111.879
G1 F1200 X123.540 Y112.509 E114.75330
G0 F12000 X124.030 Y112.434
G1 F1200 X123.400 Y111.803 E114.86030
G0 F12000 X123.890 Y111.728
G1 F1200 X124.520 Y112.358 E114.96721
G0 F12000 X125.011 Y112.283
G1 F1200 X124.381 Y111.653 E115.07413
G0 F12000 X124.871 Y111.577
G1 F1200 X125.502 Y112.208 E115.18121
G0 F12000 X125.992 Y112.132
G1 F1200 X125.362 Y111.502 E115.28813
G0 F12000 X125.852 Y111.428
G1 F1200 X126.483 Y112.058 E115.39513
G0 F12000 X126.973 Y111.983
G1 F1200 X126.343 Y111.353 E115.50204
G0 F12000 X126.833 Y111.277
G1 F1200 X127.463 Y111.907 E115.60896
G0 F12000 X127.954 Y111.832
G1 F1200 X127.324 Y111.202 E115.71587
G0 F12000 X127.815 Y111.127
G1 F1200 X128.445 Y111.757 E115.82278
G0 F12000 X128.935 Y111.681
G1 F1200 X128.305 Y111.051 E115.92970
G0 F12000 X128.795 Y110.976
G1 F1200 X129.425 Y111.606 E116.03661
G0 F12000 X129.916 Y111.531
G1 F1200 X129.286 Y110.901 E116.14353
G0 F12000 X129.776 Y110.826
G1 F1200 X130.406 Y111.456 E116.25044
G0 F12000 X130.897 Y111.381
G1 F1200 X130.267 Y110.751 E116.35736
G0 F12000 X130.758 Y110.676
G1 F1200 X131.388 Y111.306 E116.46427
G0 F12000 X131.878 Y111.230
G1 F1200 X131.248 Y110.600 E116.57119
G0 F12000 X131.738 Y110.525
G1 F1200 X132.368 Y111.155 E116.67810
G0 F12000 X132.859 Y111.080
G1 F1200 X132.229 Y110.450 E116.78502
G0 F12000 X132.719 Y110.375
G1 F1200 X133.349 Y111.005 E116.89193
G0 F12000 X133.840 Y110.930
G1 F1200 X133.210 Y110.300 E116.99884
G0 F12000 X133.701 Y110.225
G1 F1200 X134.330 Y110.854 E117.10559
G0 F12000 X134.821 Y110.779
G1 F1200 X134.191 Y110.149 E117.21250
G0 F12000 X134.681 Y110.074
G1 F1200 X135.311 Y110.704 E117.31942
G0 F12000 X135.801 Y110.628
G1 F1200 X135.172 Y109.999 E117.42616
G0 F12000 X135.662 Y109.923
G1 F1200 X136.292 Y110.554 E117.53316
G0 F12000 X136.783 Y110.479
G1 F1200 X136.153 Y109.849 E117.64008
G0 F12000 X136.644 Y109.774
G1 F1200 X137.273 Y110.403 E117.74682
G0 F12000 X137.764 Y110.328
G1 F1200 X137.134 Y109.698 E117.85374
G0 F12000 X137.624 Y109.623
G1 F1200 X138.254 Y110.253 E117.96065
G0 F12000 X138.744 Y110.177
G1 F1200 X138.115 Y109.548 E118.06740
G0 F12000 X138.605 Y109.472
G1 F1200 X139.235 Y110.102 E118.17431
G0 F12000 X139.726 Y110.027
G1 F1200 X139.096 Y109.397 E118.28123
G0 F12000 X139.587 Y109.322
G1 F1200 X140.216 Y109.952 E118.38806
G0 F12000 X140.707 Y109.877
G1 F1200 X140.077 Y109.247 E118.49497
G0 F12000 X140.567 Y109.172
G1 F1200 X141.197 Y109.802 E118.60188
G0 F12000 X141.687 Y109.726
G1 F1200 X141.058 Y109.097 E118.70863
G0 F12000 X141.548 Y109.021
G1 F1200 X142.178 Y109.651 E118.81554
G0 F12000 X142.669 Y109.576
G1 F1200 X142.039 Y108.946 E118.92246
