;FLAVOR:UltiGCode
;TIME:300
;MATERIAL:286
;MATERIAL2:0
;NOZZLE_DIAMETER:0.400000
;NOZZLE_DIAMETER2:0.400000

;Layer count: 29
;LAYER:0
M107
G0 F12000 X93.579 Y105.391 Z0.300
;TYPE:SKIRT
G1 F1200 X94.591 Y104.868 E0.13670
G1 X95.638 Y104.622 E0.26576
G1 X123.067 Y104.622 E3.55724
G1 X124.175 Y104.646 E3.69023
G1 X125.322 Y105.012 E3.83471
G1 X126.291 Y105.630 E3.97262
G1 X126.917 Y106.308 E4.08336
G1 X130.054 Y110.796 E4.74044
G1 X130.626 Y111.614 E4.86022
G1 X131.055 Y112.434 E4.97127
G1 X131.307 Y113.579 E5.11196
G1 X131.253 Y114.734 E5.25071
G1 X130.907 Y115.840 E5.38977
G1 X130.281 Y116.819 E5.52922
G1 X129.421 Y117.608 E5.66927
G1 X128.416 Y118.127 E5.80500
G1 X127.371 Y118.378 E5.93397
G1 X99.528 Y118.378 E9.27513
G1 X98.765 Y118.332 E9.36685
G1 X97.684 Y117.993 E9.50280
G1 X96.705 Y117.367 E9.64225
G1 X96.081 Y116.687 E9.75300
G1 X95.480 Y115.828 E9.87880
G1 X92.371 Y111.382 E10.52983
G1 X91.944 Y110.561 E10.64087
G1 X91.693 Y109.420 E10.78107
G1 X91.747 Y108.265 E10.91982
G1 X92.093 Y107.159 E11.05888
G1 X92.719 Y106.180 E11.19833
G1 X93.579 Y105.391 E11.33838
G0 F12000 X93.810 Y105.722
G1 F1200 X94.731 Y105.247 E11.46273
G1 X95.684 Y105.022 E11.58024
G1 X123.063 Y105.022 E14.86572
G1 X124.109 Y105.045 E14.99127
G1 X125.151 Y105.377 E15.12250
G1 X126.032 Y105.940 E15.24796
G1 X126.604 Y106.560 E15.34919
G1 X129.726 Y111.026 E16.00307
G1 X130.284 Y111.823 E16.11982
G1 X130.676 Y112.572 E16.22127
G1 X130.905 Y113.613 E16.34918
G1 X130.856 Y114.664 E16.47543
G1 X130.541 Y115.669 E16.60182
G1 X129.972 Y116.560 E16.72868
G1 X129.190 Y117.277 E16.85599
G1 X128.276 Y117.749 E16.97944
G1 X127.323 Y117.978 E17.09705
G1 X99.540 Y117.978 E20.43101
G1 X98.838 Y117.935 E20.51541
G1 X97.855 Y117.627 E20.63902
G1 X96.964 Y117.058 E20.76589
G1 X96.393 Y116.436 E20.86721
G1 X95.808 Y115.599 E20.98975
G1 X92.714 Y111.174 E21.63768
G1 X92.323 Y110.423 E21.73928
G1 X92.095 Y109.386 E21.86669
G1 X92.144 Y108.335 E21.99295
G1 X92.459 Y107.330 E22.11933
G1 X93.028 Y106.439 E22.24620
G1 X93.810 Y105.722 E22.37351
G10
G1 Z0.400
G0 F12000 X96.474 Y109.222
;TYPE:WALL-INNER
G1 Z0.300
G11
G1 F1200 X123.006 Y109.222 E25.55735
G1 X123.346 Y109.229 E25.59816
G1 X126.525 Y113.778 E26.26413
G1 X99.659 Y113.778 E29.48805
G1 X96.474 Y109.222 E30.15511
G0 F12000 X95.968 Y109.196
G1 F1200 X95.926 Y109.115 E30.16606
G1 X95.914 Y109.059 E30.17293
G1 X95.916 Y109.003 E30.17966
G1 X95.964 Y108.903 E30.19297
G1 X96.006 Y108.865 E30.19977
G1 X96.056 Y108.838 E30.20659
G1 X96.126 Y108.822 E30.21520
G1 X123.015 Y108.822 E33.44188
G1 X123.477 Y108.832 E33.49734
G1 X123.524 Y108.847 E33.50326
G1 X123.573 Y108.879 E33.51028
G1 X123.636 Y108.947 E33.52140
G1 X127.034 Y113.807 E34.23301
G1 X127.074 Y113.883 E34.24332
G1 X127.086 Y113.940 E34.25031
G1 X127.084 Y113.996 E34.25703
G1 X127.036 Y114.096 E34.27034
G1 X126.994 Y114.134 E34.27714
G1 X126.941 Y114.162 E34.28433
G1 X126.875 Y114.178 E34.29248
G1 X99.657 Y114.178 E37.55864
G1 X99.531 Y114.170 E37.57379
G1 X99.477 Y114.153 E37.58059
G1 X99.428 Y114.122 E37.58755
G1 X95.968 Y109.196 E38.30991
G0 F12000 X95.624 Y109.402
;TYPE:WALL-OUTER
G1 F1200 X95.546 Y109.253 E38.33009
G1 X95.512 Y109.097 E38.34925
G1 X95.520 Y108.933 E38.36896
G1 X95.568 Y108.781 E38.38808
G1 X95.657 Y108.641 E38.40799
G1 X95.771 Y108.536 E38.42659
G1 X95.918 Y108.460 E38.44645
G1 X96.081 Y108.422 E38.46653
G1 X123.024 Y108.422 E41.69969
G1 X123.542 Y108.433 E41.76187
G1 X123.695 Y108.482 E41.78115
G1 X123.832 Y108.570 E41.80068
G1 X123.949 Y108.697 E41.82141
G1 X127.374 Y113.596 E42.53871
G1 X127.454 Y113.748 E42.55932
G1 X127.488 Y113.902 E42.57825
G1 X127.480 Y114.066 E42.59795
G1 X127.432 Y114.218 E42.61708
G1 X127.343 Y114.358 E42.63699
G1 X127.229 Y114.463 E42.65558
G1 X127.079 Y114.540 E42.67582
G1 X126.922 Y114.578 E42.69520
G1 X99.649 Y114.578 E45.96796
G1 X99.459 Y114.566 E45.99081
G1 X99.306 Y114.518 E46.01005
G1 X99.166 Y114.429 E46.02996
G1 X99.052 Y114.305 E46.05017
G1 X95.624 Y109.402 E46.76807
G0 F12000 X96.995 Y109.723
;TYPE:SKIN
G1 F1200 X100.909 Y113.637 E47.43230
G0 F12000 X100.344 Y113.637
G1 F1200 X98.311 Y111.604 E47.77731
G0 F12000 X98.330 Y109.361
G1 F1200 X102.606 Y113.637 E48.50297
G0 F12000 X102.041 Y113.637
G1 F1200 X97.765 Y109.361 E49.22863
G0 F12000 X97.199 Y109.361
G1 F1200 X101.475 Y113.637 E49.95429
G0 F12000 X103.172 Y113.637
G1 F1200 X98.896 Y109.361 E50.67996
G0 F12000 X99.462 Y109.361
G1 F1200 X103.738 Y113.637 E51.40562
G0 F12000 X104.303 Y113.637
G1 F1200 X100.028 Y109.361 E52.13119
G0 F12000 X100.593 Y109.361
G1 F1200 X104.869 Y113.637 E52.85685
G0 F12000 X105.435 Y113.637
G1 F1200 X101.159 Y109.361 E53.58252
G0 F12000 X101.725 Y109.361
G1 F1200 X106.000 Y113.637 E54.30809
G0 F12000 X106.566 Y113.637
G1 F1200 X102.290 Y109.361 E55.03375
G0 F12000 X102.856 Y109.361
G1 F1200 X107.132 Y113.637 E55.75942
G0 F12000 X107.698 Y113.637
G1 F1200 X103.422 Y109.361 E56.48508
G0 F12000 X103.987 Y109.361
G1 F1200 X108.263 Y113.637 E57.21074
G0 F12000 X108.829 Y113.637
G1 F1200 X104.553 Y109.361 E57.93640
G0 F12000 X105.119 Y109.361
G1 F1200 X109.395 Y113.637 E58.66206
G0 F12000 X109.960 Y113.637
G1 F1200 X105.684 Y109.361 E59.38772
G0 F12000 X106.250 Y109.361
G1 F1200 X110.526 Y113.637 E60.11338
G0 F12000 X111.092 Y113.637
G1 F1200 X106.816 Y109.361 E60.83904
G0 F12000 X107.381 Y109.361
G1 F1200 X111.657 Y113.637 E61.56471
G0 F12000 X112.223 Y113.637
G1 F1200 X107.947 Y109.361 E62.29037
G0 F12000 X108.513 Y109.361
G1 F1200 X112.789 Y113.637 E63.01603
G0 F12000 X113.354 Y113.637
G1 F1200 X109.078 Y109.361 E63.74169
G0 F12000 X109.644 Y109.361
G1 F1200 X113.920 Y113.637 E64.46735
G0 F12000 X114.486 Y113.637
G1 F1200 X110.210 Y109.361 E65.19301
G0 F12000 X110.776 Y109.361
G1 F1200 X115.051 Y113.637 E65.91859
G0 F12000 X115.617 Y113.637
G1 F1200 X111.341 Y109.361 E66.64425
G0 F12000 X111.907 Y109.361
G1 F1200 X116.183 Y113.637 E67.36991
G0 F12000 X116.748 Y113.637
G1 F1200 X112.473 Y109.361 E68.09549
G0 F12000 X113.038 Y109.361
G1 F1200 X117.314 Y113.637 E68.82115
G0 F12000 X117.880 Y113.637
G1 F1200 X113.604 Y109.361 E69.54681
G0 F12000 X114.170 Y109.361
G1 F1200 X118.446 Y113.637 E70.27247
G0 F12000 X119.011 Y113.637
G1 F1200 X114.735 Y109.361 E70.99813
G0 F12000 X115.301 Y109.361
G1 F1200 X119.577 Y113.637 E71.72379
G0 F12000 X120.143 Y113.637
G1 F1200 X115.867 Y109.361 E72.44945
G0 F12000 X116.432 Y109.361
G1 F1200 X120.708 Y113.637 E73.17512
G0 F12000 X121.274 Y113.637
G1 F1200 X116.998 Y109.361 E73.90078
G0 F12000 X117.564 Y109.361
G1 F1200 X121.840 Y113.637 E74.62644
G0 F12000 X122.405 Y113.637
G1 F1200 X118.129 Y109.361 E75.35210
G0 F12000 X118.695 Y109.361
G1 F1200 X122.971 Y113.637 E76.07776
G0 F12000 X123.537 Y113.637
G1 F1200 X119.261 Y109.361 E76.80342
G0 F12000 X119.827 Y109.361
G1 F1200 X124.102 Y113.637 E77.52900
G0 F12000 X124.668 Y113.637
G1 F1200 X120.392 Y109.361 E78.25466
G0 F12000 X120.958 Y109.361
G1 F1200 X125.234 Y113.637 E78.98032
G0 F12000 X125.799 Y113.637
G1 F1200 X121.524 Y109.361 E79.70590
G0 F12000 X122.089 Y109.361
G1 F1200 X126.000 Y113.272 E80.36962
G0 F12000 X124.686 Y111.393
G1 F1200 X122.655 Y109.361 E80.71437
G0 F12000 X123.226 Y109.367
G1 F1200 X123.373 Y109.513 E80.73924
G0 F12000 X99.778 Y113.637
G1 F1200 X99.627 Y113.487 E80.76478
;LAYER:1
M106 S2
G0 F12000 X99.658 Y113.781 Z0.360
;TYPE:WALL-INNER
G1 F1620 X96.468 Y109.219 E80.89804
G1 X123.006 Y109.219 E81.53336
G1 X123.348 Y109.226 E81.54155
G1 X126.532 Y113.781 E81.67460
G1 X99.658 Y113.781 E82.31796
G0 F12000 X99.657 Y114.180
G1 F1620 X99.534 Y114.173 E82.32091
G1 X99.473 Y114.154 E82.32244
G1 X99.427 Y114.124 E82.32376
G1 X99.362 Y114.053 E82.32606
G1 X95.966 Y109.197 E82.46792
G1 X95.924 Y109.117 E82.47008
G1 X95.912 Y109.059 E82.47150
G1 X95.914 Y109.006 E82.47277
G1 X95.932 Y108.948 E82.47422
G1 X95.962 Y108.902 E82.47554
G1 X95.995 Y108.872 E82.47661
G1 X96.083 Y108.830 E82.47894
G1 X96.125 Y108.820 E82.47998
G1 X123.015 Y108.820 E83.12372
G1 X123.477 Y108.830 E83.13478
G1 X123.526 Y108.846 E83.13602
G1 X123.574 Y108.877 E83.13739
G1 X123.638 Y108.946 E83.13964
G1 X127.032 Y113.801 E83.28145
G1 X127.076 Y113.884 E83.28370
G1 X127.088 Y113.940 E83.28507
G1 X127.086 Y113.993 E83.28634
G1 X127.068 Y114.051 E83.28780
G1 X127.038 Y114.097 E83.28911
G1 X126.995 Y114.137 E83.29052
G1 X126.943 Y114.164 E83.29192
G1 X126.875 Y114.180 E83.29359
G1 X99.657 Y114.180 E83.94519
G0 F12000 X99.649 Y114.579
;TYPE:WALL-OUTER
G1 F1620 X99.459 Y114.567 E83.94975
G1 X99.304 Y114.519 E83.95363
G1 X99.169 Y114.433 E83.95747
G1 X99.047 Y114.299 E83.96180
G1 X95.625 Y109.406 E84.10475
G1 X95.545 Y109.253 E84.10888
G1 X95.511 Y109.097 E84.11270
G1 X95.519 Y108.933 E84.11663
G1 X95.567 Y108.779 E84.12050
G1 X95.653 Y108.644 E84.12433
G1 X95.772 Y108.535 E84.12819
G1 X95.947 Y108.453 E84.13282
G1 X96.081 Y108.421 E84.13612
G1 X123.024 Y108.421 E84.78113
G1 X123.543 Y108.432 E84.79356
G1 X123.696 Y108.481 E84.79740
G1 X123.833 Y108.569 E84.80130
G1 X123.949 Y108.694 E84.80539
G1 X127.375 Y113.595 E84.94854
G1 X127.455 Y113.746 E84.95263
G1 X127.489 Y113.902 E84.95645
G1 X127.481 Y114.066 E84.96038
G1 X127.433 Y114.220 E84.96425
G1 X127.347 Y114.355 E84.96808
G1 X127.225 Y114.466 E84.97203
G1 X127.081 Y114.541 E84.97591
G1 X126.922 Y114.579 E84.97983
G1 X99.649 Y114.579 E85.63274
G0 F12000 X99.936 Y113.640
;TYPE:SKIN
G1 F1620 X104.219 Y109.358 E85.77773
G0 F12000 X104.783 Y109.358
G1 F1620 X100.501 Y113.640 E85.92270
G0 F12000 X101.065 Y113.640
G1 F1620 X105.347 Y109.358 E86.06768
G0 F12000 X105.911 Y109.358
G1 F1620 X101.629 Y113.640 E86.21265
G0 F12000 X102.193 Y113.640
G1 F1620 X106.476 Y109.358 E86.35764
G0 F12000 X107.040 Y109.358
G1 F1620 X102.758 Y113.640 E86.50261
G0 F12000 X103.322 Y113.640
G1 F1620 X107.604 Y109.358 E86.64758
G0 F12000 X108.168 Y109.358
G1 F1620 X103.886 Y113.640 E86.79256
G0 F12000 X104.450 Y113.640
G1 F1620 X108.733 Y109.358 E86.93755
G0 F12000 X109.297 Y109.358
G1 F1620 X105.015 Y113.640 E87.08252
G0 F12000 X105.579 Y113.640
G1 F1620 X109.861 Y109.358 E87.22749
G0 F12000 X110.426 Y109.358
G1 F1620 X106.143 Y113.640 E87.37248
G0 F12000 X106.708 Y113.640
G1 F1620 X110.990 Y109.358 E87.51745
G0 F12000 X111.554 Y109.358
G1 F1620 X107.272 Y113.640 E87.66243
G0 F12000 X107.836 Y113.640
G1 F1620 X112.118 Y109.358 E87.80740
G0 F12000 X112.683 Y109.358
G1 F1620 X108.400 Y113.640 E87.95239
G0 F12000 X108.965 Y113.640
G1 F1620 X113.247 Y109.358 E88.09736
G0 F12000 X113.811 Y109.358
G1 F1620 X109.529 Y113.640 E88.24233
G0 F12000 X110.093 Y113.640
G1 F1620 X114.375 Y109.358 E88.38731
G0 F12000 X114.940 Y109.358
G1 F1620 X110.657 Y113.640 E88.53230
G0 F12000 X111.222 Y113.640
G1 F1620 X115.504 Y109.358 E88.67727
G0 F12000 X116.068 Y109.358
G1 F1620 X111.786 Y113.640 E88.82224
G0 F12000 X112.350 Y113.640
G1 F1620 X116.633 Y109.358 E88.96723
G0 F12000 X117.197 Y109.358
G1 F1620 X112.915 Y113.640 E89.11220
G0 F12000 X113.478 Y113.641
G1 F1620 X117.761 Y109.358 E89.25721
G0 F12000 X118.325 Y109.358
G1 F1620 X114.042 Y113.641 E89.40222
G0 F12000 X114.607 Y113.641
G1 F1620 X118.890 Y109.358 E89.54722
G0 F12000 X119.454 Y109.358
G1 F1620 X115.171 Y113.641 E89.69223
G0 F12000 X115.735 Y113.641
G1 F1620 X120.018 Y109.358 E89.83723
G0 F12000 X120.582 Y109.358
G1 F1620 X116.299 Y113.641 E89.98224
G0 F12000 X116.864 Y113.641
G1 F1620 X121.147 Y109.358 E90.12725
G0 F12000 X121.711 Y109.358
G1 F1620 X117.428 Y113.641 E90.27225
G0 F12000 X117.992 Y113.641
G1 F1620 X122.275 Y109.358 E90.41726
G0 F12000 X122.840 Y109.358
G1 F1620 X118.557 Y113.641 E90.56227
G0 F12000 X119.121 Y113.641
G1 F1620 X123.324 Y109.438 E90.70456
G0 F12000 X123.556 Y109.770
G1 F1620 X119.685 Y113.641 E90.83562
G0 F12000 X103.654 Y109.358
G1 F1620 X99.583 Y113.429 E90.97345
G0 F12000 X99.352 Y113.096
G1 F1620 X103.090 Y109.358 E91.10001
G0 F12000 X102.526 Y109.358
G1 F1620 X99.119 Y112.765 E91.21535
G0 F12000 X98.887 Y112.432
G1 F1620 X101.961 Y109.358 E91.31943
G0 F12000 X101.397 Y109.358
G1 F1620 X98.655 Y112.100 E91.41226
G0 F12000 X98.422 Y111.768
G1 F1620 X100.833 Y109.358 E91.49387
G0 F12000 X100.269 Y109.358
G1 F1620 X98.190 Y111.436 E91.56424
G0 F12000 X97.959 Y111.104
G1 F1620 X99.704 Y109.358 E91.62334
G0 F12000 X99.140 Y109.358
G1 F1620 X97.726 Y110.772 E91.67121
G0 F12000 X97.494 Y110.440
G1 F1620 X98.576 Y109.358 E91.70784
G0 F12000 X98.012 Y109.358
G1 F1620 X97.261 Y110.108 E91.73325
G0 F12000 X97.029 Y109.776
G1 F1620 X97.165 Y109.358 E91.74742
G1 X96.797 Y109.443 E91.75646
G0 F12000 X120.249 Y113.641
G1 F1620 X123.788 Y110.102 E91.87628
G0 F12000 X124.020 Y110.434
G1 F1620 X120.814 Y113.641 E91.98484
G0 F12000 X121.378 Y113.641
G1 F1620 X124.252 Y110.766 E92.08216
G0 F12000 X124.484 Y111.099
G1 F1620 X121.942 Y113.641 E92.16822
G0 F12000 X122.506 Y113.641
G1 F1620 X124.717 Y111.430 E92.24307
G0 F12000 X124.949 Y111.763
G1 F1620 X123.071 Y113.641 E92.30666
G0 F12000 X123.635 Y113.641
G1 F1620 X125.181 Y112.095 E92.35900
G0 F12000 X125.413 Y112.427
G1 F1620 X124.199 Y113.641 E92.40010
G0 F12000 X124.764 Y113.641
G1 F1620 X125.645 Y112.759 E92.42994
G0 F12000 X125.877 Y113.091
G1 F1620 X125.610 Y113.641 E92.44854
G1 X126.109 Y113.424 E92.46157
;LAYER:2
M106 S5
G0 F12000 X126.532 Y113.781 Z0.420
;TYPE:WALL-INNER
G1 F2100 X99.658 Y113.781 E93.10493
G1 X96.468 Y109.219 E93.23820
G1 X123.006 Y109.219 E93.87352
G1 X123.348 Y109.226 E93.88171
G1 X126.532 Y113.781 E94.01475
G0 F12000 X127.032 Y113.801
G1 F2100 X127.076 Y113.884 E94.01700
G1 X127.088 Y113.940 E94.01837
G1 X127.086 Y113.993 E94.01964
G1 X127.068 Y114.051 E94.02110
G1 X127.038 Y114.097 E94.02241
G1 X126.995 Y114.137 E94.02382
G1 X126.943 Y114.164 E94.02522
G1 X126.875 Y114.180 E94.02689
G1 X99.657 Y114.180 E94.67849
G1 X99.534 Y114.173 E94.68144
G1 X99.473 Y114.154 E94.68297
G1 X99.427 Y114.124 E94.68429
G1 X99.362 Y114.053 E94.68659
G1 X95.966 Y109.197 E94.82845
G1 X95.924 Y109.117 E94.83061
G1 X95.912 Y109.059 E94.83203
G1 X95.914 Y109.006 E94.83330
G1 X95.932 Y108.948 E94.83476
G1 X95.962 Y108.902 E94.83607
G1 X96.005 Y108.862 E94.83748
G1 X96.055 Y108.836 E94.83883
G1 X96.125 Y108.820 E94.84055
G1 X123.015 Y108.820 E95.48429
G1 X123.477 Y108.830 E95.49535
G1 X123.526 Y108.846 E95.49659
G1 X123.574 Y108.877 E95.49796
G1 X123.638 Y108.946 E95.50021
G1 X127.032 Y113.801 E95.64202
G0 F12000 X127.375 Y113.595
;TYPE:WALL-OUTER
G1 F2100 X127.455 Y113.746 E95.64611
G1 X127.489 Y113.902 E95.64994
G1 X127.481 Y114.066 E95.65387
G1 X127.433 Y114.220 E95.65773
G1 X127.347 Y114.355 E95.66156
G1 X127.225 Y114.466 E95.66551
G1 X127.081 Y114.541 E95.66940
G1 X126.922 Y114.579 E95.67331
G1 X99.649 Y114.579 E96.32623
G1 X99.459 Y114.567 E96.33078
G1 X99.304 Y114.519 E96.33467
G1 X99.169 Y114.433 E96.33850
G1 X99.047 Y114.299 E96.34284
G1 X95.625 Y109.406 E96.48578
G1 X95.545 Y109.253 E96.48991
G1 X95.511 Y109.097 E96.49374
G1 X95.519 Y108.933 E96.49767
G1 X95.567 Y108.779 E96.50153
G1 X95.653 Y108.644 E96.50536
G1 X95.775 Y108.533 E96.50931
G1 X95.916 Y108.460 E96.51311
G1 X96.081 Y108.421 E96.51717
G1 X123.024 Y108.421 E97.16219
G1 X123.543 Y108.432 E97.17461
G1 X123.696 Y108.481 E97.17846
G1 X123.833 Y108.569 E97.18236
G1 X123.949 Y108.694 E97.18644
G1 X127.375 Y113.595 E97.32959
G0 F12000 X126.090 Y113.395
;TYPE:SKIN
G1 F2100 X122.054 Y109.359 E97.46624
G0 F12000 X121.490 Y109.359
G1 F2100 X125.771 Y113.640 E97.61118
G0 F12000 X125.207 Y113.640
G1 F2100 X120.925 Y109.359 E97.75613
G0 F12000 X120.361 Y109.359
G1 F2100 X124.643 Y113.640 E97.90109
G0 F12000 X124.078 Y113.640
G1 F2100 X119.797 Y109.359 E98.04603
G0 F12000 X119.233 Y109.359
G1 F2100 X123.514 Y113.640 E98.19097
