;FLAVOR:UltiGCode
;TIME:2648
;MATERIAL:2369
;MATERIAL2:0
;NOZZLE_DIAMETER:0.400000
;NOZZLE_DIAMETER2:0.400000

;Layer count: 71
;LAYER:0
M107
G0 F12000 X31.835 Y92.767 Z0.300
G0 X32.763 Y92.548
;TYPE:SKIRT
G1 F1200 X33.212 Y92.442 E0.05536
G1 X41.521 Y92.442 E1.05244
G1 X42.634 Y91.803 E1.20645
G1 X45.464 Y90.183 E1.59775
G1 X47.043 Y92.442 E1.92849
G1 X47.393 Y92.442 E1.97049
G1 X48.701 Y90.668 E2.23498
G1 X54.272 Y92.442 E2.93657
G1 X72.996 Y92.442 E5.18345
G1 X74.109 Y91.803 E5.33746
G1 X76.939 Y90.183 E5.72877
G1 X78.518 Y92.442 E6.05950
G1 X78.868 Y92.442 E6.10150
G1 X80.175 Y90.667 E6.36602
G1 X85.747 Y92.442 E7.06776
G1 X98.704 Y92.442 E8.62260
G1 X99.898 Y92.602 E8.76717
G1 X100.804 Y92.980 E8.88497
G1 X101.274 Y93.177 E8.94612
G1 X101.429 Y93.296 E8.96957
G1 X102.021 Y92.990 E9.04954
G1 X102.450 Y92.767 E9.10756
G1 X103.379 Y92.548 E9.22210
G1 X103.828 Y92.442 E9.27746
G1 X112.137 Y92.442 E10.27454
G1 X116.074 Y90.181 E10.81934
G1 X117.658 Y92.442 E11.15062
G1 X118.008 Y92.442 E11.19262
G1 X119.310 Y90.666 E11.45688
G1 X124.839 Y92.427 E12.15320
G1 X124.839 Y92.426 E12.15332
G1 X124.889 Y92.442 E12.15962
G1 X143.612 Y92.442 E14.40638
G1 X144.725 Y91.803 E14.56038
G1 X147.555 Y90.183 E14.95169
G1 X149.134 Y92.442 E15.28243
G1 X149.485 Y92.442 E15.32455
G1 X150.790 Y90.669 E15.58872
G1 X153.497 Y91.528 E15.92953
G1 X156.364 Y92.442 E16.29063
G1 X169.319 Y92.442 E17.84523
G1 X170.515 Y92.603 E17.99004
G1 X171.882 Y93.173 E18.16777
G1 X172.667 Y93.775 E18.28648
G1 X173.071 Y94.091 E18.34803
G1 X173.751 Y94.982 E18.48253
G1 X190.811 Y119.383 E22.05533
G1 X190.897 Y119.384 E22.06565
G1 X193.455 Y123.040 E22.60110
G1 X191.661 Y126.484 E23.06709
G1 X189.210 Y126.484 E23.36121
G1 X189.002 Y126.483 E23.38617
G1 X188.494 Y126.484 E23.44713
G1 X186.425 Y126.485 E23.69541
G1 X186.189 Y126.483 E23.72373
G1 X185.321 Y126.484 E23.82789
G1 X179.948 Y126.484 E24.47265
G1 X181.911 Y122.114 E25.04753
G1 X176.820 Y114.833 E26.11364
G1 X120.253 Y115.172 E32.90181
G1 X123.184 Y119.363 E33.51551
G1 X126.406 Y119.360 E33.90215
G1 X125.554 Y126.480 E34.76265
G1 X121.680 Y126.484 E35.22753
G1 X121.228 Y126.483 E35.28177
G1 X120.663 Y126.484 E35.34957
G1 X120.406 Y126.485 E35.38041
G1 X120.072 Y126.484 E35.42049
G1 X116.384 Y126.484 E35.86305
G1 X115.668 Y126.483 E35.94897
G1 X111.255 Y126.489 E36.47853
G1 X110.803 Y121.408 E37.09066
G1 X106.205 Y114.830 E38.05374
G1 X49.572 Y115.077 E44.84977
G1 X55.140 Y123.040 E46.01576
G1 X53.347 Y126.482 E46.48148
G1 X46.739 Y126.485 E47.27444
G1 X29.040 Y101.171 E50.98097
G1 X28.687 Y100.493 E51.07269
G1 X28.453 Y100.043 E51.13356
G1 X28.131 Y98.592 E51.31191
G1 X28.198 Y97.109 E51.49005
G1 X28.644 Y95.695 E51.66798
G1 X29.169 Y94.872 E51.78512
G1 X29.440 Y94.445 E51.84581
G1 X30.539 Y93.439 E52.02460
G1 X31.835 Y92.767 E52.19978
G1 X32.763 Y92.548 E52.31420
G10
G1 Z0.400
G0 F12000 X33.698 Y96.642
;TYPE:WALL-INNER
G1 Z0.300
G11
G1 F1200 X42.642 Y96.642 E53.38748
G1 X44.220 Y95.735 E53.60589
G1 X44.854 Y96.642 E53.73868
G1 X51.382 Y96.642 E54.52204
G1 X51.700 Y96.031 E54.60470
G1 X53.620 Y96.642 E54.84649
G1 X74.117 Y96.642 E57.30613
G1 X75.695 Y95.735 E57.52454
G1 X76.329 Y96.642 E57.65733
G1 X82.857 Y96.642 E58.44069
G1 X83.175 Y96.031 E58.52335
G1 X85.095 Y96.642 E58.76513
G1 X98.424 Y96.642 E60.36461
G1 X98.794 Y96.692 E60.40941
G1 X99.144 Y96.838 E60.45492
G1 X99.445 Y97.069 E60.50045
G1 X99.742 Y97.459 E60.55928
G1 X102.114 Y100.850 E61.05587
G1 X103.717 Y99.878 E61.28083
G1 X103.049 Y98.596 E61.45430
G1 X102.968 Y98.226 E61.49975
G1 X102.984 Y97.847 E61.54528
G1 X103.096 Y97.490 E61.59017
G1 X103.303 Y97.167 E61.63621
G1 X103.582 Y96.911 E61.68165
G1 X103.925 Y96.734 E61.72797
G1 X104.314 Y96.642 E61.77593
G1 X113.258 Y96.642 E62.84921
G1 X114.836 Y95.735 E63.06762
G1 X115.472 Y96.642 E63.20056
G1 X121.998 Y96.642 E63.98368
G1 X122.316 Y96.031 E64.06633
G1 X124.236 Y96.642 E64.30812
G1 X144.733 Y96.642 E66.76776
G1 X146.311 Y95.735 E66.98617
G1 X146.945 Y96.642 E67.11896
G1 X153.473 Y96.642 E67.90232
G1 X153.791 Y96.031 E67.98498
G1 X155.711 Y96.642 E68.22676
G1 X169.039 Y96.642 E69.82612
G1 X169.407 Y96.691 E69.87067
G1 X169.760 Y96.839 E69.91661
G1 X170.059 Y97.068 E69.96180
G1 X170.372 Y97.478 E70.02370
G1 X187.716 Y122.284 E73.65586
G1 X187.156 Y122.285 E73.72306
G1 X179.000 Y110.620 E75.43108
G1 X113.526 Y111.012 E83.28810
G1 X112.970 Y112.086 E83.43323
G1 X120.100 Y122.284 E84.92642
G1 X116.540 Y122.284 E85.35362
G1 X108.387 Y110.621 E87.06124
G1 X42.840 Y110.907 E94.92696
G1 X42.283 Y111.981 E95.07214
G1 X49.486 Y122.284 E96.58068
G1 X48.927 Y122.284 E96.64776
G1 X32.638 Y98.988 E100.05888
G1 X32.433 Y98.593 E100.11228
G1 X32.352 Y98.227 E100.15726
G1 X32.369 Y97.849 E100.20267
G1 X32.484 Y97.486 E100.24836
G1 X32.687 Y97.167 E100.29374
G1 X32.966 Y96.912 E100.33909
G1 X33.308 Y96.734 E100.38536
G1 X33.698 Y96.642 E100.43344
G0 F12000 X33.878 Y97.100
G1 F1200 X33.343 Y98.124 E100.57208
G1 X33.023 Y98.739 E100.65528
G1 X41.210 Y110.448 E102.36975
G1 X73.048 Y110.308 E106.19035
G1 X73.605 Y109.234 E106.33553
G1 X65.121 Y97.100 E108.11223
G1 X55.227 Y97.100 E109.29951
G1 X53.649 Y98.006 E109.51786
G1 X53.014 Y97.100 E109.65063
G1 X46.487 Y97.100 E110.43387
G1 X46.169 Y97.712 E110.51663
G1 X44.919 Y97.314 E110.67405
G1 X44.250 Y97.100 E110.75834
G1 X33.878 Y97.100 E112.00298
G0 F12000 X52.794 Y97.523
G0 X64.900 Y97.523
G0 X66.442 Y98.176
G1 F1200 X74.920 Y110.300 E113.77828
G1 X106.757 Y110.161 E117.59876
G1 X107.314 Y109.087 E117.74394
G1 X98.933 Y97.100 E119.49910
G1 X86.702 Y97.100 E120.96682
G1 X85.124 Y98.006 E121.18517
G1 X84.489 Y97.100 E121.31793
G1 X77.962 Y97.100 E122.10117
G1 X77.644 Y97.712 E122.18393
G1 X76.394 Y97.314 E122.34135
G1 X75.725 Y97.100 E122.42564
G1 X67.002 Y97.100 E123.47240
G1 X66.442 Y98.176 E123.61796
G0 F12000 X75.139 Y109.876
G0 X106.496 Y109.733
G0 X106.814 Y109.120
G0 X103.784 Y98.947
G1 F1200 X111.898 Y110.553 E125.31729
G1 X143.700 Y110.362 E129.13360
G1 X144.255 Y109.288 E129.27867
G1 X135.733 Y97.100 E131.06329
G1 X125.843 Y97.100 E132.25009
G1 X124.265 Y98.007 E132.46850
G1 X123.630 Y97.100 E132.60137
G1 X117.107 Y97.100 E133.38413
G1 X116.788 Y97.712 E133.46694
G1 X114.869 Y97.100 E133.70865
G1 X104.747 Y97.100 E134.92329
G1 X103.784 Y98.947 E135.17325
G0 F12000 X112.118 Y110.128
G0 X143.437 Y109.935
G0 X143.754 Y109.322
G0 X137.058 Y98.176
G1 F1200 X145.570 Y110.351 E136.95590
G1 X177.373 Y110.160 E140.77233
G1 X177.928 Y109.086 E140.91740
G1 X169.547 Y97.100 E142.67246
G1 X157.318 Y97.100 E144.13994
G1 X155.740 Y98.006 E144.35830
G1 X155.105 Y97.100 E144.49106
G1 X148.578 Y97.100 E145.27430
G1 X148.260 Y97.712 E145.35706
G1 X146.340 Y97.100 E145.59888
G1 X137.618 Y97.100 E146.64552
G1 X137.058 Y98.176 E146.79108
G0 F12000 X137.525 Y98.145
G1 F1200 X145.778 Y109.950 E148.51954
G1 X177.128 Y109.762 E152.28161
G1 X177.462 Y109.117 E152.36877
G1 X169.339 Y97.500 E154.06980
G1 X157.425 Y97.500 E155.49948
G1 X155.622 Y98.535 E155.74896
G1 X154.898 Y97.500 E155.90053
G1 X148.821 Y97.500 E156.62977
G1 X148.485 Y98.145 E156.71704
G1 X148.537 Y98.220 E156.72799
G1 X146.278 Y97.500 E157.01251
G1 X137.861 Y97.500 E158.02255
G1 X137.525 Y98.145 E158.10982
G0 F12000 X135.525 Y97.500
G1 F1200 X125.950 Y97.500 E159.25882
G1 X124.147 Y98.536 E159.50835
G1 X123.423 Y97.500 E159.66002
G1 X117.349 Y97.500 E160.38890
G1 X117.013 Y98.145 E160.47618
G1 X117.065 Y98.220 E160.48713
G1 X114.806 Y97.500 E160.77164
G1 X104.989 Y97.500 E161.94968
G1 X104.251 Y98.916 E162.14130
G1 X112.106 Y110.152 E163.78643
G1 X143.455 Y109.964 E167.54838
G1 X143.789 Y109.319 E167.63554
G1 X135.525 Y97.500 E169.36613
G0 F12000 X144.626 Y96.242
G1 F1200 X146.429 Y95.207 E169.61560
G1 X147.153 Y96.242 E169.76717
G1 X153.230 Y96.242 E170.49641
G1 X153.566 Y95.596 E170.58379
G1 X153.515 Y95.523 E170.59448
G1 X155.773 Y96.242 E170.87884
G1 X169.062 Y96.242 E172.47352
G1 X169.513 Y96.303 E172.52814
G1 X169.963 Y96.490 E172.58661
G1 X170.337 Y96.777 E172.64319
G1 X170.675 Y97.215 E172.70958
G1 X188.483 Y122.683 E176.43875
G1 X186.744 Y122.685 E176.64743
G1 X186.831 Y122.518 E176.67002
G1 X178.792 Y111.021 E178.35348
G1 X113.770 Y111.410 E186.15626
G1 X113.436 Y112.055 E186.24342
G1 X120.868 Y122.684 E187.79977
G1 X120.404 Y122.685 E187.85545
G1 X120.083 Y122.684 E187.89397
G1 X116.129 Y122.685 E188.36845
G1 X116.216 Y122.518 E188.39105
G1 X108.179 Y111.022 E190.07426
G1 X43.083 Y111.306 E197.88586
G1 X42.749 Y111.950 E197.97291
G1 X50.253 Y122.683 E199.54444
G1 X48.719 Y122.684 E199.72852
G1 X32.294 Y99.194 E203.16807
G1 X32.055 Y98.735 E203.23017
G1 X31.950 Y98.258 E203.28878
G1 X31.971 Y97.778 E203.34643
G1 X32.116 Y97.318 E203.40431
G1 X32.377 Y96.909 E203.46253
G1 X32.735 Y96.581 E203.52080
G1 X33.168 Y96.357 E203.57930
G1 X33.653 Y96.242 E203.63911
G1 X42.535 Y96.242 E204.70495
G1 X44.338 Y95.207 E204.95442
G1 X45.062 Y96.242 E205.10600
G1 X51.139 Y96.242 E205.83524
G1 X51.475 Y95.596 E205.92261
G1 X51.424 Y95.523 E205.93330
G1 X53.682 Y96.242 E206.21767
G1 X74.010 Y96.242 E208.65703
G1 X75.813 Y95.207 E208.90650
G1 X76.537 Y96.242 E209.05807
G1 X82.614 Y96.242 E209.78731
G1 X82.950 Y95.597 E209.87458
G1 X82.898 Y95.523 E209.88544
G1 X85.157 Y96.242 E210.16992
G1 X98.447 Y96.242 E211.76472
G1 X98.898 Y96.303 E211.81933
G1 X99.347 Y96.489 E211.87765
G1 X99.731 Y96.785 E211.93583
G1 X100.060 Y97.215 E212.00080
G1 X102.227 Y100.313 E212.45448
G1 X103.189 Y99.731 E212.58940
G1 X102.670 Y98.735 E212.72418
G1 X102.566 Y98.257 E212.78288
G1 X102.586 Y97.779 E212.84029
G1 X102.727 Y97.329 E212.89688
G1 X102.732 Y97.317 E212.89844
G1 X102.995 Y96.906 E212.95699
G1 X103.350 Y96.581 E213.01475
G1 X103.784 Y96.357 E213.07336
G1 X104.269 Y96.242 E213.13317
G1 X113.151 Y96.242 E214.19901
G1 X114.955 Y95.206 E214.44865
G1 X115.680 Y96.242 E214.60038
G1 X121.755 Y96.242 E215.32938
G1 X122.091 Y95.597 E215.41666
G1 X122.039 Y95.523 E215.42751
G1 X124.298 Y96.242 E215.71199
G1 X144.626 Y96.242 E218.15135
G0 F12000 X137.879 Y97.530
G0 X137.559 Y98.142
G0 X143.754 Y109.322
G0 X143.437 Y109.935
G0 X112.118 Y110.128
G0 X106.848 Y109.118
G1 F1200 X98.725 Y97.500 E219.85248
G1 X86.809 Y97.500 E221.28240
G1 X85.006 Y98.535 E221.53187
G1 X84.282 Y97.500 E221.68344
G1 X78.205 Y97.500 E222.41268
G1 X77.869 Y98.145 E222.49996
G1 X77.921 Y98.220 E222.51091
G1 X75.662 Y97.500 E222.79542
G1 X67.245 Y97.500 E223.80546
G1 X66.909 Y98.146 E223.89284
G1 X75.127 Y109.899 E225.61378
G1 X106.514 Y109.762 E229.38026
G1 X106.848 Y109.118 E229.46731
G0 F12000 X106.496 Y109.733
G0 X75.139 Y109.876
G0 X73.139 Y109.265
G1 F1200 X64.913 Y97.500 E231.18998
G1 X55.334 Y97.500 E232.33946
G1 X53.531 Y98.535 E232.58893
G1 X52.807 Y97.500 E232.74050
G1 X46.730 Y97.500 E233.46974
G1 X46.394 Y98.146 E233.55712
G1 X46.445 Y98.219 E233.56781
G1 X44.187 Y97.500 E233.85217
G1 X34.121 Y97.500 E235.06009
G1 X33.698 Y98.309 E235.16964
G1 X33.490 Y98.709 E235.22375
G1 X41.418 Y110.047 E236.88393
G1 X72.805 Y109.909 E240.65041
G1 X73.139 Y109.265 E240.73746
G0 F12000 X72.672 Y109.296
;TYPE:WALL-OUTER
G1 F1200 X64.704 Y97.900 E242.40610
G1 X55.441 Y97.900 E243.51766
G1 X53.413 Y99.065 E243.79832
G1 X52.598 Y97.900 E243.96893
G1 X46.973 Y97.900 E244.64393
G1 X46.861 Y98.115 E244.67302
G1 X47.451 Y98.959 E244.79659
G1 X44.125 Y97.900 E245.21546
G1 X34.363 Y97.900 E246.38690
G1 X33.956 Y98.678 E246.49226
G1 X41.626 Y109.646 E248.09831
G1 X72.561 Y109.510 E251.81055
G1 X72.672 Y109.296 E251.83948
G0 F12000 X72.937 Y109.435
G0 X75.089 Y109.669
G0 X75.335 Y109.498
G1 F1200 X106.270 Y109.363 E255.55171
G1 X106.381 Y109.149 E255.58064
G1 X98.516 Y97.900 E257.22774
G1 X86.916 Y97.900 E258.61974
G1 X84.888 Y99.065 E258.90040
G1 X84.073 Y97.900 E259.07101
G1 X78.448 Y97.900 E259.74601
G1 X78.336 Y98.115 E259.77510
G1 X78.926 Y98.959 E259.89868
G1 X75.600 Y97.900 E260.31754
G1 X67.488 Y97.900 E261.29098
G1 X67.376 Y98.115 E261.32007
G1 X75.335 Y109.498 E262.98681
G0 F12000 X75.089 Y109.669
G0 X66.943 Y98.142
G0 X67.263 Y97.530
G0 X75.661 Y97.503
G0 X76.500 Y96.012
G0 X76.746 Y95.842
G1 F1200 X82.371 Y95.842 E263.66181
G1 X82.483 Y95.627 E263.69090
G1 X81.894 Y94.784 E263.81431
G1 X85.219 Y95.842 E264.23302
G1 X98.478 Y95.842 E265.82410
G1 X99.001 Y95.912 E265.88742
G1 X99.552 Y96.142 E265.95907
G1 X100.018 Y96.501 E266.02966
G1 X100.388 Y96.986 E266.10286
G1 X102.340 Y99.777 E266.51156
G1 X102.661 Y99.583 E266.55657
G1 X102.290 Y98.872 E266.65281
G1 X102.164 Y98.297 E266.72345
G1 X102.188 Y97.740 E266.79035
G1 X102.190 Y97.708 E266.79420
G1 X102.347 Y97.205 E266.85743
G1 X102.366 Y97.146 E266.86487
G1 X102.685 Y96.648 E266.93584
G1 X103.116 Y96.252 E267.00607
G1 X103.643 Y95.979 E267.07729
G1 X104.224 Y95.842 E267.14893
G1 X113.044 Y95.842 E268.20733
G1 X115.072 Y94.677 E268.48798
G1 X115.888 Y95.842 E268.65866
G1 X121.512 Y95.842 E269.33354
G1 X121.624 Y95.627 E269.36264
G1 X121.034 Y94.784 E269.48611
G1 X124.360 Y95.842 E269.90494
G1 X144.519 Y95.842 E272.32402
G1 X146.548 Y94.678 E272.60472
G1 X147.362 Y95.842 E272.77516
G1 X152.987 Y95.842 E273.45016
G1 X153.099 Y95.627 E273.47925
G1 X152.510 Y94.783 E273.60276
G1 X155.835 Y95.842 E274.02151
G1 X169.093 Y95.842 E275.61247
G1 X169.616 Y95.912 E275.67579
G1 X170.164 Y96.141 E275.74706
G1 X170.584 Y96.463 E275.81056
G1 X170.634 Y96.502 E275.81817
G1 X171.003 Y96.986 E275.89121
G1 X189.026 Y122.763 E279.66555
G1 X189.112 Y122.764 E279.67587
G1 X189.336 Y123.084 E279.72275
G1 X186.440 Y123.085 E280.07027
G1 X186.214 Y123.083 E280.09739
G1 X185.203 Y123.084 E280.21871
G1 X185.346 Y122.765 E280.26066
G1 X186.252 Y122.764 E280.36938
G1 X186.364 Y122.549 E280.39847
G1 X178.585 Y111.422 E282.02765
G1 X114.014 Y111.809 E289.77631
G1 X113.903 Y112.024 E289.80535
G1 X121.412 Y122.764 E291.37791
G1 X122.574 Y122.764 E291.51735
G1 X122.536 Y123.083 E291.55590
G1 X114.366 Y123.085 E292.53630
G1 X114.337 Y122.765 E292.57486
G1 X115.637 Y122.764 E292.73086
G1 X115.749 Y122.549 E292.75995
G1 X107.971 Y111.423 E294.38897
G1 X43.327 Y111.705 E302.14632
G1 X43.216 Y111.919 E302.17525
G1 X51.021 Y123.083 E303.80987
G1 X48.511 Y123.084 E304.11107
G1 X31.950 Y99.400 E307.57904
G1 X31.675 Y98.872 E307.65048
G1 X31.548 Y98.298 E307.72103
G1 X31.575 Y97.707 E307.79202
G1 X31.752 Y97.147 E307.86250
G1 X32.069 Y96.648 E307.93344
G1 X32.504 Y96.251 E308.00411
G1 X33.027 Y95.979 E308.07485
G1 X33.608 Y95.842 E308.14648
G1 X42.428 Y95.842 E309.20488
G1 X44.457 Y94.678 E309.48558
G1 X45.271 Y95.842 E309.65603
G1 X50.896 Y95.842 E310.33103
G1 X51.008 Y95.627 E310.36012
G1 X50.419 Y94.784 E310.48353
G1 X53.744 Y95.842 E310.90224
G1 X73.903 Y95.842 E313.32132
G1 X75.932 Y94.678 E313.60202
G1 X76.746 Y95.842 E313.77247
G0 F12000 X76.500 Y96.012
G0 X76.550 Y96.219
G0 X82.596 Y96.212
G0 X82.916 Y95.600
G0 X85.158 Y96.239
G0 X100.073 Y97.232
G0 X102.243 Y100.240
G0 X103.117 Y99.711
G0 X104.472 Y99.057
G0 X104.718 Y98.886
G1 F1200 X112.313 Y109.751 E315.36323
G1 X143.211 Y109.565 E319.07106
G1 X143.322 Y109.350 E319.10010
G1 X135.316 Y97.900 E320.77666
G1 X126.057 Y97.900 E321.88774
G1 X124.029 Y99.065 E322.16840
G1 X123.214 Y97.900 E322.33901
G1 X117.592 Y97.900 E323.01365
G1 X117.480 Y98.115 E323.04274
G1 X118.069 Y98.959 E323.16624
G1 X114.744 Y97.900 E323.58499
G1 X105.232 Y97.900 E324.72643
G1 X104.718 Y98.886 E324.85986
G0 F12000 X104.472 Y99.057
G0 X112.118 Y110.128
G0 X143.437 Y109.935
G0 X143.754 Y109.322
G0 X135.859 Y98.036
G0 X137.726 Y97.977
G0 X137.992 Y98.115
G1 F1200 X145.985 Y109.549 E326.53396
G1 X176.884 Y109.363 E330.24191
G1 X176.995 Y109.148 E330.27094
G1 X169.130 Y97.900 E331.91794
