;FLAVOR:UltiGCode
;TIME:882
;MATERIAL:503
;MATERIAL2:0
;NOZZLE_DIAMETER:0.400000
;NOZZLE_DIAMETER2:0.400000

;Layer count: 121
;LAYER:0
M107
G0 F12000 X96.737 Y105.612 Z0.300
;TYPE:SKIRT
G1 F1200 X97.679 Y105.011 E0.13409
G1 X98.863 Y104.634 E0.28320
G1 X125.468 Y104.622 E3.47580
G1 X127.362 Y104.622 E3.70308
G1 X128.429 Y104.873 E3.83461
G1 X129.466 Y105.423 E3.97547
G1 X130.301 Y106.210 E4.11316
G1 X130.907 Y107.161 E4.24848
G1 X131.253 Y108.265 E4.38732
G1 X131.307 Y109.420 E4.52607
G1 X131.039 Y110.639 E4.67584
G1 X130.518 Y111.541 E4.80084
G1 X127.432 Y115.953 E5.44694
G1 X126.909 Y116.702 E5.55656
G1 X126.267 Y117.385 E5.66905
G1 X125.314 Y117.993 E5.80470
G1 X124.140 Y118.361 E5.95234
G1 X121.584 Y118.378 E6.25906
G1 X95.629 Y118.378 E9.37366
G1 X94.584 Y118.127 E9.50263
G1 X93.579 Y117.608 E9.63836
G1 X92.719 Y116.819 E9.77841
G1 X92.093 Y115.840 E9.91786
G1 X91.747 Y114.734 E10.05692
G1 X91.693 Y113.579 E10.19567
G1 X91.961 Y112.357 E10.34580
G1 X92.483 Y111.457 E10.47065
G1 X96.096 Y106.291 E11.22714
G1 X96.737 Y105.612 E11.33919
G0 F12000 X96.994 Y105.922
G1 F1200 X97.850 Y105.377 E11.46096
G1 X98.925 Y105.034 E11.59637
G1 X125.468 Y105.022 E14.78153
G1 X127.316 Y105.022 E15.00329
G1 X128.287 Y105.251 E15.12300
G1 X129.230 Y105.751 E15.25109
G1 X129.990 Y106.467 E15.37639
G1 X130.541 Y107.332 E15.49946
G1 X130.856 Y108.335 E15.62561
G1 X130.905 Y109.386 E15.75187
G1 X130.662 Y110.492 E15.88775
G1 X130.181 Y111.325 E16.00318
G1 X127.106 Y115.720 E16.64685
G1 X127.107 Y115.720 E16.64697
G1 X126.598 Y116.449 E16.75367
G1 X126.010 Y117.075 E16.85673
G1 X125.143 Y117.627 E16.98007
G1 X124.077 Y117.962 E17.11415
G1 X121.582 Y117.978 E17.41356
G1 X95.677 Y117.978 E20.52216
G1 X94.724 Y117.749 E20.63978
G1 X93.810 Y117.277 E20.76322
G1 X93.028 Y116.560 E20.89053
G1 X92.459 Y115.669 E21.01739
G1 X92.144 Y114.664 E21.14378
G1 X92.095 Y113.613 E21.27004
G1 X92.339 Y112.504 E21.40630
G1 X92.821 Y111.673 E21.52158
G1 X96.407 Y106.544 E22.27257
G1 X96.994 Y105.922 E22.37520
G10
G1 Z0.400
G0 F12000 X95.933 Y114.047
;TYPE:WALL-INNER
G1 Z0.300
G11
G1 F1200 X95.925 Y114.023 E22.37824
G1 X95.960 Y114.090 E22.38731
G1 X95.933 Y114.047 E22.39340
G0 F12000 X127.067 Y108.952
G1 F1200 X127.076 Y108.980 E22.39693
G1 X127.038 Y108.906 E22.40691
G1 X127.067 Y108.952 E22.41344
G0 F12000 X127.315 Y109.490
;TYPE:WALL-OUTER
G1 F1200 X123.950 Y114.302 E23.11806
G1 X123.824 Y114.436 E23.14013
G1 X123.694 Y114.518 E23.15858
G1 X123.545 Y114.565 E23.17732
G1 X121.571 Y114.578 E23.41421
G1 X96.078 Y114.578 E26.47337
G1 X95.921 Y114.540 E26.49275
G1 X95.771 Y114.463 E26.51299
G1 X95.657 Y114.358 E26.53159
G1 X95.568 Y114.218 E26.55149
G1 X95.520 Y114.066 E26.57062
G1 X95.512 Y113.902 E26.59032
G1 X95.545 Y113.752 E26.60875
G1 X95.685 Y113.510 E26.64230
G1 X99.053 Y108.693 E27.34762
G1 X99.173 Y108.566 E27.36859
G1 X99.305 Y108.482 E27.38737
G1 X99.456 Y108.434 E27.40638
G1 X126.919 Y108.422 E30.70194
G1 X127.081 Y108.460 E30.72191
G1 X127.233 Y108.541 E30.74258
G1 X127.350 Y108.651 E30.76185
G1 X127.432 Y108.781 E30.78029
G1 X127.480 Y108.933 E30.79942
G1 X127.488 Y109.097 E30.81912
G1 X127.455 Y109.247 E30.83755
G1 X127.315 Y109.490 E30.87121
G0 F12000 X126.760 Y109.238
G1 F1200 X126.648 Y109.022 E30.90040
G1 X99.562 Y109.022 E34.15072
G1 X96.241 Y113.763 E34.84534
G1 X96.353 Y113.978 E34.87443
G1 X123.438 Y113.978 E38.12463
G1 X126.760 Y109.238 E38.81921
G0 F12000 X127.017 Y109.198
;TYPE:SKIN
G1 F1200 X127.051 Y109.514 E38.84438
G1 X126.675 Y109.704 E38.86865
G1 X126.586 Y110.181 E38.89325
G1 X126.208 Y110.369 E38.91782
G1 X126.121 Y110.848 E38.94250
G1 X125.742 Y111.034 E38.96720
G1 X125.655 Y111.513 E38.99188
G1 X125.276 Y111.700 E39.01661
G1 X125.190 Y112.179 E39.04143
G1 X124.810 Y112.365 E39.06605
G1 X124.724 Y112.844 E39.09087
G1 X124.344 Y113.030 E39.11562
G1 X124.258 Y113.510 E39.14049
G1 X123.878 Y113.695 E39.16559
G1 X123.777 Y114.160 E39.19058
G1 X123.322 Y114.271 E39.21320
G1 X122.756 Y114.271 E39.24495
G1 X122.191 Y114.271 E39.27665
G1 X121.625 Y114.271 E39.30840
G1 X121.060 Y114.271 E39.34026
G1 X120.494 Y114.271 E39.37202
G1 X120.117 Y114.177 E39.41864
G10
G1 Z0.400
G0 F12000 X120.418 Y108.821
G1 Z0.300
G11
G1 F1200 X120.504 Y108.625 E39.45184
G1 X121.167 Y108.723 E39.48501
G1 X121.733 Y108.722 E39.51812
G1 X122.299 Y108.722 E39.55158
G1 X122.864 Y108.722 E39.58480
G1 X123.430 Y108.722 E39.61808
G1 X123.995 Y108.722 E39.65164
G1 X124.561 Y108.722 E39.68509
G1 X125.126 Y108.721 E39.71865
G1 X125.692 Y108.721 E39.75227
G1 X126.258 Y108.721 E39.78589
G1 X126.640 Y108.821 E39.83328
G0 F12000 X119.852 Y108.821
G1 F1200 X119.471 Y108.723 E39.86644
G1 X118.905 Y108.723 E39.89955
G1 X118.340 Y108.723 E39.93277
G1 X117.774 Y108.723 E39.96571
G1 X117.209 Y108.723 E39.99860
G1 X116.643 Y108.723 E40.03171
G1 X116.077 Y108.724 E40.06465
G1 X115.512 Y108.724 E40.09736
G1 X114.946 Y108.724 E40.13013
G1 X114.381 Y108.724 E40.16285
G1 X113.815 Y108.724 E40.19562
G1 X113.250 Y108.724 E40.22833
G1 X112.684 Y108.724 E40.26093
G1 X112.118 Y108.724 E40.29354
G1 X111.553 Y108.724 E40.32608
G1 X110.987 Y108.725 E40.35868
G1 X110.422 Y108.725 E40.39106
G1 X109.856 Y108.725 E40.42349
G1 X109.291 Y108.725 E40.45586
G1 X108.725 Y108.725 E40.48829
G1 X108.160 Y108.725 E40.52067
G1 X107.594 Y108.725 E40.55293
G1 X107.028 Y108.725 E40.58519
G1 X106.463 Y108.725 E40.61757
G1 X105.897 Y108.726 E40.64983
G1 X105.332 Y108.726 E40.68186
G1 X104.766 Y108.726 E40.71396
G1 X104.201 Y108.726 E40.74599
G1 X103.635 Y108.726 E40.77791
G1 X103.069 Y108.726 E40.80984
G1 X102.504 Y108.726 E40.84170
G1 X101.938 Y108.726 E40.87363
G1 X101.372 Y108.726 E40.90555
G1 X100.807 Y108.727 E40.93724
G1 X100.242 Y108.727 E40.96894
G1 X99.676 Y108.727 E41.00069
G1 X99.220 Y108.837 E41.02335
G1 X99.120 Y109.302 E41.04846
G1 X98.739 Y109.487 E41.07349
G1 X98.654 Y109.968 E41.09855
G1 X98.274 Y110.153 E41.12340
G1 X98.188 Y110.633 E41.14827
G1 X97.808 Y110.819 E41.17302
G1 X97.721 Y111.298 E41.19771
G1 X97.343 Y111.485 E41.22225
G1 X97.255 Y111.963 E41.24675
G1 X96.877 Y112.151 E41.27132
G1 X96.789 Y112.628 E41.29576
G1 X96.412 Y112.817 E41.32005
G1 X96.323 Y113.293 E41.34417
G1 X95.947 Y113.483 E41.36831
G1 X96.169 Y113.989 E41.39351
G1 X96.740 Y114.276 E41.42706
G1 X97.306 Y114.276 E41.46068
G1 X97.871 Y114.276 E41.49424
G1 X98.437 Y114.276 E41.52769
G1 X99.003 Y114.276 E41.56114
G1 X99.568 Y114.276 E41.59453
G1 X100.134 Y114.276 E41.62798
G1 X100.699 Y114.276 E41.66137
G1 X101.265 Y114.275 E41.69448
G1 X101.830 Y114.275 E41.72771
G1 X102.396 Y114.275 E41.76099
G1 X102.962 Y114.275 E41.79410
G1 X103.527 Y114.275 E41.82715
G1 X104.093 Y114.275 E41.86026
G1 X104.658 Y114.275 E41.89331
G1 X105.224 Y114.275 E41.92643
G1 X105.789 Y114.275 E41.95948
G1 X106.355 Y114.274 E41.99242
G1 X106.920 Y114.274 E42.02530
G1 X107.486 Y114.274 E42.05824
G1 X108.052 Y114.274 E42.09102
G1 X108.617 Y114.274 E42.12373
G1 X109.183 Y114.274 E42.15650
G1 X109.748 Y114.273 E42.18904
G1 X110.314 Y114.273 E42.22165
G1 X110.879 Y114.273 E42.25419
G1 X111.445 Y114.273 E42.28679
G1 X112.011 Y114.273 E42.31939
G1 X112.576 Y114.273 E42.35177
G1 X113.142 Y114.273 E42.38420
G1 X113.708 Y114.273 E42.41663
G1 X114.273 Y114.272 E42.44901
G1 X114.838 Y114.272 E42.48138
G1 X115.404 Y114.272 E42.51364
G1 X115.969 Y114.272 E42.54585
G1 X116.535 Y114.272 E42.57811
G1 X117.101 Y114.272 E42.61037
G1 X117.666 Y114.272 E42.64241
G1 X118.232 Y114.272 E42.67450
G1 X118.798 Y114.272 E42.70659
G1 X119.363 Y114.271 E42.73863
G1 X119.740 Y114.366 E42.78528
;LAYER:1
M106 S2
G10
G1 Z0.400
G0 F12000 X127.069 Y108.954 Z0.360
;TYPE:WALL-INNER
G1 Z0.360
G11
G1 F1620 X127.083 Y108.996 E42.78634
G1 X127.029 Y108.894 E42.78910
G1 X127.069 Y108.954 E42.79083
G0 F12000 X95.932 Y114.051
G1 F1620 X95.918 Y114.005 E42.79198
G1 X95.970 Y114.104 E42.79466
G1 X95.932 Y114.051 E42.79622
G0 F12000 X95.625 Y113.595
;TYPE:WALL-OUTER
G1 F1620 X99.050 Y108.696 E42.93932
G1 X99.168 Y108.568 E42.94349
G1 X99.312 Y108.479 E42.94754
G1 X99.456 Y108.433 E42.95116
G1 X126.919 Y108.421 E43.60862
G1 X127.084 Y108.460 E43.61268
G1 X127.233 Y108.540 E43.61673
G1 X127.348 Y108.645 E43.62046
G1 X127.435 Y108.787 E43.62445
G1 X127.481 Y108.933 E43.62811
G1 X127.489 Y109.093 E43.63195
G1 X127.448 Y109.266 E43.63620
G1 X127.375 Y109.406 E43.63998
G1 X123.953 Y114.299 E43.78293
G1 X123.830 Y114.434 E43.78730
G1 X123.688 Y114.521 E43.79129
G1 X123.545 Y114.566 E43.79487
G1 X121.247 Y114.579 E43.84989
G1 X96.081 Y114.579 E44.45236
G1 X95.907 Y114.535 E44.45666
G1 X95.775 Y114.466 E44.46023
G1 X95.653 Y114.355 E44.46417
G1 X95.567 Y114.220 E44.46801
G1 X95.519 Y114.066 E44.47187
G1 X95.511 Y113.902 E44.47580
G1 X95.545 Y113.746 E44.47962
G1 X95.625 Y113.595 E44.48371
G0 F12000 X96.242 Y113.763
G1 F1620 X96.353 Y113.977 E44.48948
G1 X123.437 Y113.977 E45.13787
G1 X126.758 Y109.238 E45.27641
G1 X126.647 Y109.023 E45.28220
G1 X99.562 Y109.023 E45.93062
G1 X96.242 Y113.763 E46.06916
G0 F12000 X96.308 Y113.318
;TYPE:SKIN
G1 F1620 X95.783 Y113.843 E46.08693
G0 F12000 X96.376 Y114.379
G1 F1620 X96.760 Y114.277 E46.09382
G1 X97.325 Y114.277 E46.10074
G1 X97.889 Y114.276 E46.10761
G1 X98.453 Y114.276 E46.11448
G1 X99.017 Y114.276 E46.12135
G1 X99.582 Y114.276 E46.12820
G1 X99.966 Y114.175 E46.13770
G0 F12000 X99.966 Y114.277
G0 X96.129 Y114.347
G0 X95.809 Y113.735
G0 X97.628 Y111.434
G1 F1620 X96.793 Y112.270 E46.16599
G0 F12000 X96.875 Y112.329
G0 X98.188 Y110.451
G0 X98.105 Y110.393
G1 F1620 X98.948 Y109.550 E46.19453
G0 F12000 X99.675 Y108.823
G1 F1620 X100.053 Y108.726 E46.20104
G1 X100.617 Y108.726 E46.20754
G1 X101.181 Y108.726 E46.21403
G1 X101.746 Y108.726 E46.22058
G1 X102.311 Y108.726 E46.22712
G1 X102.875 Y108.726 E46.23365
G1 X103.440 Y108.726 E46.24023
G1 X104.004 Y108.726 E46.24676
G1 X104.568 Y108.725 E46.25332
G1 X105.132 Y108.725 E46.25989
G1 X105.697 Y108.725 E46.26646
G1 X106.262 Y108.725 E46.27307
G1 X106.826 Y108.725 E46.27967
G1 X107.390 Y108.725 E46.28627
G1 X107.955 Y108.725 E46.29288
G1 X108.519 Y108.725 E46.29948
G1 X109.083 Y108.725 E46.30608
G1 X109.648 Y108.724 E46.31276
G1 X110.212 Y108.724 E46.31939
G1 X110.776 Y108.724 E46.32602
G1 X111.341 Y108.724 E46.33270
G1 X111.905 Y108.724 E46.33940
G1 X112.470 Y108.724 E46.34608
G1 X113.034 Y108.724 E46.35278
G1 X113.598 Y108.724 E46.35952
G1 X114.162 Y108.724 E46.36622
G1 X114.727 Y108.724 E46.37296
G1 X115.291 Y108.724 E46.37970
G1 X115.856 Y108.723 E46.38644
G1 X116.420 Y108.723 E46.39321
G1 X116.984 Y108.723 E46.39998
G1 X117.549 Y108.723 E46.40679
G1 X118.113 Y108.723 E46.41356
G1 X118.677 Y108.723 E46.42033
G1 X119.242 Y108.723 E46.42714
G1 X119.807 Y108.723 E46.43396
G1 X120.371 Y108.723 E46.44076
G1 X120.935 Y108.722 E46.44763
G1 X121.500 Y108.722 E46.45448
G1 X122.064 Y108.722 E46.46131
G1 X122.628 Y108.722 E46.46818
G1 X123.193 Y108.722 E46.47506
G1 X123.757 Y108.722 E46.48193
G1 X124.322 Y108.722 E46.48881
G1 X124.886 Y108.722 E46.49568
G1 X125.450 Y108.722 E46.50259
G1 X126.015 Y108.721 E46.50950
G1 X126.579 Y108.721 E46.51641
G1 X126.952 Y108.631 E46.52559
G0 F12000 X126.728 Y109.984
G1 F1620 X125.887 Y110.824 E46.55405
G0 F12000 X125.413 Y111.863
G1 F1620 X124.568 Y112.707 E46.58264
G0 F12000 X124.098 Y113.742
G1 F1620 X123.472 Y114.368 E46.60383
G0 F12000 X123.101 Y114.175
G1 F1620 X122.722 Y114.271 E46.61035
G1 X122.158 Y114.271 E46.61685
G1 X121.593 Y114.271 E46.62336
G1 X121.029 Y114.271 E46.62986
G1 X120.465 Y114.271 E46.63639
G1 X119.900 Y114.272 E46.64297
G1 X119.336 Y114.272 E46.64953
G1 X118.772 Y114.272 E46.65606
G1 X118.207 Y114.272 E46.66264
G1 X117.643 Y114.272 E46.66920
G1 X117.078 Y114.272 E46.67578
G1 X116.514 Y114.272 E46.68238
G1 X115.950 Y114.272 E46.68898
G1 X115.385 Y114.272 E46.69555
G1 X114.821 Y114.273 E46.70215
G1 X114.256 Y114.273 E46.70876
G1 X113.692 Y114.273 E46.71536
G1 X113.127 Y114.273 E46.72204
G1 X112.563 Y114.273 E46.72867
G1 X111.999 Y114.274 E46.73537
G1 X111.434 Y114.274 E46.74205
G1 X110.870 Y114.274 E46.74875
G1 X110.305 Y114.274 E46.75543
G1 X109.741 Y114.274 E46.76213
G1 X109.177 Y114.274 E46.76883
G1 X108.612 Y114.274 E46.77554
G1 X108.048 Y114.274 E46.78224
G1 X107.484 Y114.274 E46.78898
G1 X106.919 Y114.275 E46.79572
G1 X106.355 Y114.275 E46.80246
G1 X105.791 Y114.275 E46.80919
G1 X105.226 Y114.275 E46.81594
G1 X104.662 Y114.275 E46.82267
G1 X104.097 Y114.275 E46.82942
G1 X103.533 Y114.275 E46.83619
G1 X102.968 Y114.275 E46.84297
G1 X102.404 Y114.275 E46.84973
G1 X101.840 Y114.276 E46.85654
G1 X101.276 Y114.276 E46.86334
G1 X100.711 Y114.276 E46.87019
G1 X100.327 Y114.378 E46.87970
;LAYER:2
M106 S5
G0 F12000 X96.129 Y114.347 Z0.420
G0 X95.932 Y114.051
;TYPE:WALL-INNER
G1 F2100 X95.918 Y114.005 E46.88085
G1 X95.970 Y114.104 E46.88353
G1 X95.932 Y114.051 E46.88509
G10
G1 Z0.520
G0 F12000 X127.068 Y108.948
G1 Z0.420
G11
G1 F2100 X127.083 Y108.998 E46.88634
G1 X127.029 Y108.893 E46.88916
G1 X127.068 Y108.948 E46.89078
G0 F12000 X127.481 Y108.933
;TYPE:WALL-OUTER
G1 F2100 X127.489 Y109.093 E46.89461
G1 X127.449 Y109.260 E46.89872
G1 X124.113 Y114.071 E47.03888
G1 X123.831 Y114.433 E47.04986
G1 X123.696 Y114.519 E47.05370
G1 X123.546 Y114.566 E47.05746
G1 X96.082 Y114.579 E47.71495
G1 X95.905 Y114.534 E47.71932
G1 X95.775 Y114.466 E47.72283
G1 X95.653 Y114.355 E47.72678
G1 X95.567 Y114.220 E47.73061
G1 X95.519 Y114.066 E47.73447
G1 X95.511 Y113.902 E47.73841
G1 X95.544 Y113.751 E47.74211
G1 X95.658 Y113.547 E47.74770
G1 X99.051 Y108.694 E47.88946
G1 X99.168 Y108.568 E47.89358
G1 X99.314 Y108.478 E47.89768
G1 X99.455 Y108.433 E47.90123
G1 X126.919 Y108.421 E48.55871
G1 X127.084 Y108.460 E48.56277
G1 X127.225 Y108.533 E48.56657
G1 X127.347 Y108.644 E48.57052
G1 X127.433 Y108.779 E48.57436
G1 X127.481 Y108.933 E48.57822
G0 F12000 X126.758 Y109.238
G1 F2100 X126.647 Y109.023 E48.58401
G1 X99.562 Y109.023 E49.23242
G1 X96.242 Y113.763 E49.37097
G1 X96.353 Y113.977 E49.37674
G1 X123.437 Y113.977 E50.02513
G1 X126.758 Y109.238 E50.16367
G0 F12000 X127.004 Y109.231
;TYPE:SKIN
G1 F2100 X127.020 Y109.528 E50.16809
G1 X126.655 Y109.728 E50.17259
G1 X126.557 Y110.194 E50.17710
G1 X126.191 Y110.392 E50.18164
G1 X126.096 Y110.861 E50.18627
G1 X125.725 Y111.055 E50.19094
G1 X125.633 Y111.527 E50.19564
G1 X125.261 Y111.719 E50.20039
G1 X125.171 Y112.194 E50.20518
G1 X124.795 Y112.382 E50.21002
G1 X124.709 Y112.860 E50.21494
G1 X124.331 Y113.046 E50.21990
G1 X124.247 Y113.527 E50.22488
G1 X123.866 Y113.710 E50.22995
G1 X123.764 Y114.172 E50.23489
G1 X123.298 Y114.270 E50.23983
G1 X122.734 Y114.270 E50.24630
G1 X122.170 Y114.270 E50.25273
G1 X121.606 Y114.271 E50.25919
G1 X121.041 Y114.271 E50.26566
G1 X120.477 Y114.271 E50.27213
G1 X120.099 Y114.175 E50.28146
G10
G1 Z0.520
G0 F12000 X120.389 Y108.823
G1 Z0.420
G11
G1 F2100 X120.471 Y108.622 E50.28824
G1 X121.136 Y108.722 E50.29502
G1 X121.699 Y108.722 E50.30177
G1 X122.264 Y108.722 E50.30855
G1 X122.828 Y108.722 E50.31532
G1 X123.392 Y108.722 E50.32209
G1 X123.956 Y108.722 E50.32889
G1 X124.520 Y108.722 E50.33566
G1 X125.085 Y108.721 E50.34247
G1 X125.649 Y108.721 E50.34931
G1 X126.213 Y108.721 E50.35614
G1 X126.596 Y108.823 E50.36563
G0 F12000 X119.825 Y108.823
G1 F2100 X119.443 Y108.723 E50.37238
G1 X118.879 Y108.723 E50.37912
G1 X118.314 Y108.723 E50.38586
G1 X117.751 Y108.723 E50.39255
G1 X117.186 Y108.723 E50.39926
G1 X116.622 Y108.723 E50.40596
G1 X116.058 Y108.724 E50.41266
G1 X115.494 Y108.724 E50.41937
G1 X114.930 Y108.724 E50.42607
G1 X114.365 Y108.724 E50.43274
G1 X113.801 Y108.724 E50.43941
G1 X113.237 Y108.724 E50.44608
G1 X112.673 Y108.724 E50.45271
