;FLAVOR:UltiGCode
;TIME:885
;MATERIAL:504
;MATERIAL2:0
;NOZZLE_DIAMETER:0.400000
;NOZZLE_DIAMETER2:0.400000

;Layer count: 121
;LAYER:0
M107
G0 F12000 X93.577 Y105.392 Z0.300
;TYPE:SKIRT
G1 F1200 X94.591 Y104.868 E0.13697
G1 X95.638 Y104.622 E0.26603
G1 X123.067 Y104.622 E3.55751
G1 X124.175 Y104.646 E3.69050
G1 X125.322 Y105.012 E3.83498
G1 X126.291 Y105.630 E3.97289
G1 X126.918 Y106.309 E4.08380
G1 X127.435 Y107.050 E4.19222
G1 X127.434 Y107.050 E4.19234
G1 X129.809 Y110.445 E4.68953
G1 X130.447 Y111.358 E4.82319
G1 X130.645 Y111.652 E4.86573
G1 X131.055 Y112.432 E4.97147
G1 X131.307 Y113.579 E5.11239
G1 X131.252 Y114.759 E5.25415
G1 X130.888 Y115.868 E5.39421
G1 X130.282 Y116.818 E5.52943
G1 X129.421 Y117.608 E5.66965
G1 X128.416 Y118.127 E5.80539
G1 X127.371 Y118.378 E5.93435
G1 X99.528 Y118.378 E9.27551
G1 X98.765 Y118.332 E9.36724
G1 X97.684 Y117.993 E9.50319
G1 X96.705 Y117.367 E9.64263
G1 X96.080 Y116.686 E9.75355
G1 X92.555 Y111.646 E10.49160
G1 X92.354 Y111.348 E10.53473
G1 X91.944 Y110.563 E10.64101
G1 X91.688 Y109.400 E10.78391
G1 X91.756 Y108.231 E10.92442
G1 X92.103 Y107.133 E11.06261
G1 X92.744 Y106.158 E11.20263
G1 X93.577 Y105.392 E11.33843
G0 F12000 X93.808 Y105.722
G1 F1200 X94.731 Y105.247 E11.46299
G1 X95.684 Y105.022 E11.58050
G1 X123.063 Y105.022 E14.86598
G1 X124.109 Y105.045 E14.99153
G1 X125.151 Y105.377 E15.12276
G1 X126.032 Y105.940 E15.24822
G1 X126.605 Y106.561 E15.34962
G1 X127.107 Y107.279 E15.45475
G1 X127.106 Y107.279 E15.45487
G1 X130.118 Y111.585 E16.08546
G1 X130.301 Y111.857 E16.12480
G1 X130.676 Y112.571 E16.22157
G1 X130.905 Y113.613 E16.34960
G1 X130.855 Y114.686 E16.47850
G1 X130.524 Y115.695 E16.60593
G1 X129.973 Y116.559 E16.72890
G1 X129.190 Y117.277 E16.85638
G1 X128.276 Y117.749 E16.97982
G1 X127.323 Y117.978 E17.09744
G1 X99.540 Y117.978 E20.43140
G1 X98.838 Y117.935 E20.51579
G1 X97.855 Y117.627 E20.63941
G1 X96.964 Y117.058 E20.76627
G1 X96.393 Y116.435 E20.86768
G1 X92.885 Y111.419 E21.60220
G1 X92.698 Y111.143 E21.64220
G1 X92.323 Y110.425 E21.73941
G1 X92.091 Y109.368 E21.86927
G1 X92.152 Y108.304 E21.99716
G1 X92.468 Y107.306 E22.12278
G1 X93.051 Y106.419 E22.25015
G1 X93.808 Y105.722 E22.37363
G10
G1 Z0.400
G0 F12000 X95.932 Y108.954
;TYPE:WALL-INNER
G1 Z0.300
G11
G1 F1200 X95.958 Y108.914 E22.37936
G1 X95.924 Y108.980 E22.38826
G1 X95.932 Y108.954 E22.39153
G0 F12000 X127.063 Y114.054
G1 F1200 X127.041 Y114.089 E22.39649
G1 X127.070 Y114.032 E22.40416
G1 X127.063 Y114.054 E22.40693
G0 F12000 X127.313 Y113.507
;TYPE:WALL-OUTER
G1 F1200 X127.454 Y113.748 E22.44044
G1 X127.488 Y113.902 E22.45937
G1 X127.480 Y114.066 E22.47907
G1 X127.428 Y114.225 E22.49914
G1 X127.343 Y114.358 E22.51808
G1 X127.229 Y114.463 E22.53668
G1 X127.079 Y114.540 E22.55692
G1 X126.922 Y114.578 E22.57630
G1 X99.649 Y114.578 E25.84906
G1 X99.459 Y114.566 E25.87190
G1 X99.306 Y114.518 E25.89115
G1 X99.166 Y114.429 E25.91105
G1 X99.054 Y114.307 E25.93093
G1 X95.686 Y109.491 E26.63615
G1 X95.546 Y109.251 E26.66949
G1 X95.512 Y109.098 E26.68830
G1 X95.523 Y108.923 E26.70934
G1 X95.568 Y108.780 E26.72733
G1 X95.662 Y108.636 E26.74797
G1 X95.771 Y108.536 E26.76572
G1 X95.918 Y108.460 E26.78557
G1 X96.081 Y108.422 E26.80566
G1 X123.024 Y108.422 E30.03882
G1 X123.542 Y108.433 E30.10099
G1 X123.695 Y108.482 E30.12027
G1 X123.832 Y108.570 E30.13981
G1 X123.952 Y108.700 E30.16104
G1 X127.313 Y113.507 E30.86490
G0 F12000 X126.759 Y113.763
G1 F1200 X123.444 Y109.022 E31.55910
G1 X96.353 Y109.022 E34.81002
G1 X96.241 Y109.237 E34.83911
G1 X99.556 Y113.977 E35.53321
G1 X126.647 Y113.978 E38.78413
G1 X126.759 Y113.763 E38.81322
G0 F12000 X126.876 Y113.582
;TYPE:SKIN
G1 F1200 X127.173 Y113.879 E38.86362
G0 F12000 X126.539 Y114.377
G1 F1200 X126.156 Y114.277 E38.89747
G1 X125.591 Y114.277 E38.93120
G1 X125.025 Y114.277 E38.96499
G1 X124.459 Y114.277 E38.99878
G1 X123.894 Y114.277 E39.03251
G1 X123.328 Y114.277 E39.06630
G1 X122.762 Y114.277 E39.10009
G1 X122.197 Y114.277 E39.13382
G1 X121.631 Y114.277 E39.16761
G1 X121.065 Y114.277 E39.20140
G1 X120.500 Y114.277 E39.23513
G1 X120.117 Y114.177 E39.28263
G10
G1 Z0.400
G0 F12000 X120.418 Y108.821
G1 Z0.300
G11
G1 F1200 X120.500 Y108.621 E39.31648
G1 X121.166 Y108.721 E39.35022
G1 X121.732 Y108.721 E39.38401
G1 X122.297 Y108.721 E39.41774
G1 X122.863 Y108.721 E39.45153
G1 X123.246 Y108.821 E39.49903
G0 F12000 X124.244 Y109.819
G1 F1200 X125.063 Y110.638 E39.63802
G0 F12000 X125.560 Y111.700
G1 F1200 X126.378 Y112.519 E39.77693
G0 F12000 X127.192 Y113.736
G0 X126.871 Y114.349
G0 X119.751 Y114.377
G1 F1200 X119.368 Y114.277 E39.81077
G1 X118.802 Y114.277 E39.84456
G1 X118.237 Y114.277 E39.87829
G1 X117.671 Y114.277 E39.91208
G1 X117.105 Y114.277 E39.94587
G1 X116.540 Y114.277 E39.97960
G1 X115.974 Y114.277 E40.01339
G1 X115.408 Y114.277 E40.04718
G1 X114.843 Y114.277 E40.08091
G1 X114.277 Y114.277 E40.11470
G1 X113.711 Y114.277 E40.14849
G1 X113.146 Y114.277 E40.18223
G1 X112.580 Y114.277 E40.21602
G1 X112.014 Y114.277 E40.24981
G1 X111.448 Y114.277 E40.28360
G1 X110.882 Y114.277 E40.31756
G1 X110.317 Y114.277 E40.35129
G1 X109.751 Y114.277 E40.38508
G1 X109.185 Y114.277 E40.41904
G1 X108.620 Y114.277 E40.45277
G1 X108.054 Y114.277 E40.48656
G1 X107.488 Y114.277 E40.52035
G1 X106.923 Y114.277 E40.55408
G1 X106.357 Y114.277 E40.58787
G1 X105.791 Y114.277 E40.62166
G1 X105.226 Y114.277 E40.65539
G1 X104.660 Y114.277 E40.68918
G1 X104.094 Y114.277 E40.72297
G1 X103.529 Y114.277 E40.75670
G1 X102.963 Y114.277 E40.79049
G1 X102.397 Y114.277 E40.82428
G1 X101.832 Y114.277 E40.85801
G1 X101.266 Y114.277 E40.89180
G1 X100.700 Y114.277 E40.92559
G1 X100.317 Y114.177 E40.97309
G10
G1 Z0.400
G0 F12000 X100.052 Y108.820
G1 Z0.300
G11
G1 F1200 X99.670 Y108.720 E41.00685
G1 X99.104 Y108.720 E41.04064
G1 X98.538 Y108.720 E41.07426
G1 X97.973 Y108.720 E41.10782
G1 X97.407 Y108.720 E41.14161
G1 X96.841 Y108.720 E41.17541
G1 X96.459 Y108.621 E41.22276
G0 F12000 X95.849 Y109.143
G1 F1200 X96.123 Y109.416 E41.26917
G0 F12000 X96.622 Y110.481
G1 F1200 X97.439 Y111.298 E41.40782
G0 F12000 X97.937 Y112.362
G1 F1200 X98.754 Y113.179 E41.54647
G0 F12000 X99.752 Y114.177
G1 F1200 X99.952 Y114.377 E41.58041
G10
G1 Z0.400
G0 F12000 X100.618 Y108.820
G1 Z0.300
G11
G1 F1200 X100.701 Y108.621 E41.61418
G1 X101.367 Y108.720 E41.64791
G1 X101.932 Y108.720 E41.68147
G1 X102.498 Y108.720 E41.71509
G1 X103.064 Y108.720 E41.74888
G1 X103.629 Y108.720 E41.78245
G1 X104.195 Y108.720 E41.81607
G1 X104.761 Y108.720 E41.84986
G1 X105.326 Y108.720 E41.88342
G1 X105.892 Y108.720 E41.91704
G1 X106.458 Y108.720 E41.95083
G1 X107.024 Y108.720 E41.98462
G1 X107.589 Y108.720 E42.01818
G1 X108.155 Y108.720 E42.05197
G1 X108.721 Y108.720 E42.08576
G1 X109.286 Y108.720 E42.11932
G1 X109.852 Y108.720 E42.15294
G1 X110.418 Y108.721 E42.18673
G1 X110.984 Y108.721 E42.22052
G1 X111.549 Y108.721 E42.25425
G1 X112.115 Y108.721 E42.28804
G1 X112.681 Y108.721 E42.32183
G1 X113.246 Y108.721 E42.35556
G1 X113.812 Y108.721 E42.38935
G1 X114.378 Y108.721 E42.42314
G1 X114.943 Y108.721 E42.45687
G1 X115.509 Y108.721 E42.49066
G1 X116.075 Y108.721 E42.52445
G1 X116.640 Y108.721 E42.55818
G1 X117.206 Y108.721 E42.59214
G1 X117.772 Y108.721 E42.62593
G1 X118.337 Y108.721 E42.65967
G1 X118.903 Y108.721 E42.69363
G1 X119.469 Y108.721 E42.72742
G1 X119.852 Y108.821 E42.77492
;LAYER:1
M106 S2
G10
G1 Z0.400
G0 F12000 X127.068 Y114.051 Z0.360
;TYPE:WALL-INNER
G1 Z0.360
G11
G1 F1620 X127.031 Y114.104 E42.77646
G1 X127.081 Y114.007 E42.77908
G1 X127.068 Y114.051 E42.78017
G0 F12000 X95.931 Y108.953
G1 F1620 X95.969 Y108.895 E42.78183
G1 X95.917 Y108.996 E42.78455
G1 X95.931 Y108.953 E42.78564
G0 F12000 X95.709 Y109.525
;TYPE:WALL-OUTER
G1 F1620 X95.544 Y109.245 E42.79342
G1 X95.512 Y109.099 E42.79700
G1 X95.523 Y108.921 E42.80126
G1 X95.567 Y108.780 E42.80480
G1 X95.662 Y108.637 E42.80891
G1 X95.775 Y108.533 E42.81259
G1 X95.916 Y108.460 E42.81639
G1 X96.081 Y108.421 E42.82045
G1 X123.024 Y108.421 E43.46546
G1 X123.543 Y108.432 E43.47789
G1 X123.696 Y108.481 E43.48174
G1 X123.833 Y108.569 E43.48563
G1 X123.949 Y108.694 E43.48972
G1 X127.301 Y113.488 E43.62976
G1 X127.456 Y113.751 E43.63707
G1 X127.489 Y113.902 E43.64077
G1 X127.481 Y114.066 E43.64470
G1 X127.433 Y114.220 E43.64856
G1 X127.347 Y114.355 E43.65239
G1 X127.225 Y114.466 E43.65634
G1 X127.081 Y114.541 E43.66023
G1 X126.922 Y114.579 E43.66414
G1 X99.649 Y114.579 E44.31706
G1 X99.459 Y114.567 E44.32161
G1 X99.304 Y114.519 E44.32550
G1 X99.169 Y114.433 E44.32933
G1 X99.047 Y114.299 E44.33367
G1 X95.709 Y109.525 E44.47312
G0 F12000 X96.242 Y109.237
G1 F1620 X99.556 Y113.976 E44.61156
G1 X126.647 Y113.977 E45.26012
G1 X126.758 Y113.763 E45.26589
G1 X123.444 Y109.023 E45.40435
G1 X96.353 Y109.023 E46.05291
G1 X96.242 Y109.237 E46.05868
G0 F12000 X96.180 Y109.496
;TYPE:SKIN
G1 F1620 X96.150 Y109.808 E46.06363
G1 X96.528 Y109.995 E46.06854
G1 X96.614 Y110.473 E46.07346
G1 X96.993 Y110.659 E46.07840
G1 X97.079 Y111.137 E46.08333
G1 X97.457 Y111.323 E46.08826
G1 X97.543 Y111.801 E46.09315
G1 X97.922 Y111.987 E46.09809
G1 X98.007 Y112.465 E46.10304
G1 X98.386 Y112.651 E46.10796
G1 X98.472 Y113.129 E46.11288
G1 X98.850 Y113.315 E46.11779
G1 X98.936 Y113.793 E46.12271
G1 X99.315 Y113.979 E46.12765
G1 X99.530 Y114.329 E46.13214
G1 X99.967 Y114.174 E46.14324
G10
G1 Z0.460
G0 F12000 X99.675 Y108.823
G1 Z0.360
G11
G1 F1620 X99.597 Y108.619 E46.15014
G1 X98.930 Y108.721 E46.15707
G1 X98.366 Y108.721 E46.16394
G1 X97.802 Y108.721 E46.17080
G1 X97.238 Y108.721 E46.17767
G1 X96.673 Y108.721 E46.18459
G1 X96.105 Y109.007 E46.19146
G1 X95.810 Y109.303 E46.20146
G10
G1 Z0.460
G0 F12000 X100.239 Y108.823
G1 Z0.360
G11
G1 F1620 X100.623 Y108.721 E46.20835
G1 X101.187 Y108.721 E46.21526
G1 X101.752 Y108.721 E46.22217
G1 X102.316 Y108.721 E46.22904
G1 X102.880 Y108.721 E46.23591
G1 X103.445 Y108.721 E46.24283
G1 X104.009 Y108.721 E46.24970
G1 X104.573 Y108.721 E46.25656
G1 X105.137 Y108.721 E46.26343
G1 X105.702 Y108.721 E46.27035
G1 X106.266 Y108.721 E46.27722
G1 X106.830 Y108.721 E46.28409
G1 X107.394 Y108.721 E46.29099
G1 X107.959 Y108.721 E46.29791
G1 X108.523 Y108.721 E46.30478
G1 X109.087 Y108.721 E46.31165
G1 X109.652 Y108.721 E46.31856
G1 X110.215 Y108.721 E46.32545
G1 X110.779 Y108.721 E46.33236
G1 X111.344 Y108.721 E46.33927
G1 X111.908 Y108.721 E46.34618
G1 X112.472 Y108.721 E46.35308
G1 X113.036 Y108.721 E46.35998
G1 X113.601 Y108.721 E46.36690
G1 X114.165 Y108.721 E46.37380
G1 X114.729 Y108.721 E46.38070
G1 X115.294 Y108.721 E46.38762
G1 X115.858 Y108.721 E46.39452
G1 X116.422 Y108.721 E46.40143
G1 X116.986 Y108.721 E46.40833
G1 X117.551 Y108.721 E46.41525
G1 X118.115 Y108.721 E46.42215
G1 X118.679 Y108.721 E46.42905
G1 X119.243 Y108.721 E46.43596
G1 X119.808 Y108.721 E46.44287
G1 X120.372 Y108.721 E46.44978
G1 X120.936 Y108.721 E46.45668
G1 X121.501 Y108.721 E46.46359
G1 X122.065 Y108.721 E46.47050
G1 X122.629 Y108.721 E46.47740
G1 X123.193 Y108.721 E46.48430
G1 X123.703 Y108.776 E46.49037
G1 X123.824 Y109.220 E46.49525
G1 X124.202 Y109.406 E46.50018
G1 X124.288 Y109.884 E46.50511
G1 X124.667 Y110.070 E46.51005
G1 X124.752 Y110.548 E46.51500
G1 X125.131 Y110.734 E46.51991
G1 X125.217 Y111.212 E46.52484
G1 X125.596 Y111.398 E46.52978
G1 X125.681 Y111.876 E46.53473
G1 X126.060 Y112.062 E46.53967
G1 X126.146 Y112.540 E46.54459
G1 X126.524 Y112.726 E46.54955
G1 X126.610 Y113.204 E46.55447
G1 X126.989 Y113.390 E46.55941
G1 X126.957 Y113.985 E46.56435
G1 X126.666 Y114.277 E46.56808
G1 X126.102 Y114.277 E46.57499
G1 X125.537 Y114.277 E46.58190
G1 X124.973 Y114.277 E46.58880
G1 X124.409 Y114.277 E46.59571
G1 X123.845 Y114.277 E46.60261
G1 X123.280 Y114.277 E46.60953
G1 X122.716 Y114.277 E46.61643
G1 X122.152 Y114.277 E46.62333
G1 X121.588 Y114.277 E46.63024
G1 X121.023 Y114.277 E46.63715
G1 X120.459 Y114.277 E46.64406
G1 X119.895 Y114.277 E46.65096
G1 X119.330 Y114.277 E46.65787
G1 X118.766 Y114.277 E46.66478
G1 X118.202 Y114.277 E46.67168
G1 X117.638 Y114.277 E46.67858
G1 X117.073 Y114.277 E46.68550
G1 X116.509 Y114.277 E46.69240
G1 X115.945 Y114.277 E46.69931
G1 X115.381 Y114.277 E46.70621
G1 X114.816 Y114.277 E46.71313
G1 X114.252 Y114.277 E46.72003
G1 X113.688 Y114.277 E46.72693
G1 X113.123 Y114.277 E46.73385
G1 X112.560 Y114.277 E46.74074
G1 X111.996 Y114.277 E46.74761
G1 X111.431 Y114.277 E46.75452
G1 X110.867 Y114.277 E46.76139
G1 X110.303 Y114.277 E46.76826
G1 X109.739 Y114.277 E46.77513
G1 X109.174 Y114.277 E46.78205
G1 X108.610 Y114.276 E46.78892
G1 X108.046 Y114.276 E46.79582
G1 X107.481 Y114.276 E46.80274
G1 X106.917 Y114.276 E46.80964
G1 X106.353 Y114.276 E46.81654
G1 X105.789 Y114.276 E46.82345
G1 X105.224 Y114.276 E46.83036
G1 X104.660 Y114.276 E46.83727
G1 X104.096 Y114.276 E46.84417
G1 X103.532 Y114.276 E46.85107
G1 X102.967 Y114.276 E46.85799
G1 X102.403 Y114.276 E46.86489
G1 X101.839 Y114.276 E46.87180
G1 X101.274 Y114.276 E46.87871
G1 X100.710 Y114.276 E46.88561
G1 X100.326 Y114.379 E46.89513
;LAYER:2
M106 S5
G10
G1 Z0.460
G0 F12000 X95.931 Y108.950 Z0.420
;TYPE:WALL-INNER
G1 Z0.420
G11
G1 F2100 X95.970 Y108.894 E46.89677
G1 X95.917 Y108.996 E46.89952
G1 X95.931 Y108.950 E46.90067
G0 F12000 X127.068 Y114.051
G1 F2100 X127.033 Y114.100 E46.90211
G1 X127.081 Y114.007 E46.90462
G1 X127.068 Y114.051 E46.90571
G0 F12000 X127.284 Y113.465
;TYPE:WALL-OUTER
G1 F2100 X127.455 Y113.748 E46.91363
G1 X127.489 Y113.902 E46.91741
G1 X127.481 Y114.066 E46.92134
G1 X127.433 Y114.220 E46.92520
G1 X127.347 Y114.355 E46.92903
G1 X127.215 Y114.472 E46.93325
G1 X127.081 Y114.541 E46.93686
G1 X126.922 Y114.579 E46.94077
G1 X99.649 Y114.579 E47.59369
G1 X99.459 Y114.567 E47.59825
G1 X99.304 Y114.519 E47.60213
G1 X99.169 Y114.433 E47.60596
G1 X99.047 Y114.299 E47.61030
G1 X95.721 Y109.542 E47.74926
G1 X95.544 Y109.246 E47.75752
G1 X95.512 Y109.099 E47.76112
G1 X95.523 Y108.919 E47.76544
G1 X95.567 Y108.779 E47.76895
G1 X95.653 Y108.644 E47.77278
G1 X95.775 Y108.533 E47.77673
G1 X95.916 Y108.460 E47.78053
G1 X96.081 Y108.421 E47.78459
G1 X123.024 Y108.421 E48.42961
G1 X123.543 Y108.432 E48.44203
G1 X123.696 Y108.481 E48.44588
G1 X123.833 Y108.569 E48.44978
G1 X123.949 Y108.694 E48.45386
G1 X127.284 Y113.465 E48.59322
G0 F12000 X126.758 Y113.763
G1 F2100 X123.444 Y109.023 E48.73168
G1 X96.353 Y109.023 E49.38023
G1 X96.242 Y109.237 E49.38601
G1 X99.556 Y113.976 E49.52445
G1 X126.647 Y113.977 E50.17300
G1 X126.758 Y113.763 E50.17878
G0 F12000 X126.949 Y113.689
;TYPE:SKIN
G1 F2100 X127.067 Y113.807 E50.18277
G0 F12000 X126.510 Y114.379
G1 F2100 X126.126 Y114.277 E50.18966
G1 X125.562 Y114.277 E50.19653
G1 X124.997 Y114.277 E50.20341
G1 X124.433 Y114.277 E50.21028
G1 X123.869 Y114.277 E50.21715
G1 X123.304 Y114.277 E50.22403
G1 X122.740 Y114.277 E50.23090
G1 X122.176 Y114.277 E50.23777
G1 X121.612 Y114.277 E50.24464
G1 X121.047 Y114.277 E50.25152
G1 X120.483 Y114.277 E50.25839
G1 X120.099 Y114.175 E50.26790
G10
G1 Z0.520
G0 F12000 X120.390 Y108.823
G1 Z0.420
G11
G1 F2100 X120.468 Y108.620 E50.27478
G1 X121.134 Y108.721 E50.28165
G1 X121.699 Y108.721 E50.28850
G1 X122.263 Y108.721 E50.29537
G1 X122.827 Y108.721 E50.30224
G1 X123.418 Y108.748 E50.30909
G1 X123.841 Y108.888 E50.31976
G0 F12000 X124.322 Y109.934
G1 F2100 X125.152 Y110.764 E50.34786
G0 F12000 X125.635 Y111.811
G1 F2100 X126.464 Y112.640 E50.37592
G0 F12000 X126.382 Y112.696
G0 X127.191 Y113.736
G0 X126.871 Y114.348
G0 X119.739 Y114.279
G0 X119.739 Y114.379
G1 F2100 X119.355 Y114.277 E50.38281
G1 X118.790 Y114.277 E50.38969
G1 X118.226 Y114.277 E50.39656
G1 X117.662 Y114.277 E50.40343
