;FLAVOR:UltiGCode
;TIME:701
;MATERIAL:510
;MATERIAL2:0
;NOZZLE_DIAMETER:0.400000
;NOZZLE_DIAMETER2:0.400000

;Layer count: 73
;LAYER:0
M106 S255
G0 F12000 X93.583 Y105.389 Z0.300
;TYPE:SKIRT
G1 F1200 X94.591 Y104.868 E0.13616
G1 X95.638 Y104.622 E0.26522
G1 X123.067 Y104.622 E3.55670
G1 X124.175 Y104.646 E3.68969
G1 X125.322 Y105.012 E3.83417
G1 X126.291 Y105.630 E3.97209
G1 X126.918 Y106.309 E4.08299
G1 X127.418 Y107.027 E4.18799
G1 X127.419 Y107.027 E4.18811
G1 X129.860 Y110.519 E4.69938
G1 X129.859 Y110.520 E4.69955
G1 X130.520 Y111.463 E4.83774
G1 X131.038 Y112.357 E4.96172
G1 X131.307 Y113.579 E5.11188
G1 X131.253 Y114.751 E5.25266
G1 X130.891 Y115.868 E5.39357
G1 X130.262 Y116.845 E5.53300
G1 X129.393 Y117.621 E5.67281
G1 X128.421 Y118.126 E5.80425
G1 X127.371 Y118.378 E5.93383
G1 X99.528 Y118.378 E9.27499
G1 X98.765 Y118.332 E9.36672
G1 X97.684 Y117.993 E9.50267
G1 X96.705 Y117.367 E9.64211
G1 X96.080 Y116.686 E9.75303
G1 X95.145 Y115.348 E9.94891
G1 X92.476 Y111.532 E10.50772
G1 X91.960 Y110.636 E10.63179
G1 X91.688 Y109.400 E10.78366
G1 X91.756 Y108.234 E10.92382
G1 X92.099 Y107.142 E11.06117
G1 X92.741 Y106.158 E11.20216
G1 X93.583 Y105.389 E11.33900
G0 F12000 X93.813 Y105.720
G1 F1200 X94.731 Y105.247 E11.46292
G1 X95.684 Y105.022 E11.58043
G1 X123.063 Y105.022 E14.86591
G1 X124.109 Y105.045 E14.99146
G1 X125.151 Y105.377 E15.12269
G1 X126.032 Y105.940 E15.24816
G1 X126.605 Y106.561 E15.34955
G1 X127.093 Y107.259 E15.45175
G1 X129.531 Y110.747 E15.96242
G1 X130.183 Y111.679 E16.09891
G1 X130.661 Y112.504 E16.21333
G1 X130.905 Y113.613 E16.34959
G1 X130.855 Y114.679 E16.47765
G1 X130.526 Y115.696 E16.60592
G1 X129.956 Y116.583 E16.73244
G1 X129.164 Y117.289 E16.85976
G1 X128.280 Y117.748 E16.97929
G1 X127.323 Y117.978 E17.09740
G1 X99.540 Y117.978 E20.43136
G1 X98.838 Y117.935 E20.51576
G1 X97.855 Y117.627 E20.63937
G1 X96.964 Y117.058 E20.76623
G1 X96.393 Y116.435 E20.86764
G1 X95.473 Y115.119 E21.06033
G1 X92.814 Y111.318 E21.61698
G1 X92.338 Y110.490 E21.73158
G1 X92.091 Y109.368 E21.86945
G1 X92.152 Y108.307 E21.99698
G1 X92.464 Y107.314 E22.12188
G1 X93.049 Y106.419 E22.25019
G1 X93.813 Y105.720 E22.37445
G10
G1 Z1.300
G0 F12000 X95.931 Y108.956
;TYPE:WALL-INNER
G1 Z0.300
G11
G1 F1200 X95.958 Y108.914 E22.38044
G1 X95.923 Y108.981 E22.38951
G1 X95.931 Y108.956 E22.39266
G0 F12000 X95.681 Y109.484
;TYPE:WALL-OUTER
G1 F1200 X95.545 Y109.248 E22.42535
G1 X95.512 Y109.098 E22.44378
G1 X95.523 Y108.924 E22.46470
G1 X95.568 Y108.781 E22.48269
G1 X95.661 Y108.638 E22.50316
G1 X95.773 Y108.535 E22.52142
G1 X95.918 Y108.460 E22.54101
G1 X96.081 Y108.422 E22.56110
G1 X123.024 Y108.422 E25.79426
G1 X123.542 Y108.433 E25.85643
G1 X123.695 Y108.482 E25.87571
G1 X123.832 Y108.570 E25.89525
G1 X123.952 Y108.700 E25.91648
G1 X127.314 Y113.509 E26.62060
G1 X127.455 Y113.752 E26.65431
G1 X127.488 Y113.902 E26.67274
G1 X127.480 Y114.066 E26.69244
G1 X127.428 Y114.228 E26.71286
G1 X127.347 Y114.354 E26.73084
G1 X127.218 Y114.469 E26.75157
G1 X127.082 Y114.539 E26.76993
G1 X126.922 Y114.578 E26.78969
G1 X99.649 Y114.578 E30.06245
G1 X99.459 Y114.566 E30.08530
G1 X99.306 Y114.518 E30.10454
G1 X99.166 Y114.429 E30.12445
G1 X99.054 Y114.307 E30.14432
G1 X95.681 Y109.484 E30.85057
G0 F12000 X96.241 Y109.237
G1 F1200 X99.556 Y113.977 E31.54468
G1 X126.647 Y113.978 E34.79560
G1 X126.759 Y113.763 E34.82469
G1 X123.444 Y109.022 E35.51889
G1 X96.353 Y109.022 E38.76981
G1 X96.241 Y109.237 E38.79890
G0 F12000 X96.122 Y109.416
;TYPE:SKIN
G1 F1200 X95.851 Y109.145 E38.84489
G0 F12000 X96.459 Y108.621
G1 F1200 X96.841 Y108.720 E38.87863
G1 X97.407 Y108.720 E38.91242
G1 X97.973 Y108.720 E38.94621
G1 X98.538 Y108.720 E38.97977
G1 X99.104 Y108.720 E39.01339
G1 X99.670 Y108.720 E39.04718
G1 X100.235 Y108.720 E39.08074
G1 X100.801 Y108.720 E39.11436
G1 X101.367 Y108.720 E39.14815
G1 X101.932 Y108.720 E39.18171
G1 X102.498 Y108.720 E39.21533
G1 X103.064 Y108.720 E39.24912
G1 X103.629 Y108.720 E39.28268
G1 X104.195 Y108.720 E39.31631
G1 X104.761 Y108.720 E39.35010
G1 X105.326 Y108.720 E39.38366
G1 X105.892 Y108.720 E39.41728
G1 X106.458 Y108.720 E39.45107
G1 X107.024 Y108.720 E39.48486
G1 X107.589 Y108.720 E39.51842
G1 X108.155 Y108.720 E39.55221
G1 X108.721 Y108.720 E39.58600
G1 X109.286 Y108.720 E39.61956
G1 X109.852 Y108.720 E39.65318
G1 X110.418 Y108.721 E39.68697
G1 X110.984 Y108.721 E39.72076
G1 X111.549 Y108.721 E39.75449
G1 X112.115 Y108.721 E39.78828
G1 X112.681 Y108.721 E39.82207
G1 X113.246 Y108.721 E39.85580
G1 X113.812 Y108.721 E39.88959
G1 X114.378 Y108.721 E39.92338
G1 X114.943 Y108.721 E39.95711
G1 X115.509 Y108.721 E39.99090
G1 X116.075 Y108.721 E40.02469
G1 X116.640 Y108.721 E40.05842
G1 X117.206 Y108.721 E40.09238
G1 X117.772 Y108.721 E40.12617
G1 X118.337 Y108.721 E40.15990
G1 X118.903 Y108.721 E40.19386
G1 X119.469 Y108.721 E40.22765
G1 X119.852 Y108.821 E40.27516
G10
G1 Z1.300
G0 F12000 X119.551 Y114.177
G1 Z0.300
G11
G1 F1200 X119.468 Y114.377 E40.30907
G1 X118.802 Y114.277 E40.34281
G1 X118.237 Y114.277 E40.37654
G1 X117.671 Y114.277 E40.41033
G1 X117.105 Y114.277 E40.44412
G1 X116.540 Y114.277 E40.47785
G1 X115.974 Y114.277 E40.51164
G1 X115.408 Y114.277 E40.54543
G1 X114.843 Y114.277 E40.57916
G1 X114.277 Y114.277 E40.61295
G1 X113.711 Y114.277 E40.64674
G1 X113.146 Y114.277 E40.68047
G1 X112.580 Y114.277 E40.71426
G1 X112.014 Y114.277 E40.74805
G1 X111.448 Y114.277 E40.78184
G1 X110.882 Y114.277 E40.81580
G1 X110.317 Y114.277 E40.84953
G1 X109.751 Y114.277 E40.88332
G1 X109.185 Y114.277 E40.91728
G1 X108.620 Y114.277 E40.95101
G1 X108.054 Y114.277 E40.98480
G1 X107.488 Y114.277 E41.01859
G1 X106.923 Y114.277 E41.05232
G1 X106.357 Y114.277 E41.08611
G1 X105.791 Y114.277 E41.11990
G1 X105.226 Y114.277 E41.15363
G1 X104.660 Y114.277 E41.18742
G1 X104.094 Y114.277 E41.22121
G1 X103.529 Y114.277 E41.25494
G1 X102.963 Y114.277 E41.28873
G1 X102.397 Y114.277 E41.32252
G1 X101.832 Y114.277 E41.35625
G1 X101.266 Y114.277 E41.39004
G1 X100.700 Y114.277 E41.42384
G1 X100.134 Y114.277 E41.45780
G1 X99.752 Y114.177 E41.50518
G0 F12000 X98.754 Y113.179
G1 F1200 X97.937 Y112.362 E41.64383
G0 F12000 X97.438 Y111.297
G1 F1200 X96.621 Y110.480 E41.78248
G0 F12000 X96.702 Y110.423
G0 X95.808 Y109.264
G0 X96.128 Y108.652
G0 X120.218 Y108.722
G0 X120.218 Y108.621
G1 F1200 X120.600 Y108.721 E41.81636
G1 X121.166 Y108.721 E41.85015
G1 X121.732 Y108.721 E41.88394
G1 X122.297 Y108.721 E41.91767
G1 X122.863 Y108.721 E41.95146
G1 X123.246 Y108.821 E41.99896
G0 F12000 X124.244 Y109.819
G1 F1200 X125.061 Y110.636 E42.13761
G0 F12000 X125.560 Y111.700
G1 F1200 X126.374 Y112.514 E42.27575
G0 F12000 X126.876 Y113.582
G1 F1200 X127.168 Y114.158 E42.34453
G1 X126.677 Y114.232 E42.38519
G1 X126.156 Y114.277 E42.41908
G1 X125.591 Y114.277 E42.45281
G1 X125.025 Y114.277 E42.48660
G1 X124.459 Y114.277 E42.52039
G1 X123.894 Y114.277 E42.55412
G1 X123.328 Y114.277 E42.58791
G1 X122.762 Y114.277 E42.62170
G1 X122.197 Y114.277 E42.65543
G1 X121.631 Y114.277 E42.68922
G1 X121.065 Y114.277 E42.72301
G1 X120.500 Y114.277 E42.75674
G1 X120.117 Y114.177 E42.80424
;LAYER:1
G0 F12000 X120.117 Y114.276 Z0.400
G0 X126.871 Y114.348
G0 X127.068 Y114.051
;TYPE:WALL-INNER
G1 F1260 X127.031 Y114.104 E42.80682
G1 X127.081 Y114.007 E42.81118
G1 X127.068 Y114.051 E42.81301
G10
G1 Z1.400
G0 F12000 X95.930 Y108.953
G1 Z0.400
G11
G1 F1260 X95.971 Y108.892 E42.81594
G1 X95.917 Y108.996 E42.82062
G1 X95.930 Y108.953 E42.82241
G0 F12000 X95.707 Y109.522
;TYPE:WALL-OUTER
G1 F1260 X95.545 Y109.251 E42.83501
G1 X95.512 Y109.099 E42.84121
G1 X95.523 Y108.920 E42.84837
G1 X95.567 Y108.780 E42.85422
G1 X95.663 Y108.636 E42.86113
G1 X95.775 Y108.533 E42.86720
G1 X95.916 Y108.460 E42.87354
G1 X96.081 Y108.421 E42.88030
G1 X123.024 Y108.421 E43.95533
G1 X123.543 Y108.432 E43.97604
G1 X123.696 Y108.481 E43.98245
G1 X123.833 Y108.569 E43.98895
G1 X123.949 Y108.694 E43.99575
G1 X127.294 Y113.478 E44.22866
G1 X127.378 Y113.603 E44.23467
G1 X127.455 Y113.748 E44.24122
G1 X127.489 Y113.902 E44.24752
G1 X127.481 Y114.066 E44.25407
G1 X127.433 Y114.220 E44.26050
G1 X127.347 Y114.355 E44.26689
G1 X127.225 Y114.466 E44.27347
G1 X127.081 Y114.541 E44.27995
G1 X126.922 Y114.579 E44.28647
G1 X99.649 Y114.579 E45.37466
G1 X99.459 Y114.567 E45.38226
G1 X99.304 Y114.519 E45.38873
G1 X99.169 Y114.433 E45.39512
G1 X99.047 Y114.299 E45.40235
G1 X95.707 Y109.522 E45.63492
G0 F12000 X96.242 Y109.237
G1 F1260 X99.556 Y113.976 E45.86566
G1 X126.647 Y113.977 E46.94659
G1 X126.758 Y113.763 E46.95621
G1 X123.444 Y109.023 E47.18697
G1 X96.353 Y109.023 E48.26790
G1 X96.242 Y109.237 E48.27752
G0 F12000 X96.179 Y109.497
;TYPE:SKIN
G1 F1260 X96.150 Y109.808 E48.28564
G1 X96.528 Y109.995 E48.29382
G1 X96.615 Y110.472 E48.30197
G1 X96.993 Y110.659 E48.31015
G1 X97.079 Y111.136 E48.31834
G1 X97.457 Y111.323 E48.32652
G1 X97.543 Y111.801 E48.33468
G1 X97.921 Y111.987 E48.34290
G1 X98.008 Y112.465 E48.35111
G1 X98.386 Y112.651 E48.35932
G1 X98.472 Y113.129 E48.36753
G1 X98.850 Y113.315 E48.37571
G1 X98.936 Y113.793 E48.38391
G1 X99.315 Y113.979 E48.39215
G1 X99.530 Y114.329 E48.39962
G1 X99.967 Y114.174 E48.41812
G10
G1 Z1.400
G0 F12000 X99.674 Y108.824
G1 Z0.400
G11
G1 F1260 X99.597 Y108.619 E48.42968
G1 X98.930 Y108.721 E48.44122
G1 X98.365 Y108.721 E48.45275
G1 X97.801 Y108.721 E48.46425
G1 X97.237 Y108.721 E48.47576
G1 X96.673 Y108.721 E48.48727
G1 X96.104 Y109.007 E48.49879
G1 X95.808 Y109.304 E48.51552
G0 F12000 X96.129 Y108.652
G0 X100.238 Y108.723
G0 X100.238 Y108.824
G1 F1260 X100.623 Y108.721 E48.52704
G1 X101.187 Y108.721 E48.53855
G1 X101.751 Y108.721 E48.55005
G1 X102.315 Y108.721 E48.56156
G1 X102.880 Y108.721 E48.57308
G1 X103.444 Y108.721 E48.58459
G1 X104.008 Y108.721 E48.59610
G1 X104.572 Y108.721 E48.60760
G1 X105.137 Y108.721 E48.61913
G1 X105.701 Y108.721 E48.63063
G1 X106.265 Y108.721 E48.64214
G1 X106.830 Y108.721 E48.65366
G1 X107.394 Y108.721 E48.66517
G1 X107.958 Y108.721 E48.67668
G1 X108.522 Y108.721 E48.68818
G1 X109.087 Y108.721 E48.69971
G1 X109.651 Y108.721 E48.71121
G1 X110.215 Y108.721 E48.72272
G1 X110.779 Y108.721 E48.73422
G1 X111.344 Y108.721 E48.74575
G1 X111.908 Y108.721 E48.75726
G1 X112.472 Y108.721 E48.76876
G1 X113.036 Y108.721 E48.78027
G1 X113.601 Y108.721 E48.79179
G1 X114.165 Y108.721 E48.80330
G1 X114.729 Y108.721 E48.81480
G1 X115.294 Y108.721 E48.82633
G1 X115.858 Y108.721 E48.83784
G1 X116.422 Y108.721 E48.84934
G1 X116.986 Y108.721 E48.86085
G1 X117.551 Y108.721 E48.87237
G1 X118.115 Y108.721 E48.88388
G1 X118.679 Y108.721 E48.89538
G1 X119.243 Y108.721 E48.90689
G1 X119.808 Y108.721 E48.91842
G1 X120.372 Y108.721 E48.92992
G1 X120.936 Y108.721 E48.94143
G1 X121.501 Y108.721 E48.95295
G1 X122.065 Y108.721 E48.96446
G1 X122.629 Y108.721 E48.97596
G1 X123.193 Y108.721 E48.98747
G1 X123.703 Y108.776 E48.99757
G1 X123.824 Y109.220 E49.00572
G1 X124.202 Y109.406 E49.01393
G1 X124.288 Y109.884 E49.02214
G1 X124.667 Y110.070 E49.03038
G1 X124.752 Y110.548 E49.03863
G1 X125.131 Y110.734 E49.04682
G1 X125.217 Y111.212 E49.05503
G1 X125.595 Y111.398 E49.06324
G1 X125.681 Y111.876 E49.07150
G1 X126.060 Y112.062 E49.07973
G1 X126.146 Y112.540 E49.08794
G1 X126.524 Y112.726 E49.09620
G1 X126.610 Y113.204 E49.10440
G1 X126.989 Y113.390 E49.11264
G1 X126.957 Y113.985 E49.12080
G1 X126.666 Y114.277 E49.12702
G1 X126.102 Y114.277 E49.13853
G1 X125.537 Y114.277 E49.15006
G1 X124.973 Y114.277 E49.16156
G1 X124.409 Y114.277 E49.17307
G1 X123.845 Y114.277 E49.18457
G1 X123.280 Y114.277 E49.19610
G1 X122.716 Y114.277 E49.20760
G1 X122.152 Y114.277 E49.21911
G1 X121.588 Y114.277 E49.23062
G1 X121.023 Y114.277 E49.24214
G1 X120.459 Y114.277 E49.25365
G1 X119.895 Y114.277 E49.26515
G1 X119.330 Y114.277 E49.27668
G1 X118.766 Y114.277 E49.28818
G1 X118.202 Y114.277 E49.29969
G1 X117.638 Y114.277 E49.31120
G1 X117.073 Y114.277 E49.32272
G1 X116.509 Y114.277 E49.33423
G1 X115.945 Y114.277 E49.34573
G1 X115.381 Y114.277 E49.35724
G1 X114.816 Y114.277 E49.36876
G1 X114.252 Y114.277 E49.38027
G1 X113.688 Y114.277 E49.39178
G1 X113.123 Y114.277 E49.40330
G1 X112.560 Y114.277 E49.41479
G1 X111.996 Y114.277 E49.42624
G1 X111.431 Y114.277 E49.43776
G1 X110.867 Y114.277 E49.44921
G1 X110.303 Y114.277 E49.46066
G1 X109.739 Y114.277 E49.47211
G1 X109.174 Y114.277 E49.48364
G1 X108.610 Y114.276 E49.49509
G1 X108.046 Y114.276 E49.50659
G1 X107.481 Y114.276 E49.51812
G1 X106.917 Y114.276 E49.52962
G1 X106.353 Y114.276 E49.54113
G1 X105.789 Y114.276 E49.55263
G1 X105.224 Y114.276 E49.56416
G1 X104.660 Y114.276 E49.57567
G1 X104.096 Y114.276 E49.58717
G1 X103.532 Y114.276 E49.59868
G1 X102.967 Y114.276 E49.61020
G1 X102.403 Y114.276 E49.62171
G1 X101.839 Y114.276 E49.63321
G1 X101.274 Y114.276 E49.64474
G1 X100.710 Y114.276 E49.65625
G1 X100.326 Y114.379 E49.67211
;LAYER:2
G10
G1 Z1.400
G0 F12000 X95.931 Y108.950 Z0.500
;TYPE:WALL-INNER
G1 Z0.500
G11
G1 F1320 X95.970 Y108.894 E49.67483
G1 X95.918 Y108.994 E49.67933
G1 X95.931 Y108.950 E49.68116
G0 F12000 X127.061 Y114.061
G1 F1320 X127.031 Y114.104 E49.68325
G1 X127.076 Y114.017 E49.68716
G1 X127.061 Y114.061 E49.68901
G0 F12000 X127.264 Y113.435
;TYPE:WALL-OUTER
G1 F1320 X127.457 Y113.755 E49.70392
G1 X127.489 Y113.902 E49.70993
G1 X127.481 Y114.064 E49.71640
G1 X127.424 Y114.234 E49.72355
G1 X127.347 Y114.354 E49.72924
G1 X127.225 Y114.466 E49.73585
G1 X127.081 Y114.541 E49.74233
G1 X126.922 Y114.579 E49.74885
G1 X99.649 Y114.579 E50.83704
G1 X99.459 Y114.567 E50.84464
G1 X99.304 Y114.519 E50.85111
G1 X99.169 Y114.433 E50.85750
G1 X99.047 Y114.299 E50.86473
G1 X95.729 Y109.555 E51.09572
G1 X95.620 Y109.393 E51.10351
G1 X95.545 Y109.251 E51.10992
G1 X95.512 Y109.099 E51.11612
G1 X95.523 Y108.916 E51.12344
G1 X95.567 Y108.779 E51.12918
G1 X95.653 Y108.644 E51.13557
G1 X95.775 Y108.533 E51.14215
G1 X95.916 Y108.460 E51.14848
G1 X96.081 Y108.421 E51.15525
G1 X123.024 Y108.421 E52.23027
G1 X123.543 Y108.432 E52.25099
G1 X123.696 Y108.481 E52.25740
G1 X123.833 Y108.569 E52.26389
G1 X123.949 Y108.694 E52.27070
G1 X127.264 Y113.435 E52.50152
G0 F12000 X126.758 Y113.763
G1 F1320 X123.444 Y109.023 E52.73229
G1 X96.353 Y109.023 E53.81322
G1 X96.242 Y109.237 E53.82284
G1 X99.556 Y113.976 E54.05357
G1 X126.647 Y113.977 E55.13450
G1 X126.758 Y113.763 E55.14412
G0 F12000 X126.948 Y113.688
;TYPE:SKIN
G1 F1320 X127.083 Y113.823 E55.15174
G0 F12000 X126.510 Y114.379
G1 F1320 X126.126 Y114.277 E55.16318
G1 X125.562 Y114.277 E55.17463
G1 X124.998 Y114.277 E55.18608
G1 X124.433 Y114.277 E55.19749
G1 X123.869 Y114.277 E55.20894
G1 X123.305 Y114.277 E55.22039
G1 X122.741 Y114.277 E55.23178
G1 X122.176 Y114.277 E55.24319
G1 X121.612 Y114.277 E55.25464
G1 X121.048 Y114.277 E55.26609
G1 X120.483 Y114.277 E55.27751
G1 X120.100 Y114.176 E55.29331
G10
G1 Z1.500
G0 F12000 X120.390 Y108.823
G1 Z0.500
G11
G1 F1320 X120.468 Y108.620 E55.30477
G1 X121.134 Y108.721 E55.31622
G1 X121.699 Y108.721 E55.32764
G1 X122.263 Y108.721 E55.33908
G1 X122.827 Y108.721 E55.35053
G1 X123.418 Y108.748 E55.36195
G1 X123.841 Y108.888 E55.37973
G0 F12000 X124.322 Y109.934
G1 F1320 X125.153 Y110.765 E55.42662
G0 F12000 X125.635 Y111.811
G1 F1320 X126.466 Y112.642 E55.47351
G0 F12000 X126.384 Y112.698
G0 X127.191 Y113.736
G0 X126.871 Y114.348
G0 X119.739 Y114.279
G0 X119.739 Y114.379
G1 F1320 X119.355 Y114.277 E55.48495
G1 X118.791 Y114.277 E55.49640
G1 X118.226 Y114.277 E55.50782
G1 X117.662 Y114.277 E55.51927
G1 X117.097 Y114.277 E55.53074
G1 X116.533 Y114.277 E55.54218
G1 X115.969 Y114.277 E55.55363
G1 X115.405 Y114.277 E55.56508
G1 X114.840 Y114.277 E55.57655
