;FLAVOR:UltiGCode
;TIME:2348
;MATERIAL:2283
;MATERIAL2:0
;NOZZLE_DIAMETER:0.400000
;NOZZLE_DIAMETER2:0.400000

;Layer count: 18
;LAYER:0
M106 S255
G0 F12000 X92.093 Y29.290 Z0.300
;TYPE:SKIRT
G1 F1200 X92.719 Y28.311 E0.13944
G1 X93.579 Y27.522 E0.27950
G1 X94.591 Y26.999 E0.41619
G1 X95.638 Y26.753 E0.54526
G1 X123.067 Y26.753 E3.83674
G1 X124.175 Y26.777 E3.96973
G1 X125.322 Y27.143 E4.11420
G1 X126.291 Y27.761 E4.25212
G1 X126.917 Y28.439 E4.36286
G1 X130.626 Y33.746 E5.13981
G1 X131.055 Y34.565 E5.25076
G1 X131.307 Y35.710 E5.39145
G1 X131.253 Y36.865 E5.53020
G1 X130.907 Y37.971 E5.66926
G1 X130.281 Y38.950 E5.80871
G1 X129.421 Y39.739 E5.94876
G1 X128.416 Y40.258 E6.08449
G1 X127.371 Y40.509 E6.21346
G1 X99.528 Y40.509 E9.55462
G1 X98.765 Y40.463 E9.64634
G1 X97.684 Y40.124 E9.78229
G1 X96.705 Y39.498 E9.92174
G1 X96.080 Y38.817 E10.03265
G1 X95.514 Y38.007 E10.15123
G1 X92.372 Y33.513 E10.80925
G1 X91.944 Y32.692 E10.92035
G1 X91.693 Y31.551 E11.06054
G1 X91.747 Y30.396 E11.19930
G1 X92.093 Y29.290 E11.33836
G0 F12000 X92.459 Y29.461
G1 F1200 X93.028 Y28.570 E11.46522
G1 X93.810 Y27.853 E11.59254
G1 X94.731 Y27.378 E11.71689
G1 X95.684 Y27.153 E11.83439
G1 X123.063 Y27.153 E15.11987
G1 X124.109 Y27.176 E15.24542
G1 X125.151 Y27.508 E15.37666
G1 X126.032 Y28.071 E15.50212
G1 X126.604 Y28.691 E15.60335
G1 X130.284 Y33.954 E16.37398
G1 X130.676 Y34.703 E16.47543
G1 X130.905 Y35.744 E16.60333
G1 X130.856 Y36.795 E16.72959
G1 X130.541 Y37.800 E16.85598
G1 X129.972 Y38.691 E16.98284
G1 X129.190 Y39.408 E17.11015
G1 X128.276 Y39.880 E17.23359
G1 X127.323 Y40.109 E17.35121
G1 X99.540 Y40.109 E20.68517
G1 X98.838 Y40.066 E20.76957
G1 X97.855 Y39.758 E20.89318
G1 X96.964 Y39.189 E21.02004
G1 X96.393 Y38.566 E21.12145
G1 X95.842 Y37.778 E21.23684
G1 X92.714 Y33.305 E21.89182
G1 X92.323 Y32.554 E21.99343
G1 X92.095 Y31.517 E22.12084
G1 X92.144 Y30.466 E22.24710
G1 X92.459 Y29.461 E22.37348
G10
G1 Z1.300
G0 F12000 X96.475 Y31.353
;TYPE:WALL-INNER
G1 Z0.300
G11
G1 F1200 X123.006 Y31.353 E25.55720
G1 X123.346 Y31.360 E25.59801
G1 X126.525 Y35.909 E26.26398
G1 X99.660 Y35.909 E29.48778
G1 X96.475 Y31.353 E30.15484
G0 F12000 X95.968 Y31.327
G1 F1200 X95.926 Y31.246 E30.16579
G1 X95.914 Y31.190 E30.17267
G1 X95.916 Y31.134 E30.17939
G1 X95.964 Y31.034 E30.19270
G1 X96.006 Y30.996 E30.19950
G1 X96.056 Y30.969 E30.20632
G1 X96.126 Y30.953 E30.21493
G1 X123.015 Y30.953 E33.44161
G1 X123.477 Y30.963 E33.49707
G1 X123.524 Y30.978 E33.50299
G1 X123.573 Y31.010 E33.51001
G1 X123.636 Y31.078 E33.52113
G1 X127.034 Y35.938 E34.23274
G1 X127.074 Y36.014 E34.24305
G1 X127.086 Y36.071 E34.25004
G1 X127.084 Y36.127 E34.25676
G1 X127.036 Y36.227 E34.27008
G1 X126.994 Y36.265 E34.27687
G1 X126.941 Y36.293 E34.28407
G1 X126.875 Y36.309 E34.29221
G1 X99.657 Y36.309 E37.55837
G1 X99.531 Y36.301 E37.57352
G1 X99.477 Y36.284 E37.58032
G1 X99.428 Y36.253 E37.58728
G1 X95.968 Y31.327 E38.30964
G0 F12000 X95.624 Y31.533
;TYPE:WALL-OUTER
G1 F1200 X95.546 Y31.384 E38.32982
G1 X95.512 Y31.228 E38.34898
G1 X95.520 Y31.064 E38.36869
G1 X95.568 Y30.912 E38.38782
G1 X95.657 Y30.772 E38.40772
G1 X95.771 Y30.667 E38.42632
G1 X95.918 Y30.591 E38.44618
G1 X96.081 Y30.553 E38.46626
G1 X123.024 Y30.553 E41.69942
G1 X123.542 Y30.564 E41.76160
G1 X123.695 Y30.613 E41.78088
G1 X123.832 Y30.701 E41.80042
G1 X123.949 Y30.828 E41.82114
G1 X127.374 Y35.727 E42.53844
G1 X127.454 Y35.879 E42.55905
G1 X127.488 Y36.033 E42.57798
G1 X127.480 Y36.197 E42.59768
G1 X127.432 Y36.349 E42.61681
G1 X127.343 Y36.489 E42.63672
G1 X127.229 Y36.594 E42.65531
G1 X127.079 Y36.671 E42.67555
G1 X126.922 Y36.709 E42.69493
G1 X99.649 Y36.709 E45.96769
G1 X99.459 Y36.697 E45.99054
G1 X99.306 Y36.649 E46.00978
G1 X99.166 Y36.560 E46.02969
G1 X99.052 Y36.436 E46.04990
G1 X95.624 Y31.533 E46.76780
G0 F12000 X96.829 Y31.493
;TYPE:SKIN
G1 F1200 X101.105 Y35.768 E47.49338
G0 F12000 X100.539 Y35.768
G1 F1200 X97.857 Y33.086 E47.94853
G0 F12000 X97.961 Y31.493
G1 F1200 X102.237 Y35.768 E48.67411
G0 F12000 X102.802 Y35.768
G1 F1200 X98.526 Y31.493 E49.39968
G0 F12000 X99.092 Y31.493
G1 F1200 X103.368 Y35.768 E50.12526
G0 F12000 X103.934 Y35.768
G1 F1200 X99.658 Y31.493 E50.85084
G0 F12000 X97.395 Y31.493
G1 F1200 X101.671 Y35.768 E51.57641
G0 F12000 X104.499 Y35.768
G1 F1200 X100.223 Y31.493 E52.30199
G0 F12000 X100.789 Y31.493
G1 F1200 X105.065 Y35.768 E53.02756
G0 F12000 X105.631 Y35.768
G1 F1200 X101.355 Y31.493 E53.75314
G0 F12000 X101.920 Y31.493
G1 F1200 X106.196 Y35.768 E54.47872
G0 F12000 X106.762 Y35.768
G1 F1200 X102.486 Y31.493 E55.20429
G0 F12000 X103.052 Y31.493
G1 F1200 X107.328 Y35.768 E55.92987
G0 F12000 X107.893 Y35.768
G1 F1200 X103.618 Y31.493 E56.65536
G0 F12000 X104.183 Y31.493
G1 F1200 X108.459 Y35.768 E57.38094
G0 F12000 X109.025 Y35.768
G1 F1200 X104.749 Y31.493 E58.10651
G0 F12000 X105.315 Y31.493
G1 F1200 X109.590 Y35.768 E58.83201
G0 F12000 X110.156 Y35.768
G1 F1200 X105.880 Y31.493 E59.55758
G0 F12000 X106.446 Y31.493
G1 F1200 X110.722 Y35.768 E60.28316
G0 F12000 X111.288 Y35.768
G1 F1200 X107.012 Y31.493 E61.00874
G0 F12000 X107.577 Y31.493
G1 F1200 X111.853 Y35.768 E61.73431
G0 F12000 X112.419 Y35.768
G1 F1200 X108.143 Y31.493 E62.45989
G0 F12000 X108.709 Y31.493
G1 F1200 X112.985 Y35.768 E63.18546
G0 F12000 X113.550 Y35.768
G1 F1200 X109.274 Y31.493 E63.91104
G0 F12000 X109.840 Y31.493
G1 F1200 X114.116 Y35.768 E64.63662
G0 F12000 X114.682 Y35.768
G1 F1200 X110.406 Y31.493 E65.36219
G0 F12000 X110.971 Y31.493
G1 F1200 X115.247 Y35.768 E66.08777
G0 F12000 X115.813 Y35.768
G1 F1200 X111.537 Y31.493 E66.81335
G0 F12000 X112.103 Y31.493
G1 F1200 X116.379 Y35.768 E67.53892
G0 F12000 X116.944 Y35.768
G1 F1200 X112.668 Y31.493 E68.26450
G0 F12000 X113.234 Y31.493
G1 F1200 X117.510 Y35.768 E68.99008
G0 F12000 X118.076 Y35.768
G1 F1200 X113.800 Y31.493 E69.71565
G0 F12000 X114.366 Y31.493
G1 F1200 X118.641 Y35.768 E70.44114
G0 F12000 X119.207 Y35.768
G1 F1200 X114.931 Y31.493 E71.16672
G0 F12000 X115.497 Y31.493
G1 F1200 X119.773 Y35.768 E71.89230
G0 F12000 X120.338 Y35.768
G1 F1200 X116.063 Y31.493 E72.61779
G0 F12000 X116.628 Y31.493
G1 F1200 X120.904 Y35.768 E73.34336
G0 F12000 X121.470 Y35.768
G1 F1200 X117.194 Y31.493 E74.06894
G0 F12000 X117.760 Y31.493
G1 F1200 X122.036 Y35.768 E74.79452
G0 F12000 X122.601 Y35.768
G1 F1200 X118.325 Y31.493 E75.52009
G0 F12000 X118.891 Y31.493
G1 F1200 X123.167 Y35.768 E76.24567
G0 F12000 X123.733 Y35.768
G1 F1200 X119.457 Y31.493 E76.97125
G0 F12000 X120.022 Y31.493
G1 F1200 X124.298 Y35.768 E77.69682
G0 F12000 X124.864 Y35.768
G1 F1200 X120.588 Y31.493 E78.42240
G0 F12000 X121.154 Y31.493
G1 F1200 X125.430 Y35.768 E79.14798
G0 F12000 X125.995 Y35.768
G1 F1200 X121.719 Y31.493 E79.87355
G0 F12000 X122.285 Y31.493
G1 F1200 X125.547 Y34.755 E80.42713
G0 F12000 X124.233 Y32.875
G1 F1200 X122.851 Y31.493 E80.66167
G0 F12000 X99.974 Y35.768
G1 F1200 X99.173 Y34.968 E80.79751
;LAYER:1
G0 F12000 X99.658 Y35.912 Z0.400
;TYPE:WALL-INNER
G1 F1260 X96.468 Y31.350 E81.01963
G1 X123.006 Y31.350 E82.07849
G1 X123.348 Y31.357 E82.09214
G1 X126.532 Y35.912 E82.31388
G1 X99.658 Y35.912 E83.38616
G0 F12000 X99.657 Y36.311
G1 F1260 X99.534 Y36.304 E83.39107
G1 X99.473 Y36.285 E83.39362
G1 X99.427 Y36.255 E83.39581
G1 X99.362 Y36.184 E83.39965
G1 X95.966 Y31.328 E83.63609
G1 X95.924 Y31.248 E83.63969
G1 X95.912 Y31.190 E83.64206
G1 X95.914 Y31.137 E83.64417
G1 X95.932 Y31.079 E83.64660
G1 X95.962 Y31.033 E83.64879
G1 X96.005 Y30.993 E83.65113
G1 X96.055 Y30.967 E83.65338
G1 X96.125 Y30.951 E83.65624
G1 X123.015 Y30.951 E84.72916
G1 X123.477 Y30.961 E84.74759
G1 X123.526 Y30.977 E84.74965
G1 X123.574 Y31.008 E84.75193
G1 X123.638 Y31.077 E84.75569
G1 X127.032 Y35.932 E84.99204
G1 X127.076 Y36.015 E84.99579
G1 X127.088 Y36.071 E84.99807
G1 X127.086 Y36.124 E85.00019
G1 X127.068 Y36.182 E85.00261
G1 X127.038 Y36.228 E85.00480
G1 X126.995 Y36.268 E85.00715
G1 X126.943 Y36.295 E85.00949
G1 X126.875 Y36.311 E85.01227
G1 X99.657 Y36.311 E86.09827
G0 F12000 X99.649 Y36.710
;TYPE:WALL-OUTER
G1 F1260 X99.459 Y36.698 E86.10587
G1 X99.304 Y36.650 E86.11234
G1 X99.169 Y36.564 E86.11873
G1 X99.047 Y36.430 E86.12596
G1 X95.625 Y31.537 E86.36420
G1 X95.545 Y31.384 E86.37109
G1 X95.511 Y31.228 E86.37746
G1 X95.519 Y31.064 E86.38401
G1 X95.567 Y30.910 E86.39044
G1 X95.653 Y30.775 E86.39683
G1 X95.775 Y30.664 E86.40341
G1 X95.916 Y30.591 E86.40975
G1 X96.081 Y30.552 E86.41651
G1 X123.024 Y30.552 E87.49154
G1 X123.543 Y30.563 E87.51225
G1 X123.696 Y30.612 E87.51866
G1 X123.833 Y30.700 E87.52516
G1 X123.949 Y30.825 E87.53196
G1 X127.375 Y35.726 E87.77055
G1 X127.455 Y35.877 E87.77737
G1 X127.489 Y36.033 E87.78374
G1 X127.481 Y36.197 E87.79029
G1 X127.433 Y36.351 E87.79673
G1 X127.347 Y36.486 E87.80312
G1 X127.225 Y36.597 E87.80970
G1 X127.081 Y36.672 E87.81618
G1 X126.922 Y36.710 E87.82270
G1 X99.649 Y36.710 E88.91089
G0 F12000 X99.935 Y35.772
;TYPE:SKIN
G1 F1260 X104.218 Y31.489 E89.15257
G0 F12000 X104.782 Y31.489
G1 F1260 X100.499 Y35.772 E89.39425
G0 F12000 X101.063 Y35.772
G1 F1260 X105.346 Y31.489 E89.63592
G0 F12000 X105.911 Y31.489
G1 F1260 X101.628 Y35.772 E89.87760
G0 F12000 X102.192 Y35.772
G1 F1260 X106.475 Y31.489 E90.11928
G0 F12000 X107.039 Y31.489
G1 F1260 X102.756 Y35.772 E90.36096
G0 F12000 X103.321 Y35.772
G1 F1260 X107.603 Y31.489 E90.60260
G0 F12000 X108.168 Y31.489
G1 F1260 X103.885 Y35.772 E90.84428
G0 F12000 X104.449 Y35.772
G1 F1260 X108.732 Y31.489 E91.08596
G0 F12000 X109.296 Y31.489
G1 F1260 X105.013 Y35.772 E91.32764
G0 F12000 X105.578 Y35.772
G1 F1260 X109.861 Y31.489 E91.56931
G0 F12000 X110.425 Y31.489
G1 F1260 X106.142 Y35.772 E91.81099
G0 F12000 X106.706 Y35.772
G1 F1260 X110.989 Y31.489 E92.05267
G0 F12000 X111.553 Y31.489
G1 F1260 X107.270 Y35.772 E92.29435
G0 F12000 X107.835 Y35.772
G1 F1260 X112.118 Y31.489 E92.53602
G0 F12000 X112.682 Y31.489
G1 F1260 X108.399 Y35.772 E92.77770
G0 F12000 X108.963 Y35.772
G1 F1260 X113.246 Y31.489 E93.01938
G0 F12000 X113.810 Y31.489
G1 F1260 X109.528 Y35.772 E93.26103
G0 F12000 X110.092 Y35.772
G1 F1260 X114.375 Y31.489 E93.50270
G0 F12000 X114.939 Y31.489
G1 F1260 X110.656 Y35.772 E93.74438
G0 F12000 X111.220 Y35.772
G1 F1260 X115.503 Y31.489 E93.98606
G0 F12000 X116.068 Y31.489
G1 F1260 X111.785 Y35.772 E94.22774
G0 F12000 X112.349 Y35.772
G1 F1260 X116.632 Y31.489 E94.46941
G0 F12000 X117.196 Y31.489
G1 F1260 X112.913 Y35.772 E94.71109
G0 F12000 X113.477 Y35.772
G1 F1260 X117.760 Y31.489 E94.95277
G0 F12000 X118.325 Y31.489
G1 F1260 X114.042 Y35.772 E95.19445
G0 F12000 X114.606 Y35.772
G1 F1260 X118.889 Y31.489 E95.43612
G0 F12000 X119.453 Y31.489
G1 F1260 X115.170 Y35.772 E95.67780
G0 F12000 X115.734 Y35.772
G1 F1260 X120.017 Y31.489 E95.91948
G0 F12000 X120.582 Y31.489
G1 F1260 X116.299 Y35.772 E96.16116
G0 F12000 X116.863 Y35.772
G1 F1260 X121.146 Y31.489 E96.40283
G0 F12000 X121.710 Y31.489
G1 F1260 X117.427 Y35.772 E96.64451
G0 F12000 X117.992 Y35.772
G1 F1260 X122.275 Y31.489 E96.88619
G0 F12000 X122.839 Y31.489
G1 F1260 X118.556 Y35.772 E97.12786
G0 F12000 X119.120 Y35.772
G1 F1260 X123.323 Y31.569 E97.36503
G0 F12000 X123.555 Y31.901
G1 F1260 X119.684 Y35.772 E97.58346
G0 F12000 X103.654 Y31.489
G1 F1260 X99.582 Y35.561 E97.81323
G0 F12000 X99.350 Y35.228
G1 F1260 X103.089 Y31.489 E98.02421
G0 F12000 X102.525 Y31.489
G1 F1260 X99.118 Y34.896 E98.21646
G0 F12000 X98.886 Y34.564
G1 F1260 X101.961 Y31.489 E98.38997
G0 F12000 X101.396 Y31.489
G1 F1260 X98.654 Y34.232 E98.54472
G0 F12000 X98.422 Y33.900
G1 F1260 X100.832 Y31.489 E98.68074
G0 F12000 X100.268 Y31.489
G1 F1260 X98.190 Y33.567 E98.79799
G0 F12000 X97.957 Y33.236
G1 F1260 X99.704 Y31.489 E98.89657
G0 F12000 X99.139 Y31.489
G1 F1260 X97.725 Y32.903 E98.97636
G0 F12000 X97.493 Y32.571
G1 F1260 X98.575 Y31.489 E99.03741
G0 F12000 X98.011 Y31.489
G1 F1260 X97.261 Y32.239 E99.07974
G0 F12000 X97.029 Y31.907
G1 F1260 X97.164 Y31.489 E99.10332
G1 X96.797 Y31.575 E99.11836
G0 F12000 X120.249 Y35.772
G1 F1260 X123.788 Y32.233 E99.31806
G0 F12000 X124.020 Y32.565
G1 F1260 X120.813 Y35.772 E99.49902
G0 F12000 X121.377 Y35.772
G1 F1260 X124.252 Y32.898 E99.66122
G0 F12000 X124.484 Y33.229
G1 F1260 X121.941 Y35.772 E99.80471
G0 F12000 X122.506 Y35.772
G1 F1260 X124.716 Y33.562 E99.92942
G0 F12000 X124.949 Y33.893
G1 F1260 X123.070 Y35.772 E100.03545
G0 F12000 X123.634 Y35.772
G1 F1260 X125.181 Y34.226 E100.12271
G0 F12000 X125.413 Y34.558
G1 F1260 X124.199 Y35.772 E100.19121
G0 F12000 X124.763 Y35.772
G1 F1260 X125.645 Y34.890 E100.24098
G0 F12000 X125.877 Y35.222
G1 F1260 X125.609 Y35.772 E100.27200
G1 X126.109 Y35.554 E100.29376
;LAYER:2
G0 F12000 X126.532 Y35.912 Z0.500
;TYPE:WALL-INNER
G1 F1320 X99.658 Y35.912 E101.36604
G1 X96.468 Y31.350 E101.58815
G1 X123.006 Y31.350 E102.64701
G1 X123.348 Y31.357 E102.66066
G1 X126.532 Y35.912 E102.88241
G0 F12000 X127.032 Y35.932
G1 F1320 X127.076 Y36.015 E102.88615
G1 X127.088 Y36.071 E102.88844
G1 X127.086 Y36.124 E102.89056
G1 X127.068 Y36.182 E102.89298
G1 X127.038 Y36.228 E102.89517
G1 X126.995 Y36.268 E102.89751
G1 X126.943 Y36.295 E102.89985
G1 X126.875 Y36.311 E102.90264
G1 X99.657 Y36.311 E103.98864
G1 X99.534 Y36.304 E103.99355
G1 X99.473 Y36.285 E103.99610
G1 X99.427 Y36.255 E103.99829
G1 X99.362 Y36.184 E104.00213
G1 X95.966 Y31.328 E104.23857
G1 X95.924 Y31.248 E104.24217
G1 X95.912 Y31.190 E104.24454
G1 X95.914 Y31.137 E104.24665
G1 X95.932 Y31.079 E104.24908
G1 X95.962 Y31.033 E104.25127
G1 X96.005 Y30.993 E104.25361
G1 X96.055 Y30.967 E104.25586
G1 X96.125 Y30.951 E104.25872
G1 X123.015 Y30.951 E105.33164
G1 X123.477 Y30.961 E105.35007
G1 X123.526 Y30.977 E105.35213
G1 X123.574 Y31.008 E105.35441
G1 X123.638 Y31.077 E105.35816
G1 X127.032 Y35.932 E105.59452
G0 F12000 X127.375 Y35.726
;TYPE:WALL-OUTER
G1 F1320 X127.455 Y35.877 E105.60134
G1 X127.489 Y36.033 E105.60771
G1 X127.481 Y36.197 E105.61426
G1 X127.433 Y36.351 E105.62070
G1 X127.347 Y36.486 E105.62708
G1 X127.225 Y36.597 E105.63366
G1 X127.081 Y36.672 E105.64014
G1 X126.922 Y36.710 E105.64667
G1 X99.649 Y36.710 E106.73486
G1 X99.459 Y36.698 E106.74245
G1 X99.304 Y36.650 E106.74893
G1 X99.169 Y36.564 E106.75532
G1 X99.047 Y36.430 E106.76255
G1 X95.625 Y31.537 E107.00078
G1 X95.545 Y31.384 E107.00767
G1 X95.511 Y31.228 E107.01404
G1 X95.519 Y31.064 E107.02060
G1 X95.567 Y30.910 E107.02703
G1 X95.653 Y30.775 E107.03342
G1 X95.775 Y30.664 E107.04000
G1 X95.916 Y30.591 E107.04633
G1 X96.081 Y30.552 E107.05310
G1 X123.024 Y30.552 E108.12812
G1 X123.543 Y30.563 E108.14884
G1 X123.696 Y30.612 E108.15525
G1 X123.833 Y30.700 E108.16174
G1 X123.949 Y30.825 E108.16855
G1 X127.375 Y35.726 E108.40714
G0 F12000 X126.090 Y35.525
;TYPE:SKIN
G1 F1320 X122.055 Y31.490 E108.63482
G0 F12000 X122.619 Y31.490
G1 F1320 X124.778 Y33.649 E108.75665
G0 F12000 X124.643 Y35.771
G1 F1320 X120.362 Y31.490 E108.99821
G0 F12000 X119.798 Y31.490
G1 F1320 X124.079 Y35.771 E109.23978
G0 F12000 X123.515 Y35.771
G1 F1320 X119.233 Y31.490 E109.48137
G0 F12000 X118.669 Y31.490
G1 F1320 X122.951 Y35.771 E109.72296
G0 F12000 X122.386 Y35.771
G1 F1320 X118.105 Y31.490 E109.96453
G0 F12000 X117.540 Y31.490
G1 F1320 X121.822 Y35.771 E110.20612
G0 F12000 X121.258 Y35.771
G1 F1320 X116.976 Y31.490 E110.44771
G0 F12000 X116.412 Y31.490
G1 F1320 X120.693 Y35.771 E110.68928
G0 F12000 X120.129 Y35.771
G1 F1320 X115.848 Y31.490 E110.93084
G0 F12000 X115.283 Y31.490
G1 F1320 X119.565 Y35.771 E111.17244
G0 F12000 X119.001 Y35.771
G1 F1320 X114.719 Y31.490 E111.41403
G0 F12000 X114.155 Y31.490
G1 F1320 X118.436 Y35.771 E111.65559
G0 F12000 X117.872 Y35.771
