;FLAVOR:UltiGCode
;TIME:2657
;MATERIAL:2370
;MATERIAL2:0
;NOZZLE_DIAMETER:0.400000
;NOZZLE_DIAMETER2:0.400000

;Layer count: 71
;LAYER:0
M107
G0 F12000 X51.031 Y93.551 Z0.300
G0 X50.631 Y93.864
;TYPE:SKIRT
G1 F1200 X51.031 Y93.551 E0.06095
G1 X51.940 Y93.168 E0.17932
G1 X52.406 Y92.972 E0.23998
G1 X53.598 Y92.806 E0.38440
G1 X66.554 Y92.749 E1.93914
G1 X69.414 Y91.825 E2.29980
G1 X72.116 Y90.948 E2.64069
G1 X73.434 Y92.720 E2.90570
G1 X73.783 Y92.719 E2.94758
G1 X75.355 Y90.449 E3.27893
G1 X79.304 Y92.694 E3.82403
G1 X98.029 Y92.612 E6.07105
G1 X100.889 Y91.688 E6.43172
G1 X103.591 Y90.811 E6.77261
G1 X104.908 Y92.583 E7.03755
G1 X105.257 Y92.581 E7.07943
G1 X106.828 Y90.311 E7.41070
G1 X110.779 Y92.556 E7.95601
G1 X117.528 Y92.528 E8.76590
G1 X119.090 Y92.520 E8.95334
G1 X120.466 Y92.839 E9.12284
G1 X121.489 Y93.364 E9.26083
G1 X121.645 Y93.242 E9.28459
G1 X123.019 Y92.663 E9.46351
G1 X124.214 Y92.498 E9.60827
G1 X137.169 Y92.441 E11.16289
G1 X140.029 Y91.517 E11.52355
G1 X142.731 Y90.641 E11.86441
G1 X144.048 Y92.412 E12.12925
G1 X144.398 Y92.410 E12.17125
G1 X145.970 Y90.140 E12.50259
G1 X149.920 Y92.385 E13.04780
G1 X168.644 Y92.303 E15.29470
G1 X171.504 Y91.379 E15.65537
G1 X174.206 Y90.502 E15.99626
G1 X175.524 Y92.274 E16.26127
G1 X175.873 Y92.273 E16.30315
G1 X177.448 Y90.006 E16.63440
G1 X181.394 Y92.247 E17.17896
G1 X188.144 Y92.219 E17.98896
G1 X189.705 Y92.211 E18.17629
G1 X191.081 Y92.530 E18.34578
G1 X192.383 Y93.198 E18.52139
G1 X193.105 Y93.855 E18.63853
G1 X193.480 Y94.195 E18.69927
G1 X194.285 Y95.443 E18.87748
G1 X194.579 Y96.360 E18.99304
G1 X194.739 Y96.852 E19.05513
G1 X194.786 Y97.857 E19.17586
G1 X194.818 Y98.305 E19.22975
G1 X194.603 Y99.303 E19.35226
G1 X194.492 Y99.799 E19.41325
G1 X193.916 Y100.922 E19.56471
G1 X176.326 Y126.311 E23.27115
G1 X172.060 Y126.331 E23.78308
G1 X169.714 Y126.337 E24.06460
G1 X167.910 Y122.904 E24.52997
G1 X173.442 Y114.918 E25.69576
G1 X116.810 Y114.918 E32.49160
G1 X112.239 Y121.518 E33.45500
G1 X111.815 Y126.591 E34.06588
G1 X107.603 Y126.614 E34.57133
G1 X107.033 Y126.615 E34.63973
G1 X106.455 Y126.618 E34.70909
G1 X106.038 Y126.620 E34.75913
G1 X106.021 Y126.619 E34.76118
G1 X102.417 Y126.636 E35.19366
G1 X101.386 Y126.640 E35.31738
G1 X97.511 Y126.659 E35.78239
G1 X96.631 Y119.547 E36.64234
G1 X99.849 Y119.528 E37.02850
G1 X102.763 Y115.321 E37.64262
G1 X46.193 Y115.230 E44.43103
G1 X41.135 Y122.531 E45.49685
G1 X43.118 Y126.893 E46.07185
G1 X36.857 Y126.922 E46.82317
G1 X36.274 Y126.925 E46.89313
G1 X35.935 Y126.926 E46.93381
G1 X35.913 Y126.925 E46.93646
G1 X34.055 Y126.934 E47.15942
G1 X31.406 Y126.945 E47.47730
G1 X29.597 Y123.513 E47.94285
G1 X30.994 Y121.492 E48.23767
G1 X32.148 Y119.836 E48.47988
G1 X32.227 Y119.835 E48.48936
G1 X49.178 Y95.367 E52.06129
G1 X49.861 Y94.464 E52.19716
G1 X50.631 Y93.864 E52.31430
G10
G1 Z0.400
G0 F12000 X53.176 Y97.205
;TYPE:WALL-INNER
G1 Z0.300
G11
G1 F1200 X53.531 Y97.056 E52.36050
G1 X53.895 Y97.005 E52.40461
G1 X67.225 Y96.946 E54.00422
G1 X69.142 Y96.326 E54.24599
G1 X69.463 Y96.936 E54.32871
G1 X74.741 Y96.915 E54.96207
G1 X75.991 Y96.908 E55.11208
G1 X76.620 Y95.999 E55.24473
G1 X78.203 Y96.899 E55.46324
G1 X98.700 Y96.809 E57.92290
G1 X100.617 Y96.190 E58.16464
G1 X100.938 Y96.800 E58.24736
G1 X106.216 Y96.777 E58.88072
G1 X107.466 Y96.770 E59.03072
G1 X108.094 Y95.862 E59.16321
G1 X109.155 Y96.465 E59.30965
G1 X109.678 Y96.761 E59.38177
G1 X118.620 Y96.722 E60.45482
G1 X119.009 Y96.813 E60.50276
G1 X119.358 Y96.991 E60.54977
G1 X119.635 Y97.242 E60.59463
G1 X119.841 Y97.562 E60.64030
G1 X119.955 Y97.920 E60.68538
G1 X119.975 Y98.304 E60.73152
G1 X119.896 Y98.666 E60.77599
G1 X119.233 Y99.958 E60.95025
G1 X120.839 Y100.920 E61.17490
G1 X123.197 Y97.515 E61.67191
G1 X123.487 Y97.133 E61.72946
G1 X123.795 Y96.893 E61.77632
G1 X124.137 Y96.749 E61.82085
G1 X124.514 Y96.697 E61.86651
G1 X137.840 Y96.638 E63.46565
G1 X139.756 Y96.019 E63.70727
G1 X140.077 Y96.629 E63.78999
G1 X145.356 Y96.606 E64.42347
G1 X146.606 Y96.599 E64.57348
G1 X147.235 Y95.690 E64.70613
G1 X148.818 Y96.590 E64.92464
G1 X169.315 Y96.500 E67.38430
G1 X171.232 Y95.880 E67.62608
G1 X171.553 Y96.490 E67.70879
G1 X176.831 Y96.469 E68.34216
G1 X178.081 Y96.462 E68.49216
G1 X178.710 Y95.553 E68.62481
G1 X180.293 Y96.452 E68.84326
G1 X189.235 Y96.413 E69.91631
G1 X189.624 Y96.504 E69.96425
G1 X189.970 Y96.681 E70.01089
G1 X190.251 Y96.937 E70.05651
G1 X190.455 Y97.253 E70.10164
G1 X190.570 Y97.615 E70.14722
G1 X190.589 Y97.990 E70.19228
G1 X190.509 Y98.360 E70.23771
G1 X190.302 Y98.763 E70.29207
G1 X174.120 Y122.121 E73.70196
G1 X173.560 Y122.124 E73.76916
G1 X180.719 Y111.790 E75.27774
G1 X180.157 Y110.718 E75.42299
G1 X114.609 Y110.718 E83.28875
G1 X106.506 Y122.418 E84.99658
G1 X106.119 Y122.420 E85.04302
G1 X106.099 Y122.419 E85.04543
G1 X102.946 Y122.433 E85.42379
G1 X110.032 Y112.204 E86.91702
G1 X109.472 Y111.132 E87.06216
G1 X43.997 Y111.026 E94.91917
G1 X35.892 Y122.725 E96.62704
G1 X35.332 Y122.728 E96.69424
G1 X52.585 Y97.823 E100.32992
G1 X52.875 Y97.440 E100.38757
G1 X53.176 Y97.205 E100.43339
G0 F12000 X53.391 Y97.465
G1 F1200 X45.062 Y109.489 E102.18863
G1 X45.622 Y110.560 E102.33366
G1 X77.424 Y110.612 E106.14990
G1 X85.884 Y98.400 E107.93264
G1 X85.320 Y97.327 E108.07810
G1 X76.597 Y97.365 E109.12487
G1 X74.679 Y97.985 E109.36676
G1 X74.358 Y97.375 E109.44947
G1 X69.080 Y97.396 E110.08284
G1 X68.377 Y97.400 E110.16720
G1 X67.832 Y97.400 E110.23260
G1 X67.201 Y98.312 E110.36568
G1 X65.620 Y97.412 E110.58399
G1 X53.391 Y97.465 E112.05148
G0 F12000 X45.563 Y109.520
G0 X45.883 Y110.132
G0 X77.202 Y110.188
G0 X78.735 Y109.542
G1 F1200 X79.295 Y110.614 E112.19662
G1 X111.098 Y110.666 E116.01298
G1 X119.160 Y99.026 E117.71210
G1 X118.528 Y97.823 E117.87517
G1 X118.189 Y97.183 E117.96207
G1 X108.069 Y97.227 E119.17649
G1 X106.151 Y97.847 E119.41837
G1 X105.830 Y97.237 E119.50109
G1 X99.306 Y97.265 E120.28398
G1 X98.676 Y98.175 E120.41679
G1 X97.093 Y97.275 E120.63531
G1 X87.204 Y97.318 E121.82200
G1 X78.735 Y109.542 E123.60653
G0 F12000 X79.556 Y110.186
G0 X110.876 Y110.242
G0 X115.675 Y109.180
G1 F1200 X116.237 Y110.252 E123.75178
G1 X148.075 Y110.252 E127.57234
G1 X156.499 Y98.091 E129.34758
G1 X155.935 Y97.018 E129.49305
G1 X147.212 Y97.056 E130.53982
G1 X145.295 Y97.675 E130.78155
G1 X144.975 Y97.066 E130.86411
G1 X138.447 Y97.094 E131.64747
G1 X137.816 Y98.004 E131.78036
G1 X136.235 Y97.104 E131.99866
G1 X124.004 Y97.157 E133.46640
G1 X115.675 Y109.180 E135.22154
G0 F12000 X116.497 Y109.823
G0 X147.853 Y109.829
G0 X149.384 Y109.180
G1 F1200 X149.946 Y110.252 E135.36678
G1 X181.785 Y110.252 E139.18746
G1 X189.921 Y98.507 E140.90199
G1 X189.059 Y96.874 E141.12358
G1 X178.687 Y96.919 E142.36823
G1 X176.769 Y97.539 E142.61012
G1 X176.448 Y96.929 E142.69283
G1 X169.921 Y96.956 E143.47608
G1 X169.291 Y97.866 E143.60889
G1 X167.708 Y96.966 E143.82741
G1 X157.816 Y97.009 E145.01446
G1 X149.384 Y109.180 E146.79124
G0 F12000 X149.851 Y109.209
G1 F1200 X150.188 Y109.852 E146.87835
G1 X181.575 Y109.852 E150.64479
G1 X189.454 Y98.479 E152.30507
G1 X188.818 Y97.275 E152.46846
G1 X178.750 Y97.318 E153.67664
G1 X176.494 Y98.048 E153.96118
G1 X176.546 Y97.973 E153.97213
G1 X176.207 Y97.330 E154.05935
G1 X170.131 Y97.355 E154.78848
G1 X169.412 Y98.394 E154.94010
G1 X167.603 Y97.366 E155.18978
G1 X158.026 Y97.408 E156.33904
G1 X149.851 Y109.209 E158.06175
G0 F12000 X147.865 Y109.852
G1 F1200 X156.032 Y98.063 E159.78274
G1 X155.694 Y97.419 E159.87002
G1 X147.275 Y97.455 E160.88031
G1 X145.021 Y98.184 E161.16458
G1 X145.072 Y98.111 E161.17527
G1 X144.734 Y97.467 E161.26255
G1 X138.657 Y97.493 E161.99179
G1 X137.937 Y98.532 E162.14348
G1 X136.130 Y97.504 E162.39296
G1 X124.214 Y97.556 E163.82289
G1 X116.142 Y109.209 E165.52397
G1 X116.479 Y109.852 E165.61109
G1 X147.865 Y109.852 E169.37741
G0 F12000 X155.998 Y98.060
G0 X155.676 Y97.448
G0 X148.923 Y96.190
G1 F1200 X169.251 Y96.101 E171.81679
G1 X171.507 Y95.371 E172.10133
G1 X171.455 Y95.446 E172.11228
G1 X171.794 Y96.089 E172.19951
G1 X177.870 Y96.064 E172.92863
G1 X178.590 Y95.025 E173.08033
G1 X180.398 Y96.052 E173.32984
G1 X189.278 Y96.013 E174.39545
G1 X189.766 Y96.126 E174.45556
G1 X190.199 Y96.348 E174.51396
G1 X190.559 Y96.676 E174.57240
G1 X190.820 Y97.081 E174.63021
G1 X190.968 Y97.543 E174.68843
G1 X190.990 Y98.025 E174.74633
G1 X190.889 Y98.497 E174.80425
G1 X190.648 Y98.965 E174.86742
G1 X174.330 Y122.520 E178.30603
G1 X172.794 Y122.528 E178.49036
G1 X180.252 Y111.761 E180.06208
G1 X179.915 Y111.118 E180.14920
G1 X114.819 Y111.118 E187.96072
G1 X106.830 Y122.652 E189.64439
G1 X106.916 Y122.816 E189.66661
G1 X106.108 Y122.820 E189.76357
G1 X106.091 Y122.819 E189.76561
G1 X102.180 Y122.837 E190.23494
G1 X109.566 Y112.175 E191.79139
G1 X109.230 Y111.532 E191.87845
G1 X44.206 Y111.426 E199.68134
G1 X36.217 Y122.958 E201.36481
G1 X36.304 Y123.125 E201.38741
G1 X35.999 Y123.126 E201.42401
G1 X35.962 Y123.125 E201.42845
G1 X34.565 Y123.131 E201.59609
G1 X52.263 Y97.586 E205.32530
G1 X52.589 Y97.156 E205.39006
G1 X52.973 Y96.856 E205.44853
G1 X53.423 Y96.667 E205.50710
G1 X53.868 Y96.605 E205.56102
G1 X67.161 Y96.547 E207.15619
G1 X69.417 Y95.817 E207.44073
G1 X69.365 Y95.892 E207.45168
G1 X69.704 Y96.535 E207.53891
G1 X75.780 Y96.510 E208.26804
G1 X76.499 Y95.471 E208.41966
G1 X78.308 Y96.499 E208.66934
G1 X98.636 Y96.410 E211.10872
G1 X100.892 Y95.680 E211.39326
G1 X100.840 Y95.755 E211.40422
G1 X101.179 Y96.399 E211.49155
G1 X107.255 Y96.372 E212.22068
G1 X107.973 Y95.333 E212.37223
G1 X109.783 Y96.361 E212.62202
G1 X118.663 Y96.322 E213.68763
G1 X119.151 Y96.435 E213.74774
G1 X119.584 Y96.658 E213.80618
G1 X119.944 Y96.983 E213.86438
G1 X120.206 Y97.390 E213.92247
G1 X120.353 Y97.850 E213.98042
G1 X120.377 Y98.334 E214.03857
G1 X120.278 Y98.794 E214.09503
G1 X119.760 Y99.807 E214.23156
G1 X120.723 Y100.384 E214.36628
G1 X122.876 Y97.277 E214.81989
G1 X123.201 Y96.847 E214.88457
G1 X123.587 Y96.547 E214.94323
G1 X124.036 Y96.358 E215.00169
G1 X124.480 Y96.297 E215.05547
G1 X137.776 Y96.239 E216.65101
G1 X140.032 Y95.509 E216.93555
G1 X139.980 Y95.584 E216.94650
G1 X140.319 Y96.228 E217.03383
G1 X146.395 Y96.201 E217.76296
G1 X147.114 Y95.162 E217.91458
G1 X148.923 Y96.190 E218.16426
G0 F12000 X124.226 Y97.580
G0 X120.707 Y100.312
G0 X119.831 Y99.785
G0 X118.693 Y98.998
G1 F1200 X118.174 Y98.009 E218.29829
G1 X117.949 Y97.584 E218.35600
G1 X108.132 Y97.626 E219.53405
G1 X105.876 Y98.356 E219.81859
G1 X105.928 Y98.281 E219.82954
G1 X105.589 Y97.638 E219.91677
G1 X99.516 Y97.664 E220.64553
G1 X98.797 Y98.703 E220.79716
G1 X96.988 Y97.675 E221.04684
G1 X87.414 Y97.717 E222.19573
G1 X79.201 Y109.571 E223.92627
G1 X79.537 Y110.214 E224.01333
G1 X110.889 Y110.266 E227.77558
G1 X118.693 Y98.998 E229.42037
G0 F12000 X110.876 Y110.242
G0 X79.556 Y110.186
G0 X79.235 Y109.574
G0 X85.417 Y98.372
G1 F1200 X85.079 Y97.728 E229.50764
G1 X76.660 Y97.764 E230.51793
G1 X74.404 Y98.494 E230.80247
G1 X74.456 Y98.419 E230.81343
G1 X74.117 Y97.776 E230.90065
G1 X68.381 Y97.800 E231.58898
G1 X68.042 Y97.800 E231.62966
G1 X67.322 Y98.840 E231.78145
G1 X65.515 Y97.812 E232.03092
G1 X53.601 Y97.864 E233.46062
G1 X45.528 Y109.518 E235.16186
G1 X45.864 Y110.160 E235.24882
G1 X77.215 Y110.212 E239.01094
G1 X85.417 Y98.372 E240.73935
G0 F12000 X84.950 Y98.343
;TYPE:WALL-OUTER
G1 F1200 X84.838 Y98.129 E240.76834
G1 X76.724 Y98.164 E241.74202
G1 X73.402 Y99.238 E242.16098
G1 X73.989 Y98.391 E242.28464
G1 X73.876 Y98.177 E242.31368
G1 X68.251 Y98.200 E242.98869
G1 X67.442 Y99.369 E243.15928
G1 X65.410 Y98.213 E243.43982
G1 X53.811 Y98.263 E244.83172
G1 X45.995 Y109.547 E246.47890
G1 X46.107 Y109.761 E246.50789
G1 X77.006 Y109.811 E250.21577
G1 X84.950 Y98.343 E251.88986
G0 F12000 X85.197 Y98.513
G0 X87.379 Y97.945
G0 X87.624 Y98.116
G1 F1200 X79.668 Y109.600 E253.56634
G1 X79.780 Y109.815 E253.59543
G1 X110.680 Y109.865 E257.30343
G1 X118.226 Y98.969 E258.89390
G1 X117.709 Y97.985 E259.02728
G1 X108.196 Y98.026 E260.16886
G1 X104.874 Y99.100 E260.58781
G1 X105.461 Y98.253 E260.71147
G1 X105.348 Y98.039 E260.74051
G1 X99.726 Y98.063 E261.41516
G1 X98.917 Y99.232 E261.58576
G1 X96.883 Y98.076 E261.86650
G1 X87.624 Y98.116 E262.97759
G0 F12000 X87.379 Y97.945
G0 X78.264 Y96.357
G0 X78.413 Y96.098
G1 F1200 X98.572 Y96.010 E265.39670
G1 X101.894 Y94.936 E265.81565
G1 X101.307 Y95.783 E265.93931
G1 X101.420 Y95.998 E265.96846
G1 X107.045 Y95.973 E266.64347
G1 X107.853 Y94.804 E266.81399
G1 X109.888 Y95.960 E267.09485
G1 X118.709 Y95.922 E268.15338
G1 X119.290 Y96.057 E268.22495
G1 X119.815 Y96.326 E268.29574
G1 X120.251 Y96.721 E268.36634
G1 X120.570 Y97.217 E268.43711
G1 X120.749 Y97.775 E268.50743
G1 X120.779 Y98.370 E268.57892
G1 X120.668 Y98.881 E268.64167
G1 X120.655 Y98.940 E268.64892
G1 X120.286 Y99.656 E268.74558
G1 X120.608 Y99.849 E268.79063
G1 X122.542 Y97.056 E269.19829
G1 X122.914 Y96.564 E269.27231
G1 X123.384 Y96.198 E269.34379
G1 X123.927 Y95.969 E269.41451
G1 X124.453 Y95.897 E269.47822
G1 X137.712 Y95.839 E271.06932
G1 X141.034 Y94.765 E271.48827
G1 X140.447 Y95.612 E271.61193
G1 X140.560 Y95.827 E271.64108
G1 X146.185 Y95.802 E272.31609
G1 X146.994 Y94.633 E272.48668
G1 X149.028 Y95.789 E272.76743
G1 X169.187 Y95.701 E275.18653
G1 X172.509 Y94.627 E275.60549
G1 X171.922 Y95.474 E275.72915
G1 X172.035 Y95.688 E275.75819
G1 X177.660 Y95.665 E276.43320
G1 X178.469 Y94.496 E276.60379
G1 X180.503 Y95.651 E276.88448
G1 X189.324 Y95.613 E277.94301
G1 X189.905 Y95.748 E278.01459
G1 X190.428 Y96.016 E278.08511
G1 X190.867 Y96.415 E278.15629
G1 X191.185 Y96.909 E278.22680
G1 X191.364 Y97.466 E278.29700
G1 X191.392 Y98.057 E278.36800
G1 X191.281 Y98.575 E278.43157
G1 X191.268 Y98.633 E278.43871
G1 X190.993 Y99.171 E278.51121
G1 X174.540 Y122.919 E281.97809
G1 X172.028 Y122.930 E282.27953
G1 X179.785 Y111.732 E283.91420
G1 X179.673 Y111.518 E283.94319
G1 X115.028 Y111.518 E291.70059
G1 X107.297 Y122.680 E293.32993
G1 X107.411 Y122.895 E293.35913
G1 X108.713 Y122.887 E293.51538
G1 X108.686 Y123.208 E293.55403
G1 X106.109 Y123.220 E293.86328
G1 X106.083 Y123.219 E293.86640
G1 X100.514 Y123.244 E294.53468
G1 X100.475 Y122.925 E294.57325
G1 X101.270 Y122.920 E294.66865
G1 X101.636 Y122.920 E294.71257
G1 X109.099 Y112.146 E296.28533
G1 X108.987 Y111.931 E296.31442
G1 X44.415 Y111.827 E304.06307
G1 X36.684 Y122.987 E305.69222
G1 X36.796 Y123.201 E305.72120
G1 X37.703 Y123.198 E305.83004
G1 X37.848 Y123.517 E305.87209
G1 X35.989 Y123.526 E306.09517
G1 X35.956 Y123.525 E306.09914
G1 X33.716 Y123.535 E306.36794
G1 X33.938 Y123.215 E306.41467
G1 X34.022 Y123.214 E306.42475
G1 X51.929 Y97.365 E310.19824
G1 X52.302 Y96.873 E310.27233
G1 X52.770 Y96.507 E310.34362
G1 X53.314 Y96.279 E310.41440
G1 X53.841 Y96.205 E310.47826
G1 X67.097 Y96.147 E312.06900
G1 X70.419 Y95.073 E312.48795
G1 X69.832 Y95.920 E312.61162
G1 X69.945 Y96.134 E312.64066
G1 X75.570 Y96.111 E313.31566
G1 X76.379 Y94.942 E313.48626
G1 X78.413 Y96.098 E313.76700
G0 F12000 X78.264 Y96.357
G0 X85.061 Y97.757
G0 X85.383 Y98.369
G0 X79.235 Y109.574
G0 X79.556 Y110.186
G0 X110.876 Y110.242
G0 X116.362 Y109.068
G0 X116.609 Y109.238
G1 F1200 X116.721 Y109.452 E313.79599
G1 X147.656 Y109.452 E317.50819
G1 X155.565 Y98.034 E319.17495
G1 X155.453 Y97.820 E319.20393
G1 X147.339 Y97.855 E320.17762
G1 X144.018 Y98.929 E320.59647
G1 X144.605 Y98.082 E320.72013
G1 X144.493 Y97.868 E320.74911
G1 X138.867 Y97.892 E321.42424
G1 X138.057 Y99.061 E321.59490
G1 X136.025 Y97.905 E321.87544
G1 X124.424 Y97.955 E323.26757
G1 X116.609 Y109.238 E324.91459
