;FLAVOR:UltiGCode
;TIME:5747
;MATERIAL:4083
;MATERIAL2:0
;NOZZLE_DIAMETER:0.400000
;NOZZLE_DIAMETER2:0.400000

;Layer count: 73
;LAYER:0
M106 S255
G0 F12000 X54.339 Y53.700 Z0.300
;TYPE:SKIRT
G1 F1200 X55.322 Y53.090 E0.13883
G1 X56.475 Y52.721 E0.28410
G1 X83.191 Y52.709 E3.49002
G1 X84.976 Y52.709 E3.70422
G1 X86.047 Y52.961 E3.83625
G1 X87.057 Y53.499 E3.97357
G1 X87.910 Y54.279 E4.11227
G1 X88.530 Y55.278 E4.25337
G1 X88.867 Y56.351 E4.38833
G1 X88.922 Y57.523 E4.52912
G1 X88.650 Y58.708 E4.67502
G1 X88.201 Y59.529 E4.78731
G1 X85.606 Y63.240 E5.33071
G1 X85.035 Y64.055 E5.45012
G1 X84.535 Y64.772 E5.55502
G1 X83.894 Y65.471 E5.66883
G1 X82.898 Y66.089 E5.80948
G1 X81.756 Y66.448 E5.95314
G1 X79.306 Y66.465 E6.24714
G1 X53.229 Y66.465 E9.37638
G1 X52.171 Y66.202 E9.50721
G1 X51.189 Y65.692 E9.63999
G1 X50.333 Y64.906 E9.77945
G1 X49.707 Y63.927 E9.91889
G1 X49.361 Y62.821 E10.05795
G1 X49.307 Y61.666 E10.19670
G1 X49.565 Y60.490 E10.34118
G1 X50.026 Y59.647 E10.45648
G1 X53.698 Y54.395 E11.22548
G1 X54.339 Y53.700 E11.33894
G0 F12000 X54.596 Y54.011
G1 F1200 X55.491 Y53.456 E11.46531
G1 X56.537 Y53.121 E11.59711
G1 X83.191 Y53.109 E14.79559
G1 X84.930 Y53.109 E15.00427
G1 X85.904 Y53.339 E15.12437
G1 X86.824 Y53.829 E15.24945
G1 X87.599 Y54.537 E15.37541
G1 X88.163 Y55.446 E15.50378
G1 X88.470 Y56.421 E15.62645
G1 X88.520 Y57.487 E15.75451
G1 X88.273 Y58.565 E15.88722
G1 X87.861 Y59.318 E15.99022
G1 X85.278 Y63.011 E16.53102
G1 X84.704 Y63.831 E16.65113
G1 X84.222 Y64.521 E16.75214
G1 X83.636 Y65.160 E16.85618
G1 X82.730 Y65.722 E16.98412
G1 X81.693 Y66.049 E17.11460
G1 X79.305 Y66.065 E17.40116
G1 X53.278 Y66.065 E20.52440
G1 X52.314 Y65.825 E20.64361
G1 X51.421 Y65.361 E20.76438
G1 X50.642 Y64.647 E20.89118
G1 X50.073 Y63.756 E21.01804
G1 X49.758 Y62.751 E21.14443
G1 X49.709 Y61.700 E21.27069
G1 X49.944 Y60.632 E21.40191
G1 X50.366 Y59.858 E21.50770
G1 X54.010 Y54.646 E22.27084
G1 X54.596 Y54.011 E22.37453
G10
G1 Z1.300
G0 F12000 X53.547 Y62.134
;TYPE:WALL-INNER
G1 Z0.300
G11
G1 F1200 X53.539 Y62.109 E22.37768
G1 X53.574 Y62.177 E22.38686
G1 X53.547 Y62.134 E22.39295
G0 F12000 X84.684 Y57.046
G1 F1200 X84.690 Y57.067 E22.39557
G1 X84.656 Y57.002 E22.40438
G1 X84.684 Y57.046 E22.41064
G0 F12000 X84.971 Y57.516
;TYPE:WALL-OUTER
G1 F1200 X81.562 Y62.392 E23.12458
G1 X81.448 Y62.516 E23.14479
G1 X81.300 Y62.608 E23.16570
G1 X81.159 Y62.652 E23.18343
G1 X79.293 Y62.665 E23.40735
G1 X53.694 Y62.665 E26.47923
G1 X53.523 Y62.622 E26.50039
G1 X53.388 Y62.552 E26.51864
G1 X53.271 Y62.445 E26.53766
G1 X53.182 Y62.305 E26.55757
G1 X53.134 Y62.153 E26.57670
G1 X53.126 Y61.989 E26.59640
G1 X53.159 Y61.838 E26.61495
G1 X53.261 Y61.651 E26.64051
G1 X56.665 Y56.784 E27.35322
G1 X56.782 Y56.657 E27.37394
G1 X56.927 Y56.567 E27.39442
G1 X57.070 Y56.521 E27.41245
G1 X84.533 Y56.509 E30.70801
G1 X84.698 Y56.548 E30.72836
G1 X84.844 Y56.626 E30.74822
G1 X84.958 Y56.730 E30.76674
G1 X85.049 Y56.876 E30.78738
G1 X85.094 Y57.020 E30.80549
G1 X85.102 Y57.181 E30.82483
G1 X85.064 Y57.347 E30.84526
G1 X84.971 Y57.516 E30.86841
G0 F12000 X84.374 Y57.325
G1 F1200 X84.262 Y57.109 E30.89761
G1 X57.176 Y57.109 E34.14793
G1 X53.855 Y61.850 E34.84254
G1 X53.967 Y62.065 E34.87163
G1 X81.052 Y62.065 E38.12183
G1 X84.374 Y57.325 E38.81642
G0 F12000 X84.443 Y57.573
;TYPE:SKIN
G1 F1200 X84.470 Y57.882 E38.84061
G1 X84.093 Y58.071 E38.86490
G1 X84.005 Y58.549 E38.88925
G1 X83.626 Y58.736 E38.91398
G1 X83.539 Y59.215 E38.93866
G1 X83.160 Y59.401 E38.96336
G1 X83.073 Y59.880 E38.98804
G1 X82.811 Y59.901 E39.01958
G0 F12000 X82.893 Y59.961
G0 X84.806 Y57.351
G0 X84.486 Y56.739
G0 X82.647 Y56.908
G1 F1200 X82.264 Y56.808 E39.05331
G1 X81.698 Y56.808 E39.08693
G1 X81.133 Y56.809 E39.12049
G1 X80.568 Y56.809 E39.15405
G1 X80.186 Y56.710 E39.20140
G10
G1 Z1.300
G0 F12000 X83.013 Y56.709
G1 Z0.300
G11
G1 F1200 X83.396 Y56.808 E39.23523
G1 X83.961 Y56.808 E39.26879
G1 X84.519 Y57.083 E39.30257
G1 X84.817 Y57.381 E39.35314
G10
G1 Z1.300
G0 F12000 X82.578 Y60.233
G1 Z0.300
G11
G1 F1200 X82.608 Y60.546 E39.37795
G1 X82.228 Y60.731 E39.40305
G1 X82.142 Y61.211 E39.42792
G1 X81.761 Y61.397 E39.45285
G1 X81.677 Y61.878 E39.47805
G1 X81.295 Y62.062 E39.50323
G1 X81.075 Y62.407 E39.52594
G1 X80.460 Y62.358 E39.55778
G1 X79.894 Y62.358 E39.58953
G1 X79.329 Y62.358 E39.62123
G1 X78.763 Y62.358 E39.65298
G1 X78.198 Y62.358 E39.68484
G1 X77.632 Y62.358 E39.71660
G1 X77.066 Y62.358 E39.74852
G1 X76.501 Y62.358 E39.78056
G1 X75.936 Y62.359 E39.81259
G1 X75.370 Y62.359 E39.84468
G1 X74.804 Y62.359 E39.87678
G1 X74.239 Y62.359 E39.90898
G1 X73.673 Y62.359 E39.94124
G1 X73.108 Y62.359 E39.97362
G1 X72.542 Y62.359 E40.00588
G1 X71.976 Y62.359 E40.03814
G1 X71.411 Y62.360 E40.07052
G1 X70.846 Y62.360 E40.10289
G1 X70.280 Y62.360 E40.13532
G1 X69.714 Y62.360 E40.16775
G1 X69.149 Y62.360 E40.20030
G1 X68.583 Y62.360 E40.23290
G1 X68.018 Y62.361 E40.26544
G1 X67.452 Y62.361 E40.29804
G1 X66.886 Y62.361 E40.33065
G1 X66.321 Y62.361 E40.36336
G1 X65.755 Y62.361 E40.39613
G1 X65.190 Y62.361 E40.42884
G1 X64.624 Y62.361 E40.46162
G1 X64.058 Y62.361 E40.49456
G1 X63.493 Y62.362 E40.52744
G1 X62.927 Y62.362 E40.56055
G1 X62.362 Y62.362 E40.59360
G1 X61.797 Y62.362 E40.62666
G1 X61.231 Y62.362 E40.65977
G1 X60.665 Y62.362 E40.69288
G1 X60.100 Y62.362 E40.72593
G1 X59.534 Y62.362 E40.75904
G1 X58.968 Y62.362 E40.79232
G1 X58.403 Y62.363 E40.82554
G1 X57.837 Y62.363 E40.85900
G1 X57.272 Y62.363 E40.89239
G1 X56.706 Y62.363 E40.92584
G1 X56.141 Y62.363 E40.95940
G1 X55.575 Y62.363 E40.99285
G1 X55.009 Y62.363 E41.02630
G1 X54.444 Y62.363 E41.05986
G1 X53.875 Y62.360 E41.09349
G1 X53.621 Y62.106 E41.10545
G1 X53.597 Y61.517 E41.12986
G1 X53.974 Y61.328 E41.15415
G1 X54.063 Y60.851 E41.17846
G1 X54.440 Y60.663 E41.20297
G1 X54.528 Y60.185 E41.22747
G1 X54.906 Y59.997 E41.25204
G1 X54.994 Y59.519 E41.27654
G1 X55.373 Y59.333 E41.30111
G1 X55.459 Y58.853 E41.32598
G1 X55.839 Y58.667 E41.35073
G1 X55.925 Y58.188 E41.37555
G1 X56.305 Y58.002 E41.40017
G1 X56.391 Y57.522 E41.42504
G1 X56.771 Y57.336 E41.44979
G1 X56.884 Y56.884 E41.47467
G1 X57.380 Y56.814 E41.50232
G1 X57.946 Y56.814 E41.53407
G1 X58.511 Y56.814 E41.56560
G1 X59.077 Y56.814 E41.59735
G1 X59.642 Y56.814 E41.62905
G1 X60.207 Y56.813 E41.66075
G1 X60.773 Y56.813 E41.69267
G1 X61.339 Y56.813 E41.72459
G1 X61.904 Y56.813 E41.75646
G1 X62.470 Y56.813 E41.78838
G1 X63.035 Y56.813 E41.82042
G1 X63.601 Y56.813 E41.85268
G1 X64.167 Y56.813 E41.88477
G1 X64.732 Y56.812 E41.91680
G1 X65.298 Y56.812 E41.94907
G1 X65.863 Y56.812 E41.98144
G1 X66.429 Y56.812 E42.01370
G1 X66.995 Y56.812 E42.04597
G1 X67.560 Y56.812 E42.07834
G1 X68.125 Y56.812 E42.11071
G1 X68.691 Y56.812 E42.14332
G1 X69.256 Y56.811 E42.17569
G1 X69.822 Y56.811 E42.20829
G1 X70.388 Y56.811 E42.24089
G1 X70.953 Y56.811 E42.27344
G1 X71.519 Y56.811 E42.30621
G1 X72.085 Y56.811 E42.33898
G1 X72.650 Y56.811 E42.37169
G1 X73.215 Y56.811 E42.40441
G1 X73.781 Y56.810 E42.43735
G1 X74.347 Y56.810 E42.47046
G1 X74.912 Y56.810 E42.50334
G1 X75.478 Y56.810 E42.53628
G1 X76.043 Y56.810 E42.56951
G1 X76.609 Y56.810 E42.60262
G1 X77.174 Y56.810 E42.63584
G1 X77.740 Y56.810 E42.66895
G1 X78.305 Y56.809 E42.70217
G1 X78.871 Y56.809 E42.73545
G1 X79.437 Y56.809 E42.76890
G1 X79.818 Y56.908 E42.81614
;LAYER:1
G0 F12000 X84.485 Y56.740 Z0.400
G0 X84.681 Y57.033
;TYPE:WALL-INNER
G1 F1260 X84.696 Y57.082 E42.81819
G1 X84.647 Y56.987 E42.82245
G1 X84.681 Y57.033 E42.82473
G10
G1 Z1.400
G0 F12000 X53.546 Y62.138
G1 Z0.400
G11
G1 F1260 X53.532 Y62.092 E42.82665
G1 X53.584 Y62.191 E42.83111
G1 X53.546 Y62.138 E42.83372
G0 F12000 X53.318 Y61.568
;TYPE:WALL-OUTER
G1 F1260 X56.665 Y56.781 E43.06677
G1 X56.791 Y56.649 E43.07405
G1 X56.918 Y56.568 E43.08007
G1 X57.069 Y56.520 E43.08639
G1 X84.533 Y56.508 E44.18220
G1 X84.697 Y56.547 E44.18893
G1 X84.849 Y56.628 E44.19580
G1 X84.966 Y56.739 E44.20223
G1 X85.047 Y56.866 E44.20824
G1 X85.095 Y57.020 E44.21468
G1 X85.103 Y57.184 E44.22123
G1 X85.070 Y57.335 E44.22740
G1 X84.910 Y57.606 E44.23996
G1 X81.568 Y62.386 E44.47267
G1 X81.434 Y62.527 E44.48043
G1 X81.310 Y62.606 E44.48630
G1 X81.159 Y62.653 E44.49261
G1 X78.753 Y62.666 E44.58861
G1 X53.695 Y62.666 E45.58842
G1 X53.522 Y62.622 E45.59555
G1 X53.388 Y62.552 E45.60158
G1 X53.267 Y62.442 E45.60810
G1 X53.181 Y62.307 E45.61449
G1 X53.133 Y62.153 E45.62092
G1 X53.125 Y61.989 E45.62748
G1 X53.158 Y61.838 E45.63364
G1 X53.318 Y61.568 E45.64617
G0 F12000 X53.856 Y61.850
G1 F1260 X53.967 Y62.064 E45.65578
G1 X81.051 Y62.064 E46.73644
G1 X84.372 Y57.325 E46.96733
G1 X84.261 Y57.110 E46.97698
G1 X57.176 Y57.110 E48.05768
G1 X53.856 Y61.850 E48.28858
G0 F12000 X53.771 Y61.622
;TYPE:SKIN
G1 F1260 X53.473 Y61.920 E48.30539
G0 F12000 X54.056 Y62.466
G1 F1260 X54.440 Y62.364 E48.31688
G1 X55.004 Y62.364 E48.32833
G1 X55.569 Y62.363 E48.33985
G1 X56.133 Y62.363 E48.35130
G1 X56.697 Y62.363 E48.36275
G1 X57.262 Y62.363 E48.37416
G1 X57.826 Y62.363 E48.38561
G1 X58.391 Y62.363 E48.39703
G1 X58.955 Y62.363 E48.40836
G1 X59.519 Y62.363 E48.41970
G1 X59.903 Y62.262 E48.43554
G0 F12000 X59.903 Y62.364
G0 X53.743 Y62.434
G0 X53.423 Y61.822
G0 X55.089 Y59.739
G1 F1260 X54.252 Y60.577 E48.48280
G0 F12000 X54.334 Y60.636
G0 X55.646 Y58.761
G0 X55.563 Y58.702
G1 F1260 X56.409 Y57.856 E48.53054
G0 F12000 X57.354 Y56.911
G1 F1260 X57.732 Y56.814 E48.54139
G1 X58.296 Y56.814 E48.55221
G1 X58.860 Y56.814 E48.56304
G1 X59.425 Y56.814 E48.57395
G1 X59.989 Y56.814 E48.58483
G1 X60.554 Y56.814 E48.59574
G1 X61.119 Y56.814 E48.60670
G1 X61.683 Y56.814 E48.61758
G1 X62.247 Y56.813 E48.62852
G1 X62.811 Y56.813 E48.63947
G1 X63.376 Y56.813 E48.65043
G1 X63.940 Y56.813 E48.66143
G1 X64.505 Y56.813 E48.67244
G1 X65.069 Y56.813 E48.68344
G1 X65.634 Y56.812 E48.69451
G1 X66.198 Y56.812 E48.70551
G1 X66.762 Y56.812 E48.71657
G1 X67.327 Y56.812 E48.72770
G1 X67.891 Y56.812 E48.73875
G1 X68.455 Y56.812 E48.74981
G1 X69.020 Y56.812 E48.76094
G1 X69.584 Y56.812 E48.77210
G1 X70.149 Y56.812 E48.78323
G1 X70.713 Y56.811 E48.79440
G1 X71.277 Y56.811 E48.80557
G1 X71.842 Y56.811 E48.81681
G1 X72.406 Y56.811 E48.82798
G1 X72.970 Y56.811 E48.83915
G1 X73.535 Y56.811 E48.85039
G1 X74.100 Y56.811 E48.86163
G1 X74.664 Y56.811 E48.87286
G1 X75.228 Y56.810 E48.88414
G1 X75.793 Y56.810 E48.89544
G1 X76.357 Y56.810 E48.90672
G1 X76.921 Y56.810 E48.91800
G1 X77.486 Y56.810 E48.92935
G1 X78.050 Y56.810 E48.94069
G1 X78.615 Y56.810 E48.95205
G1 X79.179 Y56.810 E48.96338
G1 X79.743 Y56.810 E48.97472
G1 X80.308 Y56.809 E48.98613
G1 X80.872 Y56.809 E48.99758
G1 X81.436 Y56.809 E49.00903
G1 X82.001 Y56.809 E49.02050
G1 X82.565 Y56.809 E49.03195
G1 X83.130 Y56.809 E49.04342
G1 X83.694 Y56.809 E49.05487
G1 X84.268 Y56.799 E49.06635
G1 X84.593 Y56.757 E49.07943
G0 F12000 X84.805 Y57.353
G0 X84.108 Y58.230
G0 X84.189 Y58.289
G1 F1260 X83.350 Y59.128 E49.12677
G0 F12000 X82.877 Y60.165
G1 F1260 X82.028 Y61.014 E49.17467
G0 F12000 X81.566 Y62.041
G1 F1260 X80.973 Y62.352 E49.19731
G1 X80.402 Y62.358 E49.20816
G1 X79.838 Y62.358 E49.21899
G1 X79.273 Y62.358 E49.22983
G1 X78.709 Y62.358 E49.24066
G1 X78.145 Y62.358 E49.25149
G1 X77.580 Y62.358 E49.26234
G1 X77.016 Y62.358 E49.27322
G1 X76.452 Y62.358 E49.28411
G1 X75.887 Y62.359 E49.29507
G1 X75.323 Y62.359 E49.30596
G1 X74.758 Y62.359 E49.31692
G1 X74.194 Y62.359 E49.32786
G1 X73.629 Y62.359 E49.33882
G1 X73.065 Y62.360 E49.34982
G1 X72.501 Y62.360 E49.36082
G1 X71.936 Y62.360 E49.37183
G1 X71.372 Y62.360 E49.38283
G1 X70.808 Y62.360 E49.39383
G1 X70.243 Y62.360 E49.40490
G1 X69.678 Y62.360 E49.41603
G1 X69.114 Y62.360 E49.42709
G1 X68.550 Y62.361 E49.43826
G1 X67.986 Y62.361 E49.44942
G1 X67.421 Y62.361 E49.46055
G1 X66.857 Y62.361 E49.47172
G1 X66.292 Y62.361 E49.48285
G1 X65.728 Y62.361 E49.49402
G1 X65.163 Y62.361 E49.50520
G1 X64.599 Y62.361 E49.51637
G1 X64.035 Y62.362 E49.52760
G1 X63.470 Y62.362 E49.53884
G1 X62.906 Y62.362 E49.55006
G1 X62.341 Y62.362 E49.56131
G1 X61.777 Y62.362 E49.57259
G1 X61.213 Y62.362 E49.58387
G1 X60.648 Y62.362 E49.59517
G1 X60.266 Y62.463 E49.61093
;LAYER:2
G0 F12000 X53.743 Y62.434 Z0.500
G0 X53.546 Y62.138
;TYPE:WALL-INNER
G1 F1320 X53.532 Y62.092 E49.61285
G1 X53.584 Y62.191 E49.61731
G1 X53.546 Y62.138 E49.61991
G10
G1 Z1.500
G0 F12000 X84.682 Y57.035
G1 Z0.500
G11
G1 F1320 X84.696 Y57.082 E49.62187
G1 X84.648 Y56.990 E49.62601
G1 X84.682 Y57.035 E49.62826
G0 F12000 X84.987 Y57.495
;TYPE:WALL-OUTER
G1 F1320 X81.568 Y62.386 E49.86637
G1 X81.431 Y62.529 E49.87427
G1 X81.310 Y62.606 E49.87999
G1 X81.160 Y62.653 E49.88626
G1 X53.697 Y62.666 E50.98204
G1 X53.517 Y62.620 E50.98945
G1 X53.388 Y62.552 E50.99527
G1 X53.267 Y62.442 E51.00179
G1 X53.181 Y62.307 E51.00818
G1 X53.133 Y62.153 E51.01461
G1 X53.125 Y61.989 E51.02117
G1 X53.159 Y61.833 E51.02754
G1 X53.239 Y61.682 E51.03436
G1 X56.665 Y56.781 E51.27295
G1 X56.794 Y56.647 E51.28037
G1 X56.918 Y56.568 E51.28623
G1 X57.069 Y56.520 E51.29256
G1 X84.533 Y56.508 E52.38837
G1 X84.698 Y56.547 E52.39514
G1 X84.838 Y56.619 E52.40142
G1 X84.970 Y56.745 E52.40870
G1 X85.047 Y56.866 E52.41442
G1 X85.095 Y57.020 E52.42086
G1 X85.103 Y57.179 E52.42721
G1 X85.061 Y57.356 E52.43447
G1 X84.987 Y57.495 E52.44075
G0 F12000 X84.372 Y57.324
G1 F1320 X84.261 Y57.110 E52.45037
G1 X57.177 Y57.110 E53.53102
G1 X53.856 Y61.850 E53.76195
G1 X53.967 Y62.064 E53.77157
G1 X81.051 Y62.064 E54.85222
G1 X84.372 Y57.324 E55.08314
G0 F12000 X84.658 Y57.291
;TYPE:SKIN
G1 F1320 X84.676 Y57.591 E55.09069
G1 X84.296 Y57.776 E55.09897
G1 X84.211 Y58.255 E55.10729
G1 X83.831 Y58.440 E55.11557
G1 X83.747 Y58.920 E55.12391
G1 X83.366 Y59.103 E55.13223
G1 X83.283 Y59.584 E55.14058
G1 X82.901 Y59.766 E55.14900
G1 X82.819 Y60.248 E55.15746
G1 X82.436 Y60.430 E55.16590
G1 X82.355 Y60.913 E55.17437
G1 X81.971 Y61.094 E55.18286
G1 X81.890 Y61.577 E55.19133
G1 X81.506 Y61.758 E55.19982
G1 X81.414 Y62.229 E55.20837
G1 X80.975 Y62.354 E55.21558
G1 X80.414 Y62.358 E55.22635
G1 X79.850 Y62.358 E55.23712
G1 X79.286 Y62.358 E55.24789
G1 X78.722 Y62.358 E55.25872
G1 X78.157 Y62.358 E55.26957
G1 X77.593 Y62.358 E55.28040
G1 X77.029 Y62.358 E55.29123
G1 X76.465 Y62.359 E55.30206
G1 X75.901 Y62.359 E55.31294
G1 X75.337 Y62.359 E55.32383
G1 X74.773 Y62.359 E55.33471
G1 X74.208 Y62.359 E55.34567
G1 X73.644 Y62.359 E55.35661
G1 X73.080 Y62.360 E55.36756
G1 X72.516 Y62.360 E55.37855
G1 X71.951 Y62.360 E55.38957
G1 X71.388 Y62.360 E55.40055
G1 X70.823 Y62.360 E55.41157
G1 X70.259 Y62.360 E55.42257
G1 X69.695 Y62.360 E55.43356
G1 X69.131 Y62.360 E55.44462
G1 X68.567 Y62.360 E55.45562
G1 X68.003 Y62.361 E55.46661
G1 X67.438 Y62.361 E55.47774
G1 X66.874 Y62.361 E55.48886
G1 X66.310 Y62.361 E55.49997
G1 X65.746 Y62.361 E55.51113
G1 X65.182 Y62.361 E55.52230
G1 X64.618 Y62.361 E55.53347
G1 X64.054 Y62.361 E55.54464
G1 X63.489 Y62.362 E55.55582
G1 X62.925 Y62.362 E55.56705
G1 X62.361 Y62.362 E55.57827
G1 X61.797 Y62.362 E55.58949
G1 X61.233 Y62.362 E55.60072
G1 X60.669 Y62.362 E55.61194
G1 X60.105 Y62.362 E55.62316
G1 X59.540 Y62.362 E55.63446
G1 X58.976 Y62.362 E55.64574
G1 X58.412 Y62.363 E55.65702
G1 X57.848 Y62.363 E55.66830
G1 X57.284 Y62.363 E55.67964
G1 X56.720 Y62.363 E55.69098
G1 X56.156 Y62.363 E55.70237
G1 X55.592 Y62.363 E55.71376
G1 X55.027 Y62.363 E55.72518
G1 X54.463 Y62.363 E55.73662
G1 X53.899 Y62.363 E55.74807
G1 X53.636 Y62.101 E55.75257
G1 X53.604 Y61.504 E55.76082
G1 X53.983 Y61.319 E55.76908
G1 X54.068 Y60.840 E55.77740
G1 X54.448 Y60.656 E55.78572
G1 X54.532 Y60.176 E55.79410
G1 X54.913 Y59.992 E55.80248
