;FLAVOR:UltiGCode
;TIME:300
;MATERIAL:286
;MATERIAL2:0
;NOZZLE_DIAMETER:0.400000
;NOZZLE_DIAMETER2:0.400000

;Layer count: 29
;LAYER:0
M107
G0 F12000 X96.709 Y105.630 Z0.300
;TYPE:SKIRT
G1 F1200 X97.678 Y105.012 E0.13792
G1 X98.862 Y104.634 E0.28706
G1 X123.256 Y104.622 E3.21434
G1 X127.362 Y104.622 E3.70706
G1 X128.409 Y104.868 E3.83612
G1 X129.421 Y105.391 E3.97282
G1 X130.281 Y106.180 E4.11287
G1 X130.907 Y107.159 E4.25232
G1 X131.253 Y108.265 E4.39138
G1 X131.307 Y109.420 E4.53013
G1 X131.056 Y110.561 E4.67032
G1 X130.629 Y111.382 E4.78137
G1 X127.229 Y116.243 E5.49322
G1 X126.888 Y116.722 E5.56378
G1 X126.294 Y117.368 E5.66909
G1 X125.316 Y117.993 E5.80837
G1 X124.174 Y118.351 E5.95198
G1 X123.121 Y118.378 E6.07838
G1 X95.629 Y118.378 E9.37742
G1 X94.584 Y118.127 E9.50639
G1 X93.579 Y117.608 E9.64212
G1 X92.719 Y116.819 E9.78217
G1 X92.093 Y115.840 E9.92162
G1 X91.747 Y114.734 E10.06068
G1 X91.693 Y113.579 E10.19943
G1 X91.945 Y112.434 E10.34012
G1 X92.374 Y111.615 E10.45107
G1 X95.479 Y107.171 E11.10162
G1 X96.085 Y106.307 E11.22826
G1 X96.709 Y105.630 E11.33874
G0 F12000 X96.968 Y105.940
G1 F1200 X97.849 Y105.377 E11.46421
G1 X98.925 Y105.034 E11.59973
G1 X123.256 Y105.022 E14.51945
G1 X127.316 Y105.022 E15.00665
G1 X128.269 Y105.247 E15.12415
G1 X129.190 Y105.722 E15.24851
G1 X129.972 Y106.439 E15.37582
G1 X130.541 Y107.330 E15.50268
G1 X130.856 Y108.335 E15.62907
G1 X130.905 Y109.386 E15.75533
G1 X130.677 Y110.423 E15.88274
G1 X130.286 Y111.174 E15.98434
G1 X126.903 Y116.012 E16.69276
G1 X126.576 Y116.469 E16.76019
G1 X126.035 Y117.059 E16.85625
G1 X125.145 Y117.627 E16.98294
G1 X124.107 Y117.952 E17.11347
G1 X123.115 Y117.978 E17.23255
G1 X95.677 Y117.978 E20.52511
G1 X94.724 Y117.749 E20.64272
G1 X93.810 Y117.277 E20.76617
G1 X93.028 Y116.560 E20.89348
G1 X92.459 Y115.669 E21.02034
G1 X92.144 Y114.664 E21.14673
G1 X92.095 Y113.613 E21.27298
G1 X92.324 Y112.572 E21.40089
G1 X92.716 Y111.823 E21.50234
G1 X95.807 Y107.401 E22.14976
G1 X96.397 Y106.559 E22.27314
G1 X96.968 Y105.940 E22.37419
G10
G1 Z0.400
G0 F12000 X99.651 Y109.234
;TYPE:WALL-INNER
G1 Z0.300
G11
G1 F1200 X126.525 Y109.222 E25.59908
G1 X123.475 Y113.585 E26.23788
G1 X123.343 Y113.770 E26.26515
G1 X96.475 Y113.778 E29.48931
G1 X99.651 Y109.234 E30.15458
G0 F12000 X99.364 Y108.947
G1 F1200 X99.427 Y108.879 E30.16570
G1 X99.476 Y108.847 E30.17273
G1 X99.517 Y108.834 E30.17789
G1 X126.874 Y108.822 E33.46073
G1 X126.944 Y108.838 E33.46935
G1 X126.994 Y108.865 E33.47616
G1 X127.036 Y108.903 E33.48296
G1 X127.084 Y109.003 E33.49627
G1 X127.086 Y109.059 E33.50300
G1 X127.074 Y109.115 E33.50987
G1 X127.032 Y109.196 E33.52082
G1 X123.797 Y113.822 E34.19821
G1 X123.621 Y114.069 E34.23460
G1 X123.572 Y114.122 E34.24326
G1 X123.523 Y114.153 E34.25022
G1 X123.480 Y114.167 E34.25565
G1 X96.125 Y114.178 E37.53825
G1 X96.059 Y114.162 E37.54640
G1 X96.006 Y114.134 E37.55359
G1 X95.964 Y114.096 E37.56039
G1 X95.916 Y113.996 E37.57370
G1 X95.914 Y113.940 E37.58042
G1 X95.926 Y113.883 E37.58741
G1 X99.364 Y108.947 E38.30925
G0 F12000 X99.051 Y108.697
;TYPE:WALL-OUTER
G1 F1200 X99.168 Y108.570 E38.32997
G1 X99.305 Y108.482 E38.34951
G1 X99.456 Y108.434 E38.36852
G1 X126.919 Y108.422 E41.66408
G1 X127.082 Y108.460 E41.68417
G1 X127.229 Y108.536 E41.70403
G1 X127.343 Y108.641 E41.72263
G1 X127.432 Y108.781 E41.74253
G1 X127.480 Y108.933 E41.76166
G1 X127.488 Y109.097 E41.78136
G1 X127.454 Y109.253 E41.80052
G1 X127.376 Y109.402 E41.82071
G1 X124.126 Y114.050 E42.50129
G1 X123.929 Y114.326 E42.54198
G1 X123.834 Y114.429 E42.55880
G1 X123.694 Y114.518 E42.57870
G1 X123.543 Y114.566 E42.59772
G1 X96.078 Y114.578 E45.89352
G1 X95.921 Y114.540 E45.91290
G1 X95.771 Y114.463 E45.93314
G1 X95.657 Y114.358 E45.95173
G1 X95.568 Y114.218 E45.97164
G1 X95.520 Y114.066 E45.99077
G1 X95.512 Y113.902 E46.01047
G1 X95.546 Y113.748 E46.02940
G1 X95.626 Y113.596 E46.05001
G1 X99.051 Y108.697 E46.76731
G0 F12000 X99.621 Y109.520
;TYPE:SKIN
G1 F1200 X103.736 Y113.635 E47.46565
G0 F12000 X104.301 Y113.634
G1 F1200 X100.039 Y109.373 E48.18885
G0 F12000 X100.605 Y109.373
G1 F1200 X104.866 Y113.634 E48.91197
G0 F12000 X105.432 Y113.634
G1 F1200 X101.170 Y109.373 E49.63517
G0 F12000 X101.735 Y109.372
G1 F1200 X105.998 Y113.634 E50.35854
G0 F12000 X106.563 Y113.634
G1 F1200 X102.301 Y109.372 E51.08182
G0 F12000 X102.867 Y109.372
G1 F1200 X107.128 Y113.634 E51.80502
G0 F12000 X107.694 Y113.634
G1 F1200 X103.432 Y109.371 E52.52839
G0 F12000 X103.997 Y109.371
G1 F1200 X108.260 Y113.634 E53.25185
G0 F12000 X108.825 Y113.634
G1 F1200 X104.563 Y109.371 E53.97522
G0 F12000 X105.128 Y109.371
G1 F1200 X109.390 Y113.633 E54.69850
G0 F12000 X109.956 Y113.633
G1 F1200 X105.694 Y109.371 E55.42179
G0 F12000 X106.259 Y109.371
G1 F1200 X110.522 Y113.633 E56.14516
G0 F12000 X111.087 Y113.633
G1 F1200 X106.824 Y109.370 E56.86862
G0 F12000 X107.390 Y109.370
G1 F1200 X111.652 Y113.632 E57.59190
G0 F12000 X112.218 Y113.632
G1 F1200 X107.956 Y109.370 E58.31519
G0 F12000 X108.521 Y109.369
G1 F1200 X112.784 Y113.632 E59.03864
G0 F12000 X113.349 Y113.632
G1 F1200 X109.086 Y109.369 E59.76210
G0 F12000 X109.651 Y109.368
G1 F1200 X113.914 Y113.632 E60.48564
G0 F12000 X114.480 Y113.632
G1 F1200 X110.217 Y109.368 E61.20918
G0 F12000 X110.783 Y109.368
G1 F1200 X115.046 Y113.632 E61.93272
G0 F12000 X115.611 Y113.632
G1 F1200 X111.348 Y109.368 E62.65626
G0 F12000 X111.913 Y109.368
G1 F1200 X116.176 Y113.631 E63.37971
G0 F12000 X116.742 Y113.631
G1 F1200 X112.479 Y109.368 E64.10317
G0 F12000 X113.044 Y109.367
G1 F1200 X117.308 Y113.631 E64.82679
G0 F12000 X117.873 Y113.631
G1 F1200 X113.610 Y109.367 E65.55033
G0 F12000 X114.175 Y109.367
G1 F1200 X118.439 Y113.631 E66.27396
G0 F12000 X119.004 Y113.630
G1 F1200 X114.740 Y109.366 E66.99758
G0 F12000 X115.306 Y109.366
G1 F1200 X119.570 Y113.630 E67.72121
G0 F12000 X120.136 Y113.630
G1 F1200 X115.872 Y109.366 E68.44483
G0 F12000 X116.437 Y109.366
G1 F1200 X120.701 Y113.630 E69.16846
G0 F12000 X121.266 Y113.629
G1 F1200 X117.002 Y109.366 E69.89200
G0 F12000 X117.568 Y109.366
G1 F1200 X121.832 Y113.629 E70.61554
G0 F12000 X122.398 Y113.629
G1 F1200 X118.133 Y109.365 E71.33924
G0 F12000 X118.699 Y109.365
G1 F1200 X122.963 Y113.629 E72.06287
G0 F12000 X123.377 Y113.477
G1 F1200 X119.264 Y109.365 E72.76078
G0 F12000 X119.829 Y109.364
G1 F1200 X123.610 Y113.144 E73.40236
G0 F12000 X123.843 Y112.812
G1 F1200 X120.395 Y109.364 E73.98750
G0 F12000 X120.961 Y109.364
G1 F1200 X124.076 Y112.479 E74.51613
G0 F12000 X124.308 Y112.146
G1 F1200 X121.526 Y109.363 E74.98834
G0 F12000 X122.091 Y109.363
G1 F1200 X124.542 Y111.814 E75.40429
G0 F12000 X124.774 Y111.481
G1 F1200 X122.657 Y109.363 E75.76364
G0 F12000 X123.222 Y109.363
G1 F1200 X125.007 Y111.147 E76.06648
G0 F12000 X125.239 Y110.814
G1 F1200 X123.788 Y109.363 E76.31272
G0 F12000 X124.353 Y109.363
G1 F1200 X125.473 Y110.482 E76.50271
G0 F12000 X125.705 Y110.149
G1 F1200 X124.918 Y109.362 E76.63627
G0 F12000 X125.484 Y109.362
G1 F1200 X126.054 Y109.650 E76.71329
G1 X126.050 Y109.362 E76.74785
G0 F12000 X103.170 Y113.635
G1 F1200 X99.388 Y109.853 E77.38968
G0 F12000 X99.156 Y110.187
G1 F1200 X102.604 Y113.635 E77.97482
G0 F12000 X102.039 Y113.635
G1 F1200 X98.922 Y110.519 E78.50371
G0 F12000 X98.690 Y110.852
G1 F1200 X101.474 Y113.636 E78.97617
G0 F12000 X100.908 Y113.636
G1 F1200 X98.457 Y111.185 E79.39212
G0 F12000 X98.224 Y111.518
G1 F1200 X100.342 Y113.636 E79.75155
G0 F12000 X99.777 Y113.636
G1 F1200 X97.992 Y111.851 E80.05448
G0 F12000 X97.758 Y112.183
G1 F1200 X99.212 Y113.637 E80.30123
G0 F12000 X98.646 Y113.637
G1 F1200 X97.526 Y112.516 E80.49138
G0 F12000 X97.293 Y112.849
G1 F1200 X98.080 Y113.637 E80.62503
G0 F12000 X97.514 Y113.637
G1 F1200 X96.944 Y113.349 E80.70185
G1 X96.949 Y113.637 E80.73642
;LAYER:1
M106 S2
G0 F12000 X96.468 Y113.781 Z0.360
;TYPE:WALL-INNER
G1 F1620 X99.649 Y109.231 E80.86933
G1 X126.532 Y109.219 E81.51291
G1 X123.478 Y113.586 E81.64048
G1 X123.344 Y113.773 E81.64599
G1 X96.468 Y113.781 E82.28940
G0 F12000 X95.962 Y114.097
G1 F1620 X95.932 Y114.051 E82.29072
G1 X95.914 Y113.993 E82.29217
G1 X95.912 Y113.940 E82.29344
G1 X95.924 Y113.884 E82.29481
G1 X99.362 Y108.946 E82.43886
G1 X99.426 Y108.877 E82.44111
G1 X99.474 Y108.846 E82.44248
G1 X99.517 Y108.832 E82.44356
G1 X126.875 Y108.820 E83.09851
G1 X126.945 Y108.836 E83.10023
G1 X126.995 Y108.862 E83.10158
G1 X127.038 Y108.902 E83.10298
G1 X127.068 Y108.948 E83.10430
G1 X127.086 Y109.006 E83.10575
G1 X127.088 Y109.059 E83.10702
G1 X127.076 Y109.117 E83.10844
G1 X127.034 Y109.197 E83.11060
G1 X123.799 Y113.823 E83.24574
G1 X123.574 Y114.123 E83.25472
G1 X123.527 Y114.154 E83.25607
G1 X123.478 Y114.169 E83.25729
G1 X96.135 Y114.180 E83.91189
G1 X96.004 Y114.136 E83.91519
G1 X95.962 Y114.097 E83.91657
G0 F12000 X95.625 Y113.595
;TYPE:WALL-OUTER
G1 F1620 X99.051 Y108.694 E84.05972
G1 X99.167 Y108.569 E84.06380
G1 X99.304 Y108.481 E84.06770
G1 X99.455 Y108.433 E84.07150
G1 X126.919 Y108.421 E84.72898
G1 X127.084 Y108.460 E84.73304
G1 X127.225 Y108.533 E84.73684
G1 X127.347 Y108.644 E84.74079
G1 X127.433 Y108.779 E84.74462
G1 X127.481 Y108.933 E84.74849
G1 X127.489 Y109.097 E84.75242
G1 X127.455 Y109.253 E84.75624
G1 X127.375 Y109.406 E84.76037
G1 X124.127 Y114.050 E84.89604
G1 X123.926 Y114.331 E84.90431
G1 X123.833 Y114.431 E84.90758
G1 X123.696 Y114.519 E84.91148
G1 X123.544 Y114.567 E84.91530
G1 X123.023 Y114.579 E84.92777
G1 X96.084 Y114.579 E85.57269
G1 X95.889 Y114.525 E85.57754
G1 X95.775 Y114.466 E85.58061
G1 X95.653 Y114.355 E85.58456
G1 X95.567 Y114.220 E85.58839
G1 X95.519 Y114.066 E85.59225
G1 X95.511 Y113.902 E85.59618
G1 X95.545 Y113.746 E85.60001
G1 X95.625 Y113.595 E85.60410
G0 F12000 X97.115 Y113.640
;TYPE:SKIN
G1 F1620 X101.387 Y109.368 E85.74873
G0 F12000 X101.951 Y109.368
G1 F1620 X97.679 Y113.640 E85.89336
G0 F12000 X98.244 Y113.640
G1 F1620 X102.515 Y109.368 E86.03798
G0 F12000 X103.080 Y109.368
G1 F1620 X98.808 Y113.640 E86.18262
G0 F12000 X99.372 Y113.640
G1 F1620 X103.644 Y109.368 E86.32725
G0 F12000 X104.209 Y109.368
G1 F1620 X99.937 Y113.639 E86.47187
G0 F12000 X97.169 Y113.022
G1 F1620 X100.822 Y109.369 E86.59554
G0 F12000 X100.257 Y109.369
G1 F1620 X98.480 Y111.146 E86.65571
G0 F12000 X100.501 Y113.639
G1 F1620 X104.774 Y109.367 E86.80036
G0 F12000 X105.338 Y109.367
G1 F1620 X101.066 Y113.639 E86.94499
G0 F12000 X101.630 Y113.639
G1 F1620 X105.902 Y109.367 E87.08963
G0 F12000 X106.467 Y109.366
G1 F1620 X102.195 Y113.639 E87.23428
G0 F12000 X102.759 Y113.639
G1 F1620 X107.031 Y109.366 E87.37893
G0 F12000 X107.596 Y109.366
G1 F1620 X103.323 Y113.639 E87.52360
G0 F12000 X103.888 Y113.639
G1 F1620 X108.161 Y109.366 E87.66826
G0 F12000 X108.725 Y109.366
G1 F1620 X104.452 Y113.639 E87.81293
G0 F12000 X105.017 Y113.638
G1 F1620 X109.289 Y109.366 E87.95756
G0 F12000 X109.854 Y109.365
G1 F1620 X105.581 Y113.638 E88.10223
G0 F12000 X106.145 Y113.638
G1 F1620 X110.418 Y109.365 E88.24690
G0 F12000 X110.983 Y109.365
G1 F1620 X106.710 Y113.638 E88.39157
G0 F12000 X107.274 Y113.638
G1 F1620 X111.548 Y109.364 E88.53627
G0 F12000 X112.112 Y109.364
G1 F1620 X107.839 Y113.637 E88.68094
G0 F12000 X108.403 Y113.637
G1 F1620 X112.676 Y109.364 E88.82561
G0 F12000 X113.241 Y109.363
G1 F1620 X108.967 Y113.637 E88.97031
G0 F12000 X109.532 Y113.637
G1 F1620 X113.806 Y109.363 E89.11501
G0 F12000 X114.370 Y109.363
G1 F1620 X110.097 Y113.637 E89.25969
G0 F12000 X110.661 Y113.637
G1 F1620 X114.935 Y109.363 E89.40440
G0 F12000 X115.499 Y109.363
G1 F1620 X111.225 Y113.637 E89.54910
G0 F12000 X111.790 Y113.637
G1 F1620 X116.063 Y109.363 E89.69378
G0 F12000 X116.628 Y109.362
G1 F1620 X112.354 Y113.637 E89.83850
G0 F12000 X112.919 Y113.636
G1 F1620 X117.193 Y109.362 E89.98320
G0 F12000 X117.757 Y109.362
G1 F1620 X113.483 Y113.636 E90.12790
G0 F12000 X114.047 Y113.636
G1 F1620 X118.322 Y109.361 E90.27264
G0 F12000 X118.886 Y109.361
G1 F1620 X114.612 Y113.636 E90.41736
G0 F12000 X115.176 Y113.636
G1 F1620 X119.450 Y109.361 E90.56208
G0 F12000 X120.015 Y109.361
G1 F1620 X115.741 Y113.635 E90.70678
G0 F12000 X116.305 Y113.635
G1 F1620 X120.580 Y109.361 E90.85150
G0 F12000 X121.144 Y109.361
G1 F1620 X116.869 Y113.635 E90.99622
G0 F12000 X117.434 Y113.635
G1 F1620 X121.709 Y109.360 E91.14095
G0 F12000 X122.273 Y109.360
G1 F1620 X117.999 Y113.634 E91.28565
G0 F12000 X118.563 Y113.634
G1 F1620 X122.837 Y109.360 E91.43036
G0 F12000 X123.402 Y109.359
G1 F1620 X119.127 Y113.634 E91.57509
G0 F12000 X119.691 Y113.634
G1 F1620 X123.967 Y109.359 E91.71984
G0 F12000 X124.531 Y109.359
G1 F1620 X120.256 Y113.634 E91.86458
G0 F12000 X120.821 Y113.634
G1 F1620 X125.096 Y109.359 E92.00931
G0 F12000 X125.660 Y109.359
G1 F1620 X121.385 Y113.634 E92.15405
G0 F12000 X121.949 Y113.634
G1 F1620 X126.198 Y109.385 E92.29791
G0 F12000 X125.034 Y111.113
G1 F1620 X122.514 Y113.634 E92.38324
G0 F12000 X123.078 Y113.634
G1 F1620 X123.719 Y112.992 E92.40496
;LAYER:2
M106 S5
G0 F12000 X123.348 Y113.773 Z0.420
;TYPE:WALL-INNER
G1 F2100 X96.468 Y113.781 E93.04847
G1 X99.649 Y109.231 E93.18137
G1 X126.532 Y109.219 E93.82495
G1 X123.348 Y113.773 E93.95798
G0 F12000 X123.638 Y114.053
G1 F2100 X123.573 Y114.124 E93.96028
G1 X123.527 Y114.154 E93.96160
G1 X123.478 Y114.169 E93.96283
G1 X96.125 Y114.180 E94.61766
G1 X96.057 Y114.164 E94.61933
G1 X96.005 Y114.137 E94.62073
G1 X95.962 Y114.097 E94.62214
G1 X95.932 Y114.051 E94.62345
G1 X95.914 Y113.993 E94.62491
G1 X95.912 Y113.940 E94.62618
G1 X95.924 Y113.884 E94.62755
G1 X99.362 Y108.946 E94.77159
G1 X99.426 Y108.877 E94.77385
G1 X99.474 Y108.846 E94.77521
G1 X99.517 Y108.832 E94.77630
G1 X126.875 Y108.820 E95.43125
G1 X126.945 Y108.836 E95.43297
G1 X126.995 Y108.862 E95.43431
G1 X127.038 Y108.902 E95.43572
G1 X127.068 Y108.948 E95.43704
G1 X127.086 Y109.006 E95.43849
G1 X127.088 Y109.059 E95.43976
G1 X127.076 Y109.117 E95.44118
G1 X127.034 Y109.197 E95.44334
G1 X123.638 Y114.053 E95.58520
G0 F12000 X123.953 Y114.299
;TYPE:WALL-OUTER
G1 F2100 X123.831 Y114.433 E95.58954
G1 X123.696 Y114.519 E95.59337
G1 X123.544 Y114.567 E95.59719
G1 X123.023 Y114.579 E95.60966
G1 X96.078 Y114.579 E96.25473
G1 X95.919 Y114.541 E96.25864
G1 X95.775 Y114.466 E96.26253
G1 X95.653 Y114.355 E96.26648
G1 X95.567 Y114.220 E96.27031
G1 X95.519 Y114.066 E96.27417
G1 X95.511 Y113.902 E96.27810
G1 X95.545 Y113.746 E96.28192
G1 X95.625 Y113.595 E96.28601
G1 X99.051 Y108.694 E96.42917
G1 X99.167 Y108.569 E96.43325
G1 X99.304 Y108.481 E96.43715
G1 X99.455 Y108.433 E96.44094
G1 X126.919 Y108.421 E97.09843
G1 X127.084 Y108.460 E97.10249
G1 X127.225 Y108.533 E97.10629
G1 X127.347 Y108.644 E97.11024
G1 X127.433 Y108.779 E97.11407
G1 X127.481 Y108.933 E97.11793
G1 X127.489 Y109.097 E97.12186
G1 X127.455 Y109.253 E97.12569
G1 X127.375 Y109.406 E97.12982
G1 X123.953 Y114.299 E97.27276
G0 F12000 X123.370 Y113.496
;TYPE:SKIN
G1 F2100 X119.236 Y109.362 E97.41272
G0 F12000 X118.672 Y109.362
G1 F2100 X122.943 Y113.633 E97.55732
G0 F12000 X122.378 Y113.633
G1 F2100 X118.108 Y109.362 E97.70191
G0 F12000 X117.544 Y109.363
G1 F2100 X121.814 Y113.633 E97.84647
G0 F12000 X121.250 Y113.633
G1 F2100 X116.980 Y109.363 E97.99104
G0 F12000 X116.415 Y109.363
G1 F2100 X120.686 Y113.633 E98.13562
G0 F12000 X120.122 Y113.634
G1 F2100 X115.852 Y109.363 E98.28021
G0 F12000 X115.288 Y109.363
G1 F2100 X119.558 Y113.634 E98.42479
G0 F12000 X118.994 Y113.634
G1 F2100 X114.723 Y109.363 E98.56939
G0 F12000 X114.160 Y109.364
G1 F2100 X118.429 Y113.634 E98.71394
G0 F12000 X117.866 Y113.634
G1 F2100 X113.595 Y109.364 E98.85852
G0 F12000 X113.031 Y109.364
G1 F2100 X117.301 Y113.634 E99.00309
