;FLAVOR:UltiGCode
;TIME:537
;MATERIAL:2082
;MATERIAL2:0
;NOZZLE_DIAMETER:0.600000
;NOZZLE_DIAMETER2:0.600000

;Layer count: 8
;LAYER:0
M107
G0 F12000 X41.462 Y103.355 Z0.300
;TYPE:SKIRT
G1 F1200 X181.531 Y103.355 E25.21242
G1 X181.530 Y108.200 E26.08452
G1 X184.021 Y108.200 E26.53290
G1 X184.030 Y111.920 E27.20250
G1 X184.028 Y119.646 E28.59318
G1 X38.971 Y119.646 E54.70344
G1 X38.971 Y111.925 E56.09322
G1 X38.962 Y108.200 E56.76372
G1 X41.471 Y108.200 E57.21534
G1 X41.471 Y107.078 E57.41730
G1 X41.462 Y103.355 E58.08745
G10
G1 Z0.400
G0 F12000 X45.671 Y107.555
;TYPE:WALL-INNER
G1 Z0.300
G11
G1 F1200 X48.600 Y107.555 E58.61467
G1 X48.600 Y115.446 E60.03505
G1 X43.171 Y115.446 E61.01227
G1 X43.171 Y112.400 E61.56055
G1 X45.670 Y112.400 E62.01037
G1 X45.671 Y107.555 E62.88247
G0 F12000 X45.671 Y107.355
G0 X55.400 Y107.355
G0 X55.400 Y107.555
G1 F1200 X55.600 Y107.555 E62.91847
G1 X55.600 Y115.446 E64.33885
G1 X55.400 Y115.446 E64.37485
G1 X55.400 Y107.555 E65.79523
G0 F12000 X55.400 Y107.355
G0 X62.400 Y107.355
G0 X62.400 Y107.555
G1 F1200 X62.600 Y107.555 E65.83123
G1 X62.600 Y115.446 E67.25161
G1 X62.400 Y115.446 E67.28761
G1 X62.400 Y107.555 E68.70799
G0 F12000 X62.400 Y107.355
G0 X69.400 Y107.355
G0 X69.400 Y107.555
G1 F1200 X69.600 Y107.555 E68.74399
G1 X69.600 Y115.446 E70.16437
G1 X69.400 Y115.446 E70.20037
G1 X69.400 Y107.555 E71.62075
G0 F12000 X69.400 Y107.355
G0 X76.400 Y107.355
G0 X76.400 Y107.555
G1 F1200 X76.600 Y107.555 E71.65675
G1 X76.600 Y115.446 E73.07713
G1 X76.400 Y115.446 E73.11313
G1 X76.400 Y107.555 E74.53351
G0 F12000 X76.400 Y107.355
G0 X83.400 Y107.355
G0 X83.400 Y107.555
G1 F1200 X83.600 Y107.555 E74.56951
G1 X83.600 Y115.446 E75.98989
G1 X83.400 Y115.446 E76.02589
G1 X83.400 Y107.555 E77.44627
G0 F12000 X83.400 Y107.355
G0 X90.400 Y107.355
G0 X90.400 Y107.555
G1 F1200 X90.600 Y107.555 E77.48227
G1 X90.600 Y115.446 E78.90265
G1 X90.400 Y115.446 E78.93865
G1 X90.400 Y107.555 E80.35903
G0 F12000 X90.400 Y107.355
G0 X97.400 Y107.355
G0 X97.400 Y107.555
G1 F1200 X97.600 Y107.555 E80.39503
G1 X97.600 Y115.446 E81.81541
G1 X97.400 Y115.446 E81.85141
G1 X97.400 Y107.555 E83.27179
G0 F12000 X97.400 Y107.355
G0 X104.400 Y107.355
G0 X104.400 Y107.555
G1 F1200 X104.600 Y107.555 E83.30779
G1 X104.600 Y115.446 E84.72817
G1 X104.400 Y115.446 E84.76417
G1 X104.400 Y107.555 E86.18455
G0 F12000 X104.400 Y107.355
G0 X111.400 Y107.355
G0 X111.400 Y107.555
G1 F1200 X111.600 Y107.555 E86.22055
G1 X111.600 Y115.446 E87.64093
G1 X111.400 Y115.446 E87.67693
G1 X111.400 Y107.555 E89.09731
G0 F12000 X111.400 Y107.355
G0 X118.400 Y107.355
G0 X118.400 Y107.555
G1 F1200 X118.600 Y107.555 E89.13331
G1 X118.600 Y115.446 E90.55369
G1 X118.400 Y115.446 E90.58969
G1 X118.400 Y107.555 E92.01007
G0 F12000 X118.400 Y107.355
G0 X125.400 Y107.355
G0 X125.400 Y107.555
G1 F1200 X125.600 Y107.555 E92.04607
G1 X125.600 Y115.446 E93.46645
G1 X125.400 Y115.446 E93.50245
G1 X125.400 Y107.555 E94.92283
G0 F12000 X125.400 Y107.355
G0 X132.400 Y107.355
G0 X132.400 Y107.555
G1 F1200 X132.600 Y107.555 E94.95883
G1 X132.600 Y115.446 E96.37921
G1 X132.400 Y115.446 E96.41521
G1 X132.400 Y107.555 E97.83559
G0 F12000 X132.400 Y107.355
G0 X139.400 Y107.355
G0 X139.400 Y107.555
G1 F1200 X139.600 Y107.555 E97.87159
G1 X139.600 Y115.446 E99.29197
G1 X139.400 Y115.446 E99.32797
G1 X139.400 Y107.555 E100.74835
G0 F12000 X139.400 Y107.355
G0 X146.400 Y107.355
G0 X146.400 Y107.555
G1 F1200 X146.600 Y107.555 E100.78435
G1 X146.600 Y115.446 E102.20473
G1 X146.400 Y115.446 E102.24073
G1 X146.400 Y107.555 E103.66111
G0 F12000 X146.400 Y107.355
G0 X153.400 Y107.355
G0 X153.400 Y107.555
G1 F1200 X153.600 Y107.555 E103.69711
G1 X153.600 Y115.446 E105.11749
G1 X153.400 Y115.446 E105.15349
G1 X153.400 Y107.555 E106.57387
G0 F12000 X153.400 Y107.355
G0 X160.400 Y107.355
G0 X160.400 Y107.555
G1 F1200 X160.600 Y107.555 E106.60987
G1 X160.600 Y115.446 E108.03025
G1 X160.400 Y115.446 E108.06625
G1 X160.400 Y107.555 E109.48663
G0 F12000 X160.400 Y107.355
G0 X167.400 Y107.355
G0 X167.400 Y107.555
G1 F1200 X167.600 Y107.555 E109.52263
G1 X167.600 Y115.446 E110.94301
G1 X167.400 Y115.446 E110.97901
G1 X167.400 Y107.555 E112.39939
G0 F12000 X167.400 Y107.355
G0 X174.400 Y107.555
G1 F1200 X177.330 Y107.555 E112.92679
G1 X177.329 Y112.400 E113.79889
G1 X179.830 Y112.400 E114.24907
G1 X179.829 Y115.446 E114.79735
G1 X174.400 Y115.446 E115.77457
G1 X174.400 Y107.555 E117.19495
G0 F12000 X173.800 Y107.855
;TYPE:WALL-OUTER
G1 F1200 X168.200 Y107.855 E118.20295
G1 X168.200 Y109.955 E118.58095
G1 X173.800 Y109.955 E119.58895
G1 X173.800 Y107.855 E119.96695
G0 F12000 X174.200 Y107.855
G0 X174.200 Y110.454
G0 X173.800 Y110.454
G1 F1200 X168.200 Y110.454 E120.97495
G1 X168.200 Y112.546 E121.35151
G1 X173.800 Y112.546 E122.35951
G1 X173.800 Y110.454 E122.73607
G0 F12000 X174.200 Y110.454
G0 X174.200 Y113.046
G0 X173.800 Y113.046
G1 F1200 X168.200 Y113.046 E123.74407
G1 X168.200 Y115.146 E124.12207
G1 X173.800 Y115.146 E125.13007
G1 X173.800 Y113.046 E125.50807
G0 F12000 X174.200 Y113.046
G0 X174.241 Y115.587
G0 X167.759 Y115.587
G0 X167.200 Y113.046
G0 X166.800 Y113.046
G1 F1200 X161.200 Y113.046 E126.51607
G1 X161.200 Y115.146 E126.89407
G1 X166.800 Y115.146 E127.90207
G1 X166.800 Y113.046 E128.28007
G0 F12000 X166.800 Y112.546
G1 F1200 X166.800 Y110.454 E128.65663
G1 X161.200 Y110.454 E129.66463
G1 X161.200 Y112.546 E130.04119
G1 X166.800 Y112.546 E131.04919
G0 F12000 X167.200 Y112.546
G0 X167.200 Y109.955
G0 X166.800 Y109.955
G1 F1200 X166.800 Y107.855 E131.42719
G1 X161.200 Y107.855 E132.43519
G1 X161.200 Y109.955 E132.81319
G1 X166.800 Y109.955 E133.82119
G0 F12000 X167.200 Y109.955
G0 X167.241 Y115.587
G0 X160.759 Y115.587
G0 X160.200 Y109.955
G0 X159.800 Y109.955
G1 F1200 X159.800 Y107.855 E134.19919
G1 X154.200 Y107.855 E135.20719
G1 X154.200 Y109.955 E135.58519
G1 X159.800 Y109.955 E136.59319
G0 F12000 X159.800 Y110.454
G1 F1200 X154.200 Y110.454 E137.60119
G1 X154.200 Y112.546 E137.97775
G1 X159.800 Y112.546 E138.98575
G1 X159.800 Y110.454 E139.36231
G0 F12000 X160.200 Y110.454
G0 X160.200 Y113.046
G0 X159.800 Y113.046
G1 F1200 X154.200 Y113.046 E140.37031
G1 X154.200 Y115.146 E140.74831
G1 X159.800 Y115.146 E141.75631
G1 X159.800 Y113.046 E142.13431
G0 F12000 X160.200 Y113.046
G0 X160.241 Y115.587
G0 X153.759 Y115.587
G0 X153.200 Y113.046
G0 X152.800 Y113.046
G1 F1200 X147.200 Y113.046 E143.14231
G1 X147.200 Y115.146 E143.52031
G1 X152.800 Y115.146 E144.52831
G1 X152.800 Y113.046 E144.90631
G0 F12000 X152.800 Y112.546
G1 F1200 X152.800 Y110.454 E145.28287
G1 X147.200 Y110.454 E146.29087
G1 X147.200 Y112.546 E146.66743
G1 X152.800 Y112.546 E147.67543
G0 F12000 X153.200 Y112.546
G0 X153.200 Y109.955
G0 X152.800 Y109.955
G1 F1200 X152.800 Y107.855 E148.05343
G1 X147.200 Y107.855 E149.06143
G1 X147.200 Y109.955 E149.43943
G1 X152.800 Y109.955 E150.44743
G0 F12000 X153.200 Y109.955
G0 X153.241 Y115.587
G0 X146.759 Y115.587
G0 X146.200 Y109.955
G0 X145.800 Y109.955
G1 F1200 X145.800 Y107.855 E150.82543
G1 X140.200 Y107.855 E151.83343
G1 X140.200 Y109.955 E152.21143
G1 X145.800 Y109.955 E153.21943
G0 F12000 X145.800 Y110.454
G1 F1200 X140.200 Y110.454 E154.22743
G1 X140.200 Y112.546 E154.60399
G1 X145.800 Y112.546 E155.61199
G1 X145.800 Y110.454 E155.98855
G0 F12000 X146.200 Y110.454
G0 X146.200 Y113.046
G0 X145.800 Y113.046
G1 F1200 X140.200 Y113.046 E156.99655
G1 X140.200 Y115.146 E157.37455
G1 X145.800 Y115.146 E158.38255
G1 X145.800 Y113.046 E158.76055
G0 F12000 X146.200 Y113.046
G0 X146.241 Y115.587
G0 X139.759 Y115.587
G0 X139.200 Y113.046
G0 X138.800 Y113.046
G1 F1200 X133.200 Y113.046 E159.76855
G1 X133.200 Y115.146 E160.14655
G1 X138.800 Y115.146 E161.15455
G1 X138.800 Y113.046 E161.53255
G0 F12000 X138.800 Y112.546
G1 F1200 X138.800 Y110.454 E161.90911
G1 X133.200 Y110.454 E162.91711
G1 X133.200 Y112.546 E163.29367
G1 X138.800 Y112.546 E164.30167
G0 F12000 X139.200 Y112.546
G0 X139.200 Y109.955
G0 X138.800 Y109.955
G1 F1200 X138.800 Y107.855 E164.67967
G1 X133.200 Y107.855 E165.68767
G1 X133.200 Y109.955 E166.06567
G1 X138.800 Y109.955 E167.07367
G0 F12000 X139.200 Y109.955
G0 X139.241 Y115.587
G0 X132.759 Y115.587
G0 X132.200 Y109.955
G0 X131.800 Y109.955
G1 F1200 X131.800 Y107.855 E167.45167
G1 X126.200 Y107.855 E168.45967
G1 X126.200 Y109.955 E168.83767
G1 X131.800 Y109.955 E169.84567
G0 F12000 X131.800 Y110.454
G1 F1200 X126.200 Y110.454 E170.85367
G1 X126.200 Y112.546 E171.23023
G1 X131.800 Y112.546 E172.23823
G1 X131.800 Y110.454 E172.61479
G0 F12000 X132.200 Y110.454
G0 X132.200 Y113.046
G0 X131.800 Y113.046
G1 F1200 X126.200 Y113.046 E173.62279
G1 X126.200 Y115.146 E174.00079
G1 X131.800 Y115.146 E175.00879
G1 X131.800 Y113.046 E175.38679
G0 F12000 X132.200 Y113.046
G0 X132.241 Y115.587
G0 X125.759 Y115.587
G0 X125.200 Y113.046
G0 X124.800 Y113.046
G1 F1200 X119.200 Y113.046 E176.39479
G1 X119.200 Y115.146 E176.77279
G1 X124.800 Y115.146 E177.78079
G1 X124.800 Y113.046 E178.15879
G0 F12000 X124.800 Y112.546
G1 F1200 X124.800 Y110.454 E178.53535
G1 X119.200 Y110.454 E179.54335
G1 X119.200 Y112.546 E179.91991
G1 X124.800 Y112.546 E180.92791
G0 F12000 X125.200 Y112.546
G0 X125.200 Y109.955
G0 X124.800 Y109.955
G1 F1200 X124.800 Y107.855 E181.30591
G1 X119.200 Y107.855 E182.31391
G1 X119.200 Y109.955 E182.69191
G1 X124.800 Y109.955 E183.69991
G0 F12000 X125.200 Y109.955
G0 X125.241 Y115.587
G0 X118.759 Y115.587
G0 X118.200 Y109.955
G0 X117.800 Y109.955
G1 F1200 X117.800 Y107.855 E184.07791
G1 X112.200 Y107.855 E185.08591
G1 X112.200 Y109.955 E185.46391
G1 X117.800 Y109.955 E186.47191
G0 F12000 X117.800 Y110.454
G1 F1200 X112.200 Y110.454 E187.47991
G1 X112.200 Y112.546 E187.85647
G1 X117.800 Y112.546 E188.86447
G1 X117.800 Y110.454 E189.24103
G0 F12000 X118.200 Y110.454
G0 X118.200 Y113.046
G0 X117.800 Y113.046
G1 F1200 X112.200 Y113.046 E190.24903
G1 X112.200 Y115.146 E190.62703
G1 X117.800 Y115.146 E191.63503
G1 X117.800 Y113.046 E192.01303
G0 F12000 X118.200 Y113.046
G0 X118.241 Y115.587
G0 X111.759 Y115.587
G0 X111.200 Y113.046
G0 X110.800 Y113.046
G1 F1200 X105.200 Y113.046 E193.02103
G1 X105.200 Y115.146 E193.39903
G1 X110.800 Y115.146 E194.40703
G1 X110.800 Y113.046 E194.78503
G0 F12000 X110.800 Y112.546
G1 F1200 X110.800 Y110.454 E195.16159
G1 X105.200 Y110.454 E196.16959
G1 X105.200 Y112.546 E196.54615
G1 X110.800 Y112.546 E197.55415
G0 F12000 X111.200 Y112.546
G0 X111.200 Y109.955
G0 X110.800 Y109.955
G1 F1200 X110.800 Y107.855 E197.93215
G1 X105.200 Y107.855 E198.94015
G1 X105.200 Y109.955 E199.31815
G1 X110.800 Y109.955 E200.32615
G0 F12000 X111.200 Y109.955
G0 X111.241 Y115.587
G0 X104.759 Y115.587
G0 X104.200 Y109.955
G0 X103.800 Y109.955
G1 F1200 X103.800 Y107.855 E200.70415
G1 X98.200 Y107.855 E201.71215
G1 X98.200 Y109.955 E202.09015
G1 X103.800 Y109.955 E203.09815
G0 F12000 X103.800 Y110.454
G1 F1200 X98.200 Y110.454 E204.10615
G1 X98.200 Y112.546 E204.48271
G1 X103.800 Y112.546 E205.49071
G1 X103.800 Y110.454 E205.86727
G0 F12000 X104.200 Y110.454
G0 X104.200 Y113.046
G0 X103.800 Y113.046
G1 F1200 X98.200 Y113.046 E206.87527
G1 X98.200 Y115.146 E207.25327
G1 X103.800 Y115.146 E208.26127
G1 X103.800 Y113.046 E208.63927
G0 F12000 X104.200 Y113.046
G0 X104.241 Y115.587
G0 X97.759 Y115.587
G0 X97.200 Y113.046
G0 X96.800 Y113.046
G1 F1200 X91.200 Y113.046 E209.64727
G1 X91.200 Y115.146 E210.02527
G1 X96.800 Y115.146 E211.03327
G1 X96.800 Y113.046 E211.41127
G0 F12000 X96.800 Y112.546
G1 F1200 X96.800 Y110.454 E211.78783
G1 X91.200 Y110.454 E212.79583
G1 X91.200 Y112.546 E213.17239
G1 X96.800 Y112.546 E214.18039
G0 F12000 X97.200 Y112.546
G0 X97.200 Y109.955
G0 X96.800 Y109.955
G1 F1200 X96.800 Y107.855 E214.55839
G1 X91.200 Y107.855 E215.56639
G1 X91.200 Y109.955 E215.94439
G1 X96.800 Y109.955 E216.95239
G0 F12000 X97.200 Y109.955
G0 X97.241 Y115.587
G0 X90.759 Y115.587
G0 X90.200 Y109.955
G0 X89.800 Y109.955
G1 F1200 X89.800 Y107.855 E217.33039
G1 X84.200 Y107.855 E218.33839
G1 X84.200 Y109.955 E218.71639
G1 X89.800 Y109.955 E219.72439
G0 F12000 X89.800 Y110.454
G1 F1200 X84.200 Y110.454 E220.73239
G1 X84.200 Y112.546 E221.10895
G1 X89.800 Y112.546 E222.11695
G1 X89.800 Y110.454 E222.49351
G0 F12000 X90.200 Y110.454
G0 X90.200 Y113.046
G0 X89.800 Y113.046
G1 F1200 X84.200 Y113.046 E223.50151
G1 X84.200 Y115.146 E223.87951
G1 X89.800 Y115.146 E224.88751
G1 X89.800 Y113.046 E225.26551
G0 F12000 X90.200 Y113.046
G0 X90.241 Y115.587
G0 X83.759 Y115.587
G0 X83.200 Y113.046
G0 X82.800 Y113.046
G1 F1200 X77.200 Y113.046 E226.27351
G1 X77.200 Y115.146 E226.65151
G1 X82.800 Y115.146 E227.65951
G1 X82.800 Y113.046 E228.03751
G0 F12000 X82.800 Y112.546
G1 F1200 X82.800 Y110.454 E228.41407
G1 X77.200 Y110.454 E229.42207
G1 X77.200 Y112.546 E229.79863
G1 X82.800 Y112.546 E230.80663
G0 F12000 X83.200 Y112.546
G0 X83.200 Y109.955
G0 X82.800 Y109.955
G1 F1200 X82.800 Y107.855 E231.18463
G1 X77.200 Y107.855 E232.19263
G1 X77.200 Y109.955 E232.57063
G1 X82.800 Y109.955 E233.57863
G0 F12000 X83.200 Y109.955
G0 X83.241 Y115.587
G0 X76.759 Y115.587
G0 X76.200 Y109.955
G0 X75.800 Y109.955
G1 F1200 X75.800 Y107.855 E233.95663
G1 X70.200 Y107.855 E234.96463
G1 X70.200 Y109.955 E235.34263
G1 X75.800 Y109.955 E236.35063
G0 F12000 X75.800 Y110.454
G1 F1200 X70.200 Y110.454 E237.35863
G1 X70.200 Y112.546 E237.73519
G1 X75.800 Y112.546 E238.74319
G1 X75.800 Y110.454 E239.11975
G0 F12000 X76.200 Y110.454
G0 X76.200 Y113.046
G0 X75.800 Y113.046
G1 F1200 X70.200 Y113.046 E240.12775
G1 X70.200 Y115.146 E240.50575
G1 X75.800 Y115.146 E241.51375
G1 X75.800 Y113.046 E241.89175
G0 F12000 X76.200 Y113.046
G0 X76.241 Y115.587
G0 X69.759 Y115.587
G0 X69.200 Y113.046
G0 X68.800 Y113.046
G1 F1200 X63.200 Y113.046 E242.89975
G1 X63.200 Y115.146 E243.27775
G1 X68.800 Y115.146 E244.28575
G1 X68.800 Y113.046 E244.66375
G0 F12000 X68.800 Y112.546
G1 F1200 X68.800 Y110.454 E245.04031
G1 X63.200 Y110.454 E246.04831
G1 X63.200 Y112.546 E246.42487
G1 X68.800 Y112.546 E247.43287
G0 F12000 X69.200 Y112.546
G0 X69.200 Y109.955
G0 X68.800 Y109.955
G1 F1200 X68.800 Y107.855 E247.81087
G1 X63.200 Y107.855 E248.81887
G1 X63.200 Y109.955 E249.19687
G1 X68.800 Y109.955 E250.20487
G0 F12000 X69.200 Y109.955
G0 X69.241 Y115.587
G0 X62.759 Y115.587
G0 X62.200 Y109.955
G0 X61.800 Y109.955
G1 F1200 X61.800 Y107.855 E250.58287
G1 X56.200 Y107.855 E251.59087
G1 X56.200 Y109.955 E251.96887
G1 X61.800 Y109.955 E252.97687
G0 F12000 X61.800 Y110.454
G1 F1200 X56.200 Y110.454 E253.98487
G1 X56.200 Y112.546 E254.36143
G1 X61.800 Y112.546 E255.36943
G1 X61.800 Y110.454 E255.74599
G0 F12000 X62.200 Y110.454
G0 X62.200 Y113.046
G0 X61.800 Y113.046
G1 F1200 X56.200 Y113.046 E256.75399
G1 X56.200 Y115.146 E257.13199
G1 X61.800 Y115.146 E258.13999
G1 X61.800 Y113.046 E258.51799
G0 F12000 X62.200 Y113.046
G0 X62.241 Y115.587
G0 X55.759 Y115.587
G0 X55.200 Y113.046
G0 X54.800 Y113.046
G1 F1200 X49.200 Y113.046 E259.52599
G1 X49.200 Y115.146 E259.90399
G1 X54.800 Y115.146 E260.91199
G1 X54.800 Y113.046 E261.28999
G0 F12000 X54.800 Y112.546
G1 F1200 X54.800 Y110.454 E261.66655
G1 X49.200 Y110.454 E262.67455
G1 X49.200 Y112.546 E263.05111
G1 X54.800 Y112.546 E264.05911
G0 F12000 X55.200 Y112.546
G0 X55.200 Y109.955
G0 X54.800 Y109.955
G1 F1200 X54.800 Y107.855 E264.43711
G1 X49.200 Y107.855 E265.44511
G1 X49.200 Y109.955 E265.82311
G1 X54.800 Y109.955 E266.83111
G0 F12000 X55.200 Y109.955
G0 X55.241 Y115.587
G0 X48.759 Y115.587
G0 X45.070 Y112.200
G0 X45.070 Y111.800
G1 F1200 X45.070 Y106.955 E267.70321
G1 X177.930 Y106.955 E291.61801
G1 X177.929 Y111.800 E292.49011
