;FLAVOR:UltiGCode
;TIME:553
;MATERIAL:2138
;MATERIAL2:0
;NOZZLE_DIAMETER:0.600000
;NOZZLE_DIAMETER2:0.600000

;Layer count: 8
;LAYER:0
M107
G0 F12000 X37.116 Y103.355 Z0.300
;TYPE:SKIRT
G1 F1200 X185.884 Y103.355 E26.77824
G1 X185.884 Y114.800 E28.83834
G1 X183.384 Y114.800 E29.28834
G1 X183.384 Y119.646 E30.16062
G1 X39.616 Y119.646 E56.03886
G1 X39.616 Y114.800 E56.91114
G1 X37.116 Y114.800 E57.36114
G1 X37.116 Y103.355 E59.42124
G10
G1 Z0.400
G0 F12000 X41.316 Y107.555
;TYPE:WALL-INNER
G1 Z0.300
G11
G1 F1200 X44.600 Y107.555 E60.01236
G1 X44.600 Y115.446 E61.43274
G1 X43.816 Y115.446 E61.57386
G1 X43.816 Y110.600 E62.44614
G1 X41.316 Y110.600 E62.89614
G1 X41.316 Y107.555 E63.44424
G0 F12000 X41.116 Y107.555
G0 X48.400 Y107.355
G0 X48.400 Y107.555
G1 F1200 X48.600 Y107.555 E63.48024
G1 X48.600 Y115.446 E64.90062
G1 X48.400 Y115.446 E64.93662
G1 X48.400 Y107.555 E66.35700
G0 F12000 X48.400 Y107.355
G0 X55.400 Y107.355
G0 X55.400 Y107.555
G1 F1200 X55.600 Y107.555 E66.39300
G1 X55.600 Y115.446 E67.81338
G1 X55.400 Y115.446 E67.84938
G1 X55.400 Y107.555 E69.26976
G0 F12000 X55.400 Y107.355
G0 X62.400 Y107.355
G0 X62.400 Y107.555
G1 F1200 X62.600 Y107.555 E69.30576
G1 X62.600 Y115.446 E70.72614
G1 X62.400 Y115.446 E70.76214
G1 X62.400 Y107.555 E72.18252
G0 F12000 X62.400 Y107.355
G0 X69.400 Y107.355
G0 X69.400 Y107.555
G1 F1200 X69.600 Y107.555 E72.21852
G1 X69.600 Y115.446 E73.63890
G1 X69.400 Y115.446 E73.67490
G1 X69.400 Y107.555 E75.09528
G0 F12000 X69.400 Y107.355
G0 X76.400 Y107.355
G0 X76.400 Y107.555
G1 F1200 X76.600 Y107.555 E75.13128
G1 X76.600 Y115.446 E76.55166
G1 X76.400 Y115.446 E76.58766
G1 X76.400 Y107.555 E78.00804
G0 F12000 X76.400 Y107.355
G0 X83.400 Y107.355
G0 X83.400 Y107.555
G1 F1200 X83.600 Y107.555 E78.04404
G1 X83.600 Y115.446 E79.46442
G1 X83.400 Y115.446 E79.50042
G1 X83.400 Y107.555 E80.92080
G0 F12000 X83.400 Y107.355
G0 X90.400 Y107.355
G0 X90.400 Y107.555
G1 F1200 X90.600 Y107.555 E80.95680
G1 X90.600 Y115.446 E82.37718
G1 X90.400 Y115.446 E82.41318
G1 X90.400 Y107.555 E83.83356
G0 F12000 X90.400 Y107.355
G0 X97.400 Y107.355
G0 X97.400 Y107.555
G1 F1200 X97.600 Y107.555 E83.86956
G1 X97.600 Y115.446 E85.28994
G1 X97.400 Y115.446 E85.32594
G1 X97.400 Y107.555 E86.74632
G0 F12000 X97.400 Y107.355
G0 X104.400 Y107.355
G0 X104.400 Y107.555
G1 F1200 X104.600 Y107.555 E86.78232
G1 X104.600 Y115.446 E88.20270
G1 X104.400 Y115.446 E88.23870
G1 X104.400 Y107.555 E89.65908
G0 F12000 X104.400 Y107.355
G0 X111.400 Y107.355
G0 X111.400 Y107.555
G1 F1200 X111.600 Y107.555 E89.69508
G1 X111.600 Y115.446 E91.11546
G1 X111.400 Y115.446 E91.15146
G1 X111.400 Y107.555 E92.57184
G0 F12000 X111.400 Y107.355
G0 X118.400 Y107.355
G0 X118.400 Y107.555
G1 F1200 X118.600 Y107.555 E92.60784
G1 X118.600 Y115.446 E94.02822
G1 X118.400 Y115.446 E94.06422
G1 X118.400 Y107.555 E95.48460
G0 F12000 X118.400 Y107.355
G0 X125.400 Y107.355
G0 X125.400 Y107.555
G1 F1200 X125.600 Y107.555 E95.52060
G1 X125.600 Y115.446 E96.94098
G1 X125.400 Y115.446 E96.97698
G1 X125.400 Y107.555 E98.39736
G0 F12000 X125.400 Y107.355
G0 X132.400 Y107.355
G0 X132.400 Y107.555
G1 F1200 X132.600 Y107.555 E98.43336
G1 X132.600 Y115.446 E99.85374
G1 X132.400 Y115.446 E99.88974
G1 X132.400 Y107.555 E101.31012
G0 F12000 X132.400 Y107.355
G0 X139.400 Y107.355
G0 X139.400 Y107.555
G1 F1200 X139.600 Y107.555 E101.34612
G1 X139.600 Y115.446 E102.76650
G1 X139.400 Y115.446 E102.80250
G1 X139.400 Y107.555 E104.22288
G0 F12000 X139.400 Y107.355
G0 X146.400 Y107.355
G0 X146.400 Y107.555
G1 F1200 X146.600 Y107.555 E104.25888
G1 X146.600 Y115.446 E105.67926
G1 X146.400 Y115.446 E105.71526
G1 X146.400 Y107.555 E107.13564
G0 F12000 X146.400 Y107.355
G0 X153.400 Y107.355
G0 X153.400 Y107.555
G1 F1200 X153.600 Y107.555 E107.17164
G1 X153.600 Y115.446 E108.59202
G1 X153.400 Y115.446 E108.62802
G1 X153.400 Y107.555 E110.04840
G0 F12000 X153.400 Y107.355
G0 X160.400 Y107.355
G0 X160.400 Y107.555
G1 F1200 X160.600 Y107.555 E110.08440
G1 X160.600 Y115.446 E111.50478
G1 X160.400 Y115.446 E111.54078
G1 X160.400 Y107.555 E112.96116
G0 F12000 X160.400 Y107.355
G0 X167.400 Y107.355
G0 X167.400 Y107.555
G1 F1200 X167.600 Y107.555 E112.99716
G1 X167.600 Y115.446 E114.41754
G1 X167.400 Y115.446 E114.45354
G1 X167.400 Y107.555 E115.87392
G0 F12000 X167.400 Y107.355
G0 X174.400 Y107.355
G0 X174.400 Y107.555
G1 F1200 X174.600 Y107.555 E115.90992
G1 X174.600 Y115.446 E117.33030
G1 X174.400 Y115.446 E117.36630
G1 X174.400 Y107.555 E118.78668
G0 F12000 X174.400 Y107.355
G0 X178.400 Y107.555
G1 F1200 X181.684 Y107.555 E119.37780
G1 X181.684 Y110.600 E119.92590
G1 X179.184 Y110.600 E120.37590
G1 X179.184 Y115.446 E121.24818
G1 X178.400 Y115.446 E121.38930
G1 X178.400 Y107.555 E122.80968
G0 F12000 X177.800 Y107.855
;TYPE:WALL-OUTER
G1 F1200 X175.200 Y107.855 E123.27768
G1 X175.200 Y109.955 E123.65568
G1 X177.800 Y109.955 E124.12368
G1 X177.800 Y107.855 E124.50168
G0 F12000 X178.200 Y107.855
G0 X178.200 Y110.454
G0 X177.800 Y110.454
G1 F1200 X175.200 Y110.454 E124.96968
G1 X175.200 Y112.546 E125.34624
G1 X177.800 Y112.546 E125.81424
G1 X177.800 Y110.454 E126.19080
G0 F12000 X178.200 Y110.454
G0 X179.784 Y110.800
G0 X179.784 Y111.200
G1 F1200 X179.784 Y116.046 E127.06308
G1 X43.216 Y116.046 E151.64532
G1 X43.216 Y111.200 E152.51760
G1 X40.716 Y111.200 E152.96760
G1 X40.716 Y106.955 E153.73170
G1 X182.284 Y106.955 E179.21394
G1 X182.284 Y111.200 E179.97804
G1 X179.784 Y111.200 E180.42804
G0 F12000 X179.784 Y110.800
G0 X179.343 Y110.759
G0 X178.200 Y113.046
G0 X177.800 Y113.046
G1 F1200 X175.200 Y113.046 E180.89604
G1 X175.200 Y115.146 E181.27404
G1 X177.800 Y115.146 E181.74204
G1 X177.800 Y113.046 E182.12004
G0 F12000 X178.200 Y113.046
G0 X178.241 Y115.587
G0 X174.759 Y115.587
G0 X174.200 Y113.046
G0 X173.800 Y113.046
G1 F1200 X168.200 Y113.046 E183.12804
G1 X168.200 Y115.146 E183.50604
G1 X173.800 Y115.146 E184.51404
G1 X173.800 Y113.046 E184.89204
G0 F12000 X173.800 Y112.546
G1 F1200 X173.800 Y110.454 E185.26860
G1 X168.200 Y110.454 E186.27660
G1 X168.200 Y112.546 E186.65316
G1 X173.800 Y112.546 E187.66116
G0 F12000 X174.200 Y112.546
G0 X174.200 Y109.955
G0 X173.800 Y109.955
G1 F1200 X173.800 Y107.855 E188.03916
G1 X168.200 Y107.855 E189.04716
G1 X168.200 Y109.955 E189.42516
G1 X173.800 Y109.955 E190.43316
G0 F12000 X174.200 Y109.955
G0 X174.241 Y115.587
G0 X167.759 Y115.587
G0 X167.200 Y109.955
G0 X166.800 Y109.955
G1 F1200 X166.800 Y107.855 E190.81116
G1 X161.200 Y107.855 E191.81916
G1 X161.200 Y109.955 E192.19716
G1 X166.800 Y109.955 E193.20516
G0 F12000 X166.800 Y110.454
G1 F1200 X161.200 Y110.454 E194.21316
G1 X161.200 Y112.546 E194.58972
G1 X166.800 Y112.546 E195.59772
G1 X166.800 Y110.454 E195.97428
G0 F12000 X167.200 Y110.454
G0 X167.200 Y113.046
G0 X166.800 Y113.046
G1 F1200 X161.200 Y113.046 E196.98228
G1 X161.200 Y115.146 E197.36028
G1 X166.800 Y115.146 E198.36828
G1 X166.800 Y113.046 E198.74628
G0 F12000 X167.200 Y113.046
G0 X167.241 Y115.587
G0 X160.759 Y115.587
G0 X160.200 Y113.046
G0 X159.800 Y113.046
G1 F1200 X154.200 Y113.046 E199.75428
G1 X154.200 Y115.146 E200.13228
G1 X159.800 Y115.146 E201.14028
G1 X159.800 Y113.046 E201.51828
G0 F12000 X159.800 Y112.546
G1 F1200 X159.800 Y110.454 E201.89484
G1 X154.200 Y110.454 E202.90284
G1 X154.200 Y112.546 E203.27940
G1 X159.800 Y112.546 E204.28740
G0 F12000 X160.200 Y112.546
G0 X160.200 Y109.955
G0 X159.800 Y109.955
G1 F1200 X159.800 Y107.855 E204.66540
G1 X154.200 Y107.855 E205.67340
G1 X154.200 Y109.955 E206.05140
G1 X159.800 Y109.955 E207.05940
G0 F12000 X160.200 Y109.955
G0 X160.241 Y115.587
G0 X153.759 Y115.587
G0 X153.200 Y109.955
G0 X152.800 Y109.955
G1 F1200 X152.800 Y107.855 E207.43740
G1 X147.200 Y107.855 E208.44540
G1 X147.200 Y109.955 E208.82340
G1 X152.800 Y109.955 E209.83140
G0 F12000 X152.800 Y110.454
G1 F1200 X147.200 Y110.454 E210.83940
G1 X147.200 Y112.546 E211.21596
G1 X152.800 Y112.546 E212.22396
G1 X152.800 Y110.454 E212.60052
G0 F12000 X153.200 Y110.454
G0 X153.200 Y113.046
G0 X152.800 Y113.046
G1 F1200 X147.200 Y113.046 E213.60852
G1 X147.200 Y115.146 E213.98652
G1 X152.800 Y115.146 E214.99452
G1 X152.800 Y113.046 E215.37252
G0 F12000 X153.200 Y113.046
G0 X153.241 Y115.587
G0 X146.759 Y115.587
G0 X146.200 Y113.046
G0 X145.800 Y113.046
G1 F1200 X140.200 Y113.046 E216.38052
G1 X140.200 Y115.146 E216.75852
G1 X145.800 Y115.146 E217.76652
G1 X145.800 Y113.046 E218.14452
G0 F12000 X145.800 Y112.546
G1 F1200 X145.800 Y110.454 E218.52108
G1 X140.200 Y110.454 E219.52908
G1 X140.200 Y112.546 E219.90564
G1 X145.800 Y112.546 E220.91364
G0 F12000 X146.200 Y112.546
G0 X146.200 Y109.955
G0 X145.800 Y109.955
G1 F1200 X145.800 Y107.855 E221.29164
G1 X140.200 Y107.855 E222.29964
G1 X140.200 Y109.955 E222.67764
G1 X145.800 Y109.955 E223.68564
G0 F12000 X146.200 Y109.955
G0 X146.241 Y115.587
G0 X139.759 Y115.587
G0 X139.200 Y109.955
G0 X138.800 Y109.955
G1 F1200 X138.800 Y107.855 E224.06364
G1 X133.200 Y107.855 E225.07164
G1 X133.200 Y109.955 E225.44964
G1 X138.800 Y109.955 E226.45764
G0 F12000 X138.800 Y110.454
G1 F1200 X133.200 Y110.454 E227.46564
G1 X133.200 Y112.546 E227.84220
G1 X138.800 Y112.546 E228.85020
G1 X138.800 Y110.454 E229.22676
G0 F12000 X139.200 Y110.454
G0 X139.200 Y113.046
G0 X138.800 Y113.046
G1 F1200 X133.200 Y113.046 E230.23476
G1 X133.200 Y115.146 E230.61276
G1 X138.800 Y115.146 E231.62076
G1 X138.800 Y113.046 E231.99876
G0 F12000 X139.200 Y113.046
G0 X139.241 Y115.587
G0 X132.759 Y115.587
G0 X132.200 Y113.046
G0 X131.800 Y113.046
G1 F1200 X126.200 Y113.046 E233.00676
G1 X126.200 Y115.146 E233.38476
G1 X131.800 Y115.146 E234.39276
G1 X131.800 Y113.046 E234.77076
G0 F12000 X131.800 Y112.546
G1 F1200 X131.800 Y110.454 E235.14732
G1 X126.200 Y110.454 E236.15532
G1 X126.200 Y112.546 E236.53188
G1 X131.800 Y112.546 E237.53988
G0 F12000 X132.200 Y112.546
G0 X132.200 Y109.955
G0 X131.800 Y109.955
G1 F1200 X131.800 Y107.855 E237.91788
G1 X126.200 Y107.855 E238.92588
G1 X126.200 Y109.955 E239.30388
G1 X131.800 Y109.955 E240.31188
G0 F12000 X132.200 Y109.955
G0 X132.241 Y115.587
G0 X125.759 Y115.587
G0 X125.200 Y109.955
G0 X124.800 Y109.955
G1 F1200 X124.800 Y107.855 E240.68988
G1 X119.200 Y107.855 E241.69788
G1 X119.200 Y109.955 E242.07588
G1 X124.800 Y109.955 E243.08388
G0 F12000 X124.800 Y110.454
G1 F1200 X119.200 Y110.454 E244.09188
G1 X119.200 Y112.546 E244.46844
G1 X124.800 Y112.546 E245.47644
G1 X124.800 Y110.454 E245.85300
G0 F12000 X125.200 Y110.454
G0 X125.200 Y113.046
G0 X124.800 Y113.046
G1 F1200 X119.200 Y113.046 E246.86100
G1 X119.200 Y115.146 E247.23900
G1 X124.800 Y115.146 E248.24700
G1 X124.800 Y113.046 E248.62500
G0 F12000 X125.200 Y113.046
G0 X125.241 Y115.587
G0 X118.759 Y115.587
G0 X118.200 Y113.046
G0 X117.800 Y113.046
G1 F1200 X112.200 Y113.046 E249.63300
G1 X112.200 Y115.146 E250.01100
G1 X117.800 Y115.146 E251.01900
G1 X117.800 Y113.046 E251.39700
G0 F12000 X117.800 Y112.546
G1 F1200 X117.800 Y110.454 E251.77356
G1 X112.200 Y110.454 E252.78156
G1 X112.200 Y112.546 E253.15812
G1 X117.800 Y112.546 E254.16612
G0 F12000 X118.200 Y112.546
G0 X118.200 Y109.955
G0 X117.800 Y109.955
G1 F1200 X117.800 Y107.855 E254.54412
G1 X112.200 Y107.855 E255.55212
G1 X112.200 Y109.955 E255.93012
G1 X117.800 Y109.955 E256.93812
G0 F12000 X118.200 Y109.955
G0 X118.241 Y115.587
G0 X111.759 Y115.587
G0 X111.200 Y109.955
G0 X110.800 Y109.955
G1 F1200 X110.800 Y107.855 E257.31612
G1 X105.200 Y107.855 E258.32412
G1 X105.200 Y109.955 E258.70212
G1 X110.800 Y109.955 E259.71012
G0 F12000 X110.800 Y110.454
G1 F1200 X105.200 Y110.454 E260.71812
G1 X105.200 Y112.546 E261.09468
G1 X110.800 Y112.546 E262.10268
G1 X110.800 Y110.454 E262.47924
G0 F12000 X111.200 Y110.454
G0 X111.200 Y113.046
G0 X110.800 Y113.046
G1 F1200 X105.200 Y113.046 E263.48724
G1 X105.200 Y115.146 E263.86524
G1 X110.800 Y115.146 E264.87324
G1 X110.800 Y113.046 E265.25124
G0 F12000 X111.200 Y113.046
G0 X111.241 Y115.587
G0 X104.759 Y115.587
G0 X104.200 Y113.046
G0 X103.800 Y113.046
G1 F1200 X98.200 Y113.046 E266.25924
G1 X98.200 Y115.146 E266.63724
G1 X103.800 Y115.146 E267.64524
G1 X103.800 Y113.046 E268.02324
G0 F12000 X103.800 Y112.546
G1 F1200 X103.800 Y110.454 E268.39980
G1 X98.200 Y110.454 E269.40780
G1 X98.200 Y112.546 E269.78436
G1 X103.800 Y112.546 E270.79236
G0 F12000 X104.200 Y112.546
G0 X104.200 Y109.955
G0 X103.800 Y109.955
G1 F1200 X103.800 Y107.855 E271.17036
G1 X98.200 Y107.855 E272.17836
G1 X98.200 Y109.955 E272.55636
G1 X103.800 Y109.955 E273.56436
G0 F12000 X104.200 Y109.955
G0 X104.241 Y115.587
G0 X97.759 Y115.587
G0 X97.200 Y109.955
G0 X96.800 Y109.955
G1 F1200 X96.800 Y107.855 E273.94236
G1 X91.200 Y107.855 E274.95036
G1 X91.200 Y109.955 E275.32836
G1 X96.800 Y109.955 E276.33636
G0 F12000 X96.800 Y110.454
G1 F1200 X91.200 Y110.454 E277.34436
G1 X91.200 Y112.546 E277.72092
G1 X96.800 Y112.546 E278.72892
G1 X96.800 Y110.454 E279.10548
G0 F12000 X97.200 Y110.454
G0 X97.200 Y113.046
G0 X96.800 Y113.046
G1 F1200 X91.200 Y113.046 E280.11348
G1 X91.200 Y115.146 E280.49148
G1 X96.800 Y115.146 E281.49948
G1 X96.800 Y113.046 E281.87748
G0 F12000 X97.200 Y113.046
G0 X97.241 Y115.587
G0 X90.759 Y115.587
G0 X90.200 Y113.046
G0 X89.800 Y113.046
G1 F1200 X84.200 Y113.046 E282.88548
G1 X84.200 Y115.146 E283.26348
G1 X89.800 Y115.146 E284.27148
G1 X89.800 Y113.046 E284.64948
G0 F12000 X89.800 Y112.546
G1 F1200 X89.800 Y110.454 E285.02604
G1 X84.200 Y110.454 E286.03404
G1 X84.200 Y112.546 E286.41060
G1 X89.800 Y112.546 E287.41860
G0 F12000 X90.200 Y112.546
G0 X90.200 Y109.955
G0 X89.800 Y109.955
G1 F1200 X89.800 Y107.855 E287.79660
G1 X84.200 Y107.855 E288.80460
G1 X84.200 Y109.955 E289.18260
G1 X89.800 Y109.955 E290.19060
G0 F12000 X90.200 Y109.955
G0 X90.241 Y115.587
G0 X83.759 Y115.587
G0 X83.200 Y109.955
G0 X82.800 Y109.955
G1 F1200 X82.800 Y107.855 E290.56860
G1 X77.200 Y107.855 E291.57660
G1 X77.200 Y109.955 E291.95460
G1 X82.800 Y109.955 E292.96260
G0 F12000 X82.800 Y110.454
G1 F1200 X77.200 Y110.454 E293.97060
G1 X77.200 Y112.546 E294.34716
G1 X82.800 Y112.546 E295.35516
G1 X82.800 Y110.454 E295.73172
G0 F12000 X83.200 Y110.454
G0 X83.200 Y113.046
G0 X82.800 Y113.046
G1 F1200 X77.200 Y113.046 E296.73972
G1 X77.200 Y115.146 E297.11772
G1 X82.800 Y115.146 E298.12572
G1 X82.800 Y113.046 E298.50372
G0 F12000 X83.200 Y113.046
G0 X83.241 Y115.587
G0 X76.759 Y115.587
G0 X76.200 Y113.046
G0 X75.800 Y113.046
G1 F1200 X70.200 Y113.046 E299.51172
G1 X70.200 Y115.146 E299.88972
G1 X75.800 Y115.146 E300.89772
G1 X75.800 Y113.046 E301.27572
G0 F12000 X75.800 Y112.546
G1 F1200 X75.800 Y110.454 E301.65228
G1 X70.200 Y110.454 E302.66028
G1 X70.200 Y112.546 E303.03684
G1 X75.800 Y112.546 E304.04484
G0 F12000 X76.200 Y112.546
G0 X76.200 Y109.955
G0 X75.800 Y109.955
G1 F1200 X75.800 Y107.855 E304.42284
G1 X70.200 Y107.855 E305.43084
G1 X70.200 Y109.955 E305.80884
G1 X75.800 Y109.955 E306.81684
G0 F12000 X76.200 Y109.955
G0 X76.241 Y115.587
G0 X69.759 Y115.587
G0 X69.200 Y109.955
G0 X68.800 Y109.955
G1 F1200 X68.800 Y107.855 E307.19484
G1 X63.200 Y107.855 E308.20284
G1 X63.200 Y109.955 E308.58084
G1 X68.800 Y109.955 E309.58884
G0 F12000 X68.800 Y110.454
G1 F1200 X63.200 Y110.454 E310.59684
G1 X63.200 Y112.546 E310.97340
G1 X68.800 Y112.546 E311.98140
G1 X68.800 Y110.454 E312.35796
G0 F12000 X69.200 Y110.454
G0 X69.200 Y113.046
G0 X68.800 Y113.046
G1 F1200 X63.200 Y113.046 E313.36596
G1 X63.200 Y115.146 E313.74396
G1 X68.800 Y115.146 E314.75196
G1 X68.800 Y113.046 E315.12996
G0 F12000 X69.200 Y113.046
G0 X69.241 Y115.587
G0 X62.759 Y115.587
G0 X62.200 Y113.046
G0 X61.800 Y113.046
