;FLAVOR:UltiGCode
;TIME:1983
;MATERIAL:1778
;MATERIAL2:0
;NOZZLE_DIAMETER:0.400000
;NOZZLE_DIAMETER2:0.400000

;Layer count: 29
;LAYER:0
M107
G0 F12000 X41.599 Y103.455 Z0.300
;TYPE:SKIRT
G1 F1200 X181.396 Y103.455 E16.77564
G1 X181.395 Y108.300 E17.35704
G1 X183.890 Y108.300 E17.65644
G1 X183.896 Y112.152 E18.11868
G1 X183.894 Y119.546 E19.00596
G1 X39.105 Y119.546 E36.38064
G1 X39.105 Y112.155 E37.26756
G1 X39.099 Y108.300 E37.73016
G1 X41.605 Y108.300 E38.03088
G1 X41.605 Y107.309 E38.14980
G1 X41.599 Y103.455 E38.61228
G10
G1 Z0.400
G0 F12000 X45.805 Y107.655
;TYPE:WALL-INNER
G1 Z0.300
G11
G1 F1200 X48.500 Y107.655 E38.93568
G1 X48.500 Y115.346 E39.85860
G1 X43.305 Y115.346 E40.48200
G1 X43.305 Y112.500 E40.82352
G1 X45.804 Y112.500 E41.12340
G1 X45.805 Y107.655 E41.70480
G0 F12000 X174.500 Y107.655
G1 F1200 X177.196 Y107.655 E42.02832
G1 X177.195 Y112.500 E42.60972
G1 X179.696 Y112.500 E42.90984
G1 X179.695 Y115.346 E43.25136
G1 X174.500 Y115.346 E43.87476
G1 X174.500 Y107.655 E44.79768
G0 F12000 X174.100 Y107.555
G1 F1200 X167.900 Y107.555 E45.54168
G1 X167.900 Y115.446 E46.48860
G1 X174.100 Y115.446 E47.23260
G1 X174.100 Y107.555 E48.17952
G0 F12000 X177.596 Y107.255
G1 F1200 X177.595 Y112.100 E48.76092
G1 X180.096 Y112.100 E49.06104
G1 X180.095 Y115.746 E49.49856
G1 X42.905 Y115.746 E65.96136
G1 X42.904 Y112.100 E66.39888
G1 X45.404 Y112.100 E66.69888
G1 X45.405 Y107.310 E67.27368
G1 X45.405 Y107.255 E67.28028
G1 X177.596 Y107.255 E83.14320
G0 F12000 X167.100 Y107.555
G1 F1200 X160.900 Y107.555 E83.88720
G1 X160.900 Y115.446 E84.83412
G1 X167.100 Y115.446 E85.57812
G1 X167.100 Y107.555 E86.52504
G0 F12000 X160.100 Y107.555
G1 F1200 X153.900 Y107.555 E87.26904
G1 X153.900 Y115.446 E88.21596
G1 X160.100 Y115.446 E88.95996
G1 X160.100 Y107.555 E89.90688
G0 F12000 X153.100 Y107.555
G1 F1200 X146.900 Y107.555 E90.65088
G1 X146.900 Y115.446 E91.59780
G1 X153.100 Y115.446 E92.34180
G1 X153.100 Y107.555 E93.28872
G0 F12000 X146.100 Y107.555
G1 F1200 X139.900 Y107.555 E94.03272
G1 X139.900 Y115.446 E94.97964
G1 X146.100 Y115.446 E95.72364
G1 X146.100 Y107.555 E96.67056
G0 F12000 X139.100 Y107.555
G1 F1200 X132.900 Y107.555 E97.41456
G1 X132.900 Y115.446 E98.36148
G1 X139.100 Y115.446 E99.10548
G1 X139.100 Y107.555 E100.05240
G0 F12000 X132.100 Y107.555
G1 F1200 X125.900 Y107.555 E100.79640
G1 X125.900 Y115.446 E101.74332
G1 X132.100 Y115.446 E102.48732
G1 X132.100 Y107.555 E103.43424
G0 F12000 X125.100 Y107.555
G1 F1200 X118.900 Y107.555 E104.17824
G1 X118.900 Y115.446 E105.12516
G1 X125.100 Y115.446 E105.86916
G1 X125.100 Y107.555 E106.81608
G0 F12000 X118.100 Y107.555
G1 F1200 X111.900 Y107.555 E107.56008
G1 X111.900 Y115.446 E108.50700
G1 X118.100 Y115.446 E109.25100
G1 X118.100 Y107.555 E110.19792
G0 F12000 X111.100 Y107.555
G1 F1200 X104.900 Y107.555 E110.94192
G1 X104.900 Y115.446 E111.88884
G1 X111.100 Y115.446 E112.63284
G1 X111.100 Y107.555 E113.57976
G0 F12000 X104.100 Y107.555
G1 F1200 X97.900 Y107.555 E114.32376
G1 X97.900 Y115.446 E115.27068
G1 X104.100 Y115.446 E116.01468
G1 X104.100 Y107.555 E116.96160
G0 F12000 X97.100 Y107.555
G1 F1200 X90.900 Y107.555 E117.70560
G1 X90.900 Y115.446 E118.65252
G1 X97.100 Y115.446 E119.39652
G1 X97.100 Y107.555 E120.34344
G0 F12000 X90.100 Y107.555
G1 F1200 X83.900 Y107.555 E121.08744
G1 X83.900 Y115.446 E122.03436
G1 X90.100 Y115.446 E122.77836
G1 X90.100 Y107.555 E123.72528
G0 F12000 X83.100 Y107.555
G1 F1200 X76.900 Y107.555 E124.46928
G1 X76.900 Y115.446 E125.41620
G1 X83.100 Y115.446 E126.16020
G1 X83.100 Y107.555 E127.10712
G0 F12000 X76.100 Y107.555
G1 F1200 X69.900 Y107.555 E127.85112
G1 X69.900 Y115.446 E128.79804
G1 X76.100 Y115.446 E129.54204
G1 X76.100 Y107.555 E130.48896
G0 F12000 X69.100 Y107.555
G1 F1200 X62.900 Y107.555 E131.23296
G1 X62.900 Y115.446 E132.17988
G1 X69.100 Y115.446 E132.92388
G1 X69.100 Y107.555 E133.87080
G0 F12000 X62.100 Y107.555
G1 F1200 X55.900 Y107.555 E134.61480
G1 X55.900 Y115.446 E135.56172
G1 X62.100 Y115.446 E136.30572
G1 X62.100 Y107.555 E137.25264
G0 F12000 X55.100 Y107.555
G1 F1200 X48.900 Y107.555 E137.99664
G1 X48.900 Y115.446 E138.94356
G1 X55.100 Y115.446 E139.68756
G1 X55.100 Y107.555 E140.63448
G0 F12000 X54.700 Y107.955
;TYPE:WALL-OUTER
G1 F1200 X49.300 Y107.955 E141.28248
G1 X49.300 Y109.855 E141.51048
G1 X54.700 Y109.855 E142.15848
G1 X54.700 Y107.955 E142.38648
G0 F12000 X54.700 Y107.655
G0 X56.300 Y107.655
G0 X56.300 Y107.955
G1 F1200 X56.300 Y109.855 E142.61448
G1 X61.700 Y109.855 E143.26248
G1 X61.700 Y107.955 E143.49048
G1 X56.300 Y107.955 E144.13848
G0 F12000 X56.300 Y107.655
G0 X62.041 Y107.614
G0 X62.041 Y110.196
G0 X56.300 Y110.254
G0 X56.300 Y110.554
G1 F1200 X56.300 Y112.446 E144.36552
G1 X61.700 Y112.446 E145.01352
G1 X61.700 Y110.554 E145.24056
G1 X56.300 Y110.554 E145.88856
G0 F12000 X56.300 Y110.254
G0 X54.700 Y110.254
G0 X54.700 Y110.554
G1 F1200 X49.300 Y110.554 E146.53656
G1 X49.300 Y112.446 E146.76360
G1 X54.700 Y112.446 E147.41160
G1 X54.700 Y110.554 E147.63864
G0 F12000 X54.700 Y110.254
G0 X55.041 Y110.213
G0 X55.041 Y112.787
G0 X54.700 Y112.846
G0 X54.700 Y113.146
G1 F1200 X49.300 Y113.146 E148.28664
G1 X49.300 Y115.046 E148.51464
G1 X54.700 Y115.046 E149.16264
G1 X54.700 Y113.146 E149.39064
G0 F12000 X54.700 Y112.846
G0 X56.300 Y112.846
G0 X56.300 Y113.146
G1 F1200 X56.300 Y115.046 E149.61864
G1 X61.700 Y115.046 E150.26664
G1 X61.700 Y113.146 E150.49464
G1 X56.300 Y113.146 E151.14264
G0 F12000 X56.300 Y112.846
G0 X63.300 Y112.846
G0 X63.300 Y113.146
G1 F1200 X63.300 Y115.046 E151.37064
G1 X68.700 Y115.046 E152.01864
G1 X68.700 Y113.146 E152.24664
G1 X63.300 Y113.146 E152.89464
G0 F12000 X63.300 Y112.446
G1 F1200 X68.700 Y112.446 E153.54264
G1 X68.700 Y110.554 E153.76968
G1 X63.300 Y110.554 E154.41768
G1 X63.300 Y112.446 E154.64472
G0 F12000 X63.000 Y112.446
G0 X63.000 Y109.855
G0 X63.300 Y109.855
G1 F1200 X68.700 Y109.855 E155.29272
G1 X68.700 Y107.955 E155.52072
G1 X63.300 Y107.955 E156.16872
G1 X63.300 Y109.855 E156.39672
G0 F12000 X63.000 Y109.855
G0 X62.959 Y107.614
G0 X69.041 Y107.614
G0 X70.000 Y109.855
G0 X70.300 Y109.855
G1 F1200 X75.700 Y109.855 E157.04472
G1 X75.700 Y107.955 E157.27272
G1 X70.300 Y107.955 E157.92072
G1 X70.300 Y109.855 E158.14872
G0 F12000 X70.300 Y110.554
G1 F1200 X70.300 Y112.446 E158.37576
G1 X75.700 Y112.446 E159.02376
G1 X75.700 Y110.554 E159.25080
G1 X70.300 Y110.554 E159.89880
G0 F12000 X70.300 Y110.254
G0 X76.041 Y110.213
G0 X76.041 Y112.787
G0 X70.300 Y112.846
G0 X70.300 Y113.146
G1 F1200 X70.300 Y115.046 E160.12680
G1 X75.700 Y115.046 E160.77480
G1 X75.700 Y113.146 E161.00280
G1 X70.300 Y113.146 E161.65080
G0 F12000 X70.300 Y112.846
G0 X77.300 Y112.846
G0 X77.300 Y113.146
G1 F1200 X77.300 Y115.046 E161.87880
G1 X82.700 Y115.046 E162.52680
G1 X82.700 Y113.146 E162.75480
G1 X77.300 Y113.146 E163.40280
G0 F12000 X77.300 Y112.446
G1 F1200 X82.700 Y112.446 E164.05080
G1 X82.700 Y110.554 E164.27784
G1 X77.300 Y110.554 E164.92584
G1 X77.300 Y112.446 E165.15288
G0 F12000 X77.000 Y112.446
G0 X77.000 Y109.855
G0 X77.300 Y109.855
G1 F1200 X82.700 Y109.855 E165.80088
G1 X82.700 Y107.955 E166.02888
G1 X77.300 Y107.955 E166.67688
G1 X77.300 Y109.855 E166.90488
G0 F12000 X77.000 Y109.855
G0 X76.959 Y107.614
G0 X83.041 Y107.614
G0 X84.000 Y109.855
G0 X84.300 Y109.855
G1 F1200 X89.700 Y109.855 E167.55288
G1 X89.700 Y107.955 E167.78088
G1 X84.300 Y107.955 E168.42888
G1 X84.300 Y109.855 E168.65688
G0 F12000 X84.300 Y110.554
G1 F1200 X84.300 Y112.446 E168.88392
G1 X89.700 Y112.446 E169.53192
G1 X89.700 Y110.554 E169.75896
G1 X84.300 Y110.554 E170.40696
G0 F12000 X84.300 Y110.254
G0 X90.041 Y110.213
G0 X90.041 Y112.787
G0 X84.300 Y112.846
G0 X84.300 Y113.146
G1 F1200 X84.300 Y115.046 E170.63496
G1 X89.700 Y115.046 E171.28296
G1 X89.700 Y113.146 E171.51096
G1 X84.300 Y113.146 E172.15896
G0 F12000 X84.300 Y112.846
G0 X91.300 Y112.846
G0 X91.300 Y113.146
G1 F1200 X91.300 Y115.046 E172.38696
G1 X96.700 Y115.046 E173.03496
G1 X96.700 Y113.146 E173.26296
G1 X91.300 Y113.146 E173.91096
G0 F12000 X91.300 Y112.446
G1 F1200 X96.700 Y112.446 E174.55896
G1 X96.700 Y110.554 E174.78600
G1 X91.300 Y110.554 E175.43400
G1 X91.300 Y112.446 E175.66104
G0 F12000 X91.000 Y112.446
G0 X91.000 Y109.855
G0 X91.300 Y109.855
G1 F1200 X96.700 Y109.855 E176.30904
G1 X96.700 Y107.955 E176.53704
G1 X91.300 Y107.955 E177.18504
G1 X91.300 Y109.855 E177.41304
G0 F12000 X91.000 Y109.855
G0 X90.959 Y107.614
G0 X97.041 Y107.614
G0 X98.000 Y109.855
G0 X98.300 Y109.855
G1 F1200 X103.700 Y109.855 E178.06104
G1 X103.700 Y107.955 E178.28904
G1 X98.300 Y107.955 E178.93704
G1 X98.300 Y109.855 E179.16504
G0 F12000 X98.300 Y110.554
G1 F1200 X98.300 Y112.446 E179.39208
G1 X103.700 Y112.446 E180.04008
G1 X103.700 Y110.554 E180.26712
G1 X98.300 Y110.554 E180.91512
G0 F12000 X98.300 Y110.254
G0 X104.041 Y110.213
G0 X104.041 Y112.787
G0 X98.300 Y112.846
G0 X98.300 Y113.146
G1 F1200 X98.300 Y115.046 E181.14312
G1 X103.700 Y115.046 E181.79112
G1 X103.700 Y113.146 E182.01912
G1 X98.300 Y113.146 E182.66712
G0 F12000 X98.300 Y112.846
G0 X105.300 Y112.846
G0 X105.300 Y113.146
G1 F1200 X105.300 Y115.046 E182.89512
G1 X110.700 Y115.046 E183.54312
G1 X110.700 Y113.146 E183.77112
G1 X105.300 Y113.146 E184.41912
G0 F12000 X105.300 Y112.446
G1 F1200 X110.700 Y112.446 E185.06712
G1 X110.700 Y110.554 E185.29416
G1 X105.300 Y110.554 E185.94216
G1 X105.300 Y112.446 E186.16920
G0 F12000 X105.000 Y112.446
G0 X105.000 Y109.855
G0 X105.300 Y109.855
G1 F1200 X110.700 Y109.855 E186.81720
G1 X110.700 Y107.955 E187.04520
G1 X105.300 Y107.955 E187.69320
G1 X105.300 Y109.855 E187.92120
G0 F12000 X105.000 Y109.855
G0 X104.959 Y107.614
G0 X111.041 Y107.614
G0 X112.000 Y109.855
G0 X112.300 Y109.855
G1 F1200 X117.700 Y109.855 E188.56920
G1 X117.700 Y107.955 E188.79720
G1 X112.300 Y107.955 E189.44520
G1 X112.300 Y109.855 E189.67320
G0 F12000 X112.300 Y110.554
G1 F1200 X112.300 Y112.446 E189.90024
G1 X117.700 Y112.446 E190.54824
G1 X117.700 Y110.554 E190.77528
G1 X112.300 Y110.554 E191.42328
G0 F12000 X112.300 Y110.254
G0 X118.041 Y110.213
G0 X118.041 Y112.787
G0 X112.300 Y112.846
G0 X112.300 Y113.146
G1 F1200 X112.300 Y115.046 E191.65128
G1 X117.700 Y115.046 E192.29928
G1 X117.700 Y113.146 E192.52728
G1 X112.300 Y113.146 E193.17528
G0 F12000 X112.300 Y112.846
G0 X119.300 Y112.846
G0 X119.300 Y113.146
G1 F1200 X119.300 Y115.046 E193.40328
G1 X124.700 Y115.046 E194.05128
G1 X124.700 Y113.146 E194.27928
G1 X119.300 Y113.146 E194.92728
G0 F12000 X119.300 Y112.446
G1 F1200 X124.700 Y112.446 E195.57528
G1 X124.700 Y110.554 E195.80232
G1 X119.300 Y110.554 E196.45032
G1 X119.300 Y112.446 E196.67736
G0 F12000 X119.000 Y112.446
G0 X119.000 Y109.855
G0 X119.300 Y109.855
G1 F1200 X124.700 Y109.855 E197.32536
G1 X124.700 Y107.955 E197.55336
G1 X119.300 Y107.955 E198.20136
G1 X119.300 Y109.855 E198.42936
G0 F12000 X119.000 Y109.855
G0 X118.959 Y107.614
G0 X125.041 Y107.614
G0 X126.000 Y109.855
G0 X126.300 Y109.855
G1 F1200 X131.700 Y109.855 E199.07736
G1 X131.700 Y107.955 E199.30536
G1 X126.300 Y107.955 E199.95336
G1 X126.300 Y109.855 E200.18136
G0 F12000 X126.300 Y110.554
G1 F1200 X126.300 Y112.446 E200.40840
G1 X131.700 Y112.446 E201.05640
G1 X131.700 Y110.554 E201.28344
G1 X126.300 Y110.554 E201.93144
G0 F12000 X126.300 Y110.254
G0 X132.041 Y110.213
G0 X132.041 Y112.787
G0 X126.300 Y112.846
G0 X126.300 Y113.146
G1 F1200 X126.300 Y115.046 E202.15944
G1 X131.700 Y115.046 E202.80744
G1 X131.700 Y113.146 E203.03544
G1 X126.300 Y113.146 E203.68344
G0 F12000 X126.300 Y112.846
G0 X133.300 Y112.846
G0 X133.300 Y113.146
G1 F1200 X133.300 Y115.046 E203.91144
G1 X138.700 Y115.046 E204.55944
G1 X138.700 Y113.146 E204.78744
G1 X133.300 Y113.146 E205.43544
G0 F12000 X133.300 Y112.446
G1 F1200 X138.700 Y112.446 E206.08344
G1 X138.700 Y110.554 E206.31048
G1 X133.300 Y110.554 E206.95848
G1 X133.300 Y112.446 E207.18552
G0 F12000 X133.000 Y112.446
G0 X133.000 Y109.855
G0 X133.300 Y109.855
G1 F1200 X138.700 Y109.855 E207.83352
G1 X138.700 Y107.955 E208.06152
G1 X133.300 Y107.955 E208.70952
G1 X133.300 Y109.855 E208.93752
G0 F12000 X133.000 Y109.855
G0 X132.959 Y107.614
G0 X139.041 Y107.614
G0 X140.000 Y109.855
G0 X140.300 Y109.855
G1 F1200 X145.700 Y109.855 E209.58552
G1 X145.700 Y107.955 E209.81352
G1 X140.300 Y107.955 E210.46152
G1 X140.300 Y109.855 E210.68952
G0 F12000 X140.300 Y110.554
G1 F1200 X140.300 Y112.446 E210.91656
G1 X145.700 Y112.446 E211.56456
G1 X145.700 Y110.554 E211.79160
G1 X140.300 Y110.554 E212.43960
G0 F12000 X140.300 Y110.254
G0 X146.041 Y110.213
G0 X146.041 Y112.787
G0 X140.300 Y112.846
G0 X140.300 Y113.146
G1 F1200 X140.300 Y115.046 E212.66760
G1 X145.700 Y115.046 E213.31560
G1 X145.700 Y113.146 E213.54360
G1 X140.300 Y113.146 E214.19160
G0 F12000 X140.300 Y112.846
G0 X147.300 Y112.846
G0 X147.300 Y113.146
G1 F1200 X147.300 Y115.046 E214.41960
G1 X152.700 Y115.046 E215.06760
G1 X152.700 Y113.146 E215.29560
G1 X147.300 Y113.146 E215.94360
G0 F12000 X147.300 Y112.446
G1 F1200 X152.700 Y112.446 E216.59160
G1 X152.700 Y110.554 E216.81864
G1 X147.300 Y110.554 E217.46664
G1 X147.300 Y112.446 E217.69368
G0 F12000 X147.000 Y112.446
G0 X147.000 Y109.855
G0 X147.300 Y109.855
G1 F1200 X152.700 Y109.855 E218.34168
G1 X152.700 Y107.955 E218.56968
G1 X147.300 Y107.955 E219.21768
G1 X147.300 Y109.855 E219.44568
G0 F12000 X147.000 Y109.855
G0 X146.959 Y107.614
G0 X153.041 Y107.614
G0 X154.000 Y109.855
G0 X154.300 Y109.855
G1 F1200 X159.700 Y109.855 E220.09368
G1 X159.700 Y107.955 E220.32168
G1 X154.300 Y107.955 E220.96968
G1 X154.300 Y109.855 E221.19768
G0 F12000 X154.300 Y110.554
G1 F1200 X154.300 Y112.446 E221.42472
G1 X159.700 Y112.446 E222.07272
G1 X159.700 Y110.554 E222.29976
G1 X154.300 Y110.554 E222.94776
G0 F12000 X154.300 Y110.254
G0 X160.041 Y110.213
G0 X160.041 Y112.787
G0 X154.300 Y112.846
G0 X154.300 Y113.146
G1 F1200 X154.300 Y115.046 E223.17576
G1 X159.700 Y115.046 E223.82376
G1 X159.700 Y113.146 E224.05176
G1 X154.300 Y113.146 E224.69976
G0 F12000 X154.300 Y112.846
G0 X161.300 Y112.846
G0 X161.300 Y113.146
G1 F1200 X161.300 Y115.046 E224.92776
G1 X166.700 Y115.046 E225.57576
G1 X166.700 Y113.146 E225.80376
G1 X161.300 Y113.146 E226.45176
G0 F12000 X161.300 Y112.446
G1 F1200 X166.700 Y112.446 E227.09976
G1 X166.700 Y110.554 E227.32680
G1 X161.300 Y110.554 E227.97480
G1 X161.300 Y112.446 E228.20184
G0 F12000 X161.000 Y112.446
G0 X161.000 Y109.855
G0 X161.300 Y109.855
G1 F1200 X166.700 Y109.855 E228.84984
G1 X166.700 Y107.955 E229.07784
G1 X161.300 Y107.955 E229.72584
G1 X161.300 Y109.855 E229.95384
G0 F12000 X161.000 Y109.855
G0 X160.959 Y107.614
G0 X167.041 Y107.614
G0 X168.000 Y109.855
G0 X168.300 Y109.855
G1 F1200 X173.700 Y109.855 E230.60184
G1 X173.700 Y107.955 E230.82984
G1 X168.300 Y107.955 E231.47784
G1 X168.300 Y109.855 E231.70584
G0 F12000 X168.300 Y110.554
G1 F1200 X168.300 Y112.446 E231.93288
G1 X173.700 Y112.446 E232.58088
G1 X173.700 Y110.554 E232.80792
G1 X168.300 Y110.554 E233.45592
G0 F12000 X168.300 Y110.254
G0 X174.041 Y110.213
G0 X174.041 Y112.787
G0 X168.300 Y112.846
G0 X168.300 Y113.146
G1 F1200 X168.300 Y115.046 E233.68392
G1 X173.700 Y115.046 E234.33192
G1 X173.700 Y113.146 E234.55992
G1 X168.300 Y113.146 E235.20792
G0 F12000 X168.300 Y112.846
G0 X174.041 Y112.787
G0 X177.696 Y111.699
G0 X177.995 Y111.700
G1 F1200 X180.495 Y111.700 E235.50792
G1 X180.495 Y116.146 E236.04144
G1 X42.505 Y116.146 E252.60024
G1 X42.504 Y111.700 E253.13376
G1 X45.004 Y111.700 E253.43376
G1 X45.004 Y106.855 E254.01516
G1 X177.996 Y106.855 E269.97420
G1 X177.995 Y111.700 E270.55560
G0 F12000 X177.976 Y112.639
