;FLAVOR:UltiGCode
;TIME:822
;MATERIAL:257
;MATERIAL2:0
;NOZZLE_DIAMETER:0.400000
;NOZZLE_DIAMETER2:0.400000

;Layer count: 108
;LAYER:0
M106 S255
G0 F12000 X92.386 Y107.033 Z0.300
;TYPE:SKIRT
G1 F1200 X93.632 Y106.056 E0.19000
G1 X98.439 Y105.663 E0.76877
G1 X99.965 Y105.534 E0.95254
G1 X106.282 Y109.176 E1.82754
G1 X111.733 Y109.182 E2.48166
G1 X113.366 Y109.184 E2.67762
G1 X113.352 Y109.097 E2.68820
G1 X113.501 Y108.027 E2.81784
G1 X113.882 Y107.100 E2.93811
G1 X114.476 Y106.312 E3.05652
G1 X115.255 Y105.684 E3.17660
G1 X116.488 Y105.134 E3.33861
G1 X122.326 Y105.271 E4.03936
G1 X123.662 Y106.239 E4.23734
G1 X130.338 Y111.083 E5.22713
G1 X130.883 Y111.603 E5.31752
G1 X131.418 Y112.459 E5.43865
G1 X131.699 Y113.424 E5.55926
G1 X131.742 Y114.661 E5.70779
G1 X131.190 Y116.102 E5.89297
G1 X130.359 Y116.997 E6.03952
G1 X129.508 Y117.535 E6.16034
G1 X128.356 Y117.890 E6.30499
G1 X123.605 Y117.523 E6.87681
G1 X123.286 Y117.498 E6.91521
G1 X106.698 Y117.475 E8.90577
G1 X100.801 Y117.480 E9.61341
G1 X93.878 Y113.488 E10.57239
G1 X93.001 Y112.982 E10.69389
G1 X92.398 Y112.521 E10.78498
G1 X91.767 Y111.712 E10.90809
G1 X91.368 Y110.732 E11.03507
G1 X91.249 Y109.684 E11.16164
G1 X91.406 Y108.690 E11.28239
G1 X91.794 Y107.790 E11.40000
G1 X92.386 Y107.033 E11.51532
G0 F12000 X92.671 Y107.318
G1 F1200 X93.784 Y106.445 E11.68507
G1 X98.462 Y106.063 E12.24829
G1 X98.462 Y106.062 E12.24841
G1 X99.874 Y105.943 E12.41846
G1 X106.175 Y109.576 E13.29125
G1 X113.833 Y109.586 E14.21022
G1 X113.756 Y109.094 E14.26997
G1 X113.891 Y108.132 E14.38655
G1 X114.232 Y107.299 E14.49456
G1 X114.766 Y106.592 E14.60088
G1 X115.465 Y106.028 E14.70866
G1 X116.569 Y105.536 E14.85370
G1 X122.192 Y105.668 E15.52864
G1 X123.427 Y106.563 E15.71167
G1 X130.081 Y111.391 E16.69819
G1 X130.570 Y111.857 E16.77925
G1 X131.050 Y112.624 E16.88783
G1 X131.301 Y113.488 E16.99579
G1 X131.340 Y114.594 E17.12860
G1 X130.844 Y115.886 E17.29467
G1 X130.101 Y116.687 E17.42577
G1 X129.340 Y117.169 E17.53387
G1 X128.311 Y117.485 E17.66304
G1 X123.637 Y117.124 E18.22559
G1 X123.305 Y117.098 E18.26555
G1 X106.699 Y117.075 E20.25827
G1 X100.908 Y117.080 E20.95320
G1 X94.078 Y113.142 E21.89927
G1 X93.224 Y112.649 E22.01760
G1 X92.682 Y112.234 E22.09952
G1 X92.116 Y111.510 E22.20979
G1 X91.760 Y110.632 E22.32349
G1 X91.652 Y109.693 E22.43691
G1 X91.793 Y108.802 E22.54516
G1 X92.141 Y107.996 E22.65051
G1 X92.671 Y107.318 E22.75378
G10
G1 Z0.400
G0 F12000 X95.114 Y109.814
;TYPE:WALL-OUTER
G1 Z0.300
G11
G1 F1200 X95.085 Y109.786 E22.75861
G1 X95.083 Y109.768 E22.76079
G1 X95.088 Y109.749 E22.76315
G1 X99.099 Y109.420 E23.24608
G1 X105.263 Y112.975 E24.09996
G1 X122.062 Y112.996 E26.11585
G1 X122.152 Y112.720 E26.15068
G1 X117.231 Y109.150 E26.88023
G1 X117.209 Y109.120 E26.88469
G1 X117.198 Y109.095 E26.88797
G1 X117.193 Y109.064 E26.89174
G1 X117.199 Y109.027 E26.89624
G1 X117.211 Y108.996 E26.90023
G1 X117.225 Y108.977 E26.90306
G1 X117.256 Y108.953 E26.90776
G1 X121.054 Y109.043 E27.36365
G1 X127.899 Y114.008 E28.37838
G1 X127.916 Y114.026 E28.38135
G1 X127.909 Y114.045 E28.38378
G1 X123.443 Y113.698 E28.92132
G1 X101.816 Y113.679 E31.51656
G1 X95.114 Y109.814 E32.44495
G0 F12000 X95.958 Y109.817
;TYPE:SKIN
G1 F1200 X96.717 Y110.576 E32.57376
G0 F12000 X96.481 Y109.774
G1 F1200 X98.053 Y111.347 E32.84062
G0 F12000 X98.133 Y111.209
G0 X99.470 Y111.980
G0 X99.390 Y112.118
G1 F1200 X97.003 Y109.731 E33.24571
G0 F12000 X97.526 Y109.689
G1 F1200 X100.726 Y112.888 E33.78868
G0 F12000 X101.942 Y113.538
G1 F1200 X98.049 Y109.646 E34.44926
G0 F12000 X98.572 Y109.602
G1 F1200 X102.507 Y113.538 E35.11714
G0 F12000 X103.074 Y113.539
G1 F1200 X99.137 Y109.602 E35.78527
G0 F12000 X99.056 Y109.741
G0 X100.393 Y110.512
G0 X100.474 Y110.374
G1 F1200 X103.640 Y113.540 E36.32255
G0 F12000 X104.207 Y113.540
G1 F1200 X101.812 Y111.145 E36.72900
G0 F12000 X101.732 Y111.284
G0 X103.070 Y112.055
G0 X103.149 Y111.917
G1 F1200 X104.772 Y113.540 E37.00443
G0 F12000 X105.339 Y113.541
G1 F1200 X104.486 Y112.688 E37.14919
G0 F12000 X105.478 Y113.115
G1 F1200 X105.974 Y113.328 E37.22158
G1 X106.541 Y113.329 E37.29387
G1 X107.107 Y113.329 E37.36604
G1 X107.673 Y113.330 E37.43820
G1 X108.240 Y113.331 E37.51049
G1 X108.806 Y113.331 E37.58266
G1 X109.372 Y113.332 E37.65482
G1 X109.938 Y113.332 E37.72682
G1 X110.505 Y113.333 E37.79894
G1 X111.071 Y113.334 E37.87094
G1 X111.637 Y113.334 E37.94293
G1 X112.204 Y113.335 E38.01488
G1 X112.770 Y113.336 E38.08688
G1 X113.336 Y113.336 E38.15870
G1 X113.903 Y113.337 E38.23066
G1 X114.469 Y113.338 E38.30265
G1 X115.035 Y113.338 E38.37448
G1 X115.601 Y113.338 E38.44613
G1 X116.168 Y113.339 E38.51792
G1 X116.734 Y113.340 E38.58974
G1 X117.300 Y113.341 E38.66140
G1 X117.867 Y113.341 E38.73301
G1 X118.433 Y113.342 E38.80449
G1 X118.999 Y113.343 E38.87615
G1 X119.565 Y113.343 E38.94764
G1 X120.132 Y113.343 E39.01908
G1 X120.698 Y113.344 E39.09056
G1 X121.265 Y113.345 E39.16201
G1 X121.830 Y113.345 E39.23337
G1 X122.325 Y113.557 E39.29798
G0 F12000 X122.891 Y113.557
G1 F1200 X122.237 Y112.903 E39.40897
G0 F12000 X123.458 Y113.559
G1 F1200 X119.035 Y109.135 E40.15966
G0 F12000 X119.614 Y109.149
G1 F1200 X124.071 Y113.606 E40.91604
G0 F12000 X124.684 Y113.653
G1 F1200 X120.194 Y109.163 E41.67802
G0 F12000 X120.773 Y109.177
G1 F1200 X125.298 Y113.702 E42.44594
G0 F12000 X125.911 Y113.749
G1 F1200 X122.236 Y110.074 E43.06961
G0 F12000 X122.143 Y110.201
G0 X121.266 Y111.708
G0 X121.171 Y111.837
G1 F1200 X118.455 Y109.121 E43.53053
G0 F12000 X117.876 Y109.107
G1 F1200 X119.110 Y110.342 E43.74003
G0 F12000 X119.205 Y110.213
G0 X124.201 Y111.695
G0 X124.295 Y111.567
G1 F1200 X126.524 Y113.796 E44.11830
G0 F12000 X127.137 Y113.844
G1 F1200 X126.353 Y113.060 E44.25135
G0 F12000 X125.916 Y112.888
;LAYER:1
G10
G1 Z0.400
G0 X127.897 Y114.007 Z0.360
;TYPE:WALL-OUTER
G1 Z0.360
G11
G1 F1260 X127.918 Y114.030 E44.25210
G1 X127.914 Y114.045 E44.25247
G1 X123.443 Y113.698 E44.36010
G1 X101.816 Y113.679 E44.87915
G1 X95.116 Y109.816 E45.06476
G1 X95.085 Y109.785 E45.06581
G1 X95.083 Y109.767 E45.06625
G1 X95.088 Y109.749 E45.06670
G1 X99.099 Y109.420 E45.16328
G1 X105.263 Y112.975 E45.33406
G1 X122.062 Y112.996 E45.73724
G1 X122.152 Y112.720 E45.74420
G1 X117.232 Y109.150 E45.89009
G1 X117.198 Y109.097 E45.89160
G1 X117.193 Y109.063 E45.89243
G1 X117.198 Y109.026 E45.89332
G1 X117.211 Y108.996 E45.89411
G1 X117.226 Y108.977 E45.89469
G1 X117.256 Y108.953 E45.89561
G1 X121.054 Y109.043 E45.98679
G1 X127.897 Y114.007 E46.18968
G0 F12000 X127.098 Y113.600
;TYPE:SKIN
G1 F1260 X126.822 Y113.593 E46.19725
G1 X126.350 Y113.783 E46.20946
G0 F12000 X125.824 Y113.743
G1 F1260 X126.442 Y113.125 E46.23044
G0 F12000 X126.115 Y112.886
G1 F1260 X125.300 Y113.702 E46.25812
G0 F12000 X124.774 Y113.661
G1 F1260 X125.787 Y112.649 E46.29248
G0 F12000 X125.459 Y112.411
G1 F1260 X124.249 Y113.621 E46.33355
G0 F12000 X123.724 Y113.580
G1 F1260 X125.131 Y112.173 E46.38131
G0 F12000 X124.803 Y111.935
G1 F1260 X123.180 Y113.558 E46.43640
G0 F12000 X122.615 Y113.557
G1 F1260 X124.475 Y111.698 E46.49951
G0 F12000 X124.148 Y111.459
G1 F1260 X122.050 Y113.557 E46.57072
G0 F12000 X121.907 Y113.134
G1 F1260 X121.413 Y113.345 E46.58503
G1 X120.848 Y113.344 E46.59930
G1 X120.283 Y113.343 E46.61357
G1 X119.718 Y113.343 E46.62791
G1 X119.153 Y113.342 E46.64222
G1 X118.588 Y113.342 E46.65656
G1 X118.022 Y113.342 E46.67092
G1 X117.457 Y113.341 E46.68526
G1 X116.892 Y113.340 E46.69960
G1 X116.327 Y113.339 E46.71397
G1 X115.762 Y113.339 E46.72835
G1 X115.197 Y113.338 E46.74272
G1 X114.632 Y113.337 E46.75710
G1 X114.067 Y113.337 E46.77147
G1 X113.502 Y113.337 E46.78588
G1 X112.937 Y113.336 E46.80028
G1 X112.372 Y113.335 E46.81469
G1 X111.807 Y113.334 E46.82910
G1 X111.242 Y113.334 E46.84351
G1 X110.677 Y113.333 E46.85791
G1 X110.112 Y113.333 E46.87232
G1 X109.546 Y113.332 E46.88675
G1 X108.981 Y113.331 E46.90120
G1 X108.416 Y113.331 E46.91564
G1 X107.851 Y113.330 E46.93008
G1 X107.286 Y113.330 E46.94452
G1 X106.721 Y113.329 E46.95896
G1 X106.156 Y113.328 E46.97340
G1 X105.591 Y113.328 E46.98784
G1 X105.075 Y113.279 E47.00234
G1 X104.530 Y113.541 E47.01685
G0 F12000 X103.965 Y113.540
G1 F1260 X104.696 Y112.809 E47.04166
G0 F12000 X104.337 Y112.602
G1 F1260 X103.399 Y113.540 E47.07350
G0 F12000 X102.834 Y113.540
G1 F1260 X103.979 Y112.395 E47.11236
G0 F12000 X103.620 Y112.188
G1 F1260 X102.269 Y113.539 E47.15821
G0 F12000 X101.758 Y113.484
G1 F1260 X103.261 Y111.981 E47.20923
G0 F12000 X102.903 Y111.774
G1 F1260 X101.399 Y113.277 E47.26026
G0 F12000 X101.040 Y113.071
G1 F1260 X102.544 Y111.567 E47.31131
G0 F12000 X102.185 Y111.360
G1 F1260 X100.682 Y112.864 E47.36234
G0 F12000 X100.323 Y112.656
G1 F1260 X101.826 Y111.153 E47.41335
G0 F12000 X101.468 Y110.946
G1 F1260 X99.964 Y112.450 E47.46440
G0 F12000 X99.605 Y112.243
G1 F1260 X101.109 Y110.739 E47.51545
G0 F12000 X100.750 Y110.532
G1 F1260 X99.246 Y112.036 E47.56649
G0 F12000 X98.888 Y111.829
G1 F1260 X100.392 Y110.325 E47.61754
G0 F12000 X100.032 Y110.119
G1 F1260 X98.529 Y111.622 E47.66855
G0 F12000 X98.170 Y111.415
G1 F1260 X99.674 Y109.911 E47.71960
G0 F12000 X99.315 Y109.704
G1 F1260 X97.811 Y111.208 E47.77065
G0 F12000 X97.452 Y111.002
G1 F1260 X98.877 Y109.577 E47.81901
G0 F12000 X98.261 Y109.627
G1 F1260 X97.094 Y110.795 E47.85864
G0 F12000 X96.735 Y110.587
G1 F1260 X97.645 Y109.678 E47.88951
G0 F12000 X97.029 Y109.728
G1 F1260 X96.376 Y110.381 E47.91167
G0 F12000 X96.018 Y110.174
G1 F1260 X96.103 Y109.804 E47.92504
G1 X95.658 Y109.967 E47.93642
G10
G1 Z0.460
G0 F12000 X117.760 Y109.362
G1 Z0.360
G11
G1 F1260 X118.049 Y109.355 E47.94493
G1 X118.564 Y109.124 E47.95848
G0 F12000 X119.117 Y109.136
G1 F1260 X118.415 Y109.838 E47.98231
G0 F12000 X118.743 Y110.076
G1 F1260 X119.669 Y109.150 E48.01374
G0 F12000 X120.222 Y109.163
G1 F1260 X119.071 Y110.314 E48.05280
G0 F12000 X119.399 Y110.551
G1 F1260 X120.774 Y109.176 E48.09947
G0 F12000 X121.196 Y109.320
G1 F1260 X119.727 Y110.789 E48.14933
G0 F12000 X120.054 Y111.027
G1 F1260 X121.524 Y109.557 E48.19923
G0 F12000 X121.852 Y109.795
G1 F1260 X120.382 Y111.265 E48.24912
G0 F12000 X120.710 Y111.503
G1 F1260 X122.180 Y110.033 E48.29901
G0 F12000 X122.508 Y110.271
G1 F1260 X121.038 Y111.741 E48.34891
G0 F12000 X121.365 Y111.979
G1 F1260 X122.836 Y110.508 E48.39883
G0 F12000 X123.164 Y110.746
G1 F1260 X121.693 Y112.217 E48.44876
G0 F12000 X122.021 Y112.454
G1 F1260 X123.491 Y110.984 E48.49865
G0 F12000 X123.820 Y111.222
G1 F1260 X122.287 Y112.755 E48.55069
G0 F12000 X123.105 Y112.698
;LAYER:2
G0 X122.152 Y112.720 Z0.420
;TYPE:WALL-OUTER
G1 F1320 X117.232 Y109.150 E48.69658
G1 X117.199 Y109.096 E48.69810
G1 X117.193 Y109.065 E48.69885
G1 X117.199 Y109.024 E48.69985
G1 X117.225 Y108.977 E48.70114
G1 X117.255 Y108.953 E48.70206
G1 X121.054 Y109.043 E48.79326
G1 X127.897 Y114.007 E48.99615
G1 X127.914 Y114.023 E48.99671
G1 X127.918 Y114.036 E48.99704
G1 X123.443 Y113.698 E49.10475
G1 X101.816 Y113.679 E49.62379
G1 X95.120 Y109.818 E49.80930
G1 X95.084 Y109.783 E49.81050
G1 X95.086 Y109.755 E49.81118
G1 X99.099 Y109.420 E49.90783
G1 X105.263 Y112.975 E50.07860
G1 X122.062 Y112.996 E50.48178
G1 X122.152 Y112.720 E50.48875
G0 F12000 X122.237 Y112.903
;TYPE:SKIN
G1 F1320 X122.891 Y113.557 E50.51094
G0 F12000 X122.325 Y113.557
G1 F1320 X121.830 Y113.345 E50.52526
G1 X121.265 Y113.345 E50.53953
G1 X120.698 Y113.344 E50.55382
G1 X120.132 Y113.343 E50.56811
G1 X119.565 Y113.343 E50.58240
G1 X118.999 Y113.343 E50.59670
G1 X118.433 Y113.342 E50.61103
G1 X117.867 Y113.341 E50.62533
G1 X117.300 Y113.341 E50.63965
G1 X116.734 Y113.340 E50.65398
G1 X116.168 Y113.339 E50.66835
G1 X115.601 Y113.338 E50.68270
G1 X115.035 Y113.338 E50.69703
G1 X114.469 Y113.338 E50.71140
G1 X113.903 Y113.337 E50.72580
G1 X113.336 Y113.336 E50.74019
G1 X112.770 Y113.336 E50.75455
G1 X112.204 Y113.335 E50.76895
G1 X111.637 Y113.334 E50.78334
G1 X111.071 Y113.334 E50.79774
G1 X110.505 Y113.333 E50.81214
G1 X109.938 Y113.332 E50.82657
G1 X109.372 Y113.332 E50.84096
G1 X108.806 Y113.331 E50.85540
G1 X108.240 Y113.331 E50.86983
G1 X107.673 Y113.330 E50.88429
G1 X107.107 Y113.329 E50.89872
G1 X106.541 Y113.329 E50.91316
G1 X105.974 Y113.328 E50.92761
G1 X105.478 Y113.115 E50.94057
G0 F12000 X105.339 Y113.541
G1 F1320 X104.486 Y112.688 E50.96952
G0 F12000 X104.207 Y113.540
G1 F1320 X101.812 Y111.145 E51.05081
G0 F12000 X101.732 Y111.283
G0 X103.069 Y112.055
G0 X103.149 Y111.917
G1 F1320 X104.772 Y113.540 E51.10590
G0 F12000 X103.640 Y113.540
G1 F1320 X100.474 Y110.374 E51.21335
G0 F12000 X100.394 Y110.512
G0 X99.056 Y109.741
G0 X99.137 Y109.602
G1 F1320 X103.074 Y113.539 E51.34698
G0 F12000 X102.507 Y113.538
G1 F1320 X98.572 Y109.603 E51.48054
G0 F12000 X98.050 Y109.647
G1 F1320 X101.942 Y113.538 E51.61262
G0 F12000 X100.726 Y112.888
G1 F1320 X97.528 Y109.690 E51.72116
G0 F12000 X97.006 Y109.734
G1 F1320 X99.390 Y112.118 E51.80208
G0 F12000 X99.470 Y111.980
G0 X98.133 Y111.210
G0 X98.053 Y111.347
G1 F1320 X96.484 Y109.778 E51.85533
G0 F12000 X95.962 Y109.822
G1 F1320 X96.717 Y110.576 E51.88094
G0 F12000 X96.796 Y110.439
G0 X105.159 Y113.368
G0 X122.324 Y113.357
G0 X122.577 Y112.582
G0 X117.872 Y109.267
G0 X117.876 Y109.108
G1 F1320 X119.107 Y110.339 E51.92272
G0 F12000 X119.035 Y109.135
G1 F1320 X123.458 Y113.559 E52.07286
G0 F12000 X124.070 Y113.605
G1 F1320 X119.614 Y109.149 E52.22410
G0 F12000 X118.455 Y109.122
G1 F1320 X121.170 Y111.836 E52.31624
G0 F12000 X121.265 Y111.707
G0 X122.143 Y110.201
G0 X122.236 Y110.074
G1 F1320 X125.905 Y113.743 E52.44077
G0 F12000 X126.516 Y113.789
G1 F1320 X124.295 Y111.568 E52.51615
G0 F12000 X124.202 Y111.695
G0 X124.694 Y113.495
G0 X124.682 Y113.651
G1 F1320 X120.194 Y109.163 E52.66848
G0 F12000 X120.773 Y109.177
G1 F1320 X125.293 Y113.697 E52.82189
G0 F12000 X126.355 Y113.061
G1 F1320 X127.128 Y113.834 E52.84813
;LAYER:3
G0 F12000 X127.897 Y114.007 Z0.480
;TYPE:WALL-OUTER
G1 F1380 X127.918 Y114.030 E52.84888
G1 X127.914 Y114.045 E52.84925
G1 X123.443 Y113.698 E52.95687
G1 X101.816 Y113.679 E53.47592
G1 X95.114 Y109.814 E53.66160
G1 X95.094 Y109.799 E53.66220
G1 X95.083 Y109.780 E53.66273
G1 X95.087 Y109.749 E53.66348
G1 X99.099 Y109.420 E53.76009
G1 X105.263 Y112.975 E53.93087
G1 X122.062 Y112.996 E54.33404
G1 X122.152 Y112.720 E54.34101
G1 X117.232 Y109.150 E54.48690
G1 X117.198 Y109.095 E54.48845
G1 X117.194 Y109.066 E54.48915
G1 X117.200 Y109.023 E54.49020
G1 X117.226 Y108.976 E54.49149
G1 X117.254 Y108.953 E54.49235
G1 X121.054 Y109.043 E54.58358
G1 X127.897 Y114.007 E54.78647
G0 F12000 X127.098 Y113.600
;TYPE:SKIN
G1 F1380 X126.822 Y113.593 E54.79404
G1 X126.350 Y113.783 E54.80626
G0 F12000 X125.824 Y113.743
G1 F1380 X126.442 Y113.125 E54.82723
G0 F12000 X126.115 Y112.886
G1 F1380 X125.300 Y113.702 E54.85491
G0 F12000 X124.774 Y113.661
G1 F1380 X125.787 Y112.649 E54.88928
G0 F12000 X125.459 Y112.411
G1 F1380 X124.249 Y113.621 E54.93034
G0 F12000 X123.724 Y113.580
G1 F1380 X125.131 Y112.173 E54.97810
G0 F12000 X124.803 Y111.935
G1 F1380 X123.180 Y113.558 E55.03319
G0 F12000 X122.615 Y113.557
G1 F1380 X124.475 Y111.698 E55.09630
G0 F12000 X124.148 Y111.459
G1 F1380 X122.050 Y113.557 E55.16751
G0 F12000 X121.907 Y113.134
G1 F1380 X121.413 Y113.345 E55.18182
G1 X120.848 Y113.344 E55.19609
G1 X120.283 Y113.343 E55.21036
G1 X119.718 Y113.343 E55.22470
G1 X119.153 Y113.342 E55.23901
G1 X118.588 Y113.342 E55.25335
G1 X118.022 Y113.342 E55.26771
G1 X117.457 Y113.341 E55.28205
G1 X116.892 Y113.340 E55.29639
G1 X116.327 Y113.339 E55.31077
G1 X115.762 Y113.339 E55.32514
G1 X115.197 Y113.338 E55.33951
