;FLAVOR:UltiGCode
;TIME:757
;MATERIAL:596
;MATERIAL2:0
;NOZZLE_DIAMETER:0.400000
;NOZZLE_DIAMETER2:0.400000

;Layer count: 50
;LAYER:0
M107
G0 F12000 X70.030 Y98.851 Z0.300
;TYPE:SKIRT
G1 F1200 X73.225 Y99.530 E0.39196
G1 X73.470 Y99.582 E0.42202
G1 X75.046 Y99.883 E0.61456
G1 X75.356 Y99.942 E0.65242
G1 X77.300 Y100.312 E0.88989
G1 X77.657 Y100.381 E0.93352
G1 X81.844 Y101.089 E1.44310
G1 X85.388 Y101.612 E1.87298
G1 X86.086 Y101.715 E1.95765
G1 X89.614 Y102.161 E2.38438
G1 X90.305 Y102.249 E2.46797
G1 X93.850 Y102.621 E2.89570
G1 X94.527 Y102.692 E2.97739
G1 X98.095 Y102.991 E3.40705
G1 X98.760 Y103.048 E3.48714
G1 X103.067 Y103.320 E4.00501
G1 X106.603 Y103.467 E4.42970
G1 X107.308 Y103.497 E4.51438
G1 X110.861 Y103.570 E4.94083
G1 X111.548 Y103.585 E5.02329
G1 X115.835 Y103.585 E5.53773
G1 X119.378 Y103.512 E5.96298
G1 X120.077 Y103.497 E6.04688
G1 X123.637 Y103.348 E6.47445
G1 X124.314 Y103.319 E6.55576
G1 X128.597 Y103.050 E7.07074
G1 X132.140 Y102.753 E7.49739
G1 X132.140 Y102.754 E7.49751
G1 X132.801 Y102.697 E7.57712
G1 X136.379 Y102.322 E8.00883
G1 X136.379 Y102.323 E8.00895
G1 X137.050 Y102.252 E8.08992
G1 X140.606 Y101.802 E8.52005
G1 X141.310 Y101.713 E8.60520
G1 X144.824 Y101.194 E9.03145
G1 X145.539 Y101.088 E9.11819
G1 X149.602 Y100.401 E9.61267
G1 X152.682 Y99.816 E9.98888
G1 X152.682 Y99.817 E9.98900
G1 X156.129 Y99.154 E10.41022
G1 X157.891 Y108.392 E11.53877
G1 X151.638 Y109.584 E12.30264
G1 X147.704 Y110.254 E12.78152
G1 X146.986 Y110.376 E12.86891
G1 X142.575 Y111.027 E13.40396
G1 X138.152 Y111.586 E13.93895
G1 X137.382 Y111.667 E14.03186
G1 X137.382 Y111.666 E14.03198
G1 X133.717 Y112.052 E14.47421
G1 X132.948 Y112.116 E14.56681
G1 X129.276 Y112.425 E15.00900
G1 X128.505 Y112.473 E15.10170
G1 X124.828 Y112.705 E15.54382
G1 X120.372 Y112.892 E16.07901
G1 X119.600 Y112.907 E16.17167
G1 X118.315 Y112.934 E16.32590
G1 X118.369 Y113.389 E16.38089
G1 X118.312 Y114.270 E16.48683
G1 X118.291 Y114.583 E16.52447
G1 X118.003 Y116.111 E16.71106
G1 X117.534 Y117.598 E16.89817
G1 X117.391 Y118.050 E16.95506
G1 X116.581 Y119.824 E17.18908
G1 X116.580 Y119.824 E17.18920
G1 X116.360 Y120.308 E17.25299
G1 X114.240 Y123.856 E17.74897
G1 X111.849 Y123.830 E18.03591
G1 X107.292 Y123.776 E18.58278
G1 X105.255 Y120.178 E19.07894
G1 X104.494 Y118.401 E19.31091
G1 X104.277 Y117.897 E19.37676
G1 X103.709 Y115.944 E19.62083
G1 X103.458 Y114.403 E19.80818
G1 X103.426 Y113.625 E19.90162
G1 X103.406 Y113.228 E19.94932
G1 X103.475 Y112.744 E20.00799
G1 X102.551 Y112.705 E20.11897
G1 X101.778 Y112.657 E20.21191
G1 X98.102 Y112.425 E20.65391
G1 X97.331 Y112.361 E20.74674
G1 X93.658 Y112.052 E21.18906
G1 X92.889 Y111.972 E21.28184
G1 X89.226 Y111.586 E21.72383
G1 X88.457 Y111.490 E21.81683
G1 X84.801 Y111.026 E22.25907
G1 X80.394 Y110.376 E22.79363
G1 X79.631 Y110.247 E22.88649
G1 X75.998 Y109.634 E23.32861
G1 X75.264 Y109.495 E23.41826
G1 X71.780 Y108.830 E23.84388
G1 X69.991 Y108.453 E24.06328
G1 X66.379 Y107.685 E24.50641
G1 X65.238 Y104.170 E24.94987
G1 X70.030 Y98.851 E25.80899
G10
G1 Z0.400
G0 F12000 X71.528 Y103.463
;TYPE:WALL-INNER
G1 Z0.300
G11
G1 F1200 X72.645 Y103.700 E25.94601
G1 X76.510 Y104.437 E26.41817
G1 X81.206 Y105.241 E26.98989
G1 X85.507 Y105.876 E27.51160
G1 X89.822 Y106.421 E28.03351
G1 X93.411 Y106.798 E28.46656
G1 X94.148 Y106.876 E28.55550
G1 X97.743 Y107.177 E28.98841
G1 X98.480 Y107.239 E29.07716
G1 X102.822 Y107.513 E29.59924
G1 X107.167 Y107.695 E30.12109
G1 X110.771 Y107.769 E30.55366
G1 X111.513 Y107.785 E30.64273
G1 X115.862 Y107.785 E31.16461
G1 X119.469 Y107.711 E31.59754
G1 X120.211 Y107.695 E31.68660
G1 X124.555 Y107.513 E32.20833
G1 X128.896 Y107.239 E32.73029
G1 X132.491 Y106.938 E33.16320
G1 X133.230 Y106.876 E33.25219
G1 X136.818 Y106.499 E33.68512
G1 X137.555 Y106.421 E33.77406
G1 X141.870 Y105.876 E34.29597
G1 X146.171 Y105.241 E34.81769
G1 X150.359 Y104.532 E35.32740
G1 X152.791 Y104.070 E35.62446
G1 X152.979 Y105.053 E35.74455
G1 X150.902 Y105.449 E35.99828
G1 X146.317 Y106.229 E36.55639
G1 X142.015 Y106.864 E37.07822
G1 X137.681 Y107.412 E37.60244
G1 X133.322 Y107.870 E38.12840
G1 X132.597 Y107.930 E38.21570
G1 X128.980 Y108.235 E38.65128
G1 X124.606 Y108.511 E39.17720
G1 X120.253 Y108.693 E39.70002
G1 X115.863 Y108.785 E40.22694
G1 X113.595 Y108.785 E40.49910
G1 X113.799 Y110.524 E40.70921
G1 X114.153 Y113.501 E41.06896
G1 X114.117 Y114.051 E41.13510
G1 X113.922 Y115.086 E41.26149
G1 X113.529 Y116.332 E41.41827
G1 X113.466 Y116.534 E41.44366
G1 X112.760 Y118.079 E41.64750
G1 X112.635 Y118.355 E41.68386
G1 X111.873 Y119.629 E41.86200
G1 X109.757 Y119.605 E42.11594
G1 X109.024 Y118.311 E42.29440
G1 X108.355 Y116.748 E42.49842
G1 X108.237 Y116.472 E42.53444
G1 X107.814 Y115.019 E42.71604
G1 X107.643 Y113.976 E42.84287
G1 X107.622 Y113.448 E42.90628
G1 X107.621 Y113.420 E42.90964
G1 X108.289 Y108.740 E43.47693
G1 X102.773 Y108.511 E44.13942
G1 X98.417 Y108.236 E44.66318
G1 X97.679 Y108.175 E44.75204
G1 X94.063 Y107.872 E45.18748
G1 X89.696 Y107.412 E45.71442
G1 X88.983 Y107.323 E45.80065
G1 X85.362 Y106.864 E46.23864
G1 X81.057 Y106.229 E46.76083
G1 X76.729 Y105.498 E47.28755
G1 X72.616 Y104.714 E47.79000
G1 X70.860 Y104.343 E48.00537
G1 X70.754 Y104.321 E48.01836
G1 X71.528 Y103.463 E48.15702
G0 F12000 X72.724 Y103.308
G1 F1200 X76.988 Y104.122 E48.67794
G1 X81.268 Y104.846 E49.19884
G1 X85.562 Y105.479 E49.71969
G1 X89.868 Y106.024 E50.24053
G1 X94.186 Y106.477 E50.76153
G1 X98.510 Y106.840 E51.28224
G1 X102.843 Y107.113 E51.80323
G1 X107.179 Y107.295 E52.32401
G1 X111.518 Y107.385 E52.84480
G1 X115.858 Y107.385 E53.36560
G1 X120.198 Y107.295 E53.88651
G1 X124.534 Y107.113 E54.40729
G1 X128.867 Y106.840 E54.92828
G1 X133.191 Y106.477 E55.44899
G1 X137.509 Y106.024 E55.96999
G1 X141.815 Y105.479 E56.49083
G1 X146.109 Y104.846 E57.01168
G1 X150.288 Y104.139 E57.52029
G1 X153.109 Y103.603 E57.86486
G1 X153.447 Y105.371 E58.08087
G1 X150.964 Y105.845 E58.38421
G1 X146.398 Y106.622 E58.94000
G1 X142.054 Y107.262 E59.46691
G1 X137.723 Y107.810 E59.99077
G1 X133.356 Y108.269 E60.51770
G1 X129.005 Y108.634 E61.04165
G1 X124.623 Y108.910 E61.56854
G1 X120.261 Y109.093 E62.09244
G1 X115.871 Y109.185 E62.61935
G1 X114.044 Y109.185 E62.83859
G1 X114.554 Y113.490 E63.35880
G1 X114.520 Y114.019 E63.42242
G1 X114.514 Y114.102 E63.43240
G1 X114.310 Y115.188 E63.56500
G1 X113.838 Y116.681 E63.75290
G1 X112.990 Y118.540 E63.99809
G1 X112.098 Y120.032 E64.20669
G1 X109.522 Y120.002 E64.51583
G1 X108.667 Y118.491 E64.72417
G1 X107.860 Y116.609 E64.96989
G1 X107.422 Y115.104 E65.15799
G1 X107.244 Y114.015 E65.29040
G1 X107.222 Y113.467 E65.35621
G1 X107.219 Y113.405 E65.36366
G1 X107.831 Y109.122 E65.88284
G1 X102.754 Y108.910 E66.49261
G1 X98.372 Y108.634 E67.01950
G1 X94.021 Y108.269 E67.54345
G1 X89.654 Y107.810 E68.07038
G1 X85.324 Y107.263 E68.59411
G1 X80.981 Y106.621 E69.12093
G1 X76.663 Y105.892 E69.64642
G1 X72.534 Y105.105 E70.15082
G1 X70.779 Y104.735 E70.36605
G1 X69.994 Y104.568 E70.46236
G1 X71.385 Y103.024 E70.71174
G1 X72.724 Y103.308 E70.87600
G0 F12000 X72.803 Y102.916
;TYPE:WALL-OUTER
G1 F1200 X77.059 Y103.728 E71.39593
G1 X81.331 Y104.451 E71.91586
G1 X85.616 Y105.083 E72.43562
G1 X89.914 Y105.627 E72.95550
G1 X94.223 Y106.079 E73.47541
G1 X98.539 Y106.441 E73.99515
G1 X102.864 Y106.714 E74.51518
G1 X107.192 Y106.895 E75.03500
G1 X111.522 Y106.985 E75.55471
G1 X115.854 Y106.985 E76.07455
G1 X120.185 Y106.895 E76.59438
G1 X124.513 Y106.714 E77.11420
G1 X128.838 Y106.441 E77.63423
G1 X133.154 Y106.079 E78.15397
G1 X137.463 Y105.627 E78.67389
G1 X141.761 Y105.083 E79.19376
G1 X146.046 Y104.451 E79.71352
G1 X150.217 Y103.745 E80.22116
G1 X153.427 Y103.134 E80.61328
G1 X153.915 Y105.689 E80.92542
G1 X151.036 Y106.238 E81.27713
G1 X146.456 Y107.017 E81.83462
G1 X142.112 Y107.658 E82.36154
G1 X137.764 Y108.208 E82.88746
G1 X133.397 Y108.667 E83.41439
G1 X129.030 Y109.034 E83.94028
G1 X124.648 Y109.309 E84.46715
G1 X120.265 Y109.493 E84.99357
G1 X115.879 Y109.585 E85.52001
G1 X114.494 Y109.585 E85.68621
G1 X114.956 Y113.480 E86.15689
G1 X114.912 Y114.153 E86.23782
G1 X114.699 Y115.284 E86.37592
G1 X114.211 Y116.827 E86.57012
G1 X113.346 Y118.722 E86.82009
G1 X112.323 Y120.435 E87.05952
G1 X109.288 Y120.399 E87.42375
G1 X108.307 Y118.667 E87.66261
G1 X107.483 Y116.745 E87.91355
G1 X107.030 Y115.189 E88.10802
G1 X106.847 Y114.063 E88.24492
G1 X106.823 Y113.485 E88.31434
G1 X106.818 Y113.383 E88.32659
G1 X107.372 Y109.503 E88.79691
G1 X102.729 Y109.309 E89.35456
G1 X98.347 Y109.033 E89.88144
G1 X93.980 Y108.667 E90.40732
G1 X89.613 Y108.208 E90.93424
G1 X85.265 Y107.658 E91.46016
G1 X80.922 Y107.017 E91.98697
G1 X76.596 Y106.287 E92.51343
G1 X72.451 Y105.497 E93.01978
G1 X69.233 Y104.815 E93.41452
G1 X71.242 Y102.585 E93.77470
G1 X72.803 Y102.916 E93.96618
G0 F12000 X72.393 Y103.789
;TYPE:SKIN
G1 F1200 X73.307 Y104.703 E94.12129
G0 F12000 X72.609 Y104.570
G1 F1200 X71.675 Y103.637 E94.27971
G0 F12000 X71.346 Y103.873
G1 F1200 X71.530 Y104.340 E94.37187
G1 X71.078 Y104.170 E94.42982
G0 F12000 X73.098 Y103.928
G1 F1200 X74.006 Y104.836 E94.58391
G0 F12000 X74.705 Y104.969
G1 F1200 X73.797 Y104.062 E94.73792
G0 F12000 X74.496 Y104.195
G1 F1200 X75.403 Y105.102 E94.89184
G0 F12000 X76.102 Y105.235
G1 F1200 X75.195 Y104.328 E95.04577
G0 F12000 X75.894 Y104.461
G1 F1200 X76.799 Y105.366 E95.19935
G0 F12000 X77.480 Y105.481
G1 F1200 X76.590 Y104.592 E95.35030
G0 F12000 X77.274 Y104.709
G1 F1200 X78.160 Y105.596 E95.50075
G0 F12000 X78.841 Y105.711
G1 F1200 X77.956 Y104.826 E95.65094
G0 F12000 X78.638 Y104.943
G1 F1200 X79.521 Y105.826 E95.80079
G0 F12000 X80.202 Y105.941
G1 F1200 X79.321 Y105.060 E95.95030
G0 F12000 X80.004 Y105.177
G1 F1200 X80.883 Y106.056 E96.09947
G0 F12000 X81.551 Y106.158
G1 F1200 X80.687 Y105.294 E96.24609
G0 F12000 X81.364 Y105.406
G1 F1200 X82.215 Y106.256 E96.39043
G0 F12000 X82.878 Y106.354
G1 F1200 X82.027 Y105.503 E96.53485
G0 F12000 X82.691 Y105.602
G1 F1200 X83.542 Y106.452 E96.67918
G0 F12000 X84.205 Y106.550
G1 F1200 X83.355 Y105.699 E96.82352
G0 F12000 X84.019 Y105.798
G1 F1200 X84.869 Y106.648 E96.96777
G0 F12000 X85.529 Y106.742
G1 F1200 X84.682 Y105.895 E97.11151
G0 F12000 X85.346 Y105.993
G1 F1200 X86.177 Y106.824 E97.25253
G0 F12000 X86.824 Y106.906
G1 F1200 X85.996 Y106.078 E97.39305
G0 F12000 X86.643 Y106.160
G1 F1200 X87.472 Y106.988 E97.53365
G0 F12000 X88.120 Y107.070
G1 F1200 X87.291 Y106.242 E97.67425
G0 F12000 X87.939 Y106.324
G1 F1200 X88.768 Y107.152 E97.81485
G0 F12000 X89.415 Y107.234
G1 F1200 X88.586 Y106.405 E97.95554
G0 F12000 X89.234 Y106.487
G1 F1200 X90.054 Y107.308 E98.09478
G0 F12000 X90.687 Y107.374
G1 F1200 X89.879 Y106.567 E98.23182
G0 F12000 X90.511 Y106.633
G1 F1200 X91.319 Y107.441 E98.36894
G0 F12000 X91.951 Y107.507
G1 F1200 X91.143 Y106.700 E98.50598
G0 F12000 X91.776 Y106.766
G1 F1200 X92.583 Y107.574 E98.64302
G0 F12000 X93.215 Y107.640
G1 F1200 X92.408 Y106.833 E98.77997
G0 F12000 X93.040 Y106.899
G1 F1200 X93.847 Y107.707 E98.91701
G0 F12000 X94.470 Y107.764
G1 F1200 X93.672 Y106.966 E99.05243
G0 F12000 X94.300 Y107.028
G1 F1200 X95.088 Y107.816 E99.18616
G0 F12000 X95.705 Y107.867
G1 F1200 X94.917 Y107.080 E99.31980
G0 F12000 X95.535 Y107.131
G1 F1200 X96.322 Y107.919 E99.45345
G0 F12000 X96.940 Y107.970
G1 F1200 X96.152 Y107.183 E99.58709
G0 F12000 X96.769 Y107.234
G1 F1200 X97.557 Y108.022 E99.72082
G0 F12000 X98.174 Y108.074
G1 F1200 X97.386 Y107.286 E99.85454
G0 F12000 X98.004 Y107.338
G1 F1200 X98.784 Y108.118 E99.98692
G0 F12000 X99.388 Y108.156
G1 F1200 X98.618 Y107.386 E100.11759
G0 F12000 X99.222 Y107.425
G1 F1200 X99.991 Y108.193 E100.24801
G0 F12000 X100.595 Y108.231
G1 F1200 X99.826 Y107.463 E100.37843
G0 F12000 X100.430 Y107.501
G1 F1200 X101.199 Y108.270 E100.50893
G0 F12000 X101.802 Y108.308
G1 F1200 X101.034 Y107.540 E100.63926
G0 F12000 X101.638 Y107.578
G1 F1200 X102.406 Y108.346 E100.76960
G0 F12000 X103.005 Y108.379
G1 F1200 X102.242 Y107.616 E100.89908
G0 F12000 X102.845 Y107.654
G1 F1200 X103.595 Y108.403 E101.02628
G0 F12000 X104.185 Y108.428
G1 F1200 X103.436 Y107.678 E101.15347
G0 F12000 X104.026 Y107.703
G1 F1200 X104.775 Y108.452 E101.28058
G0 F12000 X105.365 Y108.477
G1 F1200 X104.617 Y107.728 E101.40761
G0 F12000 X105.207 Y107.753
G1 F1200 X105.955 Y108.501 E101.53455
G0 F12000 X106.546 Y108.526
G1 F1200 X105.798 Y107.777 E101.66157
G0 F12000 X106.388 Y107.802
G1 F1200 X107.136 Y108.550 E101.78851
G0 F12000 X107.726 Y108.574
G1 F1200 X106.978 Y107.827 E101.91537
G0 F12000 X107.560 Y107.842
G1 F1200 X108.316 Y108.599 E102.04375
G0 F12000 X108.433 Y108.716
G1 F1200 X113.941 Y114.224 E102.97849
G0 F12000 X113.851 Y114.700
G1 F1200 X108.362 Y109.211 E103.91000
G0 F12000 X108.291 Y109.706
G1 F1200 X113.750 Y115.164 E104.83634
G0 F12000 X113.614 Y115.594
G1 F1200 X108.221 Y110.201 E105.75156
G0 F12000 X108.150 Y110.696
G1 F1200 X113.479 Y116.024 E106.65584
G0 F12000 X113.343 Y116.454
G1 F1200 X108.079 Y111.191 E107.54908
G0 F12000 X108.009 Y111.686
G1 F1200 X113.168 Y116.845 E108.42459
G0 F12000 X112.992 Y117.234
G1 F1200 X107.939 Y112.181 E109.28212
G0 F12000 X107.868 Y112.676
G1 F1200 X112.814 Y117.622 E110.12148
G0 F12000 X112.637 Y118.011
G1 F1200 X107.797 Y113.171 E110.94286
G0 F12000 X107.772 Y113.711
G1 F1200 X112.449 Y118.389 E111.73665
G0 F12000 X112.238 Y118.743
G1 F1200 X107.845 Y114.351 E112.48209
G0 F12000 X107.963 Y115.034
G1 F1200 X112.026 Y119.097 E113.17160
G0 F12000 X111.815 Y119.452
G1 F1200 X108.196 Y115.833 E113.78576
G0 F12000 X108.479 Y116.681
G1 F1200 X111.278 Y119.481 E114.26086
G0 F12000 X110.706 Y119.474
G1 F1200 X108.902 Y117.671 E114.56692
G0 F12000 X109.458 Y118.792
G1 F1200 X110.134 Y119.467 E114.68156
G0 F12000 X113.998 Y113.715
G1 F1200 X108.137 Y107.854 E115.67620
G0 F12000 X108.715 Y107.867
G1 F1200 X113.966 Y113.117 E116.56724
G0 F12000 X113.890 Y112.476
G1 F1200 X109.293 Y107.879 E117.34738
G0 F12000 X109.870 Y107.891
G1 F1200 X113.815 Y111.835 E118.01678
G0 F12000 X113.738 Y111.193
G1 F1200 X110.448 Y107.903 E118.57511
G0 F12000 X111.026 Y107.915
G1 F1200 X113.663 Y110.551 E119.02254
G0 F12000 X113.587 Y109.910
G1 F1200 X111.601 Y107.925 E119.35949
G0 F12000 X112.167 Y107.925
G1 F1200 X113.511 Y109.269 E119.58758
G0 F12000 X113.453 Y108.644
G1 F1200 X112.733 Y107.925 E119.70968
G0 F12000 X113.299 Y107.925
G1 F1200 X114.018 Y108.644 E119.83170
G0 F12000 X114.584 Y108.644
G1 F1200 X113.864 Y107.925 E119.95380
G0 F12000 X114.430 Y107.925
G1 F1200 X115.150 Y108.644 E120.07590
G0 F12000 X115.715 Y108.644
G1 F1200 X114.996 Y107.925 E120.19792
G0 F12000 X115.561 Y107.925
G1 F1200 X116.273 Y108.636 E120.31867
G0 F12000 X116.827 Y108.625
G1 F1200 X116.122 Y107.920 E120.43831
G0 F12000 X116.676 Y107.908
G1 F1200 X117.381 Y108.613 E120.55795
G0 F12000 X117.935 Y108.601
G1 F1200 X117.230 Y107.896 E120.67760
G0 F12000 X117.784 Y107.885
G1 F1200 X118.489 Y108.590 E120.79724
G0 F12000 X119.043 Y108.578
G1 F1200 X118.339 Y107.874 E120.91671
G0 F12000 X118.892 Y107.862
G1 F1200 X119.597 Y108.567 E121.03635
G0 F12000 X120.151 Y108.555
G1 F1200 X119.447 Y107.850 E121.15591
G0 F12000 X120.001 Y107.839
G1 F1200 X120.696 Y108.534 E121.27386
G0 F12000 X121.239 Y108.511
G1 F1200 X120.548 Y107.821 E121.39104
G0 F12000 X121.092 Y107.798
G1 F1200 X121.782 Y108.488 E121.50813
G0 F12000 X122.325 Y108.465
G1 F1200 X121.635 Y107.775 E121.62523
G0 F12000 X122.178 Y107.753
G1 F1200 X122.868 Y108.443 E121.74233
G0 F12000 X123.411 Y108.420
G1 F1200 X122.721 Y107.730 E121.85943
G0 F12000 X123.264 Y107.707
G1 F1200 X123.954 Y108.398 E121.97661
G0 F12000 X124.496 Y108.374
