;FLAVOR:UltiGCode
;TIME:5171
;MATERIAL:3778
;MATERIAL2:0
;NOZZLE_DIAMETER:0.400000
;NOZZLE_DIAMETER2:0.400000

;Layer count: 50
;LAYER:0
M107
G0 F12000 X65.238 Y40.777 Z0.300
;TYPE:SKIRT
G1 F1200 X70.030 Y35.458 E0.85911
G1 X73.225 Y36.137 E1.25107
G1 X73.470 Y36.189 E1.28113
G1 X75.046 Y36.490 E1.47367
G1 X75.356 Y36.549 E1.51153
G1 X77.300 Y36.919 E1.74900
G1 X77.657 Y36.988 E1.79264
G1 X81.844 Y37.696 E2.30221
G1 X85.388 Y38.219 E2.73209
G1 X86.086 Y38.322 E2.81676
G1 X89.614 Y38.768 E3.24349
G1 X90.305 Y38.856 E3.32708
G1 X93.850 Y39.228 E3.75482
G1 X94.527 Y39.299 E3.83650
G1 X98.095 Y39.598 E4.26616
G1 X98.760 Y39.655 E4.34625
G1 X103.067 Y39.927 E4.86412
G1 X106.603 Y40.074 E5.28881
G1 X107.308 Y40.104 E5.37349
G1 X110.861 Y40.177 E5.79994
G1 X111.548 Y40.192 E5.88240
G1 X115.835 Y40.192 E6.39684
G1 X119.378 Y40.119 E6.82209
G1 X120.077 Y40.104 E6.90599
G1 X123.637 Y39.955 E7.33356
G1 X124.314 Y39.926 E7.41488
G1 X128.597 Y39.657 E7.92985
G1 X132.140 Y39.360 E8.35650
G1 X132.140 Y39.361 E8.35662
G1 X132.801 Y39.304 E8.43623
G1 X136.379 Y38.929 E8.86795
G1 X136.379 Y38.930 E8.86807
G1 X137.050 Y38.859 E8.94903
G1 X140.606 Y38.409 E9.37916
G1 X141.310 Y38.320 E9.46431
G1 X144.824 Y37.801 E9.89056
G1 X145.539 Y37.695 E9.97730
G1 X149.602 Y37.008 E10.47178
G1 X152.682 Y36.423 E10.84799
G1 X152.682 Y36.424 E10.84811
G1 X156.129 Y35.761 E11.26933
G1 X157.891 Y44.999 E12.39788
G1 X151.638 Y46.191 E13.16175
G1 X147.704 Y46.861 E13.64063
G1 X146.986 Y46.983 E13.72802
G1 X142.575 Y47.634 E14.26308
G1 X138.152 Y48.193 E14.79806
G1 X137.382 Y48.274 E14.89097
G1 X137.382 Y48.273 E14.89109
G1 X133.717 Y48.659 E15.33332
G1 X132.948 Y48.723 E15.42592
G1 X129.276 Y49.032 E15.86812
G1 X128.505 Y49.080 E15.96082
G1 X124.828 Y49.312 E16.40293
G1 X120.372 Y49.499 E16.93812
G1 X119.600 Y49.514 E17.03078
G1 X118.315 Y49.541 E17.18501
G1 X118.369 Y49.996 E17.24000
G1 X118.312 Y50.877 E17.34594
G1 X118.291 Y51.190 E17.38358
G1 X118.003 Y52.718 E17.57017
G1 X117.534 Y54.205 E17.75728
G1 X117.391 Y54.657 E17.81417
G1 X116.581 Y56.431 E18.04819
G1 X116.580 Y56.431 E18.04831
G1 X116.360 Y56.915 E18.11211
G1 X114.240 Y60.463 E18.60808
G1 X111.849 Y60.437 E18.89502
G1 X107.292 Y60.383 E19.44190
G1 X105.255 Y56.785 E19.93805
G1 X104.494 Y55.008 E20.17002
G1 X104.277 Y54.504 E20.23587
G1 X103.709 Y52.551 E20.47994
G1 X103.458 Y51.010 E20.66729
G1 X103.426 Y50.232 E20.76073
G1 X103.406 Y49.835 E20.80843
G1 X103.475 Y49.351 E20.86710
G1 X102.551 Y49.312 E20.97808
G1 X101.778 Y49.264 E21.07102
G1 X98.102 Y49.032 E21.51302
G1 X97.331 Y48.968 E21.60585
G1 X93.658 Y48.659 E22.04817
G1 X92.889 Y48.579 E22.14095
G1 X89.226 Y48.193 E22.58294
G1 X88.457 Y48.097 E22.67594
G1 X84.801 Y47.633 E23.11818
G1 X80.394 Y46.983 E23.65274
G1 X79.631 Y46.854 E23.74560
G1 X75.998 Y46.241 E24.18772
G1 X75.264 Y46.102 E24.27737
G1 X71.780 Y45.437 E24.70300
G1 X69.991 Y45.060 E24.92239
G1 X66.379 Y44.292 E25.36552
G1 X65.238 Y40.777 E25.80899
G10
G1 Z0.400
G0 F12000 X70.860 Y40.950
;TYPE:WALL-INNER
G1 Z0.300
G11
G1 F1200 X70.754 Y40.928 E25.82198
G1 X71.528 Y40.070 E25.96064
G1 X72.645 Y40.307 E26.09766
G1 X76.510 Y41.044 E26.56982
G1 X81.206 Y41.848 E27.14154
G1 X85.507 Y42.483 E27.66326
G1 X89.822 Y43.028 E28.18517
G1 X93.411 Y43.405 E28.61822
G1 X94.148 Y43.483 E28.70715
G1 X97.743 Y43.784 E29.14006
G1 X98.480 Y43.846 E29.22881
G1 X102.822 Y44.120 E29.75089
G1 X107.167 Y44.302 E30.27275
G1 X110.771 Y44.376 E30.70532
G1 X111.513 Y44.392 E30.79438
G1 X115.862 Y44.392 E31.31626
G1 X119.469 Y44.318 E31.74919
G1 X120.211 Y44.302 E31.83825
G1 X124.555 Y44.120 E32.35999
G1 X128.896 Y43.846 E32.88195
G1 X132.491 Y43.545 E33.31485
G1 X133.230 Y43.483 E33.40385
G1 X136.818 Y43.106 E33.83678
G1 X137.555 Y43.028 E33.92571
G1 X141.870 Y42.483 E34.44762
G1 X146.171 Y41.848 E34.96934
G1 X150.359 Y41.139 E35.47905
G1 X152.791 Y40.677 E35.77611
G1 X152.979 Y41.660 E35.89621
G1 X150.902 Y42.056 E36.14994
G1 X146.317 Y42.836 E36.70804
G1 X142.015 Y43.471 E37.22988
G1 X137.681 Y44.019 E37.75410
G1 X133.322 Y44.477 E38.28006
G1 X132.597 Y44.537 E38.36735
G1 X128.980 Y44.842 E38.80293
G1 X124.606 Y45.118 E39.32886
G1 X120.253 Y45.300 E39.85167
G1 X115.863 Y45.392 E40.37859
G1 X113.595 Y45.392 E40.65075
G1 X113.799 Y47.131 E40.86086
G1 X114.153 Y50.108 E41.22062
G1 X114.117 Y50.658 E41.28676
G1 X113.922 Y51.693 E41.41314
G1 X113.529 Y52.939 E41.56992
G1 X113.466 Y53.141 E41.59532
G1 X112.760 Y54.686 E41.79916
G1 X112.635 Y54.962 E41.83551
G1 X111.873 Y56.236 E42.01365
G1 X109.757 Y56.212 E42.26759
G1 X109.024 Y54.918 E42.44605
G1 X108.355 Y53.355 E42.65007
G1 X108.237 Y53.079 E42.68609
G1 X107.814 Y51.626 E42.86769
G1 X107.643 Y50.583 E42.99452
G1 X107.622 Y50.055 E43.05793
G1 X107.621 Y50.027 E43.06129
G1 X108.289 Y45.347 E43.62858
G1 X102.773 Y45.118 E44.29107
G1 X98.417 Y44.843 E44.81484
G1 X97.679 Y44.782 E44.90370
G1 X94.063 Y44.479 E45.33914
G1 X89.696 Y44.019 E45.86608
G1 X88.983 Y43.930 E45.95230
G1 X85.362 Y43.471 E46.39030
G1 X81.057 Y42.836 E46.91249
G1 X76.729 Y42.105 E47.43920
G1 X72.616 Y41.321 E47.94165
G1 X70.860 Y40.950 E48.15702
G0 F12000 X70.779 Y41.342
G1 F1200 X69.994 Y41.175 E48.25333
G1 X71.385 Y39.631 E48.50271
G1 X72.724 Y39.915 E48.66697
G1 X76.988 Y40.729 E49.18789
G1 X81.268 Y41.453 E49.70878
G1 X85.562 Y42.086 E50.22963
G1 X89.868 Y42.631 E50.75047
G1 X94.186 Y43.084 E51.27148
G1 X98.510 Y43.447 E51.79218
G1 X102.843 Y43.720 E52.31317
G1 X107.179 Y43.902 E52.83395
G1 X111.518 Y43.992 E53.35474
G1 X115.858 Y43.992 E53.87554
G1 X120.198 Y43.902 E54.39646
G1 X124.534 Y43.720 E54.91723
G1 X128.867 Y43.447 E55.43822
G1 X133.191 Y43.084 E55.95893
G1 X137.509 Y42.631 E56.47993
G1 X141.815 Y42.086 E57.00078
G1 X146.109 Y41.453 E57.52162
G1 X150.288 Y40.746 E58.03023
G1 X153.109 Y40.210 E58.37481
G1 X153.447 Y41.978 E58.59081
G1 X150.964 Y42.452 E58.89415
G1 X146.398 Y43.229 E59.44995
G1 X142.054 Y43.869 E59.97685
G1 X137.723 Y44.417 E60.50072
G1 X133.356 Y44.876 E61.02764
G1 X129.005 Y45.241 E61.55160
G1 X124.623 Y45.517 E62.07848
G1 X120.261 Y45.700 E62.60238
G1 X115.871 Y45.792 E63.12930
G1 X114.044 Y45.792 E63.34854
G1 X114.554 Y50.097 E63.86875
G1 X114.520 Y50.626 E63.93236
G1 X114.514 Y50.709 E63.94235
G1 X114.310 Y51.795 E64.07494
G1 X113.838 Y53.288 E64.26284
G1 X112.990 Y55.147 E64.50804
G1 X112.098 Y56.639 E64.71664
G1 X109.522 Y56.609 E65.02578
G1 X108.667 Y55.098 E65.23411
G1 X107.860 Y53.216 E65.47984
G1 X107.422 Y51.711 E65.66793
G1 X107.244 Y50.622 E65.80035
G1 X107.222 Y50.074 E65.86616
G1 X107.219 Y50.012 E65.87361
G1 X107.831 Y45.729 E66.39279
G1 X102.754 Y45.517 E67.00256
G1 X98.372 Y45.241 E67.52944
G1 X94.021 Y44.876 E68.05339
G1 X89.654 Y44.417 E68.58032
G1 X85.324 Y43.870 E69.10405
G1 X80.981 Y43.228 E69.63087
G1 X76.663 Y42.499 E70.15637
G1 X72.534 Y41.712 E70.66077
G1 X70.779 Y41.342 E70.87600
G0 F12000 X72.513 Y41.810
G0 X72.451 Y42.104
;TYPE:WALL-OUTER
G1 F1200 X69.233 Y41.422 E71.27073
G1 X71.242 Y39.192 E71.63091
G1 X72.803 Y39.523 E71.82240
G1 X77.059 Y40.335 E72.34233
G1 X81.331 Y41.058 E72.86226
G1 X85.616 Y41.690 E73.38202
G1 X89.914 Y42.234 E73.90190
G1 X94.223 Y42.686 E74.42181
G1 X98.539 Y43.048 E74.94155
G1 X102.864 Y43.321 E75.46159
G1 X107.192 Y43.502 E75.98140
G1 X111.522 Y43.592 E76.50111
G1 X115.854 Y43.592 E77.02095
G1 X120.185 Y43.502 E77.54078
G1 X124.513 Y43.321 E78.06060
G1 X128.838 Y43.048 E78.58063
G1 X133.154 Y42.686 E79.10037
G1 X137.463 Y42.234 E79.62029
G1 X141.761 Y41.690 E80.14016
G1 X146.046 Y41.058 E80.65992
G1 X150.217 Y40.352 E81.16756
G1 X153.427 Y39.741 E81.55968
G1 X153.915 Y42.296 E81.87182
G1 X151.036 Y42.845 E82.22353
G1 X146.456 Y43.624 E82.78102
G1 X142.112 Y44.265 E83.30795
G1 X137.764 Y44.815 E83.83386
G1 X133.397 Y45.274 E84.36079
G1 X129.030 Y45.641 E84.88668
G1 X124.648 Y45.916 E85.41355
G1 X120.265 Y46.100 E85.93997
G1 X115.879 Y46.192 E86.46641
G1 X114.494 Y46.192 E86.63261
G1 X114.956 Y50.087 E87.10329
G1 X114.912 Y50.760 E87.18422
G1 X114.699 Y51.891 E87.32233
G1 X114.211 Y53.434 E87.51652
G1 X113.346 Y55.329 E87.76650
G1 X112.323 Y57.042 E88.00592
G1 X109.288 Y57.006 E88.37015
G1 X108.307 Y55.274 E88.60901
G1 X107.483 Y53.352 E88.85995
G1 X107.030 Y51.796 E89.05442
G1 X106.847 Y50.670 E89.19132
G1 X106.823 Y50.092 E89.26074
G1 X106.818 Y49.990 E89.27299
G1 X107.372 Y46.110 E89.74331
G1 X102.729 Y45.916 E90.30096
G1 X98.347 Y45.640 E90.82784
G1 X93.980 Y45.274 E91.35372
G1 X89.613 Y44.815 E91.88065
G1 X85.265 Y44.265 E92.40656
G1 X80.922 Y43.624 E92.93337
G1 X76.596 Y42.894 E93.45983
G1 X72.451 Y42.104 E93.96618
G0 F12000 X72.561 Y41.166
;TYPE:SKIN
G1 F1200 X71.631 Y40.235 E94.12409
G0 F12000 X71.328 Y40.498
G1 F1200 X71.844 Y41.015 E94.21175
G0 F12000 X72.348 Y40.387
G1 F1200 X73.263 Y41.302 E94.36703
G0 F12000 X73.961 Y41.435
G1 F1200 X73.054 Y40.527 E94.52103
G0 F12000 X73.754 Y40.661
G1 F1200 X74.661 Y41.568 E94.67496
G0 F12000 X75.359 Y41.701
G1 F1200 X74.453 Y40.795 E94.82871
G0 F12000 X75.152 Y40.928
G1 F1200 X76.058 Y41.834 E94.98246
G0 F12000 X76.757 Y41.967
G1 F1200 X75.851 Y41.061 E95.13622
G0 F12000 X76.549 Y41.193
G1 F1200 X77.438 Y42.082 E95.28709
G0 F12000 X78.118 Y42.197
G1 F1200 X77.231 Y41.310 E95.43761
G0 F12000 X77.913 Y41.427
G1 F1200 X78.799 Y42.312 E95.58789
G0 F12000 X79.479 Y42.427
G1 F1200 X78.596 Y41.543 E95.73782
G0 F12000 X79.279 Y41.661
G1 F1200 X80.160 Y42.542 E95.88733
G0 F12000 X80.840 Y42.656
G1 F1200 X79.961 Y41.777 E96.03651
G0 F12000 X80.644 Y41.894
G1 F1200 X81.510 Y42.760 E96.18347
G0 F12000 X82.173 Y42.858
G1 F1200 X81.322 Y42.007 E96.32789
G0 F12000 X81.986 Y42.105
G1 F1200 X82.837 Y42.956 E96.47231
G0 F12000 X83.500 Y43.054
G1 F1200 X82.650 Y42.203 E96.61664
G0 F12000 X83.313 Y42.301
G1 F1200 X84.164 Y43.152 E96.76106
G0 F12000 X84.828 Y43.250
G1 F1200 X83.977 Y42.399 E96.90548
G0 F12000 X84.641 Y42.497
G1 F1200 X85.489 Y43.345 E97.04939
G0 F12000 X86.136 Y43.427
G1 F1200 X85.304 Y42.595 E97.19059
G0 F12000 X85.955 Y42.680
G1 F1200 X86.784 Y43.509 E97.33128
G0 F12000 X87.432 Y43.591
G1 F1200 X86.602 Y42.762 E97.47205
G0 F12000 X87.250 Y42.844
G1 F1200 X88.080 Y43.673 E97.61282
G0 F12000 X88.727 Y43.755
G1 F1200 X87.897 Y42.925 E97.75367
G0 F12000 X88.545 Y43.007
G1 F1200 X89.375 Y43.837 E97.89453
G0 F12000 X90.015 Y43.912
G1 F1200 X89.193 Y43.089 E98.03411
G0 F12000 X89.839 Y43.170
G1 F1200 X90.647 Y43.978 E98.17123
G0 F12000 X91.279 Y44.044
G1 F1200 X90.471 Y43.236 E98.30836
G0 F12000 X91.103 Y43.303
G1 F1200 X91.911 Y44.111 E98.44548
G0 F12000 X92.544 Y44.177
G1 F1200 X91.735 Y43.369 E98.58268
G0 F12000 X92.367 Y43.436
G1 F1200 X93.176 Y44.244 E98.71989
G0 F12000 X93.809 Y44.311
G1 F1200 X93.000 Y43.502 E98.85718
G0 F12000 X93.632 Y43.569
G1 F1200 X94.432 Y44.369 E98.99295
G0 F12000 X95.050 Y44.421
G1 F1200 X94.261 Y43.632 E99.12685
G0 F12000 X94.878 Y43.684
G1 F1200 X95.667 Y44.472 E99.26066
G0 F12000 X96.284 Y44.524
G1 F1200 X95.496 Y43.735 E99.39447
G0 F12000 X96.113 Y43.787
G1 F1200 X96.901 Y44.576 E99.52828
G0 F12000 X97.519 Y44.627
G1 F1200 X96.730 Y43.839 E99.66210
G0 F12000 X97.348 Y43.891
G1 F1200 X98.136 Y44.679 E99.79583
G0 F12000 X98.745 Y44.722
G1 F1200 X97.966 Y43.943 E99.92803
G0 F12000 X98.580 Y43.991
G1 F1200 X99.349 Y44.760 E100.05853
G0 F12000 X99.953 Y44.798
G1 F1200 X99.185 Y44.030 E100.18886
G0 F12000 X99.789 Y44.069
G1 F1200 X100.556 Y44.836 E100.31903
G0 F12000 X101.160 Y44.875
G1 F1200 X100.392 Y44.107 E100.44936
G0 F12000 X100.996 Y44.145
G1 F1200 X101.764 Y44.913 E100.57970
G0 F12000 X102.368 Y44.951
G1 F1200 X101.600 Y44.183 E100.71003
G0 F12000 X102.204 Y44.221
G1 F1200 X102.967 Y44.984 E100.83952
G0 F12000 X103.557 Y45.009
G1 F1200 X102.808 Y44.259 E100.96671
G0 F12000 X103.398 Y44.284
G1 F1200 X104.148 Y45.034 E101.09399
G0 F12000 X104.738 Y45.058
G1 F1200 X103.989 Y44.309 E101.22110
G0 F12000 X104.579 Y44.334
G1 F1200 X105.328 Y45.083 E101.34821
G0 F12000 X105.918 Y45.107
G1 F1200 X105.170 Y44.358 E101.47523
G0 F12000 X105.760 Y44.383
G1 F1200 X106.508 Y45.131 E101.60217
G0 F12000 X107.099 Y45.156
G1 F1200 X106.350 Y44.407 E101.72928
G0 F12000 X106.940 Y44.432
G1 F1200 X107.689 Y45.181 E101.85639
G0 F12000 X108.279 Y45.206
G1 F1200 X107.523 Y44.449 E101.98477
G0 F12000 X108.101 Y44.461
G1 F1200 X113.996 Y50.356 E102.98519
G0 F12000 X113.936 Y50.862
G1 F1200 X108.429 Y45.355 E103.91976
G0 F12000 X108.358 Y45.850
G1 F1200 X113.845 Y51.337 E104.85093
G0 F12000 X113.740 Y51.798
G1 F1200 X108.287 Y46.345 E105.77634
G0 F12000 X108.217 Y46.840
G1 F1200 X113.605 Y52.228 E106.69071
G0 F12000 X113.470 Y52.658
G1 F1200 X108.146 Y47.335 E107.59414
G0 F12000 X108.075 Y47.830
G1 F1200 X113.334 Y53.088 E108.48654
G0 F12000 X113.157 Y53.477
G1 F1200 X108.004 Y48.325 E109.36094
G0 F12000 X107.934 Y48.820
G1 F1200 X112.980 Y53.865 E110.21719
G0 F12000 X112.803 Y54.254
G1 F1200 X107.863 Y49.315 E111.05545
G0 F12000 X107.792 Y49.810
G1 F1200 X112.625 Y54.643 E111.87564
G0 F12000 X112.436 Y55.019
G1 F1200 X107.772 Y50.355 E112.66715
G0 F12000 X107.851 Y51.000
G1 F1200 X112.224 Y55.373 E113.40927
G0 F12000 X112.013 Y55.727
G1 F1200 X107.977 Y51.691 E114.09420
G0 F12000 X108.209 Y52.489
G1 F1200 X111.802 Y56.082 E114.70396
G0 F12000 X111.242 Y56.088
G1 F1200 X108.503 Y53.349 E115.16878
G0 F12000 X108.926 Y54.338
G1 F1200 X110.670 Y56.082 E115.46475
G0 F12000 X110.098 Y56.075
G1 F1200 X109.503 Y55.480 E115.56572
G0 F12000 X113.970 Y49.765
G1 F1200 X108.678 Y44.473 E116.46380
G0 F12000 X109.256 Y44.485
G1 F1200 X113.894 Y49.123 E117.25090
G0 F12000 X113.818 Y48.482
G1 F1200 X109.833 Y44.496 E117.92726
G0 F12000 X110.411 Y44.508
G1 F1200 X113.743 Y47.840 E118.49272
G0 F12000 X113.667 Y47.199
G1 F1200 X110.988 Y44.520 E118.94736
G0 F12000 X111.565 Y44.532
G1 F1200 X113.591 Y46.558 E119.29118
G0 F12000 X113.515 Y45.915
G1 F1200 X112.131 Y44.532 E119.52597
G0 F12000 X112.697 Y44.532
G1 F1200 X113.439 Y45.274 E119.65189
G0 F12000 X113.982 Y45.252
G1 F1200 X113.262 Y44.532 E119.77408
G0 F12000 X113.828 Y44.532
G1 F1200 X114.548 Y45.252 E119.89627
G0 F12000 X115.114 Y45.252
G1 F1200 X114.394 Y44.532 E120.01846
G0 F12000 X114.960 Y44.532
G1 F1200 X115.679 Y45.252 E120.14056
G0 F12000 X116.237 Y45.243
G1 F1200 X115.525 Y44.532 E120.26131
G0 F12000 X116.087 Y44.527
G1 F1200 X116.791 Y45.232 E120.38086
G0 F12000 X117.345 Y45.220
G1 F1200 X116.641 Y44.516 E120.50034
G0 F12000 X117.195 Y44.505
G1 F1200 X117.899 Y45.208 E120.61972
G0 F12000 X118.453 Y45.197
G1 F1200 X117.749 Y44.493 E120.73920
G0 F12000 X118.303 Y44.481
G1 F1200 X119.007 Y45.185 E120.85867
G0 F12000 X119.561 Y45.174
G1 F1200 X118.858 Y44.470 E120.97806
G0 F12000 X119.412 Y44.459
G1 F1200 X120.115 Y45.162 E121.09736
G0 F12000 X120.661 Y45.142
G1 F1200 X119.967 Y44.448 E121.21514
G0 F12000 X120.515 Y44.430
G1 F1200 X121.204 Y45.119 E121.33206
G0 F12000 X121.746 Y45.096
G1 F1200 X121.057 Y44.407 E121.44899
G0 F12000 X121.600 Y44.384
G1 F1200 X122.289 Y45.073 E121.56592
G0 F12000 X122.832 Y45.051
G1 F1200 X122.143 Y44.361 E121.68293
G0 F12000 X122.686 Y44.339
G1 F1200 X123.375 Y45.028 E121.79986
G0 F12000 X123.919 Y45.005
G1 F1200 X123.229 Y44.316 E121.91687
G0 F12000 X123.771 Y44.293
G1 F1200 X124.461 Y44.982 E122.03388
G0 F12000 X124.996 Y44.952
G1 F1200 X124.315 Y44.270 E122.14954
G0 F12000 X124.851 Y44.241
G1 F1200 X125.528 Y44.918 E122.26443
G0 F12000 X126.060 Y44.885
G1 F1200 X125.384 Y44.208 E122.37923
G0 F12000 X125.915 Y44.174
G1 F1200 X126.592 Y44.851 E122.49412
G0 F12000 X127.125 Y44.817
G1 F1200 X126.448 Y44.141 E122.60893
G0 F12000 X126.980 Y44.107
G1 F1200 X127.656 Y44.783 E122.72365
G0 F12000 X128.189 Y44.750
