;FLAVOR:UltiGCode
;TIME:701
;MATERIAL:233
;MATERIAL2:0
;NOZZLE_DIAMETER:0.400000
;NOZZLE_DIAMETER2:0.400000

;Layer count: 108
;LAYER:0
M107
G0 F12000 X92.386 Y107.033 Z0.300
;TYPE:SKIRT
G1 F1200 X93.632 Y106.056 E0.19000
G1 X98.439 Y105.663 E0.76877
G1 X99.965 Y105.534 E0.95254
G1 X106.282 Y109.176 E1.82754
G1 X111.733 Y109.182 E2.48166
G1 X113.366 Y109.184 E2.67762
G1 X113.352 Y109.097 E2.68820
G1 X113.501 Y108.027 E2.81784
G1 X113.882 Y107.100 E2.93811
G1 X114.476 Y106.312 E3.05652
G1 X115.255 Y105.684 E3.17660
G1 X116.488 Y105.134 E3.33861
G1 X122.326 Y105.271 E4.03936
G1 X123.662 Y106.239 E4.23734
G1 X130.338 Y111.083 E5.22713
G1 X130.883 Y111.603 E5.31752
G1 X131.418 Y112.459 E5.43865
G1 X131.699 Y113.424 E5.55926
G1 X131.742 Y114.661 E5.70779
G1 X131.190 Y116.102 E5.89297
G1 X130.359 Y116.997 E6.03952
G1 X129.508 Y117.535 E6.16034
G1 X128.356 Y117.890 E6.30499
G1 X123.605 Y117.523 E6.87681
G1 X123.286 Y117.498 E6.91521
G1 X106.698 Y117.475 E8.90577
G1 X100.801 Y117.480 E9.61341
G1 X93.878 Y113.488 E10.57239
G1 X93.001 Y112.982 E10.69389
G1 X92.398 Y112.521 E10.78498
G1 X91.767 Y111.712 E10.90809
G1 X91.368 Y110.732 E11.03507
G1 X91.249 Y109.684 E11.16164
G1 X91.406 Y108.690 E11.28239
G1 X91.794 Y107.790 E11.40000
G1 X92.386 Y107.033 E11.51532
G0 F12000 X92.671 Y107.318
G1 F1200 X93.784 Y106.445 E11.68507
G1 X98.462 Y106.063 E12.24829
G1 X98.462 Y106.062 E12.24841
G1 X99.874 Y105.943 E12.41846
G1 X106.175 Y109.576 E13.29125
G1 X113.833 Y109.586 E14.21022
G1 X113.756 Y109.094 E14.26997
G1 X113.891 Y108.132 E14.38655
G1 X114.232 Y107.299 E14.49456
G1 X114.766 Y106.592 E14.60088
G1 X115.465 Y106.028 E14.70866
G1 X116.569 Y105.536 E14.85370
G1 X122.192 Y105.668 E15.52864
G1 X123.427 Y106.563 E15.71167
G1 X130.081 Y111.391 E16.69819
G1 X130.570 Y111.857 E16.77925
G1 X131.050 Y112.624 E16.88783
G1 X131.301 Y113.488 E16.99579
G1 X131.340 Y114.594 E17.12860
G1 X130.844 Y115.886 E17.29467
G1 X130.101 Y116.687 E17.42577
G1 X129.340 Y117.169 E17.53387
G1 X128.311 Y117.485 E17.66304
G1 X123.637 Y117.124 E18.22559
G1 X123.305 Y117.098 E18.26555
G1 X106.699 Y117.075 E20.25827
G1 X100.908 Y117.080 E20.95320
G1 X94.078 Y113.142 E21.89927
G1 X93.224 Y112.649 E22.01760
G1 X92.682 Y112.234 E22.09952
G1 X92.116 Y111.510 E22.20979
G1 X91.760 Y110.632 E22.32349
G1 X91.652 Y109.693 E22.43691
G1 X91.793 Y108.802 E22.54516
G1 X92.141 Y107.996 E22.65051
G1 X92.671 Y107.318 E22.75378
G10
G1 Z0.400
G0 F12000 X97.634 Y110.345
;TYPE:WALL-INNER
G1 Z0.300
G11
G1 F1200 X98.815 Y110.248 E22.89597
G1 X98.918 Y110.239 E22.90838
G1 X103.493 Y112.878 E23.54217
G1 X102.029 Y112.879 E23.71785
G1 X97.634 Y110.345 E24.32663
G0 F12000 X105.159 Y113.368
G0 X122.324 Y113.357
G0 X122.577 Y112.582
G0 X119.498 Y109.806
G1 F1200 X120.786 Y109.837 E24.48124
G1 X125.189 Y113.032 E25.13405
G1 X123.966 Y112.937 E25.28125
G1 X123.475 Y112.898 E25.34035
G1 X122.936 Y112.897 E25.40503
G1 X123.093 Y112.414 E25.46598
G1 X119.498 Y109.806 E25.99894
G0 F12000 X120.920 Y109.440
G1 F1200 X126.571 Y113.540 E26.83674
G1 X123.935 Y113.336 E27.15401
G1 X123.459 Y113.298 E27.21131
G1 X122.385 Y113.297 E27.34019
G1 X122.623 Y112.567 E27.43233
G1 X118.225 Y109.376 E28.08437
G1 X120.920 Y109.440 E28.40786
G0 F12000 X122.577 Y112.582
G0 X122.324 Y113.357
G0 X104.985 Y113.276
G1 F1200 X101.924 Y113.279 E28.77518
G1 X96.324 Y110.050 E29.55089
G1 X98.782 Y109.849 E29.84684
G1 X99.008 Y109.830 E29.87405
G1 X104.985 Y113.276 E30.70196
G0 F12000 X105.263 Y112.975
;TYPE:WALL-OUTER
G1 F1200 X122.062 Y112.996 E32.71784
G1 X122.152 Y112.720 E32.75268
G1 X117.231 Y109.150 E33.48223
G1 X117.209 Y109.120 E33.48669
G1 X117.198 Y109.095 E33.48997
G1 X117.193 Y109.064 E33.49374
G1 X117.199 Y109.027 E33.49823
G1 X117.211 Y108.996 E33.50222
G1 X117.225 Y108.977 E33.50505
G1 X117.256 Y108.953 E33.50976
G1 X121.054 Y109.043 E33.96565
G1 X127.899 Y114.008 E34.98038
G1 X127.916 Y114.026 E34.98335
G1 X127.909 Y114.045 E34.98578
G1 X123.443 Y113.698 E35.52331
G1 X101.816 Y113.679 E38.11855
G1 X95.114 Y109.814 E39.04695
G1 X95.085 Y109.786 E39.05178
G1 X95.083 Y109.768 E39.05396
G1 X95.088 Y109.749 E39.05631
G1 X99.099 Y109.420 E39.53925
G1 X105.263 Y112.975 E40.39313
G0 F12000 X105.538 Y113.175
;TYPE:SKIN
G1 F1200 X105.974 Y113.328 E40.44498
G1 X106.541 Y113.329 E40.49703
G1 X107.107 Y113.329 E40.54882
G1 X107.673 Y113.330 E40.60061
G1 X108.239 Y113.330 E40.65222
G1 X108.805 Y113.331 E40.70401
G1 X109.372 Y113.332 E40.75572
G1 X109.938 Y113.332 E40.80734
G1 X110.505 Y113.333 E40.85905
G1 X111.071 Y113.334 E40.91050
G1 X111.637 Y113.335 E40.96212
G1 X112.203 Y113.335 E41.01357
G1 X112.770 Y113.335 E41.06494
G1 X113.336 Y113.336 E41.11639
G1 X113.903 Y113.337 E41.16776
G1 X114.468 Y113.337 E41.21912
G1 X115.035 Y113.338 E41.27049
G1 X115.601 Y113.338 E41.32177
G1 X116.167 Y113.339 E41.37322
G1 X116.734 Y113.340 E41.42442
G1 X117.300 Y113.341 E41.47570
G1 X117.867 Y113.341 E41.52690
G1 X118.433 Y113.342 E41.57801
G1 X118.999 Y113.342 E41.62912
G1 X119.565 Y113.343 E41.68023
G1 X120.132 Y113.343 E41.73143
G1 X120.698 Y113.344 E41.78237
G1 X121.264 Y113.345 E41.83331
G1 X121.830 Y113.345 E41.88425
G1 X122.164 Y113.395 E41.92478
G0 F12000 X123.150 Y112.685
G1 F1200 X123.223 Y112.758 E41.93716
G0 F12000 X123.815 Y112.784
G1 F1200 X121.718 Y110.687 E42.29304
G0 F12000 X121.688 Y111.222
G1 F1200 X120.434 Y109.969 E42.50576
G0 F12000 X123.780 Y112.183
G1 F1200 X124.428 Y112.832 E42.61582
G0 F12000 X122.324 Y113.357
G0 X105.279 Y113.481
G1 F1200 X105.150 Y113.352 E42.63771
G0 F12000 X102.803 Y112.702
G1 F1200 X102.657 Y112.557 E42.66240
G0 F12000 X102.273 Y112.738
G1 F1200 X101.320 Y111.785 E42.82413
G0 F12000 X101.218 Y112.248
G1 F1200 X99.983 Y111.014 E43.03363
G0 F12000 X99.882 Y111.478
G1 F1200 X98.793 Y110.389 E43.21844
G0 F12000 X98.546 Y110.708
G1 F1200 X98.270 Y110.433 E43.26520
;LAYER:1
M106 S2
G0 F12000 X98.722 Y110.252 Z0.360
;TYPE:WALL-INNER
G1 F1620 X98.917 Y110.236 E43.26988
G1 X103.504 Y112.881 E43.39664
G1 X102.030 Y112.882 E43.43193
G1 X97.625 Y110.342 E43.55366
G1 X98.722 Y110.252 E43.58001
G0 F12000 X105.159 Y113.367
G0 X122.324 Y113.356
G0 X122.576 Y112.582
G0 X119.490 Y109.803
G1 F1620 X120.788 Y109.834 E43.61109
G1 X125.199 Y113.035 E43.74157
G1 X123.474 Y112.901 E43.78299
G1 X122.931 Y112.900 E43.79599
G1 X123.089 Y112.415 E43.80820
G1 X119.490 Y109.803 E43.91466
G0 F12000 X120.921 Y109.438
G1 F1620 X126.578 Y113.542 E44.08197
G1 X123.459 Y113.300 E44.15687
G1 X122.382 Y113.299 E44.18265
G1 X122.620 Y112.567 E44.20108
G1 X118.218 Y109.374 E44.33127
G1 X120.921 Y109.438 E44.39599
G0 F12000 X122.576 Y112.582
G0 X122.324 Y113.356
G0 X104.992 Y113.278
G1 F1620 X101.923 Y113.281 E44.46947
G1 X96.317 Y110.048 E44.62439
G1 X99.008 Y109.827 E44.68903
G1 X104.992 Y113.278 E44.85440
G0 F12000 X105.264 Y112.974
;TYPE:WALL-OUTER
G1 F1620 X122.061 Y112.995 E45.25652
G1 X122.151 Y112.720 E45.26345
G1 X117.230 Y109.150 E45.40900
G1 X117.207 Y109.119 E45.40992
G1 X117.197 Y109.097 E45.41050
G1 X117.192 Y109.063 E45.41132
G1 X117.197 Y109.026 E45.41222
G1 X117.229 Y108.972 E45.41372
G1 X117.254 Y108.953 E45.41447
G1 X121.054 Y109.042 E45.50547
G1 X127.900 Y114.008 E45.70794
G1 X127.918 Y114.026 E45.70855
G1 X127.919 Y114.036 E45.70879
G1 X127.915 Y114.046 E45.70905
G1 X123.443 Y113.699 E45.81643
G1 X101.815 Y113.680 E46.33420
G1 X95.115 Y109.817 E46.51935
G1 X95.091 Y109.798 E46.52008
G1 X95.084 Y109.785 E46.52044
G1 X95.082 Y109.767 E46.52087
G1 X95.087 Y109.748 E46.52134
G1 X99.100 Y109.419 E46.61774
G1 X105.264 Y112.974 E46.78808
G0 F12000 X105.484 Y113.171
;TYPE:SKIN
G1 F1620 X105.453 Y113.484 E46.79867
G1 X106.173 Y113.328 E46.80924
G1 X106.736 Y113.329 E46.81974
G1 X107.300 Y113.329 E46.83027
G1 X107.864 Y113.330 E46.84076
G1 X108.427 Y113.331 E46.85126
G1 X108.991 Y113.331 E46.86179
G1 X109.555 Y113.331 E46.87231
G1 X110.118 Y113.332 E46.88278
G1 X110.682 Y113.333 E46.89327
G1 X111.245 Y113.333 E46.90378
G1 X111.810 Y113.334 E46.91429
G1 X112.373 Y113.335 E46.92469
G1 X112.937 Y113.335 E46.93515
G1 X113.500 Y113.336 E46.94559
G1 X114.064 Y113.337 E46.95604
G1 X114.628 Y113.337 E46.96647
G1 X115.191 Y113.338 E46.97687
G1 X115.755 Y113.338 E46.98729
G1 X116.319 Y113.339 E46.99768
G1 X116.882 Y113.340 E47.00805
G1 X117.446 Y113.341 E47.01844
G1 X118.009 Y113.341 E47.02881
G1 X118.573 Y113.342 E47.03920
G1 X119.136 Y113.343 E47.04954
G1 X119.700 Y113.343 E47.05993
G1 X120.264 Y113.343 E47.07031
G1 X120.827 Y113.344 E47.08065
G1 X121.391 Y113.345 E47.09101
G1 X121.955 Y113.345 E47.10136
G1 X122.147 Y113.436 E47.10645
G0 F12000 X123.387 Y112.760
G1 F1620 X123.727 Y112.138 E47.12346
G1 X123.070 Y112.230 E47.13461
G1 X123.073 Y111.663 E47.14573
G1 X122.416 Y111.755 E47.15684
G1 X122.418 Y111.189 E47.16794
G1 X121.763 Y111.280 E47.17905
G1 X121.764 Y110.715 E47.19014
G1 X121.109 Y110.806 E47.20125
G1 X121.110 Y110.240 E47.21232
G1 X120.455 Y110.331 E47.22343
G1 X120.537 Y109.967 E47.23236
G0 F12000 X123.916 Y112.795
G1 F1620 X124.381 Y112.612 E47.24255
G1 X124.440 Y112.835 E47.24808
G0 F12000 X122.324 Y113.356
G0 X105.159 Y113.367
G0 X102.695 Y112.574
G1 F1620 X102.432 Y112.554 E47.25374
G1 X101.821 Y112.601 E47.26514
G1 X101.800 Y112.058 E47.27652
G1 X101.106 Y112.188 E47.28787
G1 X101.085 Y111.645 E47.29925
G1 X100.390 Y111.775 E47.31062
G1 X100.369 Y111.232 E47.32200
G1 X99.675 Y111.362 E47.33335
G1 X99.653 Y110.820 E47.34471
G1 X98.959 Y110.949 E47.35606
G1 X98.891 Y110.452 E47.36744
G1 X98.422 Y110.640 E47.37954
;LAYER:2
M106 S5
G0 F12000 X98.917 Y110.236 Z0.420
;TYPE:WALL-INNER
G1 F2100 X103.504 Y112.881 E47.50630
G1 X102.030 Y112.882 E47.54158
G1 X97.628 Y110.343 E47.66324
G1 X98.917 Y110.236 E47.69421
G0 F12000 X105.159 Y113.367
G0 X122.324 Y113.356
G0 X122.576 Y112.582
G0 X119.490 Y109.803
G1 F2100 X120.788 Y109.834 E47.72529
G1 X125.200 Y113.035 E47.85578
G1 X123.474 Y112.901 E47.89723
G1 X122.931 Y112.900 E47.91023
G1 X123.089 Y112.415 E47.92244
G1 X119.490 Y109.803 E48.02890
G0 F12000 X120.921 Y109.438
G1 F2100 X126.578 Y113.542 E48.19621
G1 X123.459 Y113.300 E48.27111
G1 X122.382 Y113.299 E48.29689
G1 X122.620 Y112.567 E48.31532
G1 X118.218 Y109.374 E48.44550
G1 X120.921 Y109.438 E48.51023
G0 F12000 X122.576 Y112.582
G0 X122.324 Y113.356
G0 X104.992 Y113.278
G1 F2100 X101.923 Y113.281 E48.58370
G1 X96.323 Y110.051 E48.73847
G1 X99.008 Y109.828 E48.80297
G1 X104.992 Y113.278 E48.96833
G0 F12000 X105.264 Y112.974
;TYPE:WALL-OUTER
G1 F2100 X122.061 Y112.995 E49.37045
G1 X122.151 Y112.720 E49.37738
G1 X117.231 Y109.151 E49.52289
G1 X117.208 Y109.119 E49.52383
G1 X117.198 Y109.097 E49.52441
G1 X117.192 Y109.064 E49.52521
G1 X117.199 Y109.021 E49.52626
G1 X117.209 Y108.998 E49.52686
G1 X117.254 Y108.953 E49.52838
G1 X121.054 Y109.042 E49.61938
G1 X127.900 Y114.008 E49.82185
G1 X127.918 Y114.026 E49.82246
G1 X127.919 Y114.037 E49.82272
G1 X123.443 Y113.699 E49.93019
G1 X101.815 Y113.680 E50.44796
G1 X95.119 Y109.819 E50.63300
G1 X95.093 Y109.797 E50.63382
G1 X95.082 Y109.780 E50.63430
G1 X95.085 Y109.754 E50.63493
G1 X99.100 Y109.419 E50.73138
G1 X105.264 Y112.974 E50.90173
G0 F12000 X105.554 Y113.172
;TYPE:SKIN
G1 F2100 X105.992 Y113.328 E50.91225
G1 X106.557 Y113.328 E50.92276
G1 X107.122 Y113.329 E50.93327
G1 X107.686 Y113.330 E50.94376
G1 X108.251 Y113.330 E50.95427
G1 X108.816 Y113.331 E50.96477
G1 X109.381 Y113.332 E50.97528
G1 X109.946 Y113.332 E50.98579
G1 X110.510 Y113.332 E50.99625
G1 X111.075 Y113.333 E51.00672
G1 X111.640 Y113.334 E51.01720
G1 X112.205 Y113.334 E51.02761
G1 X112.770 Y113.335 E51.03801
G1 X113.335 Y113.336 E51.04842
G1 X113.900 Y113.337 E51.05883
G1 X114.465 Y113.337 E51.06924
G1 X115.030 Y113.338 E51.07964
G1 X115.595 Y113.338 E51.09002
G1 X116.160 Y113.339 E51.10039
G1 X116.725 Y113.340 E51.11076
G1 X117.290 Y113.340 E51.12114
G1 X117.855 Y113.341 E51.13151
G1 X118.420 Y113.342 E51.14188
G1 X118.984 Y113.342 E51.15220
G1 X119.549 Y113.343 E51.16254
G1 X119.985 Y113.497 E51.17361
G0 F12000 X119.985 Y113.396
G0 X105.300 Y113.483
G1 F2100 X105.160 Y113.342 E51.17837
G0 F12000 X102.820 Y112.695
G1 F2100 X102.707 Y112.583 E51.18218
G0 F12000 X102.302 Y112.741
G1 F2100 X101.373 Y111.813 E51.21362
G0 F12000 X101.289 Y112.293
G1 F2100 X100.040 Y111.044 E51.25590
G0 F12000 X99.955 Y111.523
G1 F2100 X98.816 Y110.384 E51.29446
G0 F12000 X98.620 Y110.753
G1 F2100 X98.294 Y110.427 E51.30550
G0 F12000 X105.159 Y113.367
G0 X122.324 Y113.356
G0 X122.576 Y112.582
G0 X120.403 Y109.965
G1 F2100 X121.601 Y111.162 E51.34604
G0 F12000 X121.596 Y110.593
G1 F2100 X123.787 Y112.784 E51.42022
G0 F12000 X123.198 Y112.760
G1 F2100 X123.141 Y112.703 E51.42215
G0 F12000 X123.651 Y112.084
G1 F2100 X124.399 Y112.832 E51.44748
G0 F12000 X122.156 Y113.410
G1 F2100 X121.809 Y113.345 E51.45479
G1 X121.244 Y113.344 E51.46512
G1 X120.679 Y113.344 E51.47543
G1 X120.244 Y113.191 E51.48647
;LAYER:3
M106 S7
G0 F12000 X120.244 Y113.292 Z0.480
G0 X122.324 Y113.356
G0 X123.089 Y112.415
;TYPE:WALL-INNER
G1 F2280 X119.490 Y109.803 E51.59293
G1 X120.788 Y109.834 E51.62401
G1 X125.201 Y113.035 E51.75453
G1 X124.266 Y112.963 E51.77698
G1 X123.475 Y112.901 E51.79597
G1 X122.931 Y112.900 E51.80899
G1 X123.089 Y112.415 E51.82121
G0 F12000 X122.324 Y113.356
G0 X105.159 Y113.367
G0 X103.504 Y112.881
G1 F2280 X102.030 Y112.882 E51.85649
G1 X97.624 Y110.341 E51.97826
G1 X98.917 Y110.235 E52.00932
G1 X103.504 Y112.881 E52.13609
G0 F12000 X101.923 Y113.281
G1 F2280 X96.317 Y110.048 E52.29102
G1 X99.008 Y109.827 E52.35565
G1 X104.992 Y113.278 E52.52103
G1 X101.923 Y113.281 E52.59450
G0 F12000 X122.324 Y113.356
G0 X122.576 Y112.583
G0 X118.218 Y109.374
G1 F2280 X120.921 Y109.438 E52.65923
G1 X126.578 Y113.542 E52.82654
G1 X123.458 Y113.300 E52.90146
G1 X122.382 Y113.299 E52.92722
G1 X122.620 Y112.567 E52.94564
G1 X118.218 Y109.374 E53.07583
G0 F12000 X117.213 Y108.991
;TYPE:WALL-OUTER
G1 F2280 X117.225 Y108.975 E53.07631
G1 X117.254 Y108.952 E53.07720
G1 X121.054 Y109.042 E53.16819
G1 X127.900 Y114.008 E53.37067
G1 X127.918 Y114.026 E53.37128
G1 X127.919 Y114.036 E53.37152
G1 X127.913 Y114.046 E53.37180
G1 X123.443 Y113.699 E53.47913
G1 X101.815 Y113.680 E53.99690
G1 X95.116 Y109.817 E54.18203
G1 X95.086 Y109.791 E54.18298
G1 X95.082 Y109.774 E54.18340
G1 X95.087 Y109.748 E54.18403
G1 X99.100 Y109.419 E54.28043
G1 X105.264 Y112.974 E54.45078
G1 X122.061 Y112.995 E54.85290
G1 X122.151 Y112.720 E54.85983
G1 X117.231 Y109.151 E55.00534
G1 X117.197 Y109.095 E55.00691
G1 X117.193 Y109.066 E55.00761
G1 X117.199 Y109.023 E55.00865
G1 X117.213 Y108.991 E55.00948
G10
G1 Z0.580
G0 F12000 X117.318 Y113.187
;TYPE:SKIN
G1 Z0.480
G11
G1 F2280 X116.882 Y113.340 E55.01985
G1 X116.319 Y113.339 E55.03022
G1 X115.755 Y113.338 E55.04061
G1 X115.191 Y113.338 E55.05103
G1 X114.628 Y113.337 E55.06144
G1 X114.064 Y113.337 E55.07186
G1 X113.500 Y113.336 E55.08232
G1 X112.937 Y113.335 E55.09275
G1 X112.373 Y113.335 E55.10321
G1 X111.810 Y113.334 E55.11361
G1 X111.245 Y113.333 E55.12412
G1 X110.682 Y113.333 E55.13463
G1 X110.118 Y113.332 E55.14512
G1 X109.555 Y113.331 E55.15559
G1 X108.991 Y113.331 E55.16612
G1 X108.427 Y113.331 E55.17664
G1 X107.864 Y113.330 E55.18715
G1 X107.300 Y113.329 E55.19764
G1 X106.736 Y113.329 E55.20816
G1 X106.173 Y113.328 E55.21867
G1 X105.609 Y113.327 E55.22919
G1 X105.171 Y113.484 E55.24033
G0 F12000 X105.171 Y113.383
G0 X102.695 Y112.574
G1 F2280 X102.432 Y112.554 E55.24599
G1 X101.821 Y112.601 E55.25739
G1 X101.800 Y112.058 E55.26877
G1 X101.106 Y112.188 E55.28013
G1 X101.085 Y111.645 E55.29150
G1 X100.390 Y111.775 E55.30287
G1 X100.369 Y111.232 E55.31425
G1 X99.675 Y111.362 E55.32561
