;FLAVOR:UltiGCode
;TIME:1001
;MATERIAL:907
;MATERIAL2:0
;NOZZLE_DIAMETER:0.400000
;NOZZLE_DIAMETER2:0.400000

;Layer count: 29
;LAYER:0
M107
G0 F12000 X39.145 Y99.842 Z0.300
;TYPE:SKIRT
G1 F1200 X44.368 Y101.722 E0.66613
G1 X44.879 Y101.894 E0.73083
G1 X48.422 Y103.087 E1.17944
G1 X48.920 Y103.242 E1.24203
G1 X52.430 Y104.343 E1.68346
G1 X56.560 Y105.544 E2.19959
G1 X60.665 Y106.643 E2.70954
G1 X61.204 Y106.775 E2.77613
G1 X64.836 Y107.667 E3.22493
G1 X65.344 Y107.780 E3.28738
G1 X68.974 Y108.592 E3.73374
G1 X69.504 Y108.698 E3.79860
G1 X73.147 Y109.433 E4.24457
G1 X73.683 Y109.529 E4.30991
G1 X77.313 Y110.183 E4.75253
G1 X77.879 Y110.272 E4.82128
G1 X81.546 Y110.853 E5.26681
G1 X85.780 Y111.433 E5.77963
G1 X86.313 Y111.494 E5.84401
G1 X90.017 Y111.923 E6.29146
G1 X90.544 Y111.972 E6.35498
G1 X94.239 Y112.322 E6.80036
G1 X94.788 Y112.361 E6.86641
G1 X98.465 Y112.633 E7.30885
G1 X99.039 Y112.662 E7.37782
G1 X102.780 Y112.859 E7.82736
G1 X103.296 Y112.875 E7.88931
G1 X106.979 Y112.991 E8.33149
G1 X107.552 Y112.996 E8.40025
G1 X111.271 Y113.035 E8.84656
G1 X111.816 Y113.030 E8.91196
G1 X115.557 Y112.991 E9.36091
G1 X116.075 Y112.975 E9.42309
G1 X119.755 Y112.859 E9.86491
G1 X120.333 Y112.829 E9.93437
G1 X124.048 Y112.633 E10.38079
G1 X124.592 Y112.594 E10.44624
G1 X124.592 Y112.595 E10.44636
G1 X128.286 Y112.323 E10.89084
G1 X128.835 Y112.272 E10.95700
G1 X128.835 Y112.271 E10.95712
G1 X132.539 Y111.920 E11.40359
G1 X133.077 Y111.858 E11.46858
G1 X136.753 Y111.432 E11.91265
G1 X140.999 Y110.851 E12.42692
G1 X141.528 Y110.767 E12.49119
G1 X145.212 Y110.183 E12.93879
G1 X145.738 Y110.089 E13.00291
G1 X149.379 Y109.434 E13.44685
G1 X149.926 Y109.324 E13.51380
G1 X153.596 Y108.583 E13.96309
G1 X154.101 Y108.470 E14.02519
G1 X157.723 Y107.660 E14.47056
G1 X158.257 Y107.529 E14.53654
G1 X161.875 Y106.641 E14.98359
G1 X165.970 Y105.544 E15.49232
G1 X170.100 Y104.343 E16.00844
G1 X170.596 Y104.188 E16.07080
G1 X174.114 Y103.085 E16.51323
G1 X174.655 Y102.903 E16.58172
G1 X178.175 Y101.718 E17.02742
G1 X183.856 Y99.673 E17.75196
G1 X185.832 Y105.105 E18.44559
G1 X187.073 Y108.506 E18.88003
G1 X181.638 Y110.461 E19.57314
G1 X177.638 Y111.816 E20.07993
G1 X177.041 Y112.018 E20.15556
G1 X173.386 Y113.163 E20.61518
G1 X172.786 Y113.351 E20.69063
G1 X169.105 Y114.420 E21.15060
G1 X168.504 Y114.595 E21.22572
G1 X164.803 Y115.586 E21.68548
G1 X164.199 Y115.748 E21.76052
G1 X160.477 Y116.663 E22.22046
G1 X159.870 Y116.812 E22.29546
G1 X156.130 Y117.648 E22.75534
G1 X155.519 Y117.785 E22.83048
G1 X151.762 Y118.541 E23.29036
G1 X151.150 Y118.665 E23.36529
G1 X146.760 Y119.454 E23.90053
G1 X142.358 Y120.152 E24.43537
G1 X138.565 Y120.671 E24.89477
G1 X137.942 Y120.757 E24.97024
G1 X134.135 Y121.196 E25.43011
G1 X133.516 Y121.268 E25.50489
G1 X129.075 Y121.689 E26.04020
G1 X125.257 Y121.968 E26.49958
G1 X124.630 Y122.015 E26.57503
G1 X120.803 Y122.215 E27.03490
G1 X120.803 Y122.214 E27.03502
G1 X120.181 Y122.248 E27.10977
G1 X116.350 Y122.368 E27.56971
G1 X115.723 Y122.388 E27.64499
G1 X111.896 Y122.428 E28.10426
G1 X111.267 Y122.435 E28.17974
G1 X107.433 Y122.396 E28.63985
G1 X106.806 Y122.388 E28.71509
G1 X102.978 Y122.268 E29.17468
G1 X102.351 Y122.248 E29.24996
G1 X98.523 Y122.048 E29.70994
G1 X97.898 Y122.015 E29.78505
G1 X94.079 Y121.735 E30.24456
G1 X93.453 Y121.689 E30.31988
G1 X89.017 Y121.269 E30.85458
G1 X85.209 Y120.830 E31.31457
G1 X84.586 Y120.757 E31.38984
G1 X80.792 Y120.237 E31.84937
G1 X80.170 Y120.152 E31.92471
G1 X76.387 Y119.553 E32.38432
G1 X75.768 Y119.454 E32.45955
G1 X71.382 Y118.666 E32.99429
G1 X67.625 Y117.910 E33.45417
G1 X67.010 Y117.785 E33.52948
G1 X63.272 Y116.950 E33.98910
G1 X62.660 Y116.812 E34.06438
G1 X58.938 Y115.898 E34.52429
G1 X58.330 Y115.748 E34.59944
G1 X54.630 Y114.758 E35.05906
G1 X54.024 Y114.595 E35.13436
G1 X50.346 Y113.527 E35.59395
G1 X49.744 Y113.351 E35.66922
G1 X46.088 Y112.206 E36.12895
G1 X45.490 Y112.018 E36.20417
G1 X41.857 Y110.796 E36.66413
G1 X41.263 Y110.595 E36.73938
G1 X39.262 Y109.875 E36.99457
G1 X35.929 Y108.677 E37.41959
G1 X39.145 Y99.842 E38.54784
G10
G1 Z0.400
G0 F12000 X41.660 Y105.212
;TYPE:WALL-INNER
G1 Z0.300
G11
G1 F1200 X42.976 Y105.685 E38.71565
G1 X47.098 Y107.073 E39.23758
G1 X51.248 Y108.373 E39.75944
G1 X55.424 Y109.587 E40.28131
G1 X59.626 Y110.713 E40.80334
G1 X63.849 Y111.750 E41.32515
G1 X68.093 Y112.698 E41.84698
G1 X72.356 Y113.558 E42.36885
G1 X76.637 Y114.328 E42.89081
G1 X80.931 Y115.008 E43.41251
G1 X85.240 Y115.598 E43.93442
G1 X89.560 Y116.099 E44.45629
G1 X90.151 Y116.154 E44.52752
G1 X93.890 Y116.508 E44.97821
G1 X94.482 Y116.550 E45.04943
G1 X98.228 Y116.826 E45.50016
G1 X98.820 Y116.857 E45.57130
G1 X102.570 Y117.054 E46.02192
G1 X106.918 Y117.191 E46.54394
G1 X107.512 Y117.196 E46.61522
G1 X111.264 Y117.235 E47.06549
G1 X111.858 Y117.230 E47.13677
G1 X115.613 Y117.191 E47.58739
G1 X119.959 Y117.054 E48.10917
G1 X120.553 Y117.024 E48.18054
G1 X124.302 Y116.826 E48.63105
G1 X124.895 Y116.783 E48.70240
G1 X128.639 Y116.508 E49.15289
G1 X129.230 Y116.453 E49.22411
G1 X132.970 Y116.099 E49.67492
G1 X137.289 Y115.598 E50.19668
G1 X141.598 Y115.008 E50.71858
G1 X145.893 Y114.328 E51.24040
G1 X150.174 Y113.558 E51.76236
G1 X154.436 Y112.698 E52.28411
G1 X158.681 Y111.750 E52.80606
G1 X162.904 Y110.713 E53.32787
G1 X167.106 Y109.587 E53.84991
G1 X171.282 Y108.373 E54.37177
G1 X175.432 Y107.073 E54.89363
G1 X179.554 Y105.685 E55.41556
G1 X181.340 Y105.043 E55.64331
G1 X181.682 Y105.982 E55.76323
G1 X180.244 Y106.499 E55.94660
G1 X175.733 Y108.027 E56.51814
G1 X172.127 Y109.156 E56.97157
G1 X171.560 Y109.334 E57.04288
G1 X167.384 Y110.547 E57.56471
G1 X163.147 Y111.682 E58.09108
G1 X158.913 Y112.723 E58.61429
G1 X155.213 Y113.549 E59.06922
G1 X154.634 Y113.679 E59.14043
G1 X150.933 Y114.424 E59.59346
G1 X150.352 Y114.542 E59.66460
G1 X146.071 Y115.311 E60.18655
G1 X141.747 Y115.996 E60.71190
G1 X137.404 Y116.591 E61.23792
G1 X133.653 Y117.024 E61.69103
G1 X133.085 Y117.090 E61.75965
G1 X128.713 Y117.504 E62.28664
G1 X124.946 Y117.780 E62.73989
G1 X124.376 Y117.822 E62.80848
G1 X120.583 Y118.020 E63.26426
G1 X120.002 Y118.051 E63.33408
G1 X115.624 Y118.189 E63.85970
G1 X111.847 Y118.228 E64.31296
G1 X111.263 Y118.235 E64.38305
G1 X107.480 Y118.196 E64.83703
G1 X106.906 Y118.189 E64.90591
G1 X102.522 Y118.051 E65.43226
G1 X98.747 Y117.854 E65.88587
G1 X98.155 Y117.822 E65.95702
G1 X94.388 Y117.547 E66.41026
G1 X93.816 Y117.504 E66.47909
G1 X89.445 Y117.090 E67.00596
G1 X85.694 Y116.658 E67.45906
G1 X85.125 Y116.591 E67.52781
G1 X80.783 Y115.996 E68.05372
G1 X76.458 Y115.311 E68.57919
G1 X72.158 Y114.538 E69.10346
G1 X68.458 Y113.793 E69.55637
G1 X67.888 Y113.677 E69.62617
G1 X64.190 Y112.851 E70.08086
G1 X63.611 Y112.721 E70.15207
G1 X59.382 Y111.682 E70.67465
G1 X55.145 Y110.547 E71.20101
G1 X50.961 Y109.331 E71.72387
G1 X47.346 Y108.199 E72.17844
G1 X46.798 Y108.027 E72.24736
G1 X43.199 Y106.816 E72.70303
G1 X42.657 Y106.633 E72.77168
G1 X41.318 Y106.151 E72.94246
G1 X41.660 Y105.212 E73.06238
G0 F12000 X43.108 Y105.308
G1 F1200 X47.222 Y106.693 E73.58328
G1 X51.364 Y107.990 E74.10412
G1 X55.532 Y109.202 E74.62500
G1 X59.725 Y110.325 E75.14589
G1 X63.940 Y111.360 E75.66672
G1 X68.176 Y112.307 E76.18758
G1 X72.431 Y113.165 E76.70846
G1 X76.703 Y113.934 E77.22934
G1 X80.990 Y114.613 E77.75019
G1 X85.290 Y115.201 E78.27100
G1 X89.602 Y115.701 E78.79190
G1 X90.188 Y115.755 E78.86252
G1 X93.923 Y116.109 E79.31273
G1 X98.253 Y116.427 E79.83373
G1 X102.587 Y116.655 E80.35453
G1 X106.926 Y116.791 E80.87546
G1 X107.516 Y116.796 E80.94627
G1 X111.264 Y116.835 E81.39605
G1 X111.855 Y116.830 E81.46697
G1 X115.604 Y116.791 E81.91688
G1 X119.943 Y116.655 E82.43781
G1 X124.277 Y116.427 E82.95861
G1 X128.605 Y116.109 E83.47937
G1 X129.193 Y116.054 E83.55024
G1 X132.928 Y115.701 E84.00044
G1 X137.239 Y115.201 E84.52123
G1 X141.539 Y114.613 E85.04203
G1 X145.827 Y113.934 E85.56300
G1 X150.099 Y113.165 E86.08388
G1 X154.353 Y112.307 E86.60464
G1 X158.590 Y111.360 E87.12562
G1 X162.805 Y110.325 E87.64645
G1 X166.998 Y109.202 E88.16734
G1 X171.166 Y107.990 E88.68822
G1 X175.308 Y106.693 E89.20906
G1 X179.422 Y105.308 E89.72996
G1 X181.580 Y104.531 E90.00520
G1 X182.195 Y106.222 E90.22112
G1 X180.380 Y106.875 E90.45259
G1 X175.871 Y108.403 E91.02389
G1 X171.681 Y109.715 E91.55076
G1 X167.488 Y110.933 E92.07472
G1 X163.249 Y112.068 E92.60132
G1 X159.007 Y113.111 E93.12552
G1 X154.722 Y114.069 E93.65242
G1 X150.443 Y114.932 E94.17624
G1 X146.126 Y115.707 E94.70256
G1 X141.797 Y116.393 E95.22852
G1 X137.471 Y116.986 E95.75249
G1 X133.699 Y117.421 E96.20813
G1 X133.109 Y117.490 E96.27942
G1 X128.752 Y117.903 E96.80460
G1 X124.397 Y118.222 E97.32860
G1 X120.604 Y118.420 E97.78438
G1 X120.025 Y118.451 E97.85396
G1 X115.636 Y118.589 E98.38090
G1 X111.265 Y118.635 E98.90545
G1 X106.894 Y118.589 E99.43000
G1 X102.505 Y118.451 E99.95694
G1 X98.725 Y118.254 E100.41115
G1 X98.133 Y118.222 E100.48230
G1 X93.777 Y117.903 E101.00642
G1 X89.420 Y117.490 E101.53160
G1 X85.648 Y117.055 E101.98724
G1 X85.059 Y116.986 E102.05840
G1 X80.733 Y116.394 E102.58236
G1 X76.403 Y115.707 E103.10846
G1 X72.087 Y114.931 E103.63469
G1 X67.808 Y114.070 E104.15846
G1 X63.523 Y113.111 E104.68538
G1 X59.280 Y112.068 E105.20970
G1 X55.041 Y110.933 E105.73629
G1 X50.849 Y109.715 E106.26014
G1 X46.659 Y108.402 E106.78705
G1 X42.509 Y107.005 E107.31251
G1 X40.805 Y106.392 E107.52981
G1 X41.420 Y104.700 E107.74585
G1 X43.108 Y105.308 E107.96115
G0 F12000 X43.239 Y104.930
;TYPE:WALL-OUTER
G1 F1200 X47.345 Y106.312 E108.48103
G1 X51.479 Y107.607 E109.00088
G1 X55.639 Y108.817 E109.52077
G1 X59.824 Y109.938 E110.04067
G1 X64.031 Y110.971 E110.56051
G1 X68.259 Y111.916 E111.08039
G1 X72.506 Y112.772 E111.60028
G1 X76.770 Y113.539 E112.12017
G1 X81.048 Y114.217 E112.63994
G1 X85.340 Y114.804 E113.15977
G1 X89.643 Y115.303 E113.67959
G1 X93.957 Y115.710 E114.19957
G1 X98.278 Y116.028 E114.71949
G1 X102.604 Y116.255 E115.23933
G1 X106.934 Y116.391 E115.75918
G1 X111.265 Y116.435 E116.27893
G1 X115.596 Y116.391 E116.79868
G1 X119.926 Y116.255 E117.31853
G1 X124.252 Y116.028 E117.83837
G1 X128.572 Y115.710 E118.35817
G1 X132.886 Y115.303 E118.87815
G1 X137.189 Y114.804 E119.39797
G1 X141.481 Y114.217 E119.91780
G1 X145.760 Y113.539 E120.43769
G1 X150.024 Y112.772 E120.95758
G1 X154.270 Y111.916 E121.47735
G1 X158.499 Y110.971 E121.99735
G1 X162.706 Y109.938 E122.51718
G1 X166.891 Y108.817 E123.03709
G1 X171.051 Y107.607 E123.55698
G1 X175.185 Y106.312 E124.07683
G1 X179.291 Y104.930 E124.59671
G1 X181.819 Y104.020 E124.91912
G1 X182.709 Y106.463 E125.23113
G1 X180.515 Y107.252 E125.51092
G1 X175.990 Y108.785 E126.08423
G1 X171.800 Y110.097 E126.61111
G1 X167.587 Y111.321 E127.13757
G1 X163.354 Y112.455 E127.66344
G1 X159.094 Y113.502 E128.18986
G1 X154.809 Y114.460 E128.71675
G1 X150.514 Y115.325 E129.24250
G1 X146.196 Y116.101 E129.76896
G1 X141.860 Y116.788 E130.29577
G1 X137.517 Y117.383 E130.82180
G1 X133.156 Y117.887 E131.34860
G1 X128.788 Y118.301 E131.87511
G1 X124.418 Y118.622 E132.40092
G1 X120.034 Y118.851 E132.92772
G1 X115.649 Y118.989 E133.45418
G1 X111.265 Y119.035 E133.98029
G1 X106.881 Y118.989 E134.50640
G1 X102.496 Y118.851 E135.03286
G1 X98.111 Y118.621 E135.55978
G1 X93.741 Y118.301 E136.08559
G1 X89.374 Y117.887 E136.61198
G1 X85.012 Y117.383 E137.13890
G1 X80.670 Y116.789 E137.66479
G1 X76.333 Y116.101 E138.19174
G1 X72.016 Y115.325 E138.71808
G1 X67.721 Y114.460 E139.24383
G1 X63.436 Y113.502 E139.77073
G1 X59.175 Y112.455 E140.29726
G1 X54.942 Y111.321 E140.82313
G1 X50.730 Y110.097 E141.34948
G1 X46.544 Y108.785 E141.87589
G1 X42.382 Y107.384 E142.40287
G1 X40.291 Y106.632 E142.66952
G1 X41.181 Y104.189 E142.98153
G1 X43.239 Y104.930 E143.24401
G0 F12000 X42.639 Y105.713
;TYPE:SKIN
G1 F1200 X43.792 Y106.866 E143.43968
G0 F12000 X44.353 Y106.296
G1 F1200 X45.497 Y107.439 E143.63374
G0 F12000 X46.059 Y106.870
G1 F1200 X47.190 Y108.002 E143.82576
G0 F12000 X47.740 Y107.420
G1 F1200 X48.837 Y108.517 E144.01193
G0 F12000 X49.388 Y107.937
G1 F1200 X50.485 Y109.033 E144.19801
G0 F12000 X51.036 Y108.453
G1 F1200 X52.096 Y109.513 E144.37790
G0 F12000 X52.635 Y108.921
G1 F1200 X53.692 Y109.978 E144.55728
G0 F12000 X54.230 Y109.385
G1 F1200 X55.285 Y110.439 E144.73623
G0 F12000 X56.057 Y110.645
G1 F1200 X55.028 Y109.617 E144.91077
G0 F12000 X54.490 Y110.210
G1 F1200 X53.433 Y109.153 E145.09015
G0 F12000 X52.894 Y109.745
G1 F1200 X51.837 Y108.689 E145.26945
G0 F12000 X51.299 Y109.281
G1 F1200 X50.212 Y108.195 E145.45383
G0 F12000 X49.661 Y108.775
G1 F1200 X48.564 Y107.678 E145.64000
G0 F12000 X48.013 Y108.259
G1 F1200 X46.911 Y107.157 E145.82701
G0 F12000 X46.350 Y107.727
G1 F1200 X45.206 Y106.583 E146.02116
G0 F12000 X44.645 Y107.153
G1 F1200 X43.501 Y106.009 E146.21530
G0 F12000 X42.939 Y106.579
G1 F1200 X41.755 Y105.394 E146.41632
G0 F12000 X41.594 Y105.800
G1 F1200 X42.065 Y106.270 E146.49616
G0 F12000 X55.812 Y109.835
G1 F1200 X56.830 Y110.853 E146.66892
G0 F12000 X57.602 Y111.059
G1 F1200 X56.585 Y110.042 E146.84151
G0 F12000 X57.358 Y110.249
G1 F1200 X58.375 Y111.266 E147.01411
G0 F12000 X59.148 Y111.473
G1 F1200 X58.131 Y110.457 E147.18661
G0 F12000 X58.904 Y110.664
G1 F1200 X59.905 Y111.665 E147.35649
G0 F12000 X60.654 Y111.849
G1 F1200 X59.674 Y110.868 E147.52288
G0 F12000 X60.424 Y111.053
G1 F1200 X61.404 Y112.033 E147.68919
G0 F12000 X62.154 Y112.217
G1 F1200 X61.173 Y111.237 E147.85559
G0 F12000 X61.924 Y111.421
G1 F1200 X62.904 Y112.401 E148.02190
G0 F12000 X63.653 Y112.585
G1 F1200 X62.674 Y111.606 E148.18804
G0 F12000 X63.423 Y111.790
G1 F1200 X64.382 Y112.748 E148.35071
G0 F12000 X65.111 Y112.911
G1 F1200 X64.162 Y111.963 E148.51167
G0 F12000 X64.891 Y112.125
G1 F1200 X65.839 Y113.074 E148.67264
G0 F12000 X66.568 Y113.237
G1 F1200 X65.619 Y112.288 E148.83369
G0 F12000 X66.347 Y112.450
G1 F1200 X67.296 Y113.400 E148.99482
G0 F12000 X68.022 Y113.560
G1 F1200 X67.075 Y112.613 E149.15554
G0 F12000 X67.803 Y112.775
G1 F1200 X68.731 Y113.703 E149.31302
G0 F12000 X69.440 Y113.846
G1 F1200 X68.519 Y112.925 E149.46932
G0 F12000 X69.227 Y113.068
G1 F1200 X70.148 Y113.989 E149.62562
G0 F12000 X70.857 Y114.131
G1 F1200 X69.936 Y113.211 E149.78183
G0 F12000 X70.645 Y113.354
G1 F1200 X71.565 Y114.274 E149.93796
G0 F12000 X72.271 Y114.414
G1 F1200 X71.354 Y113.497 E150.09358
G0 F12000 X72.062 Y113.640
G1 F1200 X72.961 Y114.539 E150.24615
G0 F12000 X73.650 Y114.663
G1 F1200 X72.759 Y113.771 E150.39744
G0 F12000 X73.449 Y113.895
G1 F1200 X74.340 Y114.786 E150.54865
G0 F12000 X75.029 Y114.910
G1 F1200 X74.138 Y114.019 E150.69986
G0 F12000 X74.828 Y114.144
G1 F1200 X75.719 Y115.034 E150.85098
G0 F12000 X76.409 Y115.158
G1 F1200 X75.518 Y114.267 E151.00219
G0 F12000 X76.208 Y114.392
G1 F1200 X77.083 Y115.266 E151.15060
G0 F12000 X77.754 Y115.372
G1 F1200 X76.890 Y114.508 E151.29722
G0 F12000 X77.563 Y114.615
G1 F1200 X78.427 Y115.479 E151.44385
G0 F12000 X79.099 Y115.585
G1 F1200 X78.235 Y114.722 E151.59039
G0 F12000 X78.907 Y114.828
G1 F1200 X79.771 Y115.692 E151.73701
G0 F12000 X80.443 Y115.798
G1 F1200 X79.579 Y114.935 E151.88355
G0 F12000 X80.252 Y115.042
G1 F1200 X81.108 Y115.898 E152.02882
G0 F12000 X81.764 Y115.988
G1 F1200 X80.924 Y115.148 E152.17138
G0 F12000 X81.579 Y115.237
G1 F1200 X82.419 Y116.077 E152.31393
G0 F12000 X83.075 Y116.167
G1 F1200 X82.235 Y115.327 E152.45648
G0 F12000 X82.890 Y115.417
G1 F1200 X83.730 Y116.257 E152.59903
G0 F12000 X84.386 Y116.347
G1 F1200 X83.546 Y115.507 E152.74159
G0 F12000 X84.201 Y115.597
G1 F1200 X85.041 Y116.437 E152.88414
