;FLAVOR:UltiGCode
;TIME:965
;MATERIAL:748
;MATERIAL2:0
;NOZZLE_DIAMETER:0.400000
;NOZZLE_DIAMETER2:0.400000

;Layer count: 57
;LAYER:0
M107
G0 F12000 X54.116 Y102.549 Z0.300
;TYPE:SKIRT
G1 F1200 X59.305 Y103.966 E0.64548
G1 X59.513 Y104.023 E0.67136
G1 X63.703 Y105.075 E1.18977
G1 X67.318 Y105.901 E1.63475
G1 X67.867 Y106.026 E1.70231
G1 X71.488 Y106.775 E2.14603
G1 X72.015 Y106.884 E2.21061
G1 X75.676 Y107.561 E2.65738
G1 X76.227 Y107.663 E2.72462
G1 X80.425 Y108.348 E3.23504
G1 X84.097 Y108.868 E3.68008
G1 X84.659 Y108.948 E3.74820
G1 X88.860 Y109.455 E4.25598
G1 X89.418 Y109.510 E4.32326
G1 X93.119 Y109.878 E4.76957
G1 X93.659 Y109.920 E4.83457
G1 X97.342 Y110.208 E5.27788
G1 X97.908 Y110.240 E5.34590
G1 X101.621 Y110.453 E5.79220
G1 X102.163 Y110.472 E5.85728
G1 X105.859 Y110.606 E6.30109
G1 X109.581 Y110.662 E6.74778
G1 X110.149 Y110.671 E6.81595
G1 X113.837 Y110.651 E7.25851
G1 X114.393 Y110.647 E7.32524
G1 X114.943 Y110.633 E7.39126
G1 X118.676 Y110.533 E7.83938
G1 X122.356 Y110.358 E8.28148
G1 X122.874 Y110.333 E8.34371
G1 X127.192 Y110.037 E8.86309
G1 X131.375 Y109.662 E9.36706
G1 X131.951 Y109.598 E9.43660
G1 X131.951 Y109.599 E9.43672
G1 X135.608 Y109.193 E9.87826
G1 X136.187 Y109.117 E9.94834
G1 X139.871 Y108.630 E10.39426
G1 X140.406 Y108.548 E10.45921
G1 X144.082 Y107.984 E10.90549
G1 X147.726 Y107.346 E11.34943
G1 X148.256 Y107.253 E11.41400
G1 X148.814 Y107.144 E11.48222
G1 X152.461 Y106.427 E11.92824
G1 X152.992 Y106.311 E11.99346
G1 X156.617 Y105.518 E12.43875
G1 X157.148 Y105.391 E12.50427
G1 X160.763 Y104.520 E12.95048
G1 X164.343 Y103.579 E13.39467
G1 X164.897 Y103.433 E13.46342
G1 X169.321 Y102.170 E14.01551
G1 X171.869 Y111.220 E15.14374
G1 X167.554 Y112.450 E15.68216
G1 X163.660 Y113.478 E16.16545
G1 X163.051 Y113.638 E16.24101
G1 X159.327 Y114.534 E16.70064
G1 X158.717 Y114.681 E16.77594
G1 X154.976 Y115.498 E17.23544
G1 X154.363 Y115.632 E17.31074
G1 X150.602 Y116.371 E17.77069
G1 X149.988 Y116.492 E17.84578
G1 X146.212 Y117.151 E18.30575
G1 X145.599 Y117.260 E18.38047
G1 X141.190 Y117.936 E18.91573
G1 X137.394 Y118.437 E19.37520
G1 X136.772 Y118.520 E19.45050
G1 X132.963 Y118.942 E19.91038
G1 X132.963 Y118.941 E19.91050
G1 X132.342 Y119.011 E19.98549
G1 X128.530 Y119.353 E20.44477
G1 X127.903 Y119.410 E20.52032
G1 X124.077 Y119.672 E20.98051
G1 X124.077 Y119.671 E20.98063
G1 X123.453 Y119.715 E21.05570
G1 X119.631 Y119.896 E21.51485
G1 X119.003 Y119.927 E21.59030
G1 X115.171 Y120.029 E22.05031
G1 X114.544 Y120.046 E22.12557
G1 X110.718 Y120.067 E22.58470
G1 X110.089 Y120.071 E22.66018
G1 X105.630 Y120.003 E23.19533
G1 X101.800 Y119.865 E23.65522
G1 X101.175 Y119.842 E23.73027
G1 X100.552 Y119.807 E23.80515
G1 X96.725 Y119.587 E24.26515
G1 X92.904 Y119.289 E24.72506
G1 X92.278 Y119.239 E24.80042
G1 X88.467 Y118.861 E25.25999
G1 X87.843 Y118.799 E25.33523
G1 X84.039 Y118.341 E25.79501
G1 X83.417 Y118.265 E25.87021
G1 X79.623 Y117.728 E26.33002
G1 X79.003 Y117.639 E26.40519
G1 X75.222 Y117.023 E26.86489
G1 X74.604 Y116.922 E26.94003
G1 X70.837 Y116.226 E27.39972
G1 X70.221 Y116.111 E27.47492
G1 X66.467 Y115.336 E27.93490
G1 X65.854 Y115.209 E28.01002
G1 X62.119 Y114.356 E28.46976
G1 X61.509 Y114.216 E28.54487
G1 X60.711 Y114.016 E28.64359
G1 X59.123 Y113.618 E28.84004
G1 X58.890 Y113.559 E28.86888
G1 X57.417 Y113.190 E29.05111
G1 X55.430 Y112.653 E29.29810
G1 X53.457 Y112.112 E29.54360
G1 X51.487 Y105.209 E30.40503
G1 X54.116 Y102.549 E30.85383
G10
G1 Z0.400
G0 F12000 X56.526 Y107.561
;TYPE:WALL-INNER
G1 Z0.300
G11
G1 F1200 X58.471 Y108.092 E31.09577
G1 X62.722 Y109.160 E31.62174
G1 X66.380 Y109.995 E32.07199
G1 X66.961 Y110.128 E32.14351
G1 X70.636 Y110.887 E32.59382
G1 X71.219 Y111.008 E32.66527
G1 X74.910 Y111.690 E33.11569
G1 X75.496 Y111.799 E33.18722
G1 X79.789 Y112.500 E33.70920
G1 X83.504 Y113.026 E34.15945
G1 X84.094 Y113.110 E34.23096
G1 X88.413 Y113.631 E34.75300
G1 X89.004 Y113.689 E34.82426
G1 X92.741 Y114.061 E35.27491
G1 X97.076 Y114.400 E35.79670
G1 X101.418 Y114.648 E36.31859
G1 X105.764 Y114.806 E36.84046
G1 X110.112 Y114.871 E37.36227
G1 X113.865 Y114.851 E37.81264
G1 X114.460 Y114.847 E37.88404
G1 X115.054 Y114.832 E37.95534
G1 X118.807 Y114.731 E38.40587
G1 X123.151 Y114.524 E38.92774
G1 X127.490 Y114.227 E39.44964
G1 X131.821 Y113.838 E39.97145
G1 X136.144 Y113.359 E40.49338
G1 X136.734 Y113.281 E40.56480
G1 X140.455 Y112.789 E41.01521
G1 X144.754 Y112.130 E41.53711
G1 X149.037 Y111.380 E42.05889
G1 X149.620 Y111.266 E42.13018
G1 X153.305 Y110.541 E42.58086
G1 X153.885 Y110.415 E42.65208
G1 X157.553 Y109.613 E43.10264
G1 X158.132 Y109.474 E43.17409
G1 X161.782 Y108.595 E43.62461
G1 X165.988 Y107.489 E44.14649
G1 X166.420 Y107.366 E44.20039
G1 X166.691 Y108.328 E44.32032
G1 X162.015 Y109.568 E44.90084
G1 X157.788 Y110.585 E45.42255
G1 X153.502 Y111.521 E45.94900
G1 X149.792 Y112.250 E46.40271
G1 X149.216 Y112.364 E46.47317
G1 X145.489 Y113.014 E46.92716
G1 X144.904 Y113.117 E46.99844
G1 X140.597 Y113.778 E47.52133
G1 X136.275 Y114.349 E48.04448
G1 X132.500 Y114.767 E48.50025
G1 X131.911 Y114.833 E48.57137
G1 X128.149 Y115.170 E49.02462
G1 X127.576 Y115.222 E49.09366
G1 X123.199 Y115.522 E49.62013
G1 X119.426 Y115.701 E50.07340
G1 X118.852 Y115.729 E50.14236
G1 X114.465 Y115.846 E50.66899
G1 X110.690 Y115.867 E51.12200
G1 X110.111 Y115.871 E51.19148
G1 X105.727 Y115.804 E51.71762
G1 X101.366 Y115.646 E52.24128
G1 X100.790 Y115.614 E52.31051
G1 X97.019 Y115.397 E52.76378
G1 X93.234 Y115.102 E53.21936
G1 X92.642 Y115.055 E53.29062
G1 X88.314 Y114.625 E53.81254
G1 X84.545 Y114.171 E54.26809
G1 X83.956 Y114.099 E54.33929
G1 X80.216 Y113.570 E54.79256
G1 X79.634 Y113.487 E54.86311
G1 X75.901 Y112.878 E55.31699
G1 X75.316 Y112.782 E55.38813
G1 X71.024 Y111.989 E55.91188
G1 X67.321 Y111.224 E56.36563
G1 X66.757 Y111.107 E56.43475
G1 X63.058 Y110.262 E56.89006
G1 X62.480 Y110.129 E56.96124
G1 X60.148 Y109.545 E57.24972
G1 X58.467 Y109.123 E57.45770
G1 X56.847 Y108.685 E57.65908
G1 X56.526 Y107.561 E57.79935
G0 F12000 X58.572 Y107.705
G1 F1200 X62.815 Y108.771 E58.32433
G1 X67.047 Y109.737 E58.84523
G1 X71.297 Y110.616 E59.36603
G1 X75.565 Y111.405 E59.88687
G1 X79.850 Y112.104 E60.40786
G1 X84.147 Y112.714 E60.92867
G1 X88.457 Y113.233 E61.44961
G1 X92.777 Y113.663 E61.97057
G1 X97.103 Y114.001 E62.49127
G1 X101.436 Y114.248 E63.01208
G1 X105.774 Y114.406 E63.53298
G1 X110.114 Y114.471 E64.05384
G1 X114.453 Y114.447 E64.57453
G1 X118.792 Y114.332 E65.09539
G1 X123.128 Y114.125 E65.61630
G1 X127.458 Y113.828 E66.13712
G1 X131.782 Y113.440 E66.65809
G1 X136.096 Y112.962 E67.17894
G1 X140.398 Y112.393 E67.69967
G1 X144.689 Y111.735 E68.22061
G1 X148.964 Y110.987 E68.74141
G1 X153.223 Y110.150 E69.26226
G1 X157.464 Y109.223 E69.78320
G1 X161.684 Y108.207 E70.30407
G1 X165.883 Y107.104 E70.82504
G1 X166.696 Y106.872 E70.92650
G1 X167.184 Y108.604 E71.14243
G1 X166.542 Y108.787 E71.22254
G1 X162.117 Y109.955 E71.77172
G1 X157.873 Y110.976 E72.29553
G1 X153.596 Y111.910 E72.82087
G1 X149.287 Y112.757 E73.34784
G1 X145.558 Y113.408 E73.80209
G1 X144.974 Y113.511 E73.87325
G1 X140.659 Y114.173 E74.39711
G1 X136.306 Y114.748 E74.92401
G1 X131.967 Y115.230 E75.44789
G1 X128.185 Y115.568 E75.90354
G1 X127.595 Y115.622 E75.97464
G1 X123.226 Y115.921 E76.50014
G1 X118.866 Y116.129 E77.02394
G1 X114.476 Y116.246 E77.55093
G1 X110.109 Y116.271 E78.07497
G1 X105.734 Y116.204 E78.60004
G1 X101.346 Y116.045 E79.12694
G1 X96.978 Y115.795 E79.65196
G1 X92.619 Y115.455 E80.17663
G1 X88.266 Y115.022 E80.70157
G1 X84.497 Y114.568 E81.15711
G1 X83.908 Y114.496 E81.22832
G1 X79.577 Y113.883 E81.75322
G1 X75.261 Y113.179 E82.27799
G1 X70.957 Y112.383 E82.80322
G1 X67.238 Y111.615 E83.25892
G1 X66.670 Y111.497 E83.32854
G1 X62.969 Y110.652 E83.78408
G1 X62.391 Y110.519 E83.85526
G1 X60.052 Y109.933 E84.14461
G1 X58.370 Y109.511 E84.35271
G1 X56.524 Y109.012 E84.58218
G1 X55.946 Y106.988 E84.83477
G1 X58.572 Y107.705 E85.16142
G0 F12000 X58.673 Y107.318
;TYPE:WALL-OUTER
G1 F1200 X62.908 Y108.382 E85.68542
G1 X67.132 Y109.346 E86.20533
G1 X71.374 Y110.223 E86.72513
G1 X75.634 Y111.011 E87.24501
G1 X79.910 Y111.709 E87.76492
G1 X84.199 Y112.317 E88.28474
G1 X88.500 Y112.836 E88.80461
G1 X92.812 Y113.264 E89.32459
G1 X97.130 Y113.602 E89.84434
G1 X101.455 Y113.849 E90.36418
G1 X105.784 Y114.006 E90.88400
G1 X110.116 Y114.071 E91.40390
G1 X114.447 Y114.047 E91.92363
G1 X118.777 Y113.932 E92.44341
G1 X123.105 Y113.726 E92.96336
G1 X127.427 Y113.429 E93.48322
G1 X131.742 Y113.042 E94.00310
G1 X136.048 Y112.565 E94.52298
G1 X140.342 Y111.997 E95.04275
G1 X144.624 Y111.340 E95.56260
G1 X148.891 Y110.594 E96.08241
G1 X153.142 Y109.758 E96.60230
G1 X157.375 Y108.833 E97.12225
G1 X161.587 Y107.819 E97.64213
G1 X165.777 Y106.718 E98.16200
G1 X166.972 Y106.376 E98.31115
G1 X167.677 Y108.880 E98.62332
G1 X166.656 Y109.171 E98.75072
G1 X162.223 Y110.341 E99.30089
G1 X157.958 Y111.367 E99.82729
G1 X153.673 Y112.303 E100.35362
G1 X149.369 Y113.149 E100.87998
G1 X145.048 Y113.904 E101.40636
G1 X140.708 Y114.570 E101.93325
G1 X136.363 Y115.144 E102.45918
G1 X131.999 Y115.628 E102.98607
G1 X127.634 Y116.021 E103.51199
G1 X123.253 Y116.320 E104.03893
G1 X118.873 Y116.529 E104.56513
G1 X114.487 Y116.646 E105.09164
G1 X110.105 Y116.671 E105.61749
G1 X105.719 Y116.604 E106.14387
G1 X101.335 Y116.445 E106.67030
G1 X96.952 Y116.194 E107.19712
G1 X92.583 Y115.853 E107.72299
G1 X88.218 Y115.419 E108.24937
G1 X83.859 Y114.893 E108.77625
G1 X79.515 Y114.278 E109.30273
G1 X75.190 Y113.573 E109.82858
G1 X70.872 Y112.774 E110.35553
G1 X66.583 Y111.887 E110.88110
G1 X62.301 Y110.909 E111.40818
G1 X58.273 Y109.899 E111.90650
G1 X56.201 Y109.339 E112.16406
G1 X55.366 Y106.415 E112.52897
G1 X58.673 Y107.318 E112.94034
G0 F12000 X58.061 Y108.124
;TYPE:SKIN
G1 F1200 X59.063 Y109.126 E113.11038
G0 F12000 X59.818 Y109.315
G1 F1200 X58.827 Y108.325 E113.27847
G0 F12000 X59.583 Y108.515
G1 F1200 X60.573 Y109.505 E113.44648
G0 F12000 X61.328 Y109.694
G1 F1200 X60.339 Y108.705 E113.61432
G0 F12000 X61.095 Y108.895
G1 F1200 X62.083 Y109.884 E113.78208
G0 F12000 X62.829 Y110.064
G1 F1200 X61.851 Y109.086 E113.94805
G0 F12000 X62.607 Y109.276
G1 F1200 X63.562 Y110.231 E114.11012
G0 F12000 X64.295 Y110.399
G1 F1200 X63.342 Y109.445 E114.27193
G0 F12000 X64.075 Y109.612
G1 F1200 X65.029 Y110.566 E114.43383
G0 F12000 X65.762 Y110.734
G1 F1200 X64.808 Y109.780 E114.59573
G0 F12000 X65.541 Y109.947
G1 F1200 X66.495 Y110.901 E114.75763
G0 F12000 X67.216 Y111.057
G1 F1200 X66.273 Y110.114 E114.91766
G0 F12000 X67.004 Y110.278
G1 F1200 X67.930 Y111.205 E115.07489
G0 F12000 X68.643 Y111.353
G1 F1200 X67.716 Y110.426 E115.23221
G0 F12000 X68.430 Y110.573
G1 F1200 X69.357 Y111.500 E115.38953
G0 F12000 X70.070 Y111.647
G1 F1200 X69.143 Y110.720 E115.54684
G0 F12000 X69.856 Y110.868
G1 F1200 X70.783 Y111.795 E115.70416
G0 F12000 X71.484 Y111.931
G1 F1200 X70.569 Y111.015 E115.85953
G0 F12000 X71.279 Y111.160
G1 F1200 X72.178 Y112.059 E116.01209
G0 F12000 X72.872 Y112.187
G1 F1200 X71.974 Y111.289 E116.16449
G0 F12000 X72.667 Y111.417
G1 F1200 X73.565 Y112.315 E116.31688
G0 F12000 X74.259 Y112.443
G1 F1200 X73.361 Y111.545 E116.46928
G0 F12000 X74.056 Y111.674
G1 F1200 X74.953 Y112.571 E116.62151
G0 F12000 X75.639 Y112.692
G1 F1200 X74.749 Y111.802 E116.77254
G0 F12000 X75.444 Y111.930
G1 F1200 X76.315 Y112.802 E116.92044
G0 F12000 X76.991 Y112.912
G1 F1200 X76.120 Y112.041 E117.06826
G0 F12000 X76.797 Y112.152
G1 F1200 X77.667 Y113.023 E117.21598
G0 F12000 X78.343 Y113.132
G1 F1200 X77.473 Y112.263 E117.36354
G0 F12000 X78.150 Y112.374
G1 F1200 X79.019 Y113.243 E117.51102
G0 F12000 X79.694 Y113.352
G1 F1200 X78.826 Y112.484 E117.65832
G0 F12000 X79.502 Y112.595
G1 F1200 X80.353 Y113.446 E117.80274
G0 F12000 X81.012 Y113.539
G1 F1200 X80.168 Y112.695 E117.94597
G0 F12000 X80.827 Y112.789
G1 F1200 X81.671 Y113.632 E118.08912
G0 F12000 X82.330 Y113.726
G1 F1200 X81.486 Y112.882 E118.23235
G0 F12000 X82.146 Y112.975
G1 F1200 X82.989 Y113.819 E118.37550
G0 F12000 X83.648 Y113.912
G1 F1200 X82.805 Y113.069 E118.51856
G0 F12000 X83.464 Y113.162
G1 F1200 X84.299 Y113.998 E118.66035
G0 F12000 X84.943 Y114.076
G1 F1200 X84.120 Y113.253 E118.80002
G0 F12000 X84.763 Y113.330
G1 F1200 X85.586 Y114.153 E118.93968
G0 F12000 X86.229 Y114.230
G1 F1200 X85.407 Y113.408 E119.07918
G0 F12000 X86.050 Y113.486
G1 F1200 X86.873 Y114.308 E119.21877
G0 F12000 X87.516 Y114.386
G1 F1200 X86.693 Y113.563 E119.35843
G0 F12000 X87.336 Y113.641
G1 F1200 X88.159 Y114.464 E119.49810
G0 F12000 X88.792 Y114.530
G1 F1200 X87.980 Y113.719 E119.63582
G0 F12000 X88.618 Y113.791
G1 F1200 X89.420 Y114.593 E119.77192
G0 F12000 X90.048 Y114.655
G1 F1200 X89.246 Y113.854 E119.90794
G0 F12000 X89.874 Y113.916
G1 F1200 X90.676 Y114.718 E120.04404
G0 F12000 X91.304 Y114.780
G1 F1200 X90.502 Y113.978 E120.18015
G0 F12000 X91.130 Y114.040
G1 F1200 X91.933 Y114.843 E120.31642
G0 F12000 X92.560 Y114.905
G1 F1200 X91.758 Y114.102 E120.45261
G0 F12000 X92.386 Y114.165
G1 F1200 X93.176 Y114.955 E120.58668
G0 F12000 X93.790 Y115.003
G1 F1200 X93.007 Y114.221 E120.71947
G0 F12000 X93.622 Y114.269
G1 F1200 X94.404 Y115.051 E120.85218
G0 F12000 X95.018 Y115.100
G1 F1200 X94.236 Y114.317 E120.98498
G0 F12000 X94.849 Y114.366
G1 F1200 X95.631 Y115.148 E121.11769
G0 F12000 X96.245 Y115.196
G1 F1200 X95.463 Y114.414 E121.25040
G0 F12000 X96.077 Y114.462
G1 F1200 X96.859 Y115.244 E121.38311
G0 F12000 X97.461 Y115.281
G1 F1200 X96.691 Y114.510 E121.51386
G0 F12000 X97.299 Y114.552
G1 F1200 X98.061 Y115.314 E121.64318
G0 F12000 X98.661 Y115.349
G1 F1200 X97.899 Y114.587 E121.77250
G0 F12000 X98.499 Y114.621
G1 F1200 X99.261 Y115.383 E121.90181
G0 F12000 X99.861 Y115.418
G1 F1200 X99.099 Y114.655 E122.03121
G0 F12000 X99.699 Y114.689
G1 F1200 X100.462 Y115.452 E122.16070
G0 F12000 X101.061 Y115.486
G1 F1200 X100.299 Y114.724 E122.29001
G0 F12000 X100.899 Y114.758
G1 F1200 X101.655 Y115.515 E122.41840
G0 F12000 X102.242 Y115.536
G1 F1200 X101.497 Y114.791 E122.54483
G0 F12000 X102.084 Y114.812
G1 F1200 X102.829 Y115.557 E122.67126
G0 F12000 X103.416 Y115.578
G1 F1200 X102.671 Y114.833 E122.79769
G0 F12000 X103.258 Y114.854
G1 F1200 X104.003 Y115.599 E122.92412
G0 F12000 X104.590 Y115.621
G1 F1200 X103.844 Y114.875 E123.05072
G0 F12000 X104.431 Y114.897
G1 F1200 X105.177 Y115.642 E123.17723
G0 F12000 X105.763 Y115.662
G1 F1200 X105.018 Y114.918 E123.30358
G0 F12000 X105.606 Y114.940
G1 F1200 X106.338 Y115.672 E123.42780
G0 F12000 X106.912 Y115.680
G1 F1200 X106.183 Y114.951 E123.55152
G0 F12000 X106.758 Y114.960
G1 F1200 X107.487 Y115.689 E123.67524
G0 F12000 X108.061 Y115.698
G1 F1200 X107.332 Y114.969 E123.79895
G0 F12000 X107.906 Y114.977
G1 F1200 X108.635 Y115.706 E123.92267
G0 F12000 X109.210 Y115.715
G1 F1200 X108.480 Y114.986 E124.04647
G0 F12000 X109.054 Y114.994
G1 F1200 X109.784 Y115.724 E124.17035
G0 F12000 X110.354 Y115.728
G1 F1200 X109.629 Y115.003 E124.29339
G0 F12000 X110.201 Y115.010
G1 F1200 X110.916 Y115.725 E124.41473
G0 F12000 X111.478 Y115.721
G1 F1200 X110.764 Y115.006 E124.53598
G0 F12000 X111.326 Y115.003
G1 F1200 X112.041 Y115.718 E124.65732
G0 F12000 X112.603 Y115.715
G1 F1200 X111.889 Y115.001 E124.77849
G0 F12000 X112.451 Y114.997
G1 F1200 X113.166 Y115.712 E124.89983
G0 F12000 X113.728 Y115.708
G1 F1200 X113.014 Y114.994 E125.02100
G0 F12000 X113.576 Y114.991
G1 F1200 X114.291 Y115.706 E125.14234
G0 F12000 X114.846 Y115.694
G1 F1200 X114.139 Y114.988 E125.26224
G0 F12000 X114.697 Y114.980
G1 F1200 X115.396 Y115.679 E125.38086
G0 F12000 X115.947 Y115.664
