;FLAVOR:UltiGCode
;TIME:1008
;MATERIAL:932
;MATERIAL2:0
;NOZZLE_DIAMETER:0.400000
;NOZZLE_DIAMETER2:0.400000

;Layer count: 29
;LAYER:0
M107
G0 F12000 X39.142 Y99.721 Z0.300
;TYPE:SKIRT
G1 F1200 X44.487 Y101.637 E0.68136
G1 X45.344 Y101.932 E0.79013
G1 X48.880 Y103.117 E1.23764
G1 X52.923 Y104.379 E1.74589
G1 X53.458 Y104.534 E1.81273
G1 X57.026 Y105.565 E2.25840
G1 X60.608 Y106.520 E2.70326
G1 X61.125 Y106.659 E2.76750
G1 X61.674 Y106.792 E2.83529
G1 X65.244 Y107.666 E3.27634
G1 X65.816 Y107.793 E3.34665
G1 X69.469 Y108.605 E3.79571
G1 X69.977 Y108.706 E3.85786
G1 X73.627 Y109.437 E4.30456
G1 X74.157 Y109.532 E4.36917
G1 X77.816 Y110.186 E4.81521
G1 X82.028 Y110.848 E5.32686
G1 X82.565 Y110.920 E5.39187
G1 X86.262 Y111.422 E5.83958
G1 X89.930 Y111.842 E6.28262
G1 X90.494 Y111.907 E6.35075
G1 X91.024 Y111.956 E6.41462
G1 X94.697 Y112.299 E6.85730
G1 X98.975 Y112.608 E7.37199
G1 X103.213 Y112.825 E7.88122
G1 X103.773 Y112.841 E7.94845
G1 X107.499 Y112.954 E8.39577
G1 X111.193 Y112.987 E8.83907
G1 X111.747 Y112.993 E8.90556
G1 X112.293 Y112.987 E8.97108
G1 X116.030 Y112.943 E9.41955
G1 X120.268 Y112.805 E9.92838
G1 X123.963 Y112.607 E10.37242
G1 X124.520 Y112.576 E10.43936
G1 X125.066 Y112.536 E10.50505
G1 X128.747 Y112.261 E10.94801
G1 X129.317 Y112.207 E11.01671
G1 X129.317 Y112.208 E11.01683
G1 X132.982 Y111.857 E11.45864
G1 X133.559 Y111.790 E11.52835
G1 X137.225 Y111.360 E11.97129
G1 X141.469 Y110.774 E12.48540
G1 X145.125 Y110.191 E12.92966
G1 X145.635 Y110.109 E12.99165
G1 X149.885 Y109.340 E13.50993
G1 X154.042 Y108.496 E14.01895
G1 X158.170 Y107.568 E14.52667
G1 X161.797 Y106.673 E14.97496
G1 X162.337 Y106.540 E15.04170
G1 X162.867 Y106.398 E15.10754
G1 X166.435 Y105.437 E15.55096
G1 X170.007 Y104.394 E15.99750
G1 X170.007 Y104.395 E15.99762
G1 X170.514 Y104.247 E16.06100
G1 X171.063 Y104.074 E16.13007
G1 X174.605 Y102.960 E16.57564
G1 X178.624 Y101.601 E17.08475
G1 X180.548 Y100.907 E17.33019
G1 X183.847 Y99.709 E17.75136
G1 X185.833 Y105.146 E18.44596
G1 X187.072 Y108.543 E18.87987
G1 X181.738 Y110.470 E19.56044
G1 X181.144 Y110.671 E19.63569
G1 X181.144 Y110.670 E19.63581
G1 X177.517 Y111.897 E20.09528
G1 X173.263 Y113.236 E20.63045
G1 X168.984 Y114.484 E21.16533
G1 X165.285 Y115.480 E21.62502
G1 X164.681 Y115.643 E21.70009
G1 X160.965 Y116.560 E22.15939
G1 X160.355 Y116.711 E22.23480
G1 X156.003 Y117.689 E22.77006
G1 X151.634 Y118.576 E23.30504
G1 X147.865 Y119.258 E23.76466
G1 X147.248 Y119.370 E23.83991
G1 X143.467 Y119.973 E24.29936
G1 X142.846 Y120.072 E24.37483
G1 X138.430 Y120.682 E24.90978
G1 X134.002 Y121.200 E25.44476
G1 X130.188 Y121.565 E25.90453
G1 X130.188 Y121.564 E25.90465
G1 X129.565 Y121.625 E25.97977
G1 X125.117 Y121.957 E26.51501
G1 X124.491 Y121.990 E26.59024
G1 X124.491 Y121.989 E26.59036
G1 X120.668 Y122.195 E27.04978
G1 X116.842 Y122.320 E27.50915
G1 X116.213 Y122.341 E27.58467
G1 X111.755 Y122.393 E28.11967
G1 X107.923 Y122.358 E28.57953
G1 X107.299 Y122.352 E28.65441
G1 X106.674 Y122.334 E28.72944
G1 X102.842 Y122.217 E29.18950
G1 X99.014 Y122.022 E29.64945
G1 X98.390 Y121.989 E29.72444
G1 X97.767 Y121.945 E29.79938
G1 X93.944 Y121.668 E30.25934
G1 X90.128 Y121.313 E30.71924
G1 X89.504 Y121.254 E30.79446
G1 X88.884 Y121.183 E30.86934
G1 X85.076 Y120.746 E31.32930
G1 X81.280 Y120.232 E31.78898
G1 X80.659 Y120.147 E31.86419
G1 X76.256 Y119.455 E32.39904
G1 X72.483 Y118.783 E32.85892
G1 X71.867 Y118.672 E32.93403
G1 X71.254 Y118.550 E33.00904
G1 X67.496 Y117.796 E33.46898
G1 X66.886 Y117.661 E33.54396
G1 X63.144 Y116.828 E34.00399
G1 X59.422 Y115.919 E34.46375
G1 X58.813 Y115.770 E34.53899
G1 X55.111 Y114.784 E34.99872
G1 X54.506 Y114.622 E35.07387
G1 X50.225 Y113.384 E35.60864
G1 X49.627 Y113.198 E35.68379
G1 X45.968 Y112.056 E36.14376
G1 X42.336 Y110.838 E36.60346
G1 X41.742 Y110.638 E36.67867
G1 X35.932 Y108.556 E37.41928
G1 X37.912 Y103.094 E38.11646
G1 X39.142 Y99.721 E38.54729
G10
G1 Z0.400
G0 F12000 X41.658 Y105.084
;TYPE:WALL-INNER
G1 Z0.300
G11
G1 F1200 X43.075 Y105.592 E38.72793
G1 X44.005 Y105.913 E38.84599
G1 X47.569 Y107.107 E39.29703
G1 X51.721 Y108.404 E39.81902
G1 X55.899 Y109.612 E40.34091
G1 X60.101 Y110.732 E40.86276
G1 X60.679 Y110.873 E40.93415
G1 X64.326 Y111.765 E41.38469
G1 X64.906 Y111.893 E41.45596
G1 X68.572 Y112.709 E41.90665
G1 X69.155 Y112.825 E41.97798
G1 X72.835 Y113.563 E42.42837
G1 X73.421 Y113.667 E42.49979
G1 X77.116 Y114.327 E42.95021
G1 X81.413 Y115.003 E43.47219
G1 X82.001 Y115.082 E43.54339
G1 X85.722 Y115.587 E43.99400
G1 X90.043 Y116.083 E44.51593
G1 X94.373 Y116.487 E45.03778
G1 X98.710 Y116.800 E45.55958
G1 X103.054 Y117.022 E46.08154
G1 X103.648 Y117.040 E46.15285
G1 X107.400 Y117.154 E46.60330
G1 X111.152 Y117.187 E47.05355
G1 X111.747 Y117.193 E47.12496
G1 X112.342 Y117.187 E47.19636
G1 X116.097 Y117.143 E47.64699
G1 X120.443 Y117.001 E48.16879
G1 X124.192 Y116.801 E48.61931
G1 X124.786 Y116.768 E48.69070
G1 X129.122 Y116.445 E49.21246
G1 X129.714 Y116.388 E49.28383
G1 X133.451 Y116.031 E49.73431
G1 X134.042 Y115.962 E49.80571
G1 X137.772 Y115.525 E50.25638
G1 X142.079 Y114.930 E50.77812
G1 X145.787 Y114.338 E51.22872
G1 X146.375 Y114.244 E51.30018
G1 X150.654 Y113.469 E51.82201
G1 X154.915 Y112.604 E52.34376
G1 X159.158 Y111.650 E52.86563
G1 X163.380 Y110.609 E53.38744
G1 X163.954 Y110.455 E53.45876
G1 X167.580 Y109.478 E53.90940
G1 X171.755 Y108.259 E54.43132
G1 X175.903 Y106.954 E54.95313
G1 X180.023 Y105.561 E55.47502
G1 X181.340 Y105.086 E55.64303
G1 X181.683 Y106.025 E55.76299
G1 X180.364 Y106.501 E55.93126
G1 X179.802 Y106.691 E56.00245
G1 X176.224 Y107.901 E56.45570
G1 X172.042 Y109.217 E56.98180
G1 X167.860 Y110.437 E57.50456
G1 X164.192 Y111.425 E57.96041
G1 X163.641 Y111.574 E58.02890
G1 X159.954 Y112.483 E58.48459
G1 X159.379 Y112.625 E58.55566
G1 X155.115 Y113.584 E59.08012
G1 X150.841 Y114.451 E59.60345
G1 X146.553 Y115.227 E60.12637
G1 X142.228 Y115.917 E60.65193
G1 X137.888 Y116.517 E61.17768
G1 X133.548 Y117.025 E61.70204
G1 X129.219 Y117.439 E62.22389
G1 X124.862 Y117.764 E62.74818
G1 X124.270 Y117.795 E62.81932
G1 X120.476 Y117.999 E63.27526
G1 X116.701 Y118.123 E63.72850
G1 X116.129 Y118.142 E63.79718
G1 X111.748 Y118.193 E64.32293
G1 X107.390 Y118.152 E64.84592
G1 X106.800 Y118.135 E64.91675
G1 X103.003 Y118.019 E65.37260
G1 X99.231 Y117.827 E65.82583
G1 X98.639 Y117.796 E65.89696
G1 X98.068 Y117.756 E65.96565
G1 X94.301 Y117.484 E66.41887
G1 X90.521 Y117.131 E66.87444
G1 X89.939 Y117.076 E66.94459
G1 X85.586 Y116.577 E67.47037
G1 X81.271 Y115.992 E67.99291
G1 X76.940 Y115.311 E68.51902
G1 X73.224 Y114.649 E68.97196
G1 X72.659 Y114.547 E69.04085
G1 X68.353 Y113.684 E69.56785
G1 X64.093 Y112.737 E70.09153
G1 X59.858 Y111.703 E70.61466
G1 X55.641 Y110.579 E71.13836
G1 X51.423 Y109.358 E71.66530
G1 X47.251 Y108.056 E72.18976
G1 X43.109 Y106.667 E72.71400
G1 X41.317 Y106.025 E72.94242
G1 X41.658 Y105.084 E73.06253
G0 F12000 X43.208 Y105.215
G1 F1200 X44.134 Y105.534 E73.18006
G1 X47.692 Y106.727 E73.63038
G1 X51.836 Y108.021 E74.15134
G1 X56.006 Y109.226 E74.67221
G1 X60.200 Y110.344 E75.19307
G1 X64.417 Y111.375 E75.71401
G1 X68.655 Y112.317 E76.23498
G1 X72.910 Y113.170 E76.75574
G1 X77.183 Y113.933 E77.27661
G1 X81.470 Y114.607 E77.79737
G1 X85.772 Y115.190 E78.31833
G1 X90.084 Y115.685 E78.83917
G1 X94.406 Y116.088 E79.36006
G1 X98.735 Y116.401 E79.88090
G1 X103.070 Y116.623 E80.40178
G1 X107.409 Y116.754 E80.92269
G1 X111.747 Y116.793 E81.44328
G1 X116.088 Y116.743 E81.96423
G1 X120.426 Y116.601 E82.48507
G1 X124.760 Y116.369 E83.00589
G1 X129.088 Y116.046 E83.52670
G1 X133.409 Y115.633 E84.04758
G1 X133.995 Y115.565 E84.11837
G1 X137.721 Y115.128 E84.56856
G1 X142.020 Y114.534 E85.08934
G1 X146.307 Y113.850 E85.61029
G1 X150.578 Y113.076 E86.13115
G1 X154.831 Y112.213 E86.65191
G1 X159.067 Y111.261 E87.17291
G1 X163.280 Y110.221 E87.69365
G1 X167.472 Y109.093 E88.21458
G1 X171.639 Y107.876 E88.73551
G1 X175.779 Y106.573 E89.25634
G1 X179.891 Y105.183 E89.77721
G1 X181.578 Y104.575 E89.99239
G1 X182.196 Y106.265 E90.20833
G1 X180.491 Y106.881 E90.42587
G1 X176.332 Y108.286 E90.95266
G1 X172.167 Y109.597 E91.47663
G1 X167.952 Y110.827 E92.00353
G1 X163.736 Y111.963 E92.52749
G1 X159.474 Y113.014 E93.05426
G1 X155.215 Y113.972 E93.57811
G1 X150.912 Y114.845 E94.10499
G1 X146.616 Y115.623 E94.62889
G1 X142.280 Y116.314 E95.15578
G1 X137.955 Y116.912 E95.67971
G1 X133.594 Y117.422 E96.20660
G1 X129.241 Y117.839 E96.73135
G1 X124.881 Y118.164 E97.25600
G1 X120.510 Y118.398 E97.78127
G1 X116.121 Y118.542 E98.30824
G1 X111.750 Y118.593 E98.83279
G1 X107.378 Y118.552 E99.35746
G1 X106.787 Y118.535 E99.42841
G1 X102.990 Y118.419 E99.88426
G1 X98.617 Y118.196 E100.40970
G1 X94.261 Y117.882 E100.93378
G1 X89.904 Y117.475 E101.45889
G1 X85.554 Y116.976 E101.98432
G1 X81.204 Y116.386 E102.51110
G1 X76.885 Y115.707 E103.03574
G1 X72.568 Y114.937 E103.56196
G1 X68.287 Y114.080 E104.08587
G1 X64.001 Y113.126 E104.61278
G1 X59.757 Y112.089 E105.13704
G1 X55.517 Y110.959 E105.66360
G1 X51.323 Y109.746 E106.18751
G1 X47.145 Y108.442 E106.71272
G1 X42.982 Y107.046 E107.23962
G1 X40.804 Y106.265 E107.51727
G1 X41.417 Y104.573 E107.73323
G1 X43.208 Y105.215 E107.96154
G0 F12000 X43.341 Y104.838
;TYPE:WALL-OUTER
G1 F1200 X44.263 Y105.155 E108.07853
G1 X47.815 Y106.346 E108.52810
G1 X51.951 Y107.638 E109.04807
G1 X56.113 Y108.841 E109.56795
G1 X60.299 Y109.957 E110.08782
G1 X64.508 Y110.986 E110.60777
G1 X68.737 Y111.926 E111.12764
G1 X72.984 Y112.777 E111.64741
G1 X77.249 Y113.538 E112.16729
G1 X81.528 Y114.211 E112.68709
G1 X85.821 Y114.793 E113.20696
G1 X90.125 Y115.287 E113.72683
G1 X94.439 Y115.689 E114.24675
G1 X98.760 Y116.002 E114.76663
G1 X103.086 Y116.223 E115.28643
G1 X107.416 Y116.354 E115.80627
G1 X111.747 Y116.393 E116.32601
G1 X116.079 Y116.343 E116.84588
G1 X120.409 Y116.202 E117.36576
G1 X124.735 Y115.970 E117.88562
G1 X129.055 Y115.647 E118.40547
G1 X133.367 Y115.235 E118.92527
G1 X137.670 Y114.731 E119.44516
G1 X141.961 Y114.139 E119.96495
G1 X146.240 Y113.455 E120.48495
G1 X150.503 Y112.683 E121.00483
G1 X154.748 Y111.822 E121.52460
G1 X158.975 Y110.872 E122.04450
G1 X163.181 Y109.834 E122.56436
G1 X167.364 Y108.708 E123.08419
G1 X171.523 Y107.493 E123.60413
G1 X175.655 Y106.193 E124.12393
G1 X179.759 Y104.806 E124.64378
G1 X181.817 Y104.063 E124.90634
G1 X182.709 Y106.504 E125.21820
G1 X180.619 Y107.259 E125.48487
G1 X176.460 Y108.665 E126.01169
G1 X172.275 Y109.982 E126.53817
G1 X168.064 Y111.211 E127.06457
G1 X163.832 Y112.351 E127.59052
G1 X159.574 Y113.402 E128.11681
G1 X155.294 Y114.364 E128.64323
G1 X150.995 Y115.236 E129.16961
G1 X146.679 Y116.017 E129.69594
G1 X142.343 Y116.709 E130.22285
G1 X138.002 Y117.309 E130.74872
G1 X133.641 Y117.819 E131.27561
G1 X129.274 Y118.237 E131.80204
G1 X124.904 Y118.564 E132.32791
G1 X120.520 Y118.798 E132.85474
G1 X116.134 Y118.942 E133.38134
G1 X111.751 Y118.993 E133.90734
G1 X107.367 Y118.952 E134.43344
G1 X102.982 Y118.819 E134.95988
G1 X98.597 Y118.595 E135.48677
G1 X94.227 Y118.280 E136.01253
G1 X89.859 Y117.872 E136.53897
G1 X85.496 Y117.372 E137.06596
G1 X81.154 Y116.784 E137.59175
G1 X76.816 Y116.101 E138.11872
G1 X72.498 Y115.331 E138.64506
G1 X68.196 Y114.469 E139.17156
G1 X63.914 Y113.517 E139.69795
G1 X59.653 Y112.476 E140.22430
G1 X55.419 Y111.347 E140.75014
G1 X51.201 Y110.127 E141.27704
G1 X47.018 Y108.822 E141.80286
G1 X42.855 Y107.425 E142.32980
G1 X40.291 Y106.507 E142.65661
G1 X41.178 Y104.062 E142.96872
G1 X43.341 Y104.838 E143.24448
G0 F12000 X43.306 Y105.814
;TYPE:SKIN
G1 F1200 X44.463 Y106.971 E143.44083
G0 F12000 X45.024 Y106.401
G1 F1200 X46.166 Y107.543 E143.63463
G0 F12000 X46.726 Y106.971
G1 F1200 X47.849 Y108.094 E143.82521
G0 F12000 X48.398 Y107.512
G1 F1200 X49.493 Y108.608 E144.01112
G0 F12000 X50.044 Y108.027
G1 F1200 X51.137 Y109.120 E144.19661
G0 F12000 X51.688 Y108.540
G1 F1200 X52.740 Y109.592 E144.37514
G0 F12000 X53.280 Y109.000
G1 F1200 X54.333 Y110.053 E144.55384
G0 F12000 X54.871 Y109.460
G1 F1200 X55.918 Y110.506 E144.73144
G0 F12000 X56.689 Y110.712
G1 F1200 X55.667 Y109.690 E144.90488
G0 F12000 X55.129 Y110.283
G1 F1200 X54.075 Y109.230 E145.08366
G0 F12000 X53.537 Y109.822
G1 F1200 X52.484 Y108.769 E145.26236
G0 F12000 X51.944 Y109.361
G1 F1200 X50.867 Y108.284 E145.44513
G0 F12000 X50.316 Y108.864
G1 F1200 X49.221 Y107.770 E145.63088
G0 F12000 X48.671 Y108.351
G1 F1200 X47.575 Y107.255 E145.81687
G0 F12000 X47.017 Y107.828
G1 F1200 X45.875 Y106.686 E146.01068
G0 F12000 X45.314 Y107.257
G1 F1200 X44.172 Y106.115 E146.20448
G0 F12000 X43.611 Y106.685
G1 F1200 X42.431 Y105.505 E146.40474
G0 F12000 X41.709 Y105.349
G1 F1200 X42.749 Y106.389 E146.58123
G0 F12000 X41.867 Y106.073
G1 F1200 X41.558 Y105.764 E146.63367
G0 F12000 X56.444 Y109.902
G1 F1200 X57.460 Y110.918 E146.80609
G0 F12000 X58.232 Y111.123
G1 F1200 X57.216 Y110.107 E146.97851
G0 F12000 X57.986 Y110.312
G1 F1200 X59.003 Y111.329 E147.15110
G0 F12000 X59.774 Y111.534
G1 F1200 X58.758 Y110.518 E147.32352
G0 F12000 X59.529 Y110.724
G1 F1200 X60.526 Y111.721 E147.49272
G0 F12000 X61.275 Y111.903
G1 F1200 X60.294 Y110.923 E147.65911
G0 F12000 X61.043 Y111.106
G1 F1200 X62.023 Y112.087 E147.82551
G0 F12000 X62.772 Y112.270
G1 F1200 X61.791 Y111.289 E147.99199
G0 F12000 X62.540 Y111.472
G1 F1200 X63.520 Y112.452 E148.15830
G0 F12000 X64.265 Y112.631
G1 F1200 X63.289 Y111.655 E148.32394
G0 F12000 X64.038 Y111.838
G1 F1200 X64.992 Y112.792 E148.48584
G0 F12000 X65.719 Y112.954
G1 F1200 X64.772 Y112.007 E148.64655
G0 F12000 X65.500 Y112.169
G1 F1200 X66.446 Y113.115 E148.80709
G0 F12000 X67.174 Y113.277
G1 F1200 X66.227 Y112.330 E148.96780
G0 F12000 X66.954 Y112.492
G1 F1200 X67.901 Y113.439 E149.12851
G0 F12000 X68.621 Y113.593
G1 F1200 X67.682 Y112.654 E149.28786
G0 F12000 X68.409 Y112.816
G1 F1200 X69.329 Y113.736 E149.44399
G0 F12000 X70.036 Y113.877
G1 F1200 X69.121 Y112.961 E149.59936
G0 F12000 X69.828 Y113.103
G1 F1200 X70.744 Y114.019 E149.75481
G0 F12000 X71.451 Y114.160
G1 F1200 X70.536 Y113.245 E149.91009
G0 F12000 X71.243 Y113.386
G1 F1200 X72.159 Y114.303 E150.06563
G0 F12000 X72.862 Y114.440
G1 F1200 X71.950 Y113.528 E150.22040
G0 F12000 X72.658 Y113.670
G1 F1200 X73.550 Y114.562 E150.37177
G0 F12000 X74.239 Y114.685
G1 F1200 X73.351 Y113.797 E150.52247
G0 F12000 X74.039 Y113.919
G1 F1200 X74.927 Y114.808 E150.67326
G0 F12000 X75.615 Y114.931
G1 F1200 X74.727 Y114.042 E150.82404
G0 F12000 X75.415 Y114.165
G1 F1200 X76.304 Y115.054 E150.97491
G0 F12000 X76.992 Y115.176
G1 F1200 X76.104 Y114.288 E151.12561
G0 F12000 X76.793 Y114.411
G1 F1200 X77.663 Y115.281 E151.27325
G0 F12000 X78.334 Y115.387
G1 F1200 X77.472 Y114.524 E151.41962
G0 F12000 X78.143 Y114.629
G1 F1200 X79.005 Y115.492 E151.56599
G0 F12000 X79.677 Y115.598
G1 F1200 X78.814 Y114.735 E151.71245
G0 F12000 X79.486 Y114.841
G1 F1200 X80.348 Y115.703 E151.85873
G0 F12000 X81.019 Y115.809
G1 F1200 X80.157 Y114.947 E152.00502
G0 F12000 X80.829 Y115.053
G1 F1200 X81.681 Y115.905 E152.14961
G0 F12000 X82.335 Y115.993
G1 F1200 X81.498 Y115.156 E152.29165
G0 F12000 X82.152 Y115.244
G1 F1200 X82.990 Y116.082 E152.43387
G0 F12000 X83.644 Y116.171
G1 F1200 X82.806 Y115.333 E152.57608
G0 F12000 X83.460 Y115.421
G1 F1200 X84.299 Y116.260 E152.71846
G0 F12000 X84.953 Y116.348
G1 F1200 X84.114 Y115.510 E152.86076
G0 F12000 X84.768 Y115.598
G1 F1200 X85.608 Y116.437 E153.00323
G0 F12000 X86.246 Y116.510
G1 F1200 X85.423 Y115.687 E153.14290
G0 F12000 X86.068 Y115.766
G1 F1200 X86.885 Y116.584 E153.28163
G0 F12000 X87.524 Y116.657
G1 F1200 X86.707 Y115.840 E153.42028
G0 F12000 X87.346 Y115.913
