;FLAVOR:UltiGCode
;TIME:6238
;MATERIAL:5595
;MATERIAL2:0
;NOZZLE_DIAMETER:0.400000
;NOZZLE_DIAMETER2:0.400000

;Layer count: 29
;LAYER:0
M107
G0 F12000 X39.142 Y12.753 Z0.300
;TYPE:SKIRT
G1 F1200 X44.487 Y14.669 E0.68136
G1 X45.344 Y14.964 E0.79013
G1 X48.880 Y16.149 E1.23764
G1 X52.923 Y17.411 E1.74589
G1 X53.458 Y17.566 E1.81273
G1 X57.026 Y18.597 E2.25840
G1 X60.608 Y19.552 E2.70326
G1 X61.125 Y19.691 E2.76750
G1 X61.674 Y19.824 E2.83529
G1 X65.244 Y20.698 E3.27634
G1 X65.816 Y20.825 E3.34665
G1 X69.469 Y21.637 E3.79571
G1 X69.977 Y21.738 E3.85786
G1 X73.627 Y22.469 E4.30456
G1 X74.157 Y22.564 E4.36917
G1 X77.816 Y23.218 E4.81521
G1 X82.028 Y23.880 E5.32686
G1 X82.565 Y23.952 E5.39187
G1 X86.262 Y24.454 E5.83958
G1 X89.930 Y24.874 E6.28262
G1 X90.494 Y24.939 E6.35075
G1 X91.024 Y24.988 E6.41462
G1 X94.697 Y25.331 E6.85730
G1 X98.975 Y25.640 E7.37199
G1 X103.213 Y25.857 E7.88122
G1 X103.773 Y25.873 E7.94845
G1 X107.499 Y25.986 E8.39577
G1 X111.193 Y26.019 E8.83907
G1 X111.747 Y26.025 E8.90556
G1 X112.293 Y26.019 E8.97108
G1 X116.030 Y25.975 E9.41955
G1 X120.268 Y25.837 E9.92838
G1 X123.963 Y25.639 E10.37242
G1 X124.520 Y25.608 E10.43936
G1 X125.066 Y25.568 E10.50505
G1 X128.747 Y25.293 E10.94801
G1 X129.317 Y25.239 E11.01671
G1 X129.317 Y25.240 E11.01683
G1 X132.982 Y24.889 E11.45864
G1 X133.559 Y24.822 E11.52835
G1 X137.225 Y24.392 E11.97129
G1 X141.469 Y23.806 E12.48540
G1 X145.125 Y23.223 E12.92966
G1 X145.635 Y23.141 E12.99165
G1 X149.885 Y22.372 E13.50993
G1 X154.042 Y21.528 E14.01895
G1 X158.170 Y20.600 E14.52667
G1 X161.797 Y19.705 E14.97496
G1 X162.337 Y19.572 E15.04170
G1 X162.867 Y19.430 E15.10754
G1 X166.435 Y18.469 E15.55096
G1 X170.007 Y17.426 E15.99750
G1 X170.007 Y17.427 E15.99762
G1 X170.514 Y17.279 E16.06100
G1 X171.063 Y17.106 E16.13007
G1 X174.605 Y15.992 E16.57564
G1 X178.624 Y14.633 E17.08475
G1 X180.548 Y13.939 E17.33019
G1 X183.847 Y12.741 E17.75136
G1 X185.833 Y18.178 E18.44596
G1 X187.072 Y21.575 E18.87987
G1 X181.738 Y23.502 E19.56044
G1 X181.144 Y23.703 E19.63569
G1 X181.144 Y23.702 E19.63581
G1 X177.517 Y24.929 E20.09528
G1 X173.263 Y26.268 E20.63045
G1 X168.984 Y27.516 E21.16533
G1 X165.285 Y28.512 E21.62502
G1 X164.681 Y28.675 E21.70009
G1 X160.965 Y29.592 E22.15939
G1 X160.355 Y29.743 E22.23480
G1 X156.003 Y30.721 E22.77006
G1 X151.634 Y31.608 E23.30504
G1 X147.865 Y32.290 E23.76466
G1 X147.248 Y32.402 E23.83991
G1 X143.467 Y33.005 E24.29936
G1 X142.846 Y33.104 E24.37483
G1 X138.430 Y33.714 E24.90978
G1 X134.002 Y34.232 E25.44476
G1 X130.188 Y34.597 E25.90453
G1 X130.188 Y34.596 E25.90465
G1 X129.565 Y34.657 E25.97977
G1 X125.117 Y34.989 E26.51501
G1 X124.491 Y35.022 E26.59024
G1 X124.491 Y35.021 E26.59036
G1 X120.668 Y35.227 E27.04978
G1 X116.842 Y35.352 E27.50915
G1 X116.213 Y35.373 E27.58467
G1 X111.755 Y35.425 E28.11967
G1 X107.923 Y35.390 E28.57953
G1 X107.299 Y35.384 E28.65441
G1 X106.674 Y35.366 E28.72944
G1 X102.842 Y35.249 E29.18950
G1 X99.014 Y35.054 E29.64945
G1 X98.390 Y35.021 E29.72444
G1 X97.767 Y34.977 E29.79938
G1 X93.944 Y34.700 E30.25934
G1 X90.128 Y34.345 E30.71924
G1 X89.504 Y34.286 E30.79446
G1 X88.884 Y34.215 E30.86934
G1 X85.076 Y33.778 E31.32930
G1 X81.280 Y33.264 E31.78898
G1 X80.659 Y33.179 E31.86419
G1 X76.256 Y32.487 E32.39904
G1 X72.483 Y31.815 E32.85892
G1 X71.867 Y31.704 E32.93403
G1 X71.254 Y31.582 E33.00904
G1 X67.496 Y30.828 E33.46898
G1 X66.886 Y30.693 E33.54396
G1 X63.144 Y29.860 E34.00399
G1 X59.422 Y28.951 E34.46375
G1 X58.813 Y28.802 E34.53899
G1 X55.111 Y27.816 E34.99872
G1 X54.506 Y27.654 E35.07387
G1 X50.225 Y26.416 E35.60864
G1 X49.627 Y26.230 E35.68379
G1 X45.968 Y25.088 E36.14376
G1 X42.336 Y23.870 E36.60346
G1 X41.742 Y23.670 E36.67867
G1 X35.932 Y21.588 E37.41928
G1 X37.912 Y16.126 E38.11646
G1 X39.142 Y12.753 E38.54729
G10
G1 Z0.400
G0 F12000 X41.658 Y18.116
;TYPE:WALL-INNER
G1 Z0.300
G11
G1 F1200 X43.075 Y18.624 E38.72793
G1 X44.005 Y18.945 E38.84599
G1 X47.569 Y20.139 E39.29703
G1 X51.721 Y21.436 E39.81902
G1 X55.899 Y22.644 E40.34091
G1 X60.101 Y23.764 E40.86276
G1 X60.679 Y23.905 E40.93415
G1 X64.326 Y24.797 E41.38469
G1 X64.906 Y24.925 E41.45596
G1 X68.572 Y25.741 E41.90665
G1 X69.155 Y25.857 E41.97798
G1 X72.835 Y26.595 E42.42837
G1 X73.421 Y26.699 E42.49979
G1 X77.116 Y27.359 E42.95021
G1 X81.413 Y28.035 E43.47219
G1 X82.001 Y28.114 E43.54339
G1 X85.722 Y28.619 E43.99400
G1 X90.043 Y29.115 E44.51593
G1 X94.373 Y29.519 E45.03778
G1 X98.710 Y29.832 E45.55958
G1 X103.054 Y30.054 E46.08154
G1 X103.648 Y30.072 E46.15285
G1 X107.400 Y30.186 E46.60330
G1 X111.152 Y30.219 E47.05355
G1 X111.747 Y30.225 E47.12496
G1 X112.342 Y30.219 E47.19636
G1 X116.097 Y30.175 E47.64699
G1 X120.443 Y30.033 E48.16879
G1 X124.192 Y29.833 E48.61931
G1 X124.786 Y29.800 E48.69070
G1 X129.122 Y29.477 E49.21246
G1 X129.714 Y29.420 E49.28383
G1 X133.451 Y29.063 E49.73431
G1 X134.042 Y28.994 E49.80571
G1 X137.772 Y28.557 E50.25638
G1 X142.079 Y27.962 E50.77812
G1 X145.787 Y27.370 E51.22872
G1 X146.375 Y27.276 E51.30018
G1 X150.654 Y26.501 E51.82201
G1 X154.915 Y25.636 E52.34376
G1 X159.158 Y24.682 E52.86563
G1 X163.380 Y23.641 E53.38744
G1 X163.954 Y23.487 E53.45876
G1 X167.580 Y22.510 E53.90940
G1 X171.755 Y21.291 E54.43132
G1 X175.903 Y19.986 E54.95313
G1 X180.023 Y18.593 E55.47502
G1 X181.340 Y18.118 E55.64303
G1 X181.683 Y19.057 E55.76299
G1 X180.364 Y19.533 E55.93126
G1 X179.802 Y19.723 E56.00245
G1 X176.224 Y20.933 E56.45570
G1 X172.042 Y22.249 E56.98180
G1 X167.860 Y23.469 E57.50456
G1 X164.192 Y24.457 E57.96041
G1 X163.641 Y24.606 E58.02890
G1 X159.954 Y25.515 E58.48459
G1 X159.379 Y25.657 E58.55566
G1 X155.115 Y26.616 E59.08012
G1 X150.841 Y27.483 E59.60345
G1 X146.553 Y28.259 E60.12637
G1 X142.228 Y28.949 E60.65193
G1 X137.888 Y29.549 E61.17768
G1 X133.548 Y30.057 E61.70204
G1 X129.219 Y30.471 E62.22389
G1 X124.862 Y30.796 E62.74818
G1 X124.270 Y30.827 E62.81932
G1 X120.476 Y31.031 E63.27526
G1 X116.701 Y31.155 E63.72850
G1 X116.129 Y31.174 E63.79718
G1 X111.748 Y31.225 E64.32293
G1 X107.390 Y31.184 E64.84592
G1 X106.800 Y31.167 E64.91675
G1 X103.003 Y31.051 E65.37260
G1 X99.231 Y30.859 E65.82583
G1 X98.639 Y30.828 E65.89696
G1 X98.068 Y30.788 E65.96565
G1 X94.301 Y30.516 E66.41887
G1 X90.521 Y30.163 E66.87444
G1 X89.939 Y30.108 E66.94459
G1 X85.586 Y29.609 E67.47037
G1 X81.271 Y29.024 E67.99291
G1 X76.940 Y28.343 E68.51902
G1 X73.224 Y27.681 E68.97196
G1 X72.659 Y27.579 E69.04085
G1 X68.353 Y26.716 E69.56785
G1 X64.093 Y25.769 E70.09153
G1 X59.858 Y24.735 E70.61466
G1 X55.641 Y23.611 E71.13836
G1 X51.423 Y22.390 E71.66530
G1 X47.251 Y21.088 E72.18976
G1 X43.109 Y19.699 E72.71400
G1 X41.317 Y19.057 E72.94242
G1 X41.658 Y18.116 E73.06253
G0 F12000 X43.208 Y18.247
G1 F1200 X44.134 Y18.566 E73.18006
G1 X47.692 Y19.759 E73.63038
G1 X51.836 Y21.053 E74.15134
G1 X56.006 Y22.258 E74.67221
G1 X60.200 Y23.376 E75.19307
G1 X64.417 Y24.407 E75.71401
G1 X68.655 Y25.349 E76.23498
G1 X72.910 Y26.202 E76.75574
G1 X77.183 Y26.965 E77.27661
G1 X81.470 Y27.639 E77.79737
G1 X85.772 Y28.222 E78.31833
G1 X90.084 Y28.717 E78.83917
G1 X94.406 Y29.120 E79.36006
G1 X98.735 Y29.433 E79.88090
G1 X103.070 Y29.655 E80.40178
G1 X107.409 Y29.786 E80.92269
G1 X111.747 Y29.825 E81.44328
G1 X116.088 Y29.775 E81.96423
G1 X120.426 Y29.633 E82.48507
G1 X124.760 Y29.401 E83.00589
G1 X129.088 Y29.078 E83.52670
G1 X133.409 Y28.665 E84.04758
G1 X133.995 Y28.597 E84.11837
G1 X137.721 Y28.160 E84.56856
G1 X142.020 Y27.566 E85.08934
G1 X146.307 Y26.882 E85.61029
G1 X150.578 Y26.108 E86.13115
G1 X154.831 Y25.245 E86.65191
G1 X159.067 Y24.293 E87.17291
G1 X163.280 Y23.253 E87.69365
G1 X167.472 Y22.125 E88.21458
G1 X171.639 Y20.908 E88.73551
G1 X175.779 Y19.605 E89.25634
G1 X179.891 Y18.215 E89.77721
G1 X181.578 Y17.607 E89.99239
G1 X182.196 Y19.297 E90.20833
G1 X180.491 Y19.913 E90.42587
G1 X176.332 Y21.318 E90.95266
G1 X172.167 Y22.629 E91.47663
G1 X167.952 Y23.859 E92.00353
G1 X163.736 Y24.995 E92.52749
G1 X159.474 Y26.046 E93.05426
G1 X155.215 Y27.004 E93.57811
G1 X150.912 Y27.877 E94.10499
G1 X146.616 Y28.655 E94.62889
G1 X142.280 Y29.346 E95.15578
G1 X137.955 Y29.944 E95.67971
G1 X133.594 Y30.454 E96.20660
G1 X129.241 Y30.871 E96.73135
G1 X124.881 Y31.196 E97.25600
G1 X120.510 Y31.430 E97.78127
G1 X116.121 Y31.574 E98.30824
G1 X111.750 Y31.625 E98.83279
G1 X107.378 Y31.584 E99.35746
G1 X106.787 Y31.567 E99.42841
G1 X102.990 Y31.451 E99.88426
G1 X98.617 Y31.228 E100.40970
G1 X94.261 Y30.914 E100.93378
G1 X89.904 Y30.507 E101.45889
G1 X85.554 Y30.008 E101.98432
G1 X81.204 Y29.418 E102.51110
G1 X76.885 Y28.739 E103.03574
G1 X72.568 Y27.969 E103.56196
G1 X68.287 Y27.112 E104.08587
G1 X64.001 Y26.158 E104.61278
G1 X59.757 Y25.121 E105.13704
G1 X55.517 Y23.991 E105.66360
G1 X51.323 Y22.778 E106.18751
G1 X47.145 Y21.474 E106.71272
G1 X42.982 Y20.078 E107.23962
G1 X40.804 Y19.297 E107.51727
G1 X41.417 Y17.605 E107.73323
G1 X43.208 Y18.247 E107.96154
G0 F12000 X43.341 Y17.870
;TYPE:WALL-OUTER
G1 F1200 X44.263 Y18.187 E108.07853
G1 X47.815 Y19.378 E108.52810
G1 X51.951 Y20.670 E109.04807
G1 X56.113 Y21.873 E109.56795
G1 X60.299 Y22.989 E110.08782
G1 X64.508 Y24.018 E110.60777
G1 X68.737 Y24.958 E111.12764
G1 X72.984 Y25.809 E111.64741
G1 X77.249 Y26.570 E112.16729
G1 X81.528 Y27.243 E112.68709
G1 X85.821 Y27.825 E113.20696
G1 X90.125 Y28.319 E113.72683
G1 X94.439 Y28.721 E114.24675
G1 X98.760 Y29.034 E114.76663
G1 X103.086 Y29.255 E115.28643
G1 X107.416 Y29.386 E115.80627
G1 X111.747 Y29.425 E116.32601
G1 X116.079 Y29.375 E116.84588
G1 X120.409 Y29.234 E117.36576
G1 X124.735 Y29.002 E117.88562
G1 X129.055 Y28.679 E118.40547
G1 X133.367 Y28.267 E118.92527
G1 X137.670 Y27.763 E119.44516
G1 X141.961 Y27.171 E119.96495
G1 X146.240 Y26.487 E120.48495
G1 X150.503 Y25.715 E121.00483
G1 X154.748 Y24.854 E121.52460
G1 X158.975 Y23.904 E122.04450
G1 X163.181 Y22.866 E122.56436
G1 X167.364 Y21.740 E123.08419
G1 X171.523 Y20.525 E123.60413
G1 X175.655 Y19.225 E124.12393
G1 X179.759 Y17.838 E124.64378
G1 X181.817 Y17.095 E124.90634
G1 X182.709 Y19.536 E125.21820
G1 X180.619 Y20.291 E125.48487
G1 X176.460 Y21.697 E126.01169
G1 X172.275 Y23.014 E126.53817
G1 X168.064 Y24.243 E127.06457
G1 X163.832 Y25.383 E127.59052
G1 X159.574 Y26.434 E128.11681
G1 X155.294 Y27.396 E128.64323
G1 X150.995 Y28.268 E129.16961
G1 X146.679 Y29.049 E129.69594
G1 X142.343 Y29.741 E130.22285
G1 X138.002 Y30.341 E130.74872
G1 X133.641 Y30.851 E131.27561
G1 X129.274 Y31.269 E131.80204
G1 X124.904 Y31.596 E132.32791
G1 X120.520 Y31.830 E132.85474
G1 X116.134 Y31.974 E133.38134
G1 X111.751 Y32.025 E133.90734
G1 X107.367 Y31.984 E134.43344
G1 X102.982 Y31.851 E134.95988
G1 X98.597 Y31.627 E135.48677
G1 X94.227 Y31.312 E136.01253
G1 X89.859 Y30.904 E136.53897
G1 X85.496 Y30.404 E137.06596
G1 X81.154 Y29.816 E137.59175
G1 X76.816 Y29.133 E138.11872
G1 X72.498 Y28.363 E138.64506
G1 X68.196 Y27.501 E139.17156
G1 X63.914 Y26.549 E139.69795
G1 X59.653 Y25.508 E140.22430
G1 X55.419 Y24.379 E140.75014
G1 X51.201 Y23.159 E141.27704
G1 X47.018 Y21.854 E141.80286
G1 X42.855 Y20.457 E142.32980
G1 X40.291 Y19.539 E142.65661
G1 X41.178 Y17.094 E142.96872
G1 X43.341 Y17.870 E143.24448
G0 F12000 X42.660 Y18.618
;TYPE:SKIN
G1 F1200 X43.835 Y19.794 E143.44397
G0 F12000 X44.397 Y19.224
G1 F1200 X45.538 Y20.365 E143.63760
G0 F12000 X46.098 Y19.794
G1 F1200 X47.240 Y20.936 E143.83140
G0 F12000 X47.791 Y20.355
G1 F1200 X48.887 Y21.451 E144.01740
G0 F12000 X49.437 Y20.870
G1 F1200 X50.531 Y21.964 E144.20306
G0 F12000 X51.083 Y21.385
G1 F1200 X52.154 Y22.455 E144.38473
G0 F12000 X52.693 Y21.863
G1 F1200 X53.746 Y22.916 E144.56343
G0 F12000 X54.284 Y22.323
G1 F1200 X55.339 Y23.378 E144.74247
G0 F12000 X55.875 Y22.782
G1 F1200 X56.892 Y23.799 E144.91506
G0 F12000 X56.121 Y23.594
G1 F1200 X55.080 Y22.553 E145.09172
G0 F12000 X54.543 Y23.147
G1 F1200 X53.489 Y22.093 E145.27059
G0 F12000 X52.950 Y22.686
G1 F1200 X51.898 Y21.633 E145.44921
G0 F12000 X51.354 Y22.221
G1 F1200 X50.260 Y21.127 E145.63487
G0 F12000 X49.709 Y21.708
G1 F1200 X48.614 Y20.612 E145.82078
G0 F12000 X48.064 Y21.194
G1 F1200 X46.949 Y20.079 E146.01000
G0 F12000 X46.389 Y20.650
G1 F1200 X45.247 Y19.509 E146.20372
G0 F12000 X44.687 Y20.079
G1 F1200 X43.535 Y18.927 E146.39922
G0 F12000 X42.980 Y19.504
G1 F1200 X41.785 Y18.309 E146.60202
G0 F12000 X41.598 Y18.688
G1 F1200 X42.099 Y19.188 E146.68696
G0 F12000 X56.647 Y22.988
G1 F1200 X57.663 Y24.005 E146.85946
G0 F12000 X58.434 Y24.210
G1 F1200 X57.418 Y23.194 E147.03188
G0 F12000 X58.189 Y23.400
G1 F1200 X59.205 Y24.415 E147.20422
G0 F12000 X59.973 Y24.618
G1 F1200 X58.961 Y23.606 E147.37596
G0 F12000 X59.732 Y23.811
G1 F1200 X60.722 Y24.801 E147.54397
G0 F12000 X61.470 Y24.984
G1 F1200 X60.490 Y24.004 E147.71028
G0 F12000 X61.239 Y24.187
G1 F1200 X62.219 Y25.167 E147.87659
G0 F12000 X62.967 Y25.349
G1 F1200 X61.988 Y24.370 E148.04273
G0 F12000 X62.737 Y24.553
G1 F1200 X63.716 Y25.532 E148.20888
G0 F12000 X64.455 Y25.706
G1 F1200 X63.486 Y24.736 E148.37341
G0 F12000 X64.234 Y24.919
G1 F1200 X65.183 Y25.868 E148.53446
G0 F12000 X65.910 Y26.030
G1 F1200 X64.963 Y25.082 E148.69525
G0 F12000 X65.690 Y25.244
G1 F1200 X66.638 Y26.191 E148.85605
G0 F12000 X67.366 Y26.353
G1 F1200 X66.417 Y25.405 E149.01701
G0 F12000 X67.145 Y25.567
G1 F1200 X68.093 Y26.515 E149.17790
G0 F12000 X68.808 Y26.664
G1 F1200 X67.873 Y25.729 E149.33657
G0 F12000 X68.598 Y25.889
G1 F1200 X69.516 Y26.807 E149.49236
G0 F12000 X70.223 Y26.948
G1 F1200 X69.306 Y26.031 E149.64798
G0 F12000 X70.013 Y26.172
G1 F1200 X70.930 Y27.089 E149.80360
G0 F12000 X71.638 Y27.232
G1 F1200 X70.721 Y26.314 E149.95930
G0 F12000 X71.428 Y26.456
G1 F1200 X72.345 Y27.373 E150.11492
G0 F12000 X73.043 Y27.505
G1 F1200 X72.136 Y26.598 E150.26885
G0 F12000 X72.842 Y26.739
G1 F1200 X73.731 Y27.628 E150.41972
G0 F12000 X74.419 Y27.750
G1 F1200 X73.530 Y26.861 E150.57058
G0 F12000 X74.219 Y26.984
G1 F1200 X75.108 Y27.873 E150.72145
G0 F12000 X75.796 Y27.995
G1 F1200 X74.908 Y27.107 E150.87215
G0 F12000 X75.596 Y27.230
G1 F1200 X76.484 Y28.118 E151.02285
G0 F12000 X77.167 Y28.236
G1 F1200 X76.284 Y27.353 E151.17270
G0 F12000 X76.973 Y27.476
G1 F1200 X77.839 Y28.341 E151.31958
G0 F12000 X78.510 Y28.446
G1 F1200 X77.648 Y27.584 E151.46587
G0 F12000 X78.319 Y27.690
G1 F1200 X79.181 Y28.552 E151.61215
G0 F12000 X79.852 Y28.658
G1 F1200 X78.990 Y27.796 E151.75844
G0 F12000 X79.661 Y27.901
G1 F1200 X80.523 Y28.763 E151.90473
G0 F12000 X81.194 Y28.869
G1 F1200 X80.333 Y28.007 E152.05093
G0 F12000 X81.004 Y28.113
G1 F1200 X81.853 Y28.961 E152.19492
G0 F12000 X82.507 Y29.050
G1 F1200 X81.668 Y28.211 E152.33730
G0 F12000 X82.323 Y28.300
G1 F1200 X83.162 Y29.139 E152.47969
G0 F12000 X83.816 Y29.227
G1 F1200 X82.977 Y28.388 E152.62207
G0 F12000 X83.632 Y28.478
G1 F1200 X84.470 Y29.316 E152.76428
G0 F12000 X85.125 Y29.405
G1 F1200 X84.286 Y28.566 E152.90667
G0 F12000 X84.940 Y28.654
G1 F1200 X85.775 Y29.489 E153.04837
G0 F12000 X86.414 Y29.562
G1 F1200 X85.595 Y28.743 E153.18736
G0 F12000 X86.235 Y28.818
G1 F1200 X87.053 Y29.636 E153.32618
G0 F12000 X87.691 Y29.709
G1 F1200 X86.875 Y28.892 E153.46474
G0 F12000 X87.513 Y28.965
G1 F1200 X88.330 Y29.781 E153.60331
G0 F12000 X88.969 Y29.855
G1 F1200 X88.152 Y29.038 E153.74196
G0 F12000 X88.792 Y29.112
G1 F1200 X89.608 Y29.928 E153.88044
G0 F12000 X90.240 Y29.994
G1 F1200 X89.431 Y29.185 E154.01773
G0 F12000 X90.069 Y29.257
G1 F1200 X90.864 Y30.053 E154.15273
G0 F12000 X91.489 Y30.112
G1 F1200 X90.692 Y29.315 E154.28799
G0 F12000 X91.317 Y29.374
G1 F1200 X92.113 Y30.170 E154.42307
G0 F12000 X92.737 Y30.228
G1 F1200 X91.940 Y29.432 E154.55824
