;FLAVOR:UltiGCode
;TIME:942
;MATERIAL:719
;MATERIAL2:0
;NOZZLE_DIAMETER:0.400000
;NOZZLE_DIAMETER2:0.400000

;Layer count: 57
;LAYER:0
M107
G0 F12000 X55.828 Y102.522 Z0.300
;TYPE:SKIRT
G1 F1200 X59.708 Y103.587 E0.48282
G1 X63.397 Y104.521 E0.93947
G1 X63.964 Y104.664 E1.00964
G1 X63.964 Y104.665 E1.00976
G1 X65.043 Y104.927 E1.14300
G1 X65.589 Y105.048 E1.21011
G1 X69.213 Y105.863 E1.65585
G1 X69.748 Y105.970 E1.72132
G1 X73.381 Y106.707 E2.16616
G1 X77.589 Y107.468 E2.67932
G1 X81.778 Y108.134 E3.18831
G1 X85.463 Y108.642 E3.63469
G1 X85.993 Y108.715 E3.69889
G1 X89.694 Y109.147 E4.14603
G1 X90.208 Y109.207 E4.20813
G1 X93.935 Y109.563 E4.65740
G1 X94.480 Y109.615 E4.72310
G1 X95.031 Y109.656 E4.78940
G1 X98.749 Y109.933 E5.23680
G1 X102.980 Y110.158 E5.74524
G1 X106.694 Y110.277 E6.19114
G1 X107.222 Y110.294 E6.25454
G1 X110.956 Y110.335 E6.70264
G1 X111.515 Y110.342 E6.76973
G1 X112.057 Y110.337 E6.83477
G1 X115.751 Y110.301 E7.27807
G1 X120.039 Y110.171 E7.79287
G1 X123.725 Y109.981 E8.23578
G1 X124.288 Y109.951 E8.30343
G1 X127.981 Y109.684 E8.74775
G1 X127.981 Y109.685 E8.74787
G1 X128.525 Y109.645 E8.81333
G1 X129.077 Y109.593 E8.87986
G1 X132.778 Y109.246 E9.32593
G1 X136.456 Y108.823 E9.77020
G1 X136.996 Y108.761 E9.83542
G1 X141.243 Y108.182 E10.34978
G1 X145.441 Y107.522 E10.85972
G1 X149.089 Y106.869 E11.30444
G1 X149.607 Y106.775 E11.36762
G1 X153.269 Y106.041 E11.81580
G1 X153.269 Y106.042 E11.81592
G1 X153.807 Y105.933 E11.88179
G1 X157.959 Y105.008 E12.39224
G1 X161.909 Y104.041 E12.88024
G1 X164.213 Y103.431 E13.16625
G1 X167.930 Y102.425 E13.62833
G1 X169.282 Y111.807 E14.76580
G1 X164.488 Y113.085 E15.36118
G1 X160.481 Y114.067 E15.85624
G1 X159.510 Y114.292 E15.97585
G1 X155.755 Y115.129 E16.43751
G1 X155.139 Y115.252 E16.51289
G1 X151.384 Y116.006 E16.97248
G1 X150.769 Y116.116 E17.04745
G1 X146.996 Y116.791 E17.50740
G1 X142.594 Y117.484 E18.04215
G1 X138.175 Y118.086 E18.57733
G1 X137.556 Y118.157 E18.65209
G1 X133.747 Y118.595 E19.11219
G1 X133.124 Y118.653 E19.18727
G1 X129.307 Y119.010 E19.64731
G1 X128.686 Y119.055 E19.72202
G1 X124.862 Y119.333 E20.18211
G1 X124.239 Y119.365 E20.25697
G1 X120.411 Y119.562 E20.71694
G1 X119.785 Y119.582 E20.79210
G1 X119.785 Y119.581 E20.79222
G1 X115.955 Y119.700 E21.25204
G1 X112.126 Y119.736 E21.71154
G1 X111.501 Y119.742 E21.78655
G1 X110.875 Y119.736 E21.86167
G1 X107.042 Y119.692 E22.32166
G1 X102.587 Y119.548 E22.85654
G1 X101.962 Y119.516 E22.93164
G1 X98.134 Y119.312 E23.39165
G1 X93.689 Y118.981 E23.92653
G1 X89.251 Y118.558 E24.46150
G1 X85.444 Y118.114 E24.92144
G1 X84.825 Y118.042 E24.99622
G1 X84.205 Y117.957 E25.07131
G1 X80.407 Y117.433 E25.53139
G1 X76.006 Y116.733 E26.06615
G1 X75.390 Y116.622 E26.14126
G1 X71.619 Y115.940 E26.60112
G1 X71.006 Y115.817 E26.67615
G1 X67.250 Y115.056 E27.13602
G1 X66.639 Y114.920 E27.21114
G1 X62.898 Y114.080 E27.67124
G1 X61.929 Y113.841 E27.79100
G1 X61.130 Y113.644 E27.88975
G1 X57.403 Y112.703 E28.35103
G1 X53.368 Y111.591 E28.85328
G1 X55.828 Y102.522 E29.98088
G10
G1 Z0.400
G0 F12000 X58.779 Y107.685
;TYPE:WALL-INNER
G1 Z0.300
G11
G1 F1200 X62.940 Y108.738 E30.49594
G1 X64.093 Y109.018 E30.63833
G1 X64.671 Y109.147 E30.70939
G1 X68.335 Y109.970 E31.16003
G1 X68.916 Y110.087 E31.23115
G1 X72.597 Y110.833 E31.68185
G1 X76.875 Y111.607 E32.20354
G1 X81.171 Y112.290 E32.72554
G1 X85.479 Y112.884 E33.24739
G1 X89.799 Y113.387 E33.76929
G1 X94.128 Y113.800 E34.29113
G1 X98.466 Y114.123 E34.81313
G1 X102.807 Y114.354 E35.33479
G1 X107.154 Y114.494 E35.85670
G1 X110.907 Y114.535 E36.30708
G1 X111.502 Y114.542 E36.37849
G1 X112.097 Y114.537 E36.44989
G1 X115.851 Y114.501 E36.90039
G1 X120.198 Y114.368 E37.42228
G1 X123.947 Y114.176 E37.87274
G1 X124.542 Y114.144 E37.94425
G1 X128.285 Y113.873 E38.39458
G1 X128.878 Y113.830 E38.46593
G1 X133.208 Y113.424 E38.98781
G1 X137.529 Y112.927 E39.50975
G1 X141.838 Y112.340 E40.03160
G1 X146.134 Y111.664 E40.55347
G1 X149.829 Y111.003 E41.00391
G1 X150.415 Y110.897 E41.07537
G1 X154.096 Y110.159 E41.52588
G1 X154.679 Y110.041 E41.59726
G1 X158.924 Y109.096 E42.11913
G1 X162.935 Y108.114 E42.61466
G1 X164.448 Y107.713 E42.80249
G1 X164.592 Y108.711 E42.92349
G1 X163.442 Y109.018 E43.06632
G1 X159.502 Y109.983 E43.55310
G1 X158.583 Y110.195 E43.66627
G1 X154.897 Y111.017 E44.11946
G1 X154.316 Y111.133 E44.19055
G1 X150.602 Y111.880 E44.64516
G1 X146.311 Y112.647 E45.16824
G1 X141.987 Y113.328 E45.69352
G1 X137.665 Y113.917 E46.21695
G1 X137.076 Y113.984 E46.28809
G1 X133.323 Y114.417 E46.74143
G1 X128.951 Y114.825 E47.26835
G1 X128.381 Y114.866 E47.33693
G1 X124.614 Y115.140 E47.79016
G1 X120.246 Y115.365 E48.31502
G1 X115.861 Y115.500 E48.84147
G1 X111.502 Y115.542 E49.36457
G1 X110.920 Y115.536 E49.43442
G1 X107.122 Y115.493 E49.89021
G1 X102.774 Y115.353 E50.41224
G1 X98.390 Y115.119 E50.93907
G1 X94.053 Y114.796 E51.46095
G1 X89.682 Y114.380 E51.98784
G1 X85.362 Y113.876 E52.50975
G1 X84.777 Y113.796 E52.58061
G1 X81.023 Y113.278 E53.03535
G1 X76.698 Y112.590 E53.56088
G1 X72.397 Y111.813 E54.08536
G1 X71.837 Y111.700 E54.15391
G1 X68.134 Y110.950 E54.60729
G1 X67.557 Y110.821 E54.67824
G1 X63.859 Y109.991 E55.13304
G1 X62.936 Y109.763 E55.24713
G1 X62.148 Y109.569 E55.34451
G1 X58.517 Y108.652 E55.79391
G1 X58.779 Y107.685 E55.91414
G0 F12000 X58.367 Y109.027
G1 F1200 X58.026 Y108.934 E55.95655
G1 X58.497 Y107.196 E56.17264
G1 X63.036 Y108.349 E56.73461
G1 X64.184 Y108.628 E56.87638
G1 X64.760 Y108.757 E56.94722
G1 X68.418 Y109.579 E57.39712
G1 X72.672 Y110.440 E57.91795
G1 X76.942 Y111.213 E58.43868
G1 X81.230 Y111.895 E58.95971
G1 X85.529 Y112.487 E59.48046
G1 X89.841 Y112.990 E60.00141
G1 X94.161 Y113.402 E60.52216
G1 X98.491 Y113.724 E61.04319
G1 X102.824 Y113.954 E61.56389
G1 X107.163 Y114.094 E62.08484
G1 X111.503 Y114.142 E62.60567
G1 X115.843 Y114.101 E63.12649
G1 X120.182 Y113.969 E63.64741
G1 X123.926 Y113.776 E64.09729
G1 X124.517 Y113.745 E64.16831
G1 X128.844 Y113.431 E64.68891
G1 X133.167 Y113.026 E65.20994
G1 X137.479 Y112.530 E65.73080
G1 X141.780 Y111.945 E66.25167
G1 X146.067 Y111.270 E66.77245
G1 X150.340 Y110.505 E67.29336
G1 X154.017 Y109.767 E67.74340
G1 X154.596 Y109.650 E67.81428
G1 X158.833 Y108.706 E68.33519
G1 X162.836 Y107.726 E68.82973
G1 X164.780 Y107.212 E69.07103
G1 X165.039 Y109.005 E69.28842
G1 X163.543 Y109.404 E69.47422
G1 X159.605 Y110.369 E69.96076
G1 X158.670 Y110.585 E70.07592
G1 X154.962 Y111.412 E70.53181
G1 X150.683 Y112.272 E71.05556
G1 X146.366 Y113.043 E71.58179
G1 X142.048 Y113.723 E72.10634
G1 X137.697 Y114.316 E72.63329
G1 X133.348 Y114.816 E73.15860
G1 X128.991 Y115.224 E73.68373
G1 X128.410 Y115.265 E73.75363
G1 X124.635 Y115.540 E74.20783
G1 X120.262 Y115.765 E74.73328
G1 X115.873 Y115.900 E75.26021
G1 X111.501 Y115.942 E75.78487
G1 X107.130 Y115.893 E76.30943
G1 X102.741 Y115.751 E76.83638
G1 X98.371 Y115.519 E77.36152
G1 X94.011 Y115.195 E77.88616
G1 X89.658 Y114.780 E78.41089
G1 X85.308 Y114.272 E78.93644
G1 X80.958 Y113.673 E79.46336
G1 X76.635 Y112.985 E79.98865
G1 X72.338 Y112.209 E80.51263
G1 X68.047 Y111.341 E81.03798
G1 X63.763 Y110.379 E81.56486
G1 X62.050 Y109.958 E81.77654
G1 X58.367 Y109.027 E82.23240
G0 F12000 X58.269 Y109.415
;TYPE:WALL-OUTER
G1 F1200 X57.536 Y109.213 E82.32364
G1 X58.216 Y106.704 E82.63558
G1 X58.811 Y106.867 E82.70962
G1 X63.133 Y107.961 E83.24461
G1 X64.275 Y108.239 E83.38565
G1 X68.502 Y109.188 E83.90552
G1 X72.747 Y110.047 E84.42525
G1 X77.009 Y110.818 E84.94499
G1 X81.289 Y111.499 E85.46505
G1 X85.580 Y112.090 E85.98483
G1 X89.883 Y112.592 E86.50469
G1 X94.195 Y113.003 E87.02448
G1 X98.516 Y113.325 E87.54443
G1 X102.841 Y113.555 E88.06417
G1 X107.172 Y113.694 E88.58415
G1 X111.504 Y113.742 E89.10403
G1 X115.835 Y113.701 E89.62377
G1 X120.165 Y113.569 E90.14361
G1 X124.491 Y113.346 E90.66342
G1 X128.811 Y113.032 E91.18319
G1 X133.126 Y112.628 E91.70325
G1 X137.429 Y112.133 E92.22302
G1 X141.722 Y111.549 E92.74292
G1 X146.001 Y110.875 E93.26273
G1 X150.265 Y110.112 E93.78254
G1 X154.512 Y109.259 E94.30236
G1 X158.742 Y108.317 E94.82239
G1 X162.737 Y107.339 E95.31595
G1 X165.101 Y106.713 E95.60941
G1 X165.112 Y106.710 E95.61077
G1 X165.486 Y109.301 E95.92492
G1 X163.647 Y109.791 E96.15330
G1 X159.695 Y110.759 E96.64156
G1 X158.756 Y110.976 E96.75721
G1 X155.049 Y111.803 E97.21298
G1 X150.753 Y112.665 E97.73878
G1 X146.435 Y113.437 E98.26515
G1 X142.098 Y114.120 E98.79201
G1 X137.755 Y114.712 E99.31799
G1 X133.393 Y115.213 E99.84487
G1 X129.025 Y115.622 E100.37132
G1 X124.655 Y115.940 E100.89711
G1 X120.270 Y116.165 E101.42400
G1 X115.885 Y116.300 E101.95045
G1 X111.501 Y116.342 E102.47655
G1 X107.117 Y116.293 E103.00266
G1 X102.732 Y116.151 E103.52914
G1 X98.348 Y115.918 E104.05596
G1 X93.978 Y115.593 E104.58181
G1 X89.611 Y115.177 E105.10822
G1 X85.250 Y114.668 E105.63510
G1 X80.908 Y114.071 E106.16104
G1 X76.572 Y113.380 E106.68792
G1 X72.255 Y112.600 E107.21435
G1 X67.961 Y111.731 E107.74008
G1 X63.676 Y110.770 E108.26705
G1 X61.952 Y110.345 E108.48012
G1 X58.269 Y109.415 E108.93596
G0 F12000 X59.175 Y108.673
;TYPE:SKIN
G1 F1200 X58.766 Y108.263 E109.00545
G0 F12000 X58.935 Y107.867
G1 F1200 X59.930 Y108.861 E109.17422
G0 F12000 X60.684 Y109.050
G1 F1200 X59.691 Y108.057 E109.34274
G0 F12000 X60.446 Y108.246
G1 F1200 X61.439 Y109.239 E109.51126
G0 F12000 X62.194 Y109.429
G1 F1200 X61.201 Y108.436 E109.67978
G0 F12000 X61.956 Y108.625
G1 F1200 X62.948 Y109.617 E109.84812
G0 F12000 X63.703 Y109.806
G1 F1200 X62.711 Y108.815 E110.01639
G0 F12000 X63.467 Y109.004
G1 F1200 X64.438 Y109.976 E110.18126
G0 F12000 X65.168 Y110.140
G1 F1200 X64.216 Y109.188 E110.34282
G0 F12000 X64.945 Y109.351
G1 F1200 X65.897 Y110.303 E110.50438
G0 F12000 X66.627 Y110.467
G1 F1200 X65.675 Y109.515 E110.66594
G0 F12000 X66.405 Y109.680
G1 F1200 X67.356 Y110.631 E110.82733
G0 F12000 X68.085 Y110.795
G1 F1200 X67.134 Y109.843 E110.98880
G0 F12000 X67.863 Y110.007
G1 F1200 X68.797 Y110.940 E111.14722
G0 F12000 X69.506 Y111.084
G1 F1200 X68.585 Y110.162 E111.30360
G0 F12000 X69.294 Y110.306
G1 F1200 X70.215 Y111.227 E111.45990
G0 F12000 X70.924 Y111.371
G1 F1200 X70.003 Y110.450 E111.61620
G0 F12000 X70.712 Y110.593
G1 F1200 X71.634 Y111.514 E111.77259
G0 F12000 X72.343 Y111.658
G1 F1200 X71.422 Y110.737 E111.92889
G0 F12000 X72.131 Y110.881
G1 F1200 X73.035 Y111.785 E112.08230
G0 F12000 X73.726 Y111.910
G1 F1200 X72.834 Y111.017 E112.23376
G0 F12000 X73.524 Y111.143
G1 F1200 X74.416 Y112.034 E112.38505
G0 F12000 X75.106 Y112.159
G1 F1200 X74.215 Y111.267 E112.53635
G0 F12000 X74.905 Y111.392
G1 F1200 X75.796 Y112.283 E112.68755
G0 F12000 X76.487 Y112.408
G1 F1200 X75.596 Y111.517 E112.83876
G0 F12000 X76.287 Y111.642
G1 F1200 X77.165 Y112.521 E112.98785
G0 F12000 X77.839 Y112.628
G1 F1200 X76.974 Y111.764 E113.13456
G0 F12000 X77.647 Y111.871
G1 F1200 X78.511 Y112.735 E113.28118
G0 F12000 X79.183 Y112.842
G1 F1200 X78.319 Y111.978 E113.42781
G0 F12000 X78.992 Y112.084
G1 F1200 X79.857 Y112.949 E113.57461
G0 F12000 X80.529 Y113.056
G1 F1200 X79.665 Y112.192 E113.72123
G0 F12000 X80.337 Y112.299
G1 F1200 X81.198 Y113.159 E113.86726
G0 F12000 X81.854 Y113.250
G1 F1200 X81.010 Y112.405 E114.01058
G0 F12000 X81.670 Y112.499
G1 F1200 X82.510 Y113.340 E114.15322
G0 F12000 X83.167 Y113.431
G1 F1200 X82.326 Y112.590 E114.29594
G0 F12000 X82.982 Y112.681
G1 F1200 X83.823 Y113.521 E114.43858
G0 F12000 X84.479 Y113.612
G1 F1200 X83.638 Y112.771 E114.58130
G0 F12000 X84.294 Y112.862
G1 F1200 X85.135 Y113.702 E114.72394
G0 F12000 X85.781 Y113.782
G1 F1200 X84.951 Y112.952 E114.86479
G0 F12000 X85.602 Y113.038
G1 F1200 X86.421 Y113.857 E115.00378
G0 F12000 X87.062 Y113.932
G1 F1200 X86.242 Y113.112 E115.14294
G0 F12000 X86.882 Y113.187
G1 F1200 X87.702 Y114.006 E115.28201
G0 F12000 X88.343 Y114.081
G1 F1200 X87.523 Y113.262 E115.42109
G0 F12000 X88.163 Y113.336
G1 F1200 X88.983 Y114.156 E115.56025
G0 F12000 X89.623 Y114.230
G1 F1200 X88.804 Y113.411 E115.69924
G0 F12000 X89.444 Y113.485
G1 F1200 X90.250 Y114.292 E115.83610
G0 F12000 X90.875 Y114.351
G1 F1200 X90.077 Y113.553 E115.97153
G0 F12000 X90.702 Y113.612
G1 F1200 X91.501 Y114.411 E116.10712
G0 F12000 X92.126 Y114.471
G1 F1200 X91.328 Y113.673 E116.24255
G0 F12000 X91.953 Y113.732
G1 F1200 X92.751 Y114.530 E116.37797
G0 F12000 X93.377 Y114.590
G1 F1200 X92.578 Y113.791 E116.51357
G0 F12000 X93.203 Y113.851
G1 F1200 X94.002 Y114.650 E116.64916
G0 F12000 X94.615 Y114.696
G1 F1200 X93.829 Y113.911 E116.78247
G0 F12000 X94.446 Y113.962
G1 F1200 X95.226 Y114.742 E116.91484
G0 F12000 X95.838 Y114.788
G1 F1200 X95.058 Y114.008 E117.04721
G0 F12000 X95.669 Y114.054
G1 F1200 X96.449 Y114.834 E117.17958
G0 F12000 X97.061 Y114.880
G1 F1200 X96.281 Y114.100 E117.31195
G0 F12000 X96.892 Y114.145
G1 F1200 X97.671 Y114.925 E117.44423
G0 F12000 X98.283 Y114.971
G1 F1200 X97.503 Y114.191 E117.57660
G0 F12000 X98.114 Y114.236
G1 F1200 X98.881 Y115.003 E117.70677
G0 F12000 X99.479 Y115.035
G1 F1200 X98.719 Y114.276 E117.83566
G0 F12000 X99.317 Y114.308
G1 F1200 X100.076 Y115.067 E117.96447
G0 F12000 X100.674 Y115.099
G1 F1200 X99.914 Y114.339 E118.09344
G0 F12000 X100.512 Y114.371
G1 F1200 X101.271 Y115.131 E118.22233
G0 F12000 X101.870 Y115.163
G1 F1200 X101.109 Y114.403 E118.35140
G0 F12000 X101.707 Y114.435
G1 F1200 X102.467 Y115.195 E118.48037
G0 F12000 X103.058 Y115.220
G1 F1200 X102.304 Y114.467 E118.60824
G0 F12000 X102.900 Y114.496
G1 F1200 X103.643 Y115.240 E118.73442
G0 F12000 X104.227 Y115.258
G1 F1200 X103.485 Y114.515 E118.86043
G0 F12000 X104.069 Y114.534
G1 F1200 X104.812 Y115.277 E118.98652
G0 F12000 X105.397 Y115.296
G1 F1200 X104.653 Y114.553 E119.11269
G0 F12000 X105.237 Y114.571
G1 F1200 X105.981 Y115.314 E119.23887
G0 F12000 X106.565 Y115.334
G1 F1200 X105.822 Y114.590 E119.36505
G0 F12000 X106.407 Y114.609
G1 F1200 X107.150 Y115.352 E119.49114
G0 F12000 X107.722 Y115.358
G1 F1200 X106.991 Y114.628 E119.61511
G0 F12000 X107.567 Y114.638
G1 F1200 X108.294 Y115.365 E119.73848
G0 F12000 X108.866 Y115.371
G1 F1200 X108.139 Y114.644 E119.86186
G0 F12000 X108.711 Y114.651
G1 F1200 X109.438 Y115.377 E119.98515
G0 F12000 X110.010 Y115.384
G1 F1200 X109.283 Y114.657 E120.10853
G0 F12000 X109.855 Y114.663
G1 F1200 X110.582 Y115.390 E120.23190
G0 F12000 X111.154 Y115.396
G1 F1200 X110.427 Y114.670 E120.35519
G0 F12000 X110.999 Y114.676
G1 F1200 X111.722 Y115.399 E120.47789
G0 F12000 X112.282 Y115.393
G1 F1200 X111.570 Y114.681 E120.59872
G0 F12000 X112.130 Y114.675
G1 F1200 X112.842 Y115.388 E120.71964
G0 F12000 X113.402 Y115.382
G1 F1200 X112.690 Y114.670 E120.84047
G0 F12000 X113.250 Y114.665
G1 F1200 X113.963 Y115.377 E120.96138
G0 F12000 X114.523 Y115.372
G1 F1200 X113.811 Y114.660 E121.08221
G0 F12000 X114.371 Y114.654
G1 F1200 X115.084 Y115.367 E121.20321
G0 F12000 X115.644 Y115.361
G1 F1200 X114.932 Y114.649 E121.32404
G0 F12000 X115.492 Y114.643
G1 F1200 X116.198 Y115.349 E121.44386
G0 F12000 X116.746 Y115.332
G1 F1200 X116.048 Y114.634 E121.56231
G0 F12000 X116.597 Y114.617
G1 F1200 X117.295 Y115.315 E121.68077
G0 F12000 X117.844 Y115.298
G1 F1200 X117.147 Y114.601 E121.79905
G0 F12000 X117.695 Y114.584
G1 F1200 X118.393 Y115.281 E121.91742
G0 F12000 X118.941 Y115.264
G1 F1200 X118.245 Y114.568 E122.03554
G0 F12000 X118.793 Y114.551
G1 F1200 X119.490 Y115.247 E122.15374
G0 F12000 X120.039 Y115.230
G1 F1200 X119.342 Y114.534 E122.27194
G0 F12000 X119.892 Y114.518
G1 F1200 X120.580 Y115.206 E122.38869
G0 F12000 X121.118 Y115.179
G1 F1200 X120.435 Y114.496 E122.50460
G0 F12000 X120.973 Y114.468
G1 F1200 X121.657 Y115.151 E122.62060
