;FLAVOR:UltiGCode
;TIME:656
;MATERIAL:573
;MATERIAL2:0
;NOZZLE_DIAMETER:0.400000
;NOZZLE_DIAMETER2:0.400000

;Layer count: 68
;LAYER:0
M107
G0 F12000 X87.316 Y109.854 Z0.300
G0 X86.563 Y110.533
;TYPE:SKIRT
G1 F1200 X87.316 Y109.854 E0.12167
G1 X103.586 Y103.829 E2.20364
G1 X109.418 Y103.829 E2.90348
G1 X109.735 Y104.896 E3.03705
G1 X111.294 Y103.806 E3.26532
G1 X119.961 Y103.981 E4.30557
G1 X130.591 Y102.865 E5.58818
G1 X131.067 Y104.084 E5.74522
G1 X132.918 Y102.619 E6.02849
G1 X135.529 Y102.346 E6.34352
G1 X136.780 Y102.214 E6.49447
G1 X138.373 Y102.450 E6.68772
G1 X140.093 Y104.062 E6.97060
G1 X140.461 Y106.217 E7.23294
G1 X137.798 Y113.782 E8.19535
G1 X136.971 Y116.126 E8.49362
G1 X136.688 Y116.932 E8.59613
G1 X135.843 Y119.346 E8.90304
G1 X133.033 Y119.627 E9.24192
G1 X128.966 Y120.012 E9.73215
G1 X125.282 Y120.282 E10.17541
G1 X124.513 Y120.339 E10.26794
G1 X120.055 Y120.572 E10.80363
G1 X116.924 Y120.674 E11.17955
G1 X116.612 Y119.721 E11.29989
G1 X115.239 Y120.717 E11.50343
G1 X111.123 Y120.759 E11.99738
G1 X107.031 Y120.717 E12.48844
G1 X106.284 Y120.701 E12.57810
G1 X102.193 Y120.572 E13.06927
G1 X97.731 Y120.339 E13.60544
G1 X94.614 Y120.106 E13.98052
G1 X94.392 Y119.136 E14.09993
G1 X92.929 Y119.979 E14.30255
G1 X88.833 Y119.591 E14.79627
G1 X86.067 Y119.272 E15.13039
G1 X83.518 Y118.975 E15.43834
G1 X82.107 Y114.549 E15.99580
G1 X86.563 Y110.533 E16.71564
G0 F12000 X86.830 Y110.830
G1 F1200 X87.527 Y110.203 E16.82814
G1 X103.658 Y104.229 E18.89234
G1 X109.120 Y104.229 E19.54778
G1 X109.510 Y105.542 E19.71215
G1 X111.416 Y104.209 E19.99125
G1 X119.971 Y104.382 E21.01806
G1 X130.330 Y103.295 E22.26797
G1 X130.891 Y104.733 E22.45319
G1 X133.075 Y103.005 E22.78739
G1 X135.571 Y102.744 E23.08854
G1 X136.772 Y102.617 E23.23346
G1 X138.191 Y102.827 E23.40560
G1 X139.721 Y104.262 E23.65731
G1 X140.049 Y106.182 E23.89105
G1 X137.420 Y113.649 E24.84101
G1 X136.594 Y115.994 E25.13935
G1 X136.311 Y116.799 E25.24175
G1 X135.549 Y118.973 E25.51819
G1 X132.994 Y119.229 E25.82633
G1 X128.933 Y119.613 E26.31582
G1 X125.252 Y119.883 E26.75873
G1 X124.488 Y119.940 E26.85066
G1 X120.038 Y120.172 E27.38539
G1 X117.211 Y120.265 E27.72481
G1 X116.821 Y119.074 E27.87520
G1 X115.107 Y120.318 E28.12934
G1 X111.123 Y120.359 E28.60745
G1 X107.038 Y120.317 E29.09767
G1 X106.295 Y120.301 E29.18685
G1 X102.210 Y120.172 E29.67730
G1 X97.757 Y119.940 E30.21238
G1 X94.938 Y119.730 E30.55160
G1 X94.661 Y118.519 E30.70067
G1 X92.840 Y119.569 E30.95292
G1 X88.875 Y119.194 E31.43084
G1 X86.113 Y118.875 E31.76448
G1 X83.820 Y118.607 E32.04152
G1 X82.566 Y114.673 E32.53700
G1 X86.830 Y110.830 E33.22583
G10
G1 Z0.400
G0 F12000 X89.739 Y113.863
;TYPE:WALL-INNER
G1 Z0.300
G11
G1 F1200 X102.011 Y109.318 E34.79622
G1 X100.468 Y110.325 E35.01732
G1 X91.904 Y115.261 E36.20348
G1 X89.303 Y115.015 E36.51699
G1 X88.556 Y114.929 E36.60722
G1 X89.739 Y113.863 E36.79832
G0 F12000 X89.530 Y113.514
G1 F1200 X104.339 Y108.029 E38.69337
G1 X104.717 Y108.029 E38.73873
G1 X100.698 Y110.653 E39.31471
G1 X91.991 Y115.672 E40.52070
G1 X89.278 Y115.415 E40.84772
G1 X87.631 Y115.225 E41.04667
G1 X89.530 Y113.514 E41.35341
G0 F12000 X89.319 Y113.165
;TYPE:WALL-OUTER
G1 F1200 X104.268 Y107.629 E43.26634
G1 X106.062 Y107.629 E43.48162
G1 X100.898 Y111.000 E44.22165
G1 X92.082 Y116.082 E45.44275
G1 X89.232 Y115.812 E45.78629
G1 X86.706 Y115.520 E46.09142
G1 X89.319 Y113.165 E46.51354
G0 F12000 X89.907 Y113.949
;TYPE:SKIN
G1 F1200 X90.991 Y115.032 E46.69742
G0 F12000 X90.366 Y114.974
G1 F1200 X89.584 Y114.191 E46.83021
G0 F12000 X89.286 Y114.459
G1 F1200 X89.426 Y114.882 E46.90734
G1 X88.988 Y114.727 E46.96309
G0 F12000 X90.320 Y113.796
G1 F1200 X91.616 Y115.092 E47.18303
G0 F12000 X92.084 Y114.994
G1 F1200 X90.733 Y113.643 E47.41230
G0 F12000 X91.146 Y113.490
G1 F1200 X92.442 Y114.787 E47.63233
G0 F12000 X92.802 Y114.580
G1 F1200 X91.559 Y113.337 E47.84327
G0 F12000 X91.971 Y113.185
G1 F1200 X93.160 Y114.373 E48.04497
G0 F12000 X93.519 Y114.167
G1 F1200 X92.384 Y113.032 E48.23758
G0 F12000 X92.797 Y112.878
G1 F1200 X93.878 Y113.960 E48.42112
G0 F12000 X94.237 Y113.753
G1 F1200 X93.210 Y112.726 E48.59541
G0 F12000 X93.623 Y112.573
G1 F1200 X94.596 Y113.546 E48.76053
G0 F12000 X94.955 Y113.340
G1 F1200 X94.036 Y112.420 E48.91658
G0 F12000 X94.448 Y112.268
G1 F1200 X95.313 Y113.132 E49.06329
G0 F12000 X95.672 Y112.926
G1 F1200 X94.861 Y112.114 E49.20100
G0 F12000 X95.274 Y111.961
G1 F1200 X96.031 Y112.719 E49.32955
G0 F12000 X96.390 Y112.512
G1 F1200 X95.687 Y111.809 E49.44886
G0 F12000 X96.100 Y111.656
G1 F1200 X96.749 Y112.305 E49.55900
G0 F12000 X97.108 Y112.099
G1 F1200 X96.513 Y111.503 E49.66006
G0 F12000 X96.925 Y111.350
G1 F1200 X97.646 Y111.788 E49.75167
G1 X97.544 Y111.120 E49.83438
G1 X98.363 Y111.374 E49.90796
G1 X98.370 Y110.815 E49.97202
G1 X99.081 Y110.961 E50.02711
G1 X99.195 Y110.509 E50.07326
G1 X99.799 Y110.547 E50.10994
G1 X100.021 Y110.203 E50.13757
G1 X100.337 Y110.237 E50.17571
G10
G1 Z0.400
G0 F12000 X102.380 Y115.975
;TYPE:WALL-INNER
G1 Z0.300
G11
G1 F1200 X100.932 Y115.900 E50.34970
G1 X107.295 Y112.214 E51.23213
G1 X112.701 Y108.436 E52.02356
G1 X120.155 Y108.586 E52.91823
G1 X124.710 Y108.108 E53.46783
G1 X121.744 Y110.314 E53.91140
G1 X113.726 Y116.132 E55.10017
G1 X111.123 Y116.159 E55.41255
G1 X107.109 Y116.117 E55.89425
G1 X106.410 Y116.102 E55.97815
G1 X102.380 Y115.975 E56.46199
G0 F12000 X102.363 Y116.375
G1 F1200 X99.564 Y116.229 E56.79833
G1 X107.080 Y111.876 E57.84060
G1 X112.579 Y108.033 E58.64565
G1 X120.138 Y108.186 E59.55292
G1 X126.121 Y107.558 E60.27482
G1 X121.989 Y110.630 E60.89268
G1 X113.856 Y116.531 E62.09847
G1 X111.123 Y116.559 E62.42645
G1 X107.101 Y116.517 E62.90912
G1 X106.398 Y116.502 E62.99349
G1 X102.363 Y116.375 E63.47793
G0 F12000 X102.354 Y116.775
;TYPE:WALL-OUTER
G1 F1200 X98.198 Y116.558 E63.97733
G1 X106.865 Y111.539 E65.17918
G1 X112.457 Y107.630 E65.99791
G1 X120.121 Y107.785 E66.91778
G1 X127.532 Y107.007 E67.81199
G1 X122.224 Y110.954 E68.60575
G1 X113.988 Y116.930 E69.82683
G1 X111.123 Y116.959 E70.17064
G1 X107.092 Y116.917 E70.65439
G1 X106.385 Y116.902 E70.73925
G1 X102.354 Y116.775 E71.22321
G0 F12000 X102.545 Y115.838
;TYPE:SKIN
G1 F1200 X101.915 Y115.492 E71.29954
G1 X101.952 Y115.811 E71.33808
G0 F12000 X102.453 Y115.181
G1 F1200 X103.129 Y115.857 E71.45280
G0 F12000 X103.713 Y115.875
G1 F1200 X102.811 Y114.973 E71.60587
G0 F12000 X103.169 Y114.766
G1 F1200 X104.297 Y115.894 E71.79730
G0 F12000 X104.881 Y115.912
G1 F1200 X103.527 Y114.558 E72.02708
G0 F12000 X103.886 Y114.351
G1 F1200 X105.465 Y115.930 E72.29505
G0 F12000 X106.049 Y115.949
G1 F1200 X104.244 Y114.144 E72.60137
G0 F12000 X104.602 Y113.936
G1 F1200 X106.629 Y115.963 E72.94536
G0 F12000 X107.202 Y115.970
G1 F1200 X104.960 Y113.728 E73.32584
G0 F12000 X105.318 Y113.521
G1 F1200 X107.775 Y115.977 E73.74272
G0 F12000 X108.347 Y115.983
G1 F1200 X105.677 Y113.313 E74.19584
G0 F12000 X106.034 Y113.105
G1 F1200 X108.919 Y115.990 E74.68544
G0 F12000 X109.492 Y115.998
G1 F1200 X106.393 Y112.898 E75.21144
G0 F12000 X106.751 Y112.690
G1 F1200 X110.065 Y116.005 E75.77393
G0 F12000 X110.637 Y116.011
G1 F1200 X107.109 Y112.483 E76.37265
G0 F12000 X107.461 Y112.269
G1 F1200 X111.208 Y116.016 E77.00854
G0 F12000 X111.768 Y116.010
G1 F1200 X107.794 Y112.036 E77.68295
G0 F12000 X108.127 Y111.804
G1 F1200 X112.328 Y116.005 E78.39588
G0 F12000 X112.888 Y116.000
G1 F1200 X108.460 Y111.571 E79.14742
G0 F12000 X108.793 Y111.338
G1 F1200 X113.448 Y115.994 E79.93749
G0 F12000 X113.871 Y115.851
G1 F1200 X109.126 Y111.106 E80.74274
G0 F12000 X109.459 Y110.873
G1 F1200 X114.199 Y115.613 E81.54715
G0 F12000 X114.525 Y115.374
G1 F1200 X109.792 Y110.640 E82.35045
G0 F12000 X110.125 Y110.408
G1 F1200 X114.853 Y115.136 E83.15282
G0 F12000 X115.179 Y114.897
G1 F1200 X110.457 Y110.175 E83.95417
G0 F12000 X110.790 Y109.942
G1 F1200 X115.507 Y114.658 E84.75458
G0 F12000 X115.833 Y114.419
G1 F1200 X111.123 Y109.709 E85.55390
G0 F12000 X111.456 Y109.477
G1 F1200 X116.161 Y114.181 E86.35228
G0 F12000 X116.488 Y113.942
G1 F1200 X111.790 Y109.244 E87.14955
G0 F12000 X112.123 Y109.011
G1 F1200 X116.815 Y113.704 E87.94590
G0 F12000 X117.142 Y113.465
G1 F1200 X112.456 Y108.779 E88.74114
G0 F12000 X112.821 Y108.579
G1 F1200 X117.469 Y113.226 E89.52984
G0 F12000 X117.796 Y112.987
G1 F1200 X113.398 Y108.590 E90.27612
G0 F12000 X113.976 Y108.602
G1 F1200 X118.123 Y112.749 E90.97989
G0 F12000 X118.450 Y112.510
G1 F1200 X114.553 Y108.613 E91.64124
G0 F12000 X115.130 Y108.625
G1 F1200 X118.777 Y112.272 E92.26015
G0 F12000 X119.104 Y112.033
G1 F1200 X115.708 Y108.637 E92.83647
G0 F12000 X116.285 Y108.648
G1 F1200 X119.431 Y111.794 E93.37037
G0 F12000 X119.758 Y111.555
G1 F1200 X116.862 Y108.660 E93.86175
G0 F12000 X117.439 Y108.671
G1 F1200 X120.085 Y111.317 E94.31079
G0 F12000 X120.412 Y111.078
G1 F1200 X118.017 Y108.683 E94.71724
G0 F12000 X118.594 Y108.695
G1 F1200 X120.739 Y110.840 E95.08125
G0 F12000 X121.066 Y110.601
G1 F1200 X119.171 Y108.706 E95.40285
G0 F12000 X119.749 Y108.718
G1 F1200 X121.393 Y110.363 E95.68193
G0 F12000 X121.720 Y110.124
G1 F1200 X120.307 Y108.710 E95.92181
G0 F12000 X120.819 Y108.657
G1 F1200 X122.048 Y109.885 E96.13029
G0 F12000 X122.374 Y109.646
G1 F1200 X121.331 Y108.603 E96.30729
G0 F12000 X121.843 Y108.550
G1 F1200 X122.702 Y109.408 E96.45298
G0 F12000 X123.028 Y109.169
G1 F1200 X122.355 Y108.496 E96.56720
G0 F12000 X122.868 Y108.443
G1 F1200 X123.519 Y108.811 E96.64998
G1 X123.636 Y108.362 E96.70120
G1 X124.010 Y108.453 E96.74739
G10
G1 Z0.400
G0 F12000 X127.934 Y112.426
;TYPE:WALL-INNER
G1 Z0.300
G11
G1 F1200 X134.722 Y107.056 E97.78603
G1 X135.310 Y106.995 E97.85697
G1 X132.470 Y115.059 E98.88290
G1 X128.571 Y115.428 E99.35287
G1 X124.234 Y115.747 E99.87472
G1 X122.991 Y115.812 E100.02408
G1 X127.934 Y112.426 E100.74307
G0 F12000 X127.697 Y112.103
G1 F1200 X134.567 Y106.670 E101.79411
G1 X135.898 Y106.530 E101.95471
G1 X132.764 Y115.433 E103.08733
G1 X128.615 Y115.826 E103.58744
G1 X124.255 Y116.147 E104.11205
G1 X121.591 Y116.286 E104.43217
G1 X127.697 Y112.103 E105.32034
G0 F12000 X127.460 Y111.781
;TYPE:WALL-OUTER
G1 F1200 X134.410 Y106.284 E106.38367
G1 X136.485 Y106.066 E106.63404
G1 X133.056 Y115.806 E107.87316
G1 X128.646 Y116.225 E108.40474
G1 X124.276 Y116.547 E108.93056
G1 X120.193 Y116.759 E109.42118
G1 X127.460 Y111.781 E110.47820
G0 F12000 X128.060 Y112.504
;TYPE:SKIN
G1 F1200 X130.647 Y115.090 E110.91715
G0 F12000 X131.164 Y115.042
G1 F1200 X128.375 Y112.253 E111.39046
G0 F12000 X128.692 Y112.004
G1 F1200 X131.680 Y114.992 E111.89754
G0 F12000 X132.197 Y114.943
G1 F1200 X129.008 Y111.754 E112.43873
G0 F12000 X129.323 Y111.504
G1 F1200 X132.466 Y114.647 E112.97211
G0 F12000 X132.613 Y114.228
G1 F1200 X129.639 Y111.254 E113.47682
G0 F12000 X129.955 Y111.005
G1 F1200 X132.760 Y113.810 E113.95284
G0 F12000 X132.908 Y113.392
G1 F1200 X130.270 Y110.754 E114.40052
G0 F12000 X130.587 Y110.505
G1 F1200 X133.055 Y112.973 E114.81936
G0 F12000 X133.202 Y112.555
G1 F1200 X130.903 Y110.255 E115.20960
G0 F12000 X131.219 Y110.006
G1 F1200 X133.350 Y112.137 E115.57124
G0 F12000 X133.497 Y111.718
G1 F1200 X131.534 Y109.755 E115.90437
G0 F12000 X131.850 Y109.506
G1 F1200 X133.645 Y111.300 E116.20891
G0 F12000 X133.792 Y110.882
G1 F1200 X132.166 Y109.256 E116.48485
G0 F12000 X132.482 Y109.006
G1 F1200 X133.939 Y110.463 E116.73211
G0 F12000 X134.087 Y110.045
G1 F1200 X132.798 Y108.756 E116.95086
G0 F12000 X133.114 Y108.506
G1 F1200 X134.234 Y109.627 E117.14102
G0 F12000 X134.381 Y109.208
G1 F1200 X133.429 Y108.256 E117.30258
G0 F12000 X133.745 Y108.007
G1 F1200 X134.529 Y108.790 E117.43554
G0 F12000 X134.676 Y108.371
G1 F1200 X134.061 Y107.757 E117.53982
G0 F12000 X134.377 Y107.507
G1 F1200 X134.897 Y107.744 E117.61560
G1 X134.693 Y107.257 E117.67896
G0 F12000 X127.727 Y112.736
G1 F1200 X130.130 Y115.139 E118.08676
G0 F12000 X129.614 Y115.189
G1 F1200 X127.391 Y112.966 E118.46402
G0 F12000 X127.055 Y113.196
G1 F1200 X129.097 Y115.237 E118.81047
G0 F12000 X128.580 Y115.286
G1 F1200 X126.720 Y113.426 E119.12613
G0 F12000 X126.384 Y113.656
G1 F1200 X128.054 Y115.326 E119.40953
G0 F12000 X127.527 Y115.365
G1 F1200 X126.048 Y113.886 E119.66053
G0 F12000 X125.712 Y114.116
G1 F1200 X126.999 Y115.403 E119.87894
G0 F12000 X126.473 Y115.442
G1 F1200 X125.377 Y114.346 E120.06494
G0 F12000 X125.041 Y114.576
G1 F1200 X125.946 Y115.481 E120.21852
G0 F12000 X125.419 Y115.520
G1 F1200 X124.706 Y114.806 E120.33961
G0 F12000 X124.370 Y115.037
G1 F1200 X124.628 Y115.577 E120.42794
G1 X123.867 Y115.381 E120.48381
G1 X123.829 Y115.626 E120.51356
;LAYER:1
M106 S2
G10
G1 Z0.400
G0 F12000 X102.034 Y109.306 Z0.360
;TYPE:WALL-INNER
G1 Z0.360
G11
G1 F1620 X100.478 Y110.322 E120.55805
G1 X91.904 Y115.264 E120.79497
G1 X89.303 Y115.018 E120.85752
G1 X88.549 Y114.931 E120.87569
G1 X89.738 Y113.860 E120.91400
G1 X102.034 Y109.306 E121.22790
G0 F12000 X100.682 Y110.665
G1 F1620 X91.992 Y115.674 E121.46803
G1 X89.278 Y115.417 E121.53329
G1 X87.625 Y115.226 E121.57313
G1 X89.527 Y113.513 E121.63441
G1 X104.339 Y108.027 E122.01255
G1 X104.723 Y108.027 E122.02174
G1 X100.682 Y110.665 E122.13727
G0 F12000 X100.889 Y111.006
;TYPE:WALL-OUTER
G1 F1620 X92.082 Y116.083 E122.38063
G1 X89.232 Y115.813 E122.44917
G1 X86.703 Y115.521 E122.51011
G1 X89.317 Y113.165 E122.59436
G1 X104.268 Y107.628 E122.97604
G1 X106.063 Y107.628 E123.01902
G1 X100.889 Y111.006 E123.16694
G0 F12000 X99.974 Y110.216
;TYPE:SKIN
G1 F1620 X99.423 Y110.768 E123.18562
G0 F12000 X99.078 Y110.549
G1 F1620 X98.091 Y111.536 E123.21903
G0 F12000 X98.181 Y110.881
G1 F1620 X96.759 Y112.303 E123.26718
G0 F12000 X96.389 Y111.545
G1 F1620 X94.095 Y113.839 E123.34484
G0 F12000 X93.700 Y112.541
G1 F1620 X91.186 Y115.055 E123.42996
G0 F12000 X91.701 Y115.104
G1 F1620 X94.596 Y112.209 E123.52797
G0 F12000 X95.492 Y111.877
G1 F1620 X92.763 Y114.606 E123.62036
G0 F12000 X91.907 Y113.205
G1 F1620 X90.156 Y114.957 E123.67966
G0 F12000 X90.670 Y115.006
G1 F1620 X92.803 Y112.874 E123.75186
G0 F12000 X91.011 Y113.538
G1 F1620 X89.640 Y114.908 E123.79826
G0 F12000 X89.128 Y114.856
G1 F1620 X90.114 Y113.870 E123.83164
G0 F12000 X95.427 Y113.071
G1 F1620 X97.285 Y111.213 E123.89455
G10
G1 Z0.460
G0 F12000 X100.921 Y115.902
;TYPE:WALL-INNER
G1 Z0.360
G11
G1 F1620 X107.293 Y112.212 E124.07083
G1 X112.699 Y108.433 E124.22873
G1 X120.155 Y108.583 E124.40727
G1 X124.721 Y108.104 E124.51718
G1 X121.746 Y110.316 E124.60593
G1 X113.726 Y116.135 E124.84314
G1 X111.123 Y116.162 E124.90546
G1 X107.188 Y116.121 E124.99967
G1 X106.331 Y116.103 E125.02019
G1 X102.380 Y115.978 E125.11482
G1 X100.921 Y115.902 E125.14980
G0 F12000 X102.363 Y116.377
G1 F1620 X99.558 Y116.231 E125.21704
G1 X107.079 Y111.875 E125.42511
G1 X112.578 Y108.031 E125.58573
G1 X120.138 Y108.184 E125.76676
G1 X126.127 Y107.555 E125.91092
G1 X121.984 Y110.636 E126.03453
G1 X113.857 Y116.533 E126.27491
G1 X111.123 Y116.561 E126.34036
G1 X107.179 Y116.520 E126.43479
G1 X106.319 Y116.502 E126.45538
G1 X102.363 Y116.377 E126.55014
G0 F12000 X102.354 Y116.776
;TYPE:WALL-OUTER
G1 F1620 X98.195 Y116.559 E126.64984
G1 X106.864 Y111.538 E126.88967
G1 X112.456 Y107.629 E127.05301
G1 X120.121 Y107.784 E127.23655
G1 X127.533 Y107.006 E127.41496
G1 X122.222 Y110.956 E127.57342
G1 X113.988 Y116.931 E127.81697
G1 X111.123 Y116.960 E127.88556
G1 X107.171 Y116.919 E127.98018
G1 X106.306 Y116.901 E128.00089
G1 X102.354 Y116.776 E128.09555
G0 F12000 X102.260 Y115.831
;TYPE:SKIN
G1 F1620 X103.552 Y114.538 E128.13931
G0 F12000 X103.351 Y115.868
G1 F1620 X106.234 Y112.985 E128.23692
