;FLAVOR:UltiGCode
;TIME:4277
;MATERIAL:6578
;MATERIAL2:0
;NOZZLE_DIAMETER:0.400000
;NOZZLE_DIAMETER2:0.400000

;Layer count: 108
;LAYER:0
M107
G0 F12000 X83.100 Y81.151 Z0.300
;TYPE:SKIRT
G1 F1200 X139.900 Y81.151 E6.81600
G1 X139.900 Y141.849 E14.09976
G1 X130.500 Y141.849 E15.22776
G1 X130.500 Y133.849 E16.18776
G1 X92.500 Y133.849 E20.74776
G1 X92.500 Y141.849 E21.70776
G1 X83.100 Y141.849 E22.83576
G1 X83.100 Y81.151 E30.11952
G10
G1 Z0.400
G0 F12000 X87.300 Y85.351
;TYPE:WALL-INNER
G1 Z0.300
G11
G1 F1200 X135.700 Y85.351 E35.92752
G1 X135.700 Y137.649 E42.20328
G1 X134.700 Y137.649 E42.32328
G1 X134.700 Y129.649 E43.28328
G1 X88.300 Y129.649 E48.85128
G1 X88.300 Y137.649 E49.81128
G1 X87.300 Y137.649 E49.93128
G1 X87.300 Y85.351 E56.20704
G0 F12000 X94.343 Y92.118
G1 F1200 X93.911 Y92.612 E56.28579
G1 X93.623 Y93.200 E56.36436
G1 X93.496 Y93.842 E56.44289
G1 X93.541 Y94.497 E56.52168
G1 X93.754 Y95.115 E56.60012
G1 X94.118 Y95.658 E56.67856
G1 X94.612 Y96.090 E56.75731
G1 X95.200 Y96.378 E56.83588
G1 X95.842 Y96.505 E56.91442
G1 X96.497 Y96.460 E56.99320
G1 X97.115 Y96.247 E57.07164
G1 X97.658 Y95.883 E57.15009
G1 X98.090 Y95.389 E57.22884
G1 X98.378 Y94.801 E57.30741
G1 X98.505 Y94.159 E57.38594
G1 X98.460 Y93.504 E57.46473
G1 X98.247 Y92.886 E57.54317
G1 X97.883 Y92.343 E57.62161
G1 X97.389 Y91.911 E57.70036
G1 X96.801 Y91.623 E57.77893
G1 X96.159 Y91.496 E57.85746
G1 X95.504 Y91.541 E57.93625
G1 X94.886 Y91.754 E58.01469
G1 X94.343 Y92.118 E58.09314
G0 F12000 X96.671 Y92.008
G0 X97.884 Y93.067
G0 X97.993 Y94.671
G0 X100.269 Y97.407
G1 F1200 X99.464 Y98.205 E58.22916
G1 X98.778 Y98.982 E58.35354
G1 X98.211 Y99.714 E58.46465
G1 X98.141 Y99.804 E58.47833
G1 X97.608 Y100.589 E58.59219
G1 X97.033 Y101.549 E58.72647
G1 X96.562 Y102.475 E58.85114
G1 X96.150 Y103.427 E58.97562
G1 X95.827 Y104.323 E59.08991
G1 X95.511 Y105.395 E59.22403
G1 X95.283 Y106.408 E59.34863
G1 X95.139 Y107.321 E59.45954
G1 X95.023 Y108.464 E59.59741
G1 X94.992 Y109.500 E59.72178
G1 X95.020 Y110.452 E59.83607
G1 X95.121 Y111.566 E59.97030
G1 X95.283 Y112.592 E60.09494
G1 X95.510 Y113.603 E60.21929
G1 X95.775 Y114.518 E60.33360
G1 X96.149 Y115.571 E60.46769
G1 X96.562 Y116.525 E60.59244
G1 X96.994 Y117.374 E60.70675
G1 X97.559 Y118.339 E60.84094
G1 X98.095 Y119.128 E60.95540
G1 X98.776 Y120.016 E61.08969
G1 X99.408 Y120.732 E61.20429
G1 X100.114 Y121.446 E61.32478
G1 X100.911 Y122.157 E61.45295
G1 X101.702 Y122.779 E61.57370
G1 X102.556 Y123.368 E61.69819
G1 X103.471 Y123.916 E61.82618
G1 X104.464 Y124.428 E61.96024
G1 X105.340 Y124.807 E62.07478
G1 X106.390 Y125.192 E62.20898
G1 X107.308 Y125.458 E62.32367
G1 X108.315 Y125.689 E62.44765
G1 X109.421 Y125.869 E62.58212
G1 X110.371 Y125.959 E62.69663
G1 X111.074 Y125.986 E62.78105
G1 X111.482 Y125.999 E62.83004
G1 X112.527 Y125.968 E62.95549
G1 X113.558 Y125.870 E63.07977
G1 X114.582 Y125.708 E63.20418
G1 X115.484 Y125.507 E63.31507
G1 X116.589 Y125.193 E63.45292
G1 X117.486 Y124.870 E63.56733
G1 X118.437 Y124.464 E63.69141
G1 X119.437 Y123.960 E63.82579
G1 X120.260 Y123.475 E63.94043
G1 X121.093 Y122.914 E64.06094
G1 X121.916 Y122.285 E64.18524
G1 X122.786 Y121.528 E64.32363
G1 X123.519 Y120.795 E64.44802
G1 X124.205 Y120.018 E64.57240
G1 X124.772 Y119.286 E64.68351
G1 X124.840 Y119.197 E64.69695
G1 X125.375 Y118.411 E64.81105
G1 X125.949 Y117.451 E64.94527
G1 X126.383 Y116.600 E65.05990
G1 X126.797 Y115.653 E65.18393
G1 X127.183 Y114.601 E65.31840
G1 X127.449 Y113.683 E65.43309
G1 X127.698 Y112.594 E65.56714
G1 X127.862 Y111.568 E65.69183
G1 X127.959 Y110.537 E65.81609
G1 X127.991 Y109.500 E65.94059
G1 X127.962 Y108.549 E66.05476
G1 X127.862 Y107.435 E66.18898
G1 X127.712 Y106.492 E66.30357
G1 X127.474 Y105.399 E66.43780
G1 X127.183 Y104.402 E66.56243
G1 X126.832 Y103.427 E66.68678
G1 X126.455 Y102.552 E66.80111
G1 X125.951 Y101.553 E66.93538
G1 X125.423 Y100.659 E67.05998
G1 X124.887 Y99.872 E67.17424
G1 X124.207 Y98.984 E67.30846
G1 X123.519 Y98.205 E67.43317
G1 X122.786 Y97.471 E67.55765
G1 X122.072 Y96.843 E67.67176
G1 X121.258 Y96.205 E67.79587
G1 X120.334 Y95.569 E67.93047
G1 X119.512 Y95.084 E68.04500
G1 X118.594 Y94.610 E68.16898
G1 X117.645 Y94.194 E68.29332
G1 X116.671 Y93.837 E68.41781
G1 X115.677 Y93.542 E68.54223
G1 X114.585 Y93.293 E68.67663
G1 X113.670 Y93.148 E68.78780
G1 X112.610 Y93.041 E68.91565
G1 X111.503 Y93.000 E69.04858
G1 X110.540 Y93.029 E69.16419
G1 X109.510 Y93.122 E69.28830
G1 X108.513 Y93.274 E69.40932
G1 X107.498 Y93.493 E69.53392
G1 X106.393 Y93.808 E69.67180
G1 X105.418 Y94.159 E69.79615
G1 X104.543 Y94.537 E69.91053
G1 X103.621 Y95.002 E70.03445
G1 X102.724 Y95.523 E70.15893
G1 X101.889 Y96.086 E70.27978
G1 X101.067 Y96.715 E70.40398
G1 X100.269 Y97.407 E70.53073
G0 F12000 X96.925 Y102.646
G0 X95.519 Y107.482
G0 X95.677 Y112.516
G0 X96.925 Y116.354
G0 X96.497 Y122.540
G1 F1200 X95.842 Y122.495 E70.60952
G1 X95.200 Y122.622 E70.68805
G1 X94.612 Y122.910 E70.76662
G1 X94.118 Y123.342 E70.84537
G1 X93.754 Y123.885 E70.92381
G1 X93.541 Y124.503 E71.00226
G1 X93.496 Y125.158 E71.08104
G1 X93.623 Y125.800 E71.15957
G1 X93.911 Y126.388 E71.23814
G1 X94.343 Y126.882 E71.31689
G1 X94.886 Y127.246 E71.39534
G1 X95.504 Y127.459 E71.47378
G1 X96.159 Y127.504 E71.55257
G1 X96.801 Y127.377 E71.63110
G1 X97.389 Y127.089 E71.70967
G1 X97.883 Y126.657 E71.78842
G1 X98.247 Y126.114 E71.86686
G1 X98.460 Y125.496 E71.94530
G1 X98.505 Y124.841 E72.02409
G1 X98.378 Y124.199 E72.10262
G1 X98.090 Y123.611 E72.18119
G1 X97.658 Y123.117 E72.25994
G1 X97.115 Y122.753 E72.33839
G1 X96.497 Y122.540 E72.41683
G0 F12000 X110.397 Y125.559
G0 X115.493 Y125.094
G0 X124.495 Y124.841
G1 F1200 X124.540 Y125.496 E72.49561
G1 X124.753 Y126.114 E72.57405
G1 X125.117 Y126.657 E72.65250
G1 X125.611 Y127.089 E72.73125
G1 X126.199 Y127.377 E72.80982
G1 X126.841 Y127.504 E72.88835
G1 X127.496 Y127.459 E72.96714
G1 X128.114 Y127.246 E73.04558
G1 X128.657 Y126.882 E73.12402
G1 X129.089 Y126.388 E73.20277
G1 X129.377 Y125.800 E73.28134
G1 X129.504 Y125.158 E73.35988
G1 X129.459 Y124.503 E73.43866
G1 X129.246 Y123.885 E73.51710
G1 X128.882 Y123.342 E73.59555
G1 X128.388 Y122.910 E73.67430
G1 X127.800 Y122.622 E73.75287
G1 X127.158 Y122.495 E73.83140
G1 X126.503 Y122.540 E73.91019
G1 X125.885 Y122.753 E73.98863
G1 X125.342 Y123.117 E74.06707
G1 X124.910 Y123.611 E74.14582
G1 X124.622 Y124.199 E74.22439
G1 X124.495 Y124.841 E74.30292
G0 F12000 X127.558 Y110.511
G0 X127.085 Y105.498
G0 X126.503 Y96.460
G1 F1200 X127.158 Y96.505 E74.38171
G1 X127.800 Y96.378 E74.46024
G1 X128.388 Y96.090 E74.53881
G1 X128.882 Y95.658 E74.61756
G1 X129.246 Y95.115 E74.69601
G1 X129.459 Y94.497 E74.77445
G1 X129.504 Y93.842 E74.85323
G1 X129.377 Y93.200 E74.93177
G1 X129.089 Y92.612 E75.01034
G1 X128.657 Y92.118 E75.08909
G1 X128.114 Y91.754 E75.16753
G1 X127.496 Y91.541 E75.24597
G1 X126.841 Y91.496 E75.32476
G1 X126.199 Y91.623 E75.40329
G1 X125.611 Y91.911 E75.48186
G1 X125.117 Y92.343 E75.56061
G1 X124.753 Y92.886 E75.63906
G1 X124.540 Y93.504 E75.71750
G1 X124.495 Y94.159 E75.79628
G1 X124.622 Y94.801 E75.87481
G1 X124.910 Y95.389 E75.95338
G1 X125.342 Y95.883 E76.03213
G1 X125.885 Y96.247 E76.11058
G1 X126.503 Y96.460 E76.18902
G0 F12000 X126.583 Y96.064
G1 F1200 X127.132 Y96.102 E76.25506
G1 X127.671 Y95.995 E76.32100
G1 X128.165 Y95.754 E76.38696
G1 X128.579 Y95.392 E76.45295
G1 X128.885 Y94.936 E76.51885
G1 X129.063 Y94.417 E76.58469
G1 X129.101 Y93.868 E76.65073
G1 X128.994 Y93.329 E76.71667
G1 X128.753 Y92.835 E76.78263
G1 X128.391 Y92.421 E76.84862
G1 X127.935 Y92.115 E76.91452
G1 X127.416 Y91.937 E76.98036
G1 X126.867 Y91.899 E77.04640
G1 X126.328 Y92.006 E77.11234
G1 X125.834 Y92.247 E77.17830
G1 X125.420 Y92.609 E77.24429
G1 X125.114 Y93.065 E77.31019
G1 X124.936 Y93.584 E77.37603
G1 X124.898 Y94.133 E77.44207
G1 X125.005 Y94.672 E77.50801
G1 X125.246 Y95.166 E77.57397
G1 X125.608 Y95.580 E77.63997
G1 X126.064 Y95.886 E77.70586
G1 X126.583 Y96.064 E77.77171
G0 F12000 X123.228 Y98.479
G1 F1200 X122.512 Y97.763 E77.89321
G1 X121.816 Y97.150 E78.00451
G1 X121.021 Y96.527 E78.12571
G1 X120.119 Y95.907 E78.25706
G1 X119.318 Y95.435 E78.36862
G1 X118.422 Y94.971 E78.48971
G1 X117.496 Y94.565 E78.61104
G1 X116.546 Y94.217 E78.73245
G1 X115.575 Y93.929 E78.85398
G1 X114.509 Y93.686 E78.98518
G1 X113.608 Y93.543 E79.09466
G1 X112.584 Y93.440 E79.21816
G1 X111.502 Y93.401 E79.34808
G1 X110.564 Y93.429 E79.46069
G1 X109.558 Y93.519 E79.58189
G1 X108.575 Y93.669 E79.70122
G1 X107.586 Y93.884 E79.82267
G1 X106.516 Y94.188 E79.95615
G1 X105.565 Y94.531 E80.07747
G1 X104.713 Y94.899 E80.18884
G1 X103.812 Y95.353 E80.30991
G1 X102.937 Y95.862 E80.43138
G1 X102.029 Y96.475 E80.56285
G1 X101.311 Y97.032 E80.67189
G1 X100.538 Y97.703 E80.79473
G1 X99.755 Y98.479 E80.92701
G1 X99.087 Y99.237 E81.04825
G1 X98.527 Y99.958 E81.15781
G1 X97.945 Y100.804 E81.28103
G1 X97.384 Y101.743 E81.41229
G1 X96.924 Y102.645 E81.53379
G1 X96.522 Y103.574 E81.65526
G1 X96.208 Y104.447 E81.76659
G1 X95.898 Y105.495 E81.89774
G1 X95.676 Y106.483 E82.01925
G1 X95.534 Y107.383 E82.12859
G1 X95.423 Y108.489 E82.26198
G1 X95.392 Y109.500 E82.38335
G1 X95.420 Y110.428 E82.49476
G1 X95.518 Y111.517 E82.62597
G1 X95.676 Y112.517 E82.74746
G1 X95.898 Y113.503 E82.86874
G1 X96.156 Y114.395 E82.98017
G1 X96.521 Y115.425 E83.11130
G1 X96.924 Y116.355 E83.23293
G1 X97.345 Y117.182 E83.34429
G1 X97.897 Y118.126 E83.47551
G1 X98.419 Y118.894 E83.58695
G1 X99.085 Y119.761 E83.71814
G1 X99.700 Y120.459 E83.82977
G1 X100.398 Y121.164 E83.94882
G1 X101.167 Y121.850 E84.07248
G1 X101.948 Y122.463 E84.19162
G1 X102.029 Y122.525 E84.20387
G1 X102.781 Y123.037 E84.31304
G1 X103.665 Y123.565 E84.43660
G1 X104.635 Y124.067 E84.56766
G1 X105.489 Y124.436 E84.67930
G1 X106.515 Y124.811 E84.81038
G1 X107.408 Y125.071 E84.92199
G1 X108.392 Y125.296 E85.04312
G1 X109.472 Y125.472 E85.17443
G1 X110.397 Y125.560 E85.28593
G1 X111.088 Y125.587 E85.36892
G1 X111.483 Y125.599 E85.41634
G1 X112.502 Y125.568 E85.53867
G1 X113.508 Y125.473 E85.65993
G1 X114.507 Y125.315 E85.78130
G1 X115.396 Y125.116 E85.89062
G1 X116.465 Y124.812 E86.02399
G1 X117.339 Y124.498 E86.13543
G1 X118.268 Y124.101 E86.25666
G1 X119.246 Y123.609 E86.38804
G1 X120.046 Y123.137 E86.49950
G1 X120.953 Y122.525 E86.63080
G1 X121.672 Y121.968 E86.73994
G1 X122.512 Y121.237 E86.87357
G1 X123.228 Y120.521 E86.99508
G1 X123.897 Y119.763 E87.11640
G1 X124.455 Y119.042 E87.22580
G1 X125.038 Y118.196 E87.34909
G1 X125.598 Y117.258 E87.48019
G1 X126.022 Y116.429 E87.59192
G1 X126.426 Y115.504 E87.71305
G1 X126.802 Y114.476 E87.84440
G1 X127.062 Y113.583 E87.95601
G1 X127.305 Y112.518 E88.08709
G1 X127.465 Y111.518 E88.20862
G1 X127.559 Y110.512 E88.32987
G1 X127.591 Y109.500 E88.45137
G1 X127.562 Y108.573 E88.56266
G1 X127.465 Y107.484 E88.69386
G1 X127.319 Y106.566 E88.80540
G1 X127.086 Y105.498 E88.93658
G1 X126.803 Y104.525 E89.05818
G1 X126.460 Y103.574 E89.17949
G1 X126.093 Y102.722 E89.29081
G1 X125.600 Y101.745 E89.42213
G1 X125.085 Y100.873 E89.54366
G1 X124.562 Y100.106 E89.65506
G1 X123.898 Y99.239 E89.78611
G1 X123.228 Y98.479 E89.90769
G0 F12000 X128.578 Y95.390
G0 X129.099 Y93.869
G0 X136.100 Y84.951
G1 F1200 X136.100 Y138.049 E96.27945
G1 X134.300 Y138.049 E96.49545
G1 X134.300 Y130.049 E97.45545
G1 X88.700 Y130.049 E102.92745
G1 X88.700 Y138.049 E103.88745
G1 X86.900 Y138.049 E104.10345
G1 X86.900 Y84.951 E110.47521
G1 X136.100 Y84.951 E116.37921
G0 F12000 X127.671 Y123.005
G1 F1200 X127.132 Y122.898 E116.44515
G1 X126.583 Y122.936 E116.51119
G1 X126.064 Y123.114 E116.57703
G1 X125.608 Y123.420 E116.64293
G1 X125.246 Y123.834 E116.70892
G1 X125.005 Y124.328 E116.77488
G1 X124.898 Y124.867 E116.84082
G1 X124.936 Y125.416 E116.90686
G1 X125.114 Y125.935 E116.97270
G1 X125.420 Y126.391 E117.03860
G1 X125.834 Y126.753 E117.10459
G1 X126.328 Y126.994 E117.17055
G1 X126.867 Y127.101 E117.23649
G1 X127.416 Y127.063 E117.30253
G1 X127.935 Y126.885 E117.36837
G1 X128.391 Y126.579 E117.43427
G1 X128.753 Y126.165 E117.50026
G1 X128.994 Y125.671 E117.56622
G1 X129.101 Y125.132 E117.63216
G1 X129.063 Y124.583 E117.69820
G1 X128.885 Y124.064 E117.76404
G1 X128.579 Y123.608 E117.82994
G1 X128.165 Y123.246 E117.89593
G1 X127.671 Y123.005 E117.96189
G0 F12000 X118.268 Y124.101
G0 X113.508 Y125.472
G0 X108.392 Y125.296
G0 X98.102 Y124.867
G1 F1200 X97.995 Y124.328 E118.02783
G1 X97.754 Y123.834 E118.09379
G1 X97.392 Y123.420 E118.15979
G1 X96.936 Y123.114 E118.22569
G1 X96.417 Y122.936 E118.29153
G1 X95.868 Y122.898 E118.35756
G1 X95.329 Y123.005 E118.42351
G1 X94.835 Y123.246 E118.48946
G1 X94.421 Y123.608 E118.55546
G1 X94.115 Y124.064 E118.62136
G1 X93.937 Y124.583 E118.68720
G1 X93.899 Y125.132 E118.75324
G1 X94.006 Y125.671 E118.81918
G1 X94.247 Y126.165 E118.88514
G1 X94.609 Y126.579 E118.95113
G1 X95.065 Y126.885 E119.01703
G1 X95.584 Y127.063 E119.08287
G1 X96.133 Y127.101 E119.14891
G1 X96.672 Y126.994 E119.21485
G1 X97.166 Y126.753 E119.28081
G1 X97.580 Y126.391 E119.34680
G1 X97.886 Y125.935 E119.41270
G1 X98.064 Y125.416 E119.47854
G1 X98.102 Y124.867 E119.54458
G0 F12000 X95.421 Y110.427
G0 X95.899 Y105.495
G0 X95.868 Y96.102
G1 F1200 X96.417 Y96.064 E119.61062
G1 X96.936 Y95.886 E119.67646
G1 X97.392 Y95.580 E119.74235
G1 X97.754 Y95.166 E119.80835
G1 X97.995 Y94.672 E119.87431
G1 X98.102 Y94.133 E119.94025
G1 X98.064 Y93.584 E120.00629
G1 X97.886 Y93.065 E120.07213
G1 X97.580 Y92.609 E120.13803
G1 X97.166 Y92.247 E120.20402
G1 X96.672 Y92.006 E120.26998
G1 X96.133 Y91.899 E120.33592
G1 X95.584 Y91.937 E120.40196
G1 X95.065 Y92.115 E120.46780
G1 X94.609 Y92.421 E120.53370
G1 X94.247 Y92.835 E120.59969
G1 X94.006 Y93.329 E120.66565
G1 X93.899 Y93.868 E120.73159
G1 X93.937 Y94.417 E120.79763
G1 X94.115 Y94.936 E120.86347
G1 X94.421 Y95.392 E120.92937
G1 X94.835 Y95.754 E120.99536
G1 X95.329 Y95.995 E121.06132
G1 X95.868 Y96.102 E121.12726
G0 F12000 X95.893 Y95.699
;TYPE:WALL-OUTER
G1 F1200 X96.337 Y95.669 E121.18066
G1 X96.757 Y95.525 E121.23394
G1 X97.125 Y95.277 E121.28720
G1 X97.418 Y94.943 E121.34051
G1 X97.613 Y94.543 E121.39391
G1 X97.699 Y94.108 E121.44712
G1 X97.669 Y93.664 E121.50052
G1 X97.525 Y93.244 E121.55380
G1 X97.277 Y92.876 E121.60706
G1 X96.943 Y92.583 E121.66037
G1 X96.543 Y92.388 E121.71377
G1 X96.108 Y92.302 E121.76698
G1 X95.664 Y92.332 E121.82038
G1 X95.244 Y92.476 E121.87366
G1 X94.876 Y92.724 E121.92692
G1 X94.583 Y93.058 E121.98023
G1 X94.388 Y93.458 E122.03363
G1 X94.302 Y93.893 E122.08684
G1 X94.332 Y94.337 E122.14024
G1 X94.476 Y94.757 E122.19352
G1 X94.724 Y95.125 E122.24678
G1 X95.058 Y95.418 E122.30009
G1 X95.458 Y95.613 E122.35349
G1 X95.893 Y95.699 E122.40670
G0 F12000 X95.835 Y95.993
G0 X99.820 Y98.557
G0 X100.047 Y98.753
G1 F1200 X99.395 Y99.492 E122.52496
G1 X98.790 Y100.272 E122.64342
G1 X98.282 Y101.019 E122.75182
G1 X97.734 Y101.936 E122.88002
G1 X97.286 Y102.816 E122.99851
G1 X96.894 Y103.721 E123.11686
G1 X96.588 Y104.572 E123.22538
G1 X96.285 Y105.596 E123.35353
G1 X96.069 Y106.558 E123.47184
G1 X95.915 Y107.533 E123.59029
G1 X95.822 Y108.514 E123.70854
G1 X95.792 Y109.500 E123.82692
G1 X95.819 Y110.404 E123.93545
G1 X95.915 Y111.468 E124.06364
G1 X96.069 Y112.442 E124.18198
G1 X96.285 Y113.404 E124.30029
G1 X96.537 Y114.272 E124.40875
G1 X96.894 Y115.278 E124.53685
G1 X97.286 Y116.184 E124.65531
G1 X97.696 Y116.990 E124.76382
G1 X98.236 Y117.912 E124.89204
G1 X98.744 Y118.659 E125.00045
G1 X99.394 Y119.507 E125.12866
G1 X99.993 Y120.186 E125.23731
G1 X100.681 Y120.882 E125.35475
G1 X100.744 Y120.945 E125.36544
