;FLAVOR:UltiGCode
;TIME:13935
;MATERIAL:14926
;MATERIAL2:0
;NOZZLE_DIAMETER:0.400000
;NOZZLE_DIAMETER2:0.400000

;Layer count: 63
;LAYER:0
M107
G0 F12000 X29.728 Y23.990 Z0.300
G0 X30.141 Y26.897
;TYPE:SKIRT
G1 F1200 X29.728 Y23.990 E0.35234
G1 X58.922 Y19.863 E3.89045
G1 X59.501 Y23.549 E4.33820
G1 X59.617 Y24.274 E4.42630
G1 X60.253 Y28.303 E4.91577
G1 X60.377 Y28.952 E4.99506
G1 X61.248 Y33.507 E5.55156
G1 X61.398 Y34.180 E5.63431
G1 X62.416 Y38.707 E6.19111
G1 X63.752 Y43.868 E6.83085
G1 X63.944 Y44.523 E6.91275
G1 X63.943 Y44.523 E6.91287
G1 X65.248 Y48.966 E7.46856
G1 X65.427 Y49.513 E7.53762
G1 X65.656 Y50.209 E7.62554
G1 X66.924 Y54.063 E8.11241
G1 X68.517 Y58.425 E8.66967
G1 X68.516 Y58.425 E8.66979
G1 X68.746 Y59.053 E8.75004
G1 X70.738 Y64.007 E9.39078
G1 X72.887 Y68.889 E10.03087
G1 X74.888 Y73.069 E10.58698
G1 X75.173 Y73.664 E10.66615
G1 X75.507 Y74.310 E10.75342
G1 X75.780 Y74.834 E10.82432
G1 X77.649 Y78.431 E11.31075
G1 X80.260 Y83.084 E11.95101
G1 X83.019 Y87.649 E12.59109
G1 X85.538 Y91.531 E13.14641
G1 X85.539 Y91.531 E13.14653
G1 X85.924 Y92.123 E13.23127
G1 X86.300 Y92.664 E13.31033
G1 X88.944 Y96.461 E13.86555
G1 X89.728 Y97.515 E14.02319
G1 X92.148 Y100.761 E14.50904
G1 X92.577 Y101.301 E14.59180
G1 X95.469 Y104.932 E15.14884
G1 X95.911 Y105.453 E15.23083
G1 X98.927 Y108.997 E15.78926
G1 X102.497 Y112.930 E16.42666
G1 X102.975 Y113.424 E16.50915
G1 X106.613 Y117.181 E17.13671
G1 X106.718 Y117.283 E17.15428
G1 X107.142 Y117.694 E17.22514
G1 X110.043 Y120.503 E17.70971
G1 X113.496 Y123.634 E18.26905
G1 X113.992 Y124.085 E18.34950
G1 X114.518 Y124.533 E18.43241
G1 X118.054 Y127.540 E18.98941
G1 X118.590 Y127.966 E19.07157
G1 X122.242 Y130.875 E19.63185
G1 X126.477 Y134.029 E20.26550
G1 X127.078 Y134.448 E20.35342
G1 X127.559 Y134.784 E20.42383
G1 X127.559 Y134.783 E20.42395
G1 X130.892 Y137.102 E20.91119
G1 X131.458 Y137.469 E20.99214
G1 X135.345 Y139.992 E21.54822
G1 X139.329 Y142.399 E22.10678
G1 X139.918 Y142.755 E22.18937
G1 X144.551 Y145.353 E22.82678
G1 X145.164 Y145.671 E22.90965
G1 X149.289 Y147.813 E23.46740
G1 X149.798 Y148.058 E23.53519
G1 X150.453 Y148.371 E23.62231
G1 X154.108 Y150.122 E24.10864
G1 X154.738 Y150.399 E24.19122
G1 X158.988 Y152.269 E24.74841
G1 X163.299 Y154.000 E25.30587
G1 X163.937 Y154.257 E25.38841
G1 X168.934 Y156.081 E26.02675
G1 X173.979 Y157.739 E26.66401
G1 X178.477 Y159.060 E27.22656
G1 X179.142 Y159.255 E27.30972
G1 X179.788 Y159.422 E27.38979
G1 X184.290 Y160.586 E27.94780
G1 X188.817 Y161.602 E28.50455
G1 X189.488 Y161.753 E28.58708
G1 X194.046 Y162.622 E29.14390
G1 X194.719 Y162.751 E29.22613
G1 X195.387 Y162.856 E29.30727
G1 X203.137 Y164.079 E30.24878
G1 X199.618 Y188.992 E33.26802
G1 X199.510 Y189.753 E33.36025
G1 X199.019 Y193.270 E33.78638
G1 X196.107 Y192.859 E34.13929
G1 X194.660 Y195.609 E34.51218
G1 X193.410 Y197.982 E34.83403
G1 X193.169 Y198.442 E34.89635
G1 X190.253 Y203.064 E35.55215
G1 X184.685 Y202.049 E36.23132
G1 X182.022 Y201.558 E36.55626
G1 X180.929 Y196.207 E37.21164
G1 X180.485 Y192.630 E37.64418
G1 X180.249 Y190.722 E37.87488
G1 X177.289 Y195.390 E38.53817
G1 X174.011 Y199.763 E39.19399
G1 X168.545 Y198.302 E39.87294
G1 X165.930 Y197.603 E40.19775
G1 X165.336 Y192.729 E40.78696
G1 X165.337 Y192.729 E40.78708
G1 X165.269 Y192.178 E40.85370
G1 X165.032 Y186.608 E41.52271
G1 X161.677 Y191.061 E42.19176
G1 X159.774 Y193.213 E42.53648
G1 X158.057 Y195.153 E42.84737
G1 X155.508 Y194.248 E43.17195
G1 X150.175 Y192.350 E43.85123
G1 X149.979 Y187.443 E44.44054
G1 X149.955 Y186.892 E44.50673
G1 X150.054 Y184.286 E44.81967
G1 X150.106 Y182.902 E44.98587
G1 X150.164 Y181.368 E45.17008
G1 X149.573 Y182.033 E45.27684
G1 X146.940 Y184.999 E45.75277
G1 X146.495 Y185.499 E45.83309
G1 X144.424 Y187.492 E46.17800
G1 X142.555 Y189.289 E46.48913
G1 X134.927 Y185.859 E47.49277
G1 X135.124 Y180.950 E48.08233
G1 X135.147 Y180.396 E48.14886
G1 X135.575 Y176.799 E48.58355
G1 X135.640 Y176.256 E48.64917
G1 X135.639 Y176.256 E48.64929
G1 X135.805 Y174.865 E48.81740
G1 X135.139 Y175.503 E48.92807
G1 X134.681 Y175.940 E49.00404
G1 X133.984 Y176.609 E49.11997
G1 X131.781 Y178.719 E49.48602
G1 X129.556 Y180.539 E49.83097
G1 X127.547 Y182.180 E50.14225
G1 X125.176 Y180.872 E50.46720
G1 X120.220 Y178.144 E51.14606
G1 X120.814 Y173.269 E51.73539
G1 X120.881 Y172.719 E51.80187
G1 X121.472 Y169.784 E52.16114
G1 X121.671 Y168.805 E52.28103
G1 X121.974 Y167.303 E52.46490
G1 X118.207 Y170.369 E53.04774
G1 X117.689 Y170.791 E53.12792
G1 X113.193 Y173.899 E53.78380
G1 X110.933 Y172.409 E54.10863
G1 X106.212 Y169.289 E54.78769
G1 X107.306 Y163.935 E55.44345
G1 X108.307 Y160.451 E55.87844
G1 X108.845 Y158.578 E56.11229
G1 X108.085 Y159.101 E56.22300
G1 X106.890 Y159.923 E56.39705
G1 X104.683 Y161.442 E56.71855
G1 X104.254 Y161.737 E56.78103
G1 X101.767 Y163.175 E57.12577
G1 X99.522 Y164.473 E57.43696
G1 X92.937 Y159.314 E58.44079
G1 X94.304 Y154.596 E59.03023
G1 X94.459 Y154.064 E59.09673
G1 X95.378 Y151.626 E59.40938
G1 X95.867 Y150.329 E59.57572
G1 X96.408 Y148.893 E59.75986
G1 X95.637 Y149.337 E59.86662
G1 X92.199 Y151.315 E60.34259
G1 X91.619 Y151.649 E60.42291
G1 X89.022 Y152.882 E60.76789
G1 X86.684 Y153.997 E61.07872
G1 X82.526 Y150.162 E61.75750
G1 X82.525 Y150.163 E61.75767
G1 X80.530 Y148.326 E62.08310
G1 X82.274 Y143.732 E62.67277
G1 X82.471 Y143.213 E62.73939
G1 X84.018 Y139.935 E63.17435
G1 X84.253 Y139.439 E63.24021
G1 X84.870 Y138.133 E63.41354
G1 X80.277 Y140.302 E64.02307
G1 X80.277 Y140.301 E64.02319
G1 X79.807 Y140.524 E64.08562
G1 X77.125 Y141.542 E64.42986
G1 X74.700 Y142.467 E64.74131
G1 X69.025 Y136.315 E65.74568
G1 X71.133 Y131.878 E66.33516
G1 X71.371 Y131.377 E66.40172
G1 X73.359 Y127.919 E66.88036
G1 X74.125 Y126.587 E67.06475
G1 X73.291 Y126.902 E67.17173
G1 X72.330 Y127.264 E67.29496
G1 X68.954 Y128.538 E67.72797
G1 X63.705 Y130.062 E68.38386
G1 X58.545 Y123.476 E69.38786
G1 X61.280 Y118.744 E70.04372
G1 X63.334 Y115.757 E70.47873
G1 X63.643 Y115.308 E70.54413
G1 X64.438 Y114.153 E70.71239
G1 X63.090 Y114.540 E70.88069
G1 X59.083 Y115.693 E71.38104
G1 X56.267 Y116.269 E71.72596
G1 X53.725 Y116.788 E72.03729
G1 X52.233 Y114.526 E72.36246
G1 X49.114 Y109.807 E73.04125
G1 X52.223 Y105.312 E73.69710
G1 X53.868 Y103.291 E74.00980
G1 X54.741 Y102.217 E74.17589
G1 X55.711 Y101.026 E74.36021
G1 X54.364 Y101.298 E74.52512
G1 X53.829 Y101.405 E74.59059
G1 X50.294 Y102.120 E75.02338
G1 X44.868 Y102.781 E75.67931
G1 X42.140 Y97.824 E76.35828
G1 X42.141 Y97.824 E76.35840
G1 X40.832 Y95.454 E76.68330
G1 X43.942 Y91.651 E77.27282
G1 X44.293 Y91.221 E77.33943
G1 X46.800 Y88.603 E77.77440
G1 X47.177 Y88.208 E77.83993
G1 X48.147 Y87.195 E78.00823
G1 X45.641 Y87.494 E78.31108
G1 X43.129 Y87.794 E78.61467
G1 X43.129 Y87.793 E78.61479
G1 X42.613 Y87.855 E78.67715
G1 X37.150 Y88.077 E79.33325
G1 X36.040 Y85.605 E79.65843
G1 X33.720 Y80.445 E80.33733
G1 X37.125 Y76.910 E80.92631
G1 X37.124 Y76.909 E80.92648
G1 X37.509 Y76.508 E80.99319
G1 X41.641 Y72.837 E81.65645
G1 X40.268 Y72.890 E81.82134
G1 X39.727 Y72.910 E81.88630
G1 X36.119 Y73.047 E82.31957
G1 X30.658 Y72.829 E82.97541
G1 X27.852 Y64.947 E83.97940
G1 X31.530 Y61.694 E84.56862
G1 X31.945 Y61.327 E84.63510
G1 X34.839 Y59.144 E85.07010
G1 X35.277 Y58.815 E85.13584
G1 X36.396 Y57.972 E85.30396
G1 X35.473 Y57.933 E85.41482
G1 X34.503 Y57.891 E85.53133
G1 X33.482 Y57.848 E85.65396
G1 X30.828 Y57.735 E85.97273
G1 X27.974 Y57.389 E86.31771
G1 X25.398 Y57.074 E86.62914
G1 X24.702 Y54.455 E86.95432
G1 X24.703 Y54.455 E86.95444
G1 X23.240 Y48.994 E87.63287
G1 X27.613 Y45.715 E88.28877
G1 X29.814 Y44.319 E88.60154
G1 X32.279 Y42.756 E88.95179
G1 X31.396 Y42.647 E89.05855
G1 X26.795 Y42.076 E89.61491
G1 X21.441 Y40.982 E90.27066
G1 X20.424 Y35.418 E90.94940
G1 X19.933 Y32.756 E91.27423
G1 X24.558 Y29.837 E91.93053
G1 X30.141 Y26.897 E92.68770
G10
G1 Z0.400
G0 F12000 X33.317 Y29.972
;TYPE:WALL-INNER
G1 Z0.300
G11
G1 F1200 X33.901 Y29.720 E92.76403
G1 X34.467 Y28.961 E92.87764
G1 X34.561 Y28.157 E92.97478
G1 X34.476 Y27.561 E93.04702
G1 X55.415 Y24.600 E95.58470
G1 X56.112 Y29.006 E96.12000
G1 X57.137 Y34.370 E96.77532
G1 X58.334 Y39.699 E97.43074
G1 X59.703 Y44.986 E98.08610
G1 X61.241 Y50.225 E98.74131
G1 X61.666 Y51.521 E98.90498
G1 X62.955 Y55.440 E99.40005
G1 X64.829 Y60.570 E100.05543
G1 X66.866 Y65.637 E100.71077
G1 X69.066 Y70.636 E101.36617
G1 X71.425 Y75.560 E102.02136
G1 X71.781 Y76.250 E102.11453
G1 X72.054 Y76.773 E102.18533
G1 X73.955 Y80.431 E102.68002
G1 X76.628 Y85.194 E103.33544
G1 X79.452 Y89.868 E103.99074
G1 X82.017 Y93.821 E104.55622
G1 X82.426 Y94.449 E104.64615
G1 X85.546 Y98.931 E105.30147
G1 X88.825 Y103.332 E105.96006
G1 X92.227 Y107.604 E106.61539
G1 X95.766 Y111.764 E107.27079
G1 X99.437 Y115.808 E107.92620
G1 X103.109 Y119.600 E108.55962
G1 X103.139 Y119.664 E108.56810
G1 X107.183 Y123.579 E109.24354
G1 X111.228 Y127.249 E109.89895
G1 X115.389 Y130.787 E110.55437
G1 X119.661 Y134.188 E111.20962
G1 X124.040 Y137.450 E111.86487
G1 X128.545 Y140.586 E112.52356
G1 X133.126 Y143.559 E113.17890
G1 X137.801 Y146.382 E113.83424
G1 X142.565 Y149.054 E114.48970
G1 X147.411 Y151.571 E115.14499
G1 X147.979 Y151.844 E115.22061
G1 X152.362 Y153.942 E115.80372
G1 X157.360 Y156.141 E116.45896
G1 X162.428 Y158.177 E117.11437
G1 X167.558 Y160.050 E117.76971
G1 X172.746 Y161.755 E118.42503
G1 X178.013 Y163.301 E119.08374
G1 X183.301 Y164.668 E119.73916
G1 X188.629 Y165.864 E120.39443
G1 X193.993 Y166.888 E121.04973
G1 X198.400 Y167.584 E121.58513
G1 X195.442 Y188.524 E124.12287
G1 X194.847 Y188.440 E124.19498
G1 X194.044 Y188.532 E124.29197
G1 X193.285 Y189.099 E124.40566
G1 X193.030 Y189.686 E124.48246
G1 X189.533 Y196.333 E125.38375
G1 X188.214 Y198.423 E125.68032
G1 X185.570 Y197.940 E126.00285
G1 X185.074 Y195.513 E126.30011
G1 X184.153 Y188.073 E127.19972
G1 X184.123 Y187.427 E127.27733
G1 X183.612 Y186.628 E127.39114
G1 X182.892 Y186.256 E127.48839
G1 X180.281 Y185.671 E127.80948
G1 X179.768 Y185.555 E127.87259
G1 X178.960 Y185.584 E127.96961
G1 X178.156 Y186.086 E128.08336
G1 X177.864 Y186.640 E128.15851
G1 X173.825 Y193.009 E129.06351
G1 X172.353 Y194.973 E129.35804
G1 X169.756 Y194.279 E129.68062
G1 X169.458 Y191.829 E129.97678
G1 X169.180 Y185.309 E130.75989
G1 X169.156 Y184.761 E130.82572
G1 X169.137 Y184.320 E130.87869
G1 X169.160 Y183.682 E130.95530
G1 X168.714 Y182.846 E131.06900
G1 X168.028 Y182.417 E131.16609
G1 X165.257 Y181.557 E131.51426
G1 X164.942 Y181.458 E131.55388
G1 X164.132 Y181.421 E131.65118
G1 X163.292 Y181.858 E131.76481
G1 X162.947 Y182.395 E131.84140
G1 X158.416 Y188.410 E132.74507
G1 X156.790 Y190.247 E133.03946
G1 X154.258 Y189.346 E133.36197
G1 X154.175 Y187.274 E133.61081
G1 X154.159 Y186.882 E133.65789
G1 X154.426 Y179.818 E134.50617
G1 X154.444 Y179.370 E134.55998
G1 X154.517 Y178.736 E134.63656
G1 X154.142 Y177.866 E134.75024
G1 X153.493 Y177.384 E134.84725
G1 X150.520 Y176.189 E135.23175
G1 X149.717 Y176.089 E135.32886
G1 X148.845 Y176.455 E135.44234
G1 X148.460 Y176.962 E135.51873
G1 X143.463 Y182.588 E136.42171
G1 X141.690 Y184.295 E136.71705
G1 X139.237 Y183.192 E137.03980
G1 X139.320 Y181.123 E137.28827
G1 X139.336 Y180.734 E137.33499
G1 X140.225 Y173.267 E138.23736
G1 X140.350 Y172.638 E138.31432
G1 X140.046 Y171.740 E138.42809
G1 X139.436 Y171.207 E138.52529
G1 X136.836 Y169.910 E138.87396
G1 X136.543 Y169.764 E138.91324
G1 X135.750 Y169.598 E139.01046
G1 X134.852 Y169.895 E139.12396
G1 X134.426 Y170.369 E139.20044
G1 X128.993 Y175.573 E140.10323
G1 X127.089 Y177.131 E140.39845
G1 X124.733 Y175.834 E140.72118
G1 X125.031 Y173.383 E141.01747
G1 X126.429 Y166.457 E141.86535
G1 X126.518 Y166.018 E141.91910
G1 X126.692 Y165.405 E141.99557
G1 X126.462 Y164.487 E142.10913
G1 X125.898 Y163.905 E142.20639
G1 X123.156 Y162.250 E142.59072
G1 X122.380 Y162.020 E142.68784
G1 X121.459 Y162.243 E142.80155
G1 X120.995 Y162.683 E142.87829
G1 X115.168 Y167.428 E143.78004
G1 X113.137 Y168.831 E144.07625
G1 X110.895 Y167.350 E144.39869
G1 X111.389 Y164.932 E144.69485
G1 X113.466 Y157.706 E145.59708
G1 X113.687 Y157.110 E145.67336
G1 X113.531 Y156.176 E145.78699
G1 X113.016 Y155.553 E145.88398
G1 X110.659 Y153.856 E146.23251
G1 X110.392 Y153.663 E146.27204
G1 X109.637 Y153.372 E146.36914
G1 X108.702 Y153.520 E146.48273
G1 X108.207 Y153.918 E146.55895
G1 X102.012 Y158.181 E147.46136
G1 X99.877 Y159.416 E147.75734
G1 X97.760 Y157.757 E148.08009
G1 X98.336 Y155.769 E148.32846
G1 X98.445 Y155.398 E148.37486
G1 X100.942 Y148.774 E149.22434
G1 X101.098 Y148.359 E149.27754
G1 X101.370 Y147.777 E149.35464
G1 X101.289 Y146.833 E149.46833
G1 X100.826 Y146.170 E149.56537
G1 X98.386 Y144.096 E149.94965
G1 X97.656 Y143.744 E150.04691
G1 X96.711 Y143.818 E150.16065
G1 X96.179 Y144.181 E150.23794
G1 X90.104 Y147.674 E151.07885
G1 X89.668 Y147.926 E151.13928
G1 X87.442 Y148.983 E151.43499
G1 X85.465 Y147.161 E151.75761
G1 X86.341 Y144.854 E152.05374
G1 X87.815 Y141.731 E152.46814
G1 X88.049 Y141.236 E152.53385
G1 X89.357 Y138.466 E152.90144
G1 X89.573 Y138.017 E152.96123
G1 X89.866 Y137.505 E153.03202
G1 X89.862 Y136.555 E153.14602
G1 X89.453 Y135.857 E153.24310
G1 X88.438 Y134.844 E153.41518
G1 X88.412 Y134.790 E153.42238
G1 X87.162 Y133.541 E153.63442
G1 X86.463 Y133.132 E153.73161
G1 X85.516 Y133.128 E153.84525
G1 X84.956 Y133.447 E153.92259
G1 X78.166 Y136.654 E154.82370
G1 X75.859 Y137.529 E155.11978
G1 X74.036 Y135.553 E155.44240
G1 X74.925 Y133.683 E155.69086
G1 X75.095 Y133.327 E155.73821
G1 X78.838 Y126.815 E156.63953
G1 X79.203 Y126.281 E156.71715
G1 X79.272 Y125.337 E156.83074
G1 X78.923 Y124.610 E156.92751
G1 X76.847 Y122.170 E157.31194
G1 X76.183 Y121.706 E157.40915
G1 X75.240 Y121.626 E157.52272
G1 X74.665 Y121.894 E157.59884
G1 X67.617 Y124.553 E158.50279
G1 X65.261 Y125.237 E158.79719
G1 X63.602 Y123.120 E159.11994
G1 X64.833 Y120.991 E159.41505
G1 X68.825 Y115.185 E160.26057
G1 X69.307 Y114.532 E160.35796
G1 X69.497 Y114.292 E160.39470
G1 X69.644 Y113.360 E160.50792
G1 X69.353 Y112.605 E160.60501
G1 X67.463 Y109.980 E160.99317
G1 X66.838 Y109.466 E161.09027
G1 X65.904 Y109.309 E161.20393
G1 X65.299 Y109.535 E161.28143
G1 X58.086 Y111.609 E162.18206
G1 X55.667 Y112.104 E162.47835
G1 X54.184 Y109.861 E162.80102
G1 X55.581 Y107.840 E163.09584
G1 X60.329 Y102.004 E163.99866
G1 X60.772 Y101.540 E164.07564
G1 X60.993 Y100.617 E164.18953
G1 X60.765 Y99.843 E164.28636
G1 X59.107 Y97.102 E164.67077
G1 X58.527 Y96.537 E164.76793
G1 X57.608 Y96.307 E164.88162
G1 X56.993 Y96.481 E164.95831
G1 X53.534 Y97.181 E165.38181
G1 X53.001 Y97.288 E165.44704
G1 X49.630 Y97.970 E165.85976
G1 X47.179 Y98.268 E166.15605
G1 X45.883 Y95.912 E166.47872
G1 X47.439 Y94.008 E166.77379
G1 X52.642 Y88.574 E167.67658
G1 X53.116 Y88.148 E167.75306
G1 X53.413 Y87.248 E167.86679
G1 X53.246 Y86.456 E167.96392
G1 X51.951 Y83.860 E168.31204
G1 X51.802 Y83.563 E168.35192
G1 X51.270 Y82.956 E168.44877
G1 X50.373 Y82.650 E168.56251
G1 X49.743 Y82.775 E168.63958
G1 X42.275 Y83.666 E169.54210
G1 X39.817 Y83.766 E169.83730
G1 X38.715 Y81.313 E170.16000
G1 X40.421 Y79.540 E170.45526
G1 X46.046 Y74.541 E171.35830
G1 X46.552 Y74.157 E171.43452
G1 X46.921 Y73.284 E171.54826
G1 X46.819 Y72.481 E171.64539
G1 X45.624 Y69.510 E172.02967
G1 X45.142 Y68.859 E172.12687
G1 X44.272 Y68.484 E172.24056
G1 X43.638 Y68.557 E172.31714
G1 X40.110 Y68.693 E172.74081
G1 X39.568 Y68.713 E172.80590
G1 X36.124 Y68.844 E173.21948
G1 X33.662 Y68.746 E173.51515
G1 X32.760 Y66.212 E173.83792
G1 X34.605 Y64.581 E174.13343
G1 X40.606 Y60.057 E175.03525
G1 X41.148 Y59.711 E175.11242
G1 X41.585 Y58.870 E175.22615
