;FLAVOR:UltiGCode
;TIME:13740
;MATERIAL:14712
;MATERIAL2:0
;NOZZLE_DIAMETER:0.400000
;NOZZLE_DIAMETER2:0.400000

;Layer count: 63
;LAYER:0
M107
G0 F12000 X10.644 Y148.212 Z0.300
;TYPE:SKIRT
G1 F1200 X14.378 Y148.301 E0.44821
G1 X19.164 Y148.418 E1.02270
G1 X24.509 Y148.374 E1.66412
G1 X29.132 Y148.188 E2.21933
G1 X29.794 Y148.161 E2.29884
G1 X35.128 Y147.774 E2.94060
G1 X35.737 Y147.710 E3.01408
G1 X35.737 Y147.711 E3.01420
G1 X39.891 Y147.275 E3.51542
G1 X44.115 Y146.719 E4.02667
G1 X44.115 Y146.720 E4.02679
G1 X44.668 Y146.647 E4.09373
G1 X49.982 Y145.772 E4.73999
G1 X55.161 Y144.748 E5.37350
G1 X59.704 Y143.697 E5.93306
G1 X60.355 Y143.546 E6.01326
G1 X64.856 Y142.350 E6.57212
G1 X65.535 Y142.169 E6.65645
G1 X66.054 Y142.015 E6.72141
G1 X70.651 Y140.632 E7.29747
G1 X75.043 Y139.156 E7.85348
G1 X75.043 Y139.155 E7.85360
G1 X75.711 Y138.930 E7.93818
G1 X76.328 Y138.701 E8.01716
G1 X76.328 Y138.700 E8.01728
G1 X80.693 Y137.073 E8.57628
G1 X85.590 Y135.067 E9.21132
G1 X89.848 Y133.161 E9.77113
G1 X90.470 Y132.883 E9.85289
G1 X90.984 Y132.634 E9.92142
G1 X95.292 Y130.535 E10.49648
G1 X99.390 Y128.372 E11.05254
G1 X99.985 Y128.057 E11.13333
G1 X104.617 Y125.420 E11.77293
G1 X108.579 Y122.990 E12.33067
G1 X109.172 Y122.625 E12.41423
G1 X113.591 Y119.716 E13.04909
G1 X114.042 Y119.398 E13.11531
G1 X117.965 Y116.629 E13.69153
G1 X122.202 Y113.428 E14.32876
G1 X125.821 Y110.509 E14.88670
G1 X126.353 Y110.080 E14.96871
G1 X130.393 Y106.598 E15.60872
G1 X133.821 Y103.445 E16.16763
G1 X134.337 Y102.971 E16.25171
G1 X134.772 Y102.543 E16.32494
G1 X137.704 Y99.666 E16.81787
G1 X138.144 Y99.234 E16.89186
G1 X138.598 Y98.760 E16.97063
G1 X138.597 Y98.759 E16.97080
G1 X141.811 Y95.395 E17.52910
G1 X145.356 Y91.437 E18.16672
G1 X148.801 Y87.333 E18.80971
G1 X149.203 Y86.819 E18.88801
G1 X152.090 Y83.146 E19.44863
G1 X152.406 Y82.714 E19.51286
G1 X155.254 Y78.839 E20.08994
G1 X158.255 Y74.466 E20.72638
G1 X160.760 Y70.550 E21.28422
G1 X161.115 Y69.997 E21.36308
G1 X163.860 Y65.385 E22.00713
G1 X166.110 Y61.311 E22.56561
G1 X166.451 Y60.696 E22.65000
G1 X166.679 Y60.245 E22.71064
G1 X168.552 Y56.579 E23.20465
G1 X168.867 Y55.965 E23.28746
G1 X170.842 Y51.769 E23.84397
G1 X171.139 Y51.140 E23.92744
G1 X173.243 Y46.272 E24.56383
G1 X175.201 Y41.306 E25.20440
G1 X178.071 Y33.280 E26.22724
G1 X200.001 Y40.727 E29.00643
G1 X200.830 Y41.010 E29.11155
G1 X205.985 Y42.759 E29.76478
G1 X205.042 Y45.541 E30.11728
G1 X207.142 Y47.209 E30.43910
G1 X207.903 Y47.813 E30.55569
G1 X209.981 Y49.466 E30.87432
G1 X213.982 Y53.189 E31.53015
G1 X210.974 Y60.998 E32.53435
G1 X206.069 Y61.068 E33.12301
G1 X205.512 Y61.077 E33.18986
G1 X202.908 Y60.911 E33.50297
G1 X202.367 Y60.877 E33.56802
G1 X201.370 Y60.812 E33.68791
G1 X199.994 Y60.724 E33.85337
G1 X204.030 Y64.500 E34.51661
G1 X207.717 Y68.533 E35.17233
G1 X204.092 Y76.074 E36.17637
G1 X199.122 Y75.745 E36.77408
G1 X198.028 Y75.625 E36.90614
G1 X194.510 Y75.113 E37.33275
G1 X193.123 Y74.911 E37.50095
G1 X196.873 Y79.035 E38.16983
G1 X200.222 Y83.355 E38.82576
G1 X198.855 Y85.692 E39.15066
G1 X196.002 Y90.576 E39.82941
G1 X191.142 Y89.857 E40.41895
G1 X190.594 Y89.776 E40.48543
G1 X187.525 Y89.074 E40.86322
G1 X185.206 Y88.543 E41.14870
G1 X188.584 Y92.917 E41.81189
G1 X191.576 Y97.491 E42.46777
G1 X186.787 Y104.352 E43.47182
G1 X182.000 Y103.244 E44.06144
G1 X181.461 Y103.119 E44.12784
G1 X176.147 Y101.442 E44.79652
G1 X177.740 Y103.890 E45.14700
G1 X179.186 Y106.115 E45.46543
G1 X181.800 Y110.916 E46.12141
G1 X176.473 Y117.364 E47.12507
G1 X171.265 Y115.710 E47.78079
G1 X168.491 Y114.581 E48.14019
G1 X167.569 Y114.206 E48.25963
G1 X166.145 Y113.627 E48.44409
G1 X168.777 Y118.486 E49.10722
G1 X170.994 Y123.481 E49.76301
G1 X167.053 Y127.540 E50.44190
G1 X165.165 Y129.483 E50.76701
G1 X160.109 Y127.412 E51.42265
G1 X155.132 Y124.903 E52.09149
G1 X157.381 Y130.003 E52.76036
G1 X159.189 Y135.160 E53.41613
G1 X152.895 Y140.673 E54.42017
G1 X148.514 Y138.451 E55.00965
G1 X148.020 Y138.199 E55.07619
G1 X145.465 Y136.642 E55.43524
G1 X143.302 Y135.323 E55.73925
G1 X145.119 Y140.543 E56.40251
G1 X146.508 Y145.830 E57.05848
G1 X141.968 Y149.199 E57.73690
G1 X141.968 Y149.200 E57.73702
G1 X139.793 Y150.819 E58.06239
G1 X135.131 Y147.962 E58.71853
G1 X132.196 Y145.831 E59.15377
G1 X131.752 Y145.507 E59.21973
G1 X130.658 Y144.713 E59.38194
G1 X131.137 Y146.554 E59.61021
G1 X132.049 Y150.064 E60.04540
G1 X133.005 Y155.446 E60.70135
G1 X130.707 Y156.879 E61.02633
G1 X130.707 Y156.878 E61.02645
G1 X125.908 Y159.875 E61.70541
G1 X121.941 Y156.978 E62.29487
G1 X121.495 Y156.653 E62.36109
G1 X119.515 Y154.956 E62.67402
G1 X118.757 Y154.305 E62.79392
G1 X117.299 Y153.054 E63.02446
G1 X118.253 Y158.497 E63.68757
G1 X118.775 Y163.940 E64.34373
G1 X116.368 Y165.183 E64.66881
G1 X111.343 Y167.783 E65.34775
G1 X107.624 Y164.577 E65.93696
G1 X107.204 Y164.216 E66.00342
G1 X103.280 Y160.260 E66.67207
G1 X103.796 Y165.809 E67.34082
G1 X103.877 Y171.276 E67.99693
G1 X101.375 Y172.321 E68.32231
G1 X96.160 Y174.506 E69.00082
G1 X92.321 Y170.617 E69.65657
G1 X90.639 Y168.624 E69.96952
G1 X89.995 Y167.859 E70.08952
G1 X88.757 Y166.391 E70.31996
G1 X88.826 Y171.918 E70.98325
G1 X88.467 Y177.375 E71.63951
G1 X85.891 Y178.215 E71.96465
G1 X80.515 Y179.974 E72.64342
G1 X77.357 Y176.213 E73.23274
G1 X77.000 Y175.788 E73.29935
G1 X73.762 Y171.254 E73.96793
G1 X73.382 Y176.814 E74.63669
G1 X72.582 Y182.220 E75.29247
G1 X67.081 Y183.540 E75.97133
G1 X64.449 Y184.174 E76.29620
G1 X61.604 Y180.169 E76.88572
G1 X61.283 Y179.718 E76.95215
G1 X58.444 Y174.974 E77.61558
G1 X57.624 Y180.440 E78.27884
G1 X56.394 Y185.765 E78.93467
G1 X51.525 Y186.526 E79.52604
G1 X51.525 Y186.525 E79.52616
G1 X48.976 Y186.926 E79.83580
G1 X46.204 Y182.336 E80.47925
G1 X45.918 Y181.860 E80.54589
G1 X43.440 Y176.921 E81.20898
G1 X43.358 Y177.284 E81.25364
G1 X42.216 Y182.311 E81.87225
G1 X40.466 Y187.934 E82.57893
G1 X32.887 Y188.547 E83.49138
G1 X30.695 Y184.153 E84.08063
G1 X30.447 Y183.657 E84.14718
G1 X28.374 Y178.533 E84.81047
G1 X27.800 Y180.363 E85.04062
G1 X26.721 Y183.806 E85.47360
G1 X24.683 Y188.877 E86.12942
G1 X16.316 Y188.877 E87.13346
G1 X14.278 Y183.806 E87.78929
G1 X12.390 Y177.784 E88.54661
G1 X9.457 Y177.652 E88.89892
G1 X10.644 Y148.212 E92.43459
G10
G1 Z0.400
G0 F12000 X14.674 Y152.510
;TYPE:WALL-INNER
G1 Z0.300
G11
G1 F1200 X19.134 Y152.618 E92.96995
G1 X24.595 Y152.574 E93.62529
G1 X30.052 Y152.354 E94.28066
G1 X35.499 Y151.958 E94.93603
G1 X40.414 Y151.442 E95.52907
G1 X45.314 Y150.797 E96.12214
G1 X50.703 Y149.910 E96.77752
G1 X56.061 Y148.851 E97.43292
G1 X61.381 Y147.620 E98.08819
G1 X66.658 Y146.217 E98.74343
G1 X67.262 Y146.037 E98.81906
G1 X71.916 Y144.637 E99.40226
G1 X77.093 Y142.897 E100.05765
G1 X82.210 Y140.991 E100.71291
G1 X87.264 Y138.920 E101.36833
G1 X92.247 Y136.689 E102.02349
G1 X92.814 Y136.415 E102.09905
G1 X97.183 Y134.285 E102.68232
G1 X102.013 Y131.736 E103.33768
G1 X106.759 Y129.033 E103.99309
G1 X111.413 Y126.178 E104.64828
G1 X115.974 Y123.176 E105.30352
G1 X120.434 Y120.027 E105.95868
G1 X124.791 Y116.736 E106.61390
G1 X129.042 Y113.307 E107.26930
G1 X133.179 Y109.742 E107.92463
G1 X137.217 Y106.029 E108.58290
G1 X137.714 Y105.540 E108.66657
G1 X141.117 Y102.202 E109.23859
G1 X144.890 Y98.253 E109.89399
G1 X148.534 Y94.185 E110.54937
G1 X152.044 Y90.002 E111.20463
G1 X155.420 Y85.708 E111.86010
G1 X158.669 Y81.285 E112.51867
G1 X161.759 Y76.783 E113.17392
G1 X164.702 Y72.182 E113.82932
G1 X167.496 Y67.490 E114.48463
G1 X169.785 Y63.346 E115.05273
G1 X170.150 Y62.688 E115.14302
G1 X170.421 Y62.151 E115.21521
G1 X172.635 Y57.822 E115.79868
G1 X174.962 Y52.880 E116.45418
G1 X177.128 Y47.868 E117.10938
G1 X179.132 Y42.787 E117.76481
G1 X180.635 Y38.587 E118.30011
G1 X198.648 Y44.703 E120.58286
G1 X199.480 Y44.987 E120.68836
G1 X200.659 Y45.387 E120.83776
G1 X200.466 Y45.957 E120.90998
G1 X200.409 Y46.762 E121.00682
G1 X200.823 Y47.616 E121.12070
G1 X201.347 Y47.969 E121.19652
G1 X204.531 Y50.499 E121.68454
G1 X205.291 Y51.102 E121.80096
G1 X207.241 Y52.653 E122.09995
G1 X209.042 Y54.329 E122.39517
G1 X208.075 Y56.839 E122.71795
G1 X206.002 Y56.868 E122.96674
G1 X205.611 Y56.874 E123.01366
G1 X203.175 Y56.719 E123.30657
G1 X202.634 Y56.685 E123.37162
G1 X198.560 Y56.424 E123.86150
G1 X197.781 Y56.349 E123.95542
G1 X197.475 Y56.305 E123.99251
G1 X196.597 Y56.660 E124.10616
G1 X196.098 Y57.296 E124.20317
G1 X194.827 Y60.236 E124.58752
G1 X194.705 Y61.035 E124.68451
G1 X195.050 Y61.918 E124.79828
G1 X195.556 Y62.323 E124.87605
G1 X201.036 Y67.451 E125.77666
G1 X202.702 Y69.272 E126.07284
G1 X201.537 Y71.696 E126.39557
G1 X199.488 Y71.560 E126.64199
G1 X198.571 Y71.459 E126.75270
G1 X191.632 Y70.450 E127.59413
G1 X191.014 Y70.310 E127.67017
G1 X190.110 Y70.593 E127.78384
G1 X189.562 Y71.187 E127.88082
G1 X188.043 Y74.043 E128.26900
G1 X187.859 Y74.830 E128.36599
G1 X188.130 Y75.737 E128.47958
G1 X188.590 Y76.170 E128.55539
G1 X193.657 Y81.742 E129.45916
G1 X195.164 Y83.685 E129.75423
G1 X193.808 Y86.006 E130.07680
G1 X191.377 Y85.647 E130.37168
G1 X184.476 Y84.067 E131.22123
G1 X184.001 Y83.955 E131.27979
G1 X183.431 Y83.778 E131.35141
G1 X182.508 Y83.985 E131.46493
G1 X181.912 Y84.533 E131.56208
G1 X180.186 Y87.231 E131.94642
G1 X179.937 Y88.001 E132.04354
G1 X180.135 Y88.927 E132.15717
G1 X180.566 Y89.405 E132.23440
G1 X185.162 Y95.358 E133.13689
G1 X186.507 Y97.415 E133.43181
G1 X184.968 Y99.620 E133.75449
G1 X182.575 Y99.066 E134.04924
G1 X175.391 Y96.800 E134.95319
G1 X174.805 Y96.563 E135.02905
G1 X173.866 Y96.697 E135.14287
G1 X173.230 Y97.196 E135.23987
G1 X171.272 Y99.771 E135.62806
G1 X170.964 Y100.517 E135.72491
G1 X171.086 Y101.457 E135.83865
G1 X171.473 Y101.960 E135.91481
G1 X175.581 Y108.276 E136.81894
G1 X176.754 Y110.430 E137.11327
G1 X175.041 Y112.502 E137.43587
G1 X172.692 Y111.756 E137.73163
G1 X165.727 Y108.923 E138.63392
G1 X165.157 Y108.638 E138.71040
G1 X164.211 Y108.695 E138.82412
G1 X163.537 Y109.141 E138.92111
G1 X161.400 Y111.527 E139.30548
G1 X161.031 Y112.245 E139.40235
G1 X161.077 Y113.191 E139.51600
G1 X161.431 Y113.741 E139.59449
G1 X165.002 Y120.335 E140.49435
G1 X166.004 Y122.591 E140.79058
G1 X164.130 Y124.521 E141.11339
G1 X161.856 Y123.589 E141.40830
G1 X155.539 Y120.405 E142.25719
G1 X155.092 Y120.175 E142.31751
G1 X154.590 Y119.871 E142.38794
G1 X153.642 Y119.853 E142.50172
G1 X152.935 Y120.242 E142.59855
G1 X151.774 Y121.345 E142.79072
G1 X150.590 Y122.470 E142.98671
G1 X150.164 Y123.157 E143.08371
G1 X150.134 Y124.104 E143.19741
G1 X150.439 Y124.671 E143.27467
G1 X153.470 Y131.542 E144.17585
G1 X154.286 Y133.871 E144.47199
G1 X152.264 Y135.643 E144.79462
G1 X150.416 Y134.706 E145.04325
G1 X150.067 Y134.528 E145.09027
G1 X144.035 Y130.851 E145.93799
G1 X143.603 Y130.583 E145.99900
G1 X143.129 Y130.240 E146.06921
G1 X142.186 Y130.145 E146.18294
G1 X141.450 Y130.475 E146.27973
G1 X138.957 Y132.488 E146.66424
G1 X138.475 Y133.140 E146.76154
G1 X138.372 Y134.081 E146.87513
G1 X138.629 Y134.672 E146.95247
G1 X141.099 Y141.767 E147.85399
G1 X141.724 Y144.150 E148.14962
G1 X139.564 Y145.753 E148.47240
G1 X137.460 Y144.463 E148.76856
G1 X134.667 Y142.435 E149.18275
G1 X134.224 Y142.112 E149.24854
G1 X131.384 Y140.049 E149.66977
G1 X130.894 Y139.633 E149.74690
G1 X129.963 Y139.462 E149.86049
G1 X129.201 Y139.733 E149.95754
G1 X126.554 Y141.538 E150.34200
G1 X126.023 Y142.149 E150.43914
G1 X125.844 Y143.078 E150.55267
G1 X126.050 Y143.682 E150.62925
G1 X126.298 Y144.638 E150.74777
G1 X127.942 Y150.959 E151.53152
G1 X128.373 Y153.385 E151.82720
G1 X126.091 Y154.809 E152.14998
G1 X124.106 Y153.359 E152.44496
G1 X118.396 Y148.463 E153.34756
G1 X117.943 Y148.008 E153.42461
G1 X117.027 Y147.764 E153.53836
G1 X116.247 Y147.972 E153.63523
G1 X113.464 Y149.558 E154.01961
G1 X112.886 Y150.123 E154.11661
G1 X112.629 Y151.036 E154.23043
G1 X112.789 Y151.654 E154.30703
G1 X114.089 Y159.068 E155.21028
G1 X114.324 Y161.513 E155.50504
G1 X111.935 Y162.749 E155.82781
G1 X110.072 Y161.142 E156.12305
G1 X105.470 Y156.504 E156.90710
G1 X105.084 Y156.116 E156.97277
G1 X104.775 Y155.804 E157.02547
G1 X104.361 Y155.315 E157.10235
G1 X103.467 Y154.997 E157.21622
G1 X102.673 Y155.142 E157.31307
G1 X99.743 Y156.511 E157.70116
G1 X99.120 Y157.028 E157.79831
G1 X98.793 Y157.918 E157.91209
G1 X98.901 Y158.540 E157.98785
G1 X99.599 Y166.038 E158.89150
G1 X99.635 Y168.496 E159.18649
G1 X97.156 Y169.535 E159.50904
G1 X95.419 Y167.776 E159.80569
G1 X93.850 Y165.917 E160.09761
G1 X93.209 Y165.155 E160.21710
G1 X90.579 Y162.038 E160.70649
G1 X90.203 Y161.516 E160.78369
G1 X89.340 Y161.127 E160.89729
G1 X88.536 Y161.208 E160.99425
G1 X85.535 Y162.326 E161.37855
G1 X84.873 Y162.790 E161.47556
G1 X84.474 Y163.651 E161.58944
G1 X84.531 Y164.289 E161.66630
G1 X84.625 Y171.805 E162.56829
G1 X84.462 Y174.263 E162.86390
G1 X81.906 Y175.099 E163.18661
G1 X80.323 Y173.214 E163.48199
G1 X76.210 Y167.454 E164.33132
G1 X75.784 Y166.814 E164.42358
G1 X75.623 Y166.547 E164.46099
G1 X74.794 Y166.089 E164.57465
G1 X73.986 Y166.105 E164.67163
G1 X72.637 Y166.486 E164.83984
G1 X70.873 Y166.986 E165.05986
G1 X70.176 Y167.397 E165.15696
G1 X69.711 Y168.221 E165.27049
G1 X69.716 Y168.857 E165.34682
G1 X69.202 Y176.370 E166.25048
G1 X68.843 Y178.799 E166.54513
G1 X66.227 Y179.426 E166.86794
G1 X64.801 Y177.418 E167.16348
G1 X60.939 Y170.966 E168.06582
G1 X60.654 Y170.394 E168.14251
G1 X59.865 Y169.872 E168.25604
G1 X59.058 Y169.821 E168.35307
G1 X56.432 Y170.340 E168.67429
G1 X55.914 Y170.443 E168.73766
G1 X55.189 Y170.796 E168.83443
G1 X54.657 Y171.579 E168.94802
G1 X54.611 Y172.214 E169.02442
G1 X53.494 Y179.660 E169.92794
G1 X52.941 Y182.053 E170.22267
G1 X51.113 Y182.339 E170.44470
G1 X49.598 Y179.830 E170.79641
G1 X46.225 Y173.107 E171.69901
G1 X45.984 Y172.518 E171.77538
G1 X45.236 Y171.938 E171.88896
G1 X44.435 Y171.828 E171.98598
G1 X41.255 Y172.214 E172.37039
G1 X40.504 Y172.512 E172.46734
G1 X39.924 Y173.241 E172.57913
G1 X39.769 Y174.119 E172.68612
G1 X38.158 Y181.216 E173.55943
G1 X37.299 Y183.976 E173.90630
G1 X35.378 Y184.132 E174.13758
G1 X34.278 Y181.929 E174.43306
G1 X31.461 Y174.962 E175.33485
G1 X31.265 Y174.348 E175.41220
G1 X30.565 Y173.709 E175.52593
G1 X29.775 Y173.536 E175.62298
G1 X27.101 Y173.643 E175.94411
G1 X26.574 Y173.665 E176.00741
G1 X25.803 Y173.901 E176.10417
G1 X25.155 Y174.594 E176.21802
G1 X25.010 Y175.228 E176.29606
G1 X24.718 Y176.159 E176.41315
G1 X22.763 Y182.391 E177.19692
G1 X21.844 Y184.677 E177.49258
G1 X19.155 Y184.677 E177.81526
G1 X18.235 Y182.388 E178.11130
G1 X15.988 Y175.220 E179.01273
G1 X15.843 Y174.593 E179.08996
G1 X15.196 Y173.901 E179.20364
G1 X14.424 Y173.665 E179.30051
G1 X13.822 Y173.641 E179.37281
G1 X14.674 Y152.510 E181.91059
G0 F12000 X14.291 Y152.100
G1 F1200 X19.137 Y152.218 E182.49228
G1 X24.586 Y152.174 E183.14618
G1 X30.030 Y151.954 E183.79999
G1 X35.464 Y151.560 E184.45379
G1 X40.367 Y151.045 E185.04538
G1 X45.256 Y150.402 E185.63711
G1 X50.632 Y149.516 E186.29094
G1 X55.977 Y148.460 E186.94474
G1 X61.285 Y147.231 E187.59855
G1 X66.550 Y145.832 E188.25227
G1 X67.148 Y145.654 E188.32714
G1 X71.795 Y144.256 E188.90947
G1 X76.959 Y142.520 E189.56323
G1 X82.064 Y140.618 E190.21697
G1 X87.106 Y138.553 E190.87078
G1 X92.078 Y136.326 E191.52454
G1 X92.639 Y136.055 E191.59930
G1 X97.002 Y133.928 E192.18176
G1 X101.820 Y131.385 E192.83552
G1 X106.555 Y128.689 E193.48936
G1 X111.199 Y125.840 E194.14316
G1 X115.748 Y122.846 E194.79666
G1 X120.198 Y119.704 E195.45035
G1 X124.545 Y116.421 E196.10404
G1 X128.785 Y113.000 E196.75781
G1 X132.913 Y109.443 E197.41170
