;FLAVOR:UltiGCode
;TIME:11918
;MATERIAL:12824
;MATERIAL2:0
;NOZZLE_DIAMETER:0.400000
;NOZZLE_DIAMETER2:0.400000

;Layer count: 63
;LAYER:0
M107
G0 F12000 X37.272 Y34.523 Z0.300
G0 X37.922 Y37.389
;TYPE:SKIRT
G1 F1200 X37.272 Y34.523 E0.35265
G1 X62.111 Y28.944 E3.40759
G1 X62.111 Y28.943 E3.40771
G1 X66.041 Y28.057 E3.89115
G1 X66.953 Y31.828 E4.35672
G1 X67.092 Y32.402 E4.42759
G1 X68.037 Y36.316 E4.91076
G1 X69.465 Y41.490 E5.55486
G1 X69.663 Y42.130 E5.63525
G1 X71.042 Y46.559 E6.19189
G1 X72.789 Y51.598 E6.83188
G1 X74.693 Y56.564 E7.47010
G1 X74.970 Y57.225 E7.55611
G1 X76.774 Y61.510 E8.11402
G1 X78.709 Y65.723 E8.67035
G1 X78.997 Y66.349 E8.75304
G1 X81.374 Y71.114 E9.39204
G1 X81.697 Y71.709 E9.47328
G1 X83.913 Y75.815 E10.03318
G1 X84.244 Y76.385 E10.11227
G1 X84.245 Y76.385 E10.11239
G1 X86.585 Y80.401 E10.67015
G1 X86.882 Y80.876 E10.73738
G1 X89.434 Y84.948 E11.31405
G1 X89.804 Y85.500 E11.39380
G1 X89.805 Y85.500 E11.39392
G1 X92.405 Y89.367 E11.95309
G1 X95.110 Y93.123 E12.50853
G1 X95.507 Y93.674 E12.59003
G1 X98.760 Y97.896 E13.22961
G1 X99.192 Y98.423 E13.31138
G1 X102.127 Y101.991 E13.86579
G1 X102.610 Y102.540 E13.95353
G1 X102.609 Y102.541 E13.95370
G1 X102.998 Y102.982 E14.02427
G1 X105.677 Y106.031 E14.51132
G1 X108.852 Y109.417 E15.06833
G1 X109.324 Y109.920 E15.15110
G1 X113.094 Y113.690 E15.79089
G1 X116.473 Y116.857 E16.34663
G1 X116.983 Y117.335 E16.43050
G1 X117.481 Y117.772 E16.51001
G1 X120.989 Y120.855 E17.07044
G1 X125.098 Y124.236 E17.70898
G1 X128.783 Y127.074 E18.26712
G1 X129.316 Y127.485 E18.34789
G1 X133.092 Y130.205 E18.90633
G1 X133.642 Y130.602 E18.98773
G1 X137.497 Y133.193 E19.54510
G1 X138.067 Y133.576 E19.62751
G1 X142.001 Y136.041 E20.18461
G1 X142.574 Y136.400 E20.26575
G1 X143.061 Y136.684 E20.33340
G1 X146.692 Y138.799 E20.83765
G1 X147.213 Y139.102 E20.90997
G1 X151.290 Y141.303 E21.46595
G1 X151.875 Y141.619 E21.54574
G1 X156.046 Y143.700 E22.10510
G1 X156.646 Y144.000 E22.18560
G1 X160.876 Y145.944 E22.74423
G1 X161.513 Y146.237 E22.82837
G1 X165.775 Y148.030 E23.38323
G1 X166.421 Y148.302 E23.46734
G1 X166.927 Y148.496 E23.53237
G1 X170.851 Y149.999 E24.03661
G1 X171.381 Y150.203 E24.10476
G1 X175.791 Y151.732 E24.66486
G1 X176.408 Y151.947 E24.74327
G1 X181.529 Y153.541 E25.38687
G1 X186.649 Y154.953 E26.02421
G1 X194.940 Y156.958 E27.04781
G1 X188.478 Y185.721 E30.58540
G1 X185.612 Y185.078 E30.93787
G1 X182.233 Y190.406 E31.69497
G1 X178.955 Y194.778 E32.35069
G1 X170.873 Y192.616 E33.35464
G1 X170.281 Y187.741 E33.94393
G1 X170.282 Y187.741 E33.94405
G1 X170.214 Y187.191 E34.01056
G1 X170.166 Y186.040 E34.14880
G1 X170.016 Y182.566 E34.56606
G1 X169.978 Y181.671 E34.67356
G1 X167.346 Y185.165 E35.19849
G1 X166.653 Y186.083 E35.33651
G1 X164.750 Y188.236 E35.68133
G1 X163.032 Y190.178 E35.99247
G1 X155.151 Y187.373 E36.99631
G1 X154.931 Y181.914 E37.65192
G1 X154.955 Y181.243 E37.73249
G1 X155.142 Y176.343 E38.32092
G1 X154.530 Y177.032 E38.43151
G1 X154.112 Y177.504 E38.50716
G1 X151.441 Y180.509 E38.98962
G1 X149.370 Y182.501 E39.33444
G1 X147.501 Y184.298 E39.64558
G1 X139.872 Y180.868 E40.64933
G1 X140.093 Y175.407 E41.30518
G1 X140.402 Y172.819 E41.61795
G1 X140.401 Y172.819 E41.61807
G1 X140.523 Y171.798 E41.74146
G1 X140.643 Y170.803 E41.86173
G1 X140.748 Y169.918 E41.96867
G1 X137.588 Y172.944 E42.49369
G1 X136.756 Y173.740 E42.63187
G1 X134.532 Y175.560 E42.97672
G1 X132.528 Y177.202 E43.28762
G1 X125.197 Y173.168 E44.29173
G1 X125.855 Y167.742 E44.94762
G1 X126.959 Y162.279 E45.61643
G1 X126.243 Y162.861 E45.72715
G1 X125.120 Y163.776 E45.90098
G1 X123.040 Y165.468 E46.22274
G1 X122.637 Y165.796 E46.28509
G1 X118.141 Y168.904 E46.94097
G1 X111.159 Y164.293 E47.94503
G1 X112.255 Y158.938 E48.60095
G1 X112.573 Y157.833 E48.73893
G1 X113.260 Y155.446 E49.03700
G1 X113.259 Y155.446 E49.03712
G1 X113.782 Y153.626 E49.26436
G1 X109.782 Y156.378 E49.84699
G1 X109.232 Y156.758 E49.92721
G1 X104.498 Y159.493 E50.58328
G1 X100.045 Y156.006 E51.26198
G1 X97.913 Y154.335 E51.58704
G1 X99.434 Y149.087 E52.24272
G1 X99.840 Y148.010 E52.38083
G1 X101.076 Y144.734 E52.80100
G1 X101.401 Y143.872 E52.91155
G1 X100.600 Y144.332 E53.02239
G1 X99.344 Y145.054 E53.19624
G1 X97.019 Y146.390 E53.51802
G1 X96.568 Y146.650 E53.58049
G1 X93.973 Y147.882 E53.92521
G1 X91.634 Y148.998 E54.23620
G1 X85.484 Y143.322 E55.24047
G1 X87.424 Y138.215 E55.89604
G1 X87.914 Y137.174 E56.03411
G1 X89.784 Y133.216 E56.55941
G1 X88.978 Y133.597 E56.66639
G1 X85.391 Y135.290 E57.14237
G1 X84.788 Y135.576 E57.22245
G1 X82.105 Y136.594 E57.56681
G1 X79.680 Y137.519 E57.87826
G1 X74.004 Y131.368 E58.88262
G1 X76.350 Y126.432 E59.53844
G1 X78.667 Y122.400 E60.09648
G1 X79.128 Y121.599 E60.20738
G1 X78.264 Y121.925 E60.31820
G1 X76.909 Y122.436 E60.49198
G1 X74.404 Y123.380 E60.81321
G1 X73.915 Y123.565 E60.87595
G1 X71.156 Y124.364 E61.22063
G1 X71.156 Y124.365 E61.22075
G1 X68.665 Y125.089 E61.53204
G1 X65.176 Y120.634 E62.21108
G1 X63.506 Y118.502 E62.53606
G1 X66.241 Y113.770 E63.19193
G1 X69.373 Y109.218 E63.85498
G1 X64.705 Y110.560 E64.43783
G1 X64.705 Y110.559 E64.43795
G1 X64.064 Y110.745 E64.51804
G1 X61.247 Y111.321 E64.86307
G1 X58.707 Y111.840 E65.17417
G1 X54.096 Y104.859 E66.17813
G1 X57.204 Y100.363 E66.83401
G1 X60.721 Y96.041 E67.50267
G1 X55.258 Y97.145 E68.17148
G1 X52.404 Y97.491 E68.51647
G1 X52.404 Y97.490 E68.51659
G1 X49.833 Y97.805 E68.82742
G1 X45.799 Y90.474 E69.83153
G1 X49.259 Y86.244 E70.48731
G1 X53.081 Y82.253 E71.15042
G1 X48.259 Y82.828 E71.73316
G1 X48.259 Y82.827 E71.73328
G1 X47.595 Y82.907 E71.81354
G1 X42.132 Y83.128 E72.46963
G1 X38.702 Y75.498 E73.47350
G1 X42.491 Y71.559 E74.12936
G1 X45.200 Y69.152 E74.56422
G1 X45.967 Y68.470 E74.68739
G1 X45.967 Y68.471 E74.68751
G1 X46.657 Y67.858 E74.79826
G1 X45.257 Y67.911 E74.96638
G1 X44.136 Y67.954 E75.10100
G1 X41.089 Y68.069 E75.46690
G1 X38.215 Y67.954 E75.81206
G1 X35.624 Y67.846 E76.12325
G1 X34.719 Y65.296 E76.44795
G1 X32.822 Y59.967 E77.12674
G1 X36.502 Y56.714 E77.71614
G1 X36.917 Y56.347 E77.78262
G1 X38.999 Y54.779 E78.09539
G1 X40.102 Y53.946 E78.26125
G1 X41.330 Y53.021 E78.44574
G1 X36.476 Y52.815 E79.02874
G1 X35.806 Y52.785 E79.10922
G1 X30.383 Y52.127 E79.76476
G1 X28.222 Y44.045 E80.76867
G1 X32.595 Y40.767 E81.42449
G1 X37.922 Y37.389 E82.18142
G10
G1 Z0.400
G0 F12000 X41.332 Y40.199
;TYPE:WALL-INNER
G1 Z0.300
G11
G1 F1200 X41.897 Y39.899 E82.25819
G1 X42.401 Y39.095 E82.37206
G1 X42.429 Y38.286 E82.46919
G1 X42.297 Y37.700 E82.54128
G1 X62.930 Y33.064 E85.07897
G1 X63.979 Y37.400 E85.61430
G1 X65.431 Y42.663 E86.26945
G1 X67.054 Y47.878 E86.92486
G1 X68.843 Y53.039 E87.58033
G1 X70.798 Y58.137 E88.23553
G1 X71.098 Y58.853 E88.32869
G1 X72.927 Y63.197 E88.89429
G1 X75.207 Y68.160 E89.54969
G1 X77.646 Y73.047 E90.20511
G1 X80.240 Y77.852 E90.86036
G1 X82.988 Y82.571 E91.51566
G1 X85.902 Y87.222 E92.17428
G1 X88.949 Y91.755 E92.82971
G1 X92.141 Y96.187 E93.48512
G1 X95.473 Y100.513 E94.14038
G1 X98.943 Y104.731 E94.79581
G1 X102.566 Y108.853 E95.45435
G1 X106.301 Y112.838 E96.10976
G1 X110.162 Y116.699 E96.76499
G1 X114.147 Y120.434 E97.42040
G1 X118.249 Y124.039 E98.07572
G1 X122.487 Y127.526 E98.73430
G1 X126.814 Y130.859 E99.38972
G1 X131.245 Y134.051 E100.04504
G1 X135.777 Y137.098 E100.70037
G1 X139.769 Y139.599 E101.26566
G1 X140.405 Y139.998 E101.35575
G1 X140.950 Y140.315 E101.43141
G1 X145.148 Y142.760 E102.01439
G1 X149.293 Y144.998 E102.57966
G1 X149.953 Y145.354 E102.66964
G1 X154.840 Y147.793 E103.32506
G1 X159.803 Y150.073 E103.98046
G1 X164.836 Y152.192 E104.63577
G1 X169.961 Y154.156 E105.29438
G1 X174.413 Y155.700 E105.85984
G1 X175.121 Y155.946 E105.94978
G1 X180.336 Y157.569 E106.60519
G1 X185.601 Y159.021 E107.26057
G1 X189.936 Y160.070 E107.79578
G1 X185.300 Y180.703 E110.33347
G1 X185.033 Y180.643 E110.36631
G1 X184.715 Y180.571 E110.40544
G1 X183.905 Y180.599 E110.50270
G1 X183.101 Y181.103 E110.61657
G1 X182.803 Y181.665 E110.69290
G1 X178.773 Y188.019 E111.59581
G1 X177.297 Y189.987 E111.89101
G1 X174.700 Y189.293 E112.21359
G1 X174.403 Y186.844 E112.50962
G1 X174.362 Y185.863 E112.62744
G1 X174.083 Y179.334 E113.41164
G1 X174.106 Y178.696 E113.48825
G1 X173.659 Y177.859 E113.60211
G1 X172.974 Y177.431 E113.69904
G1 X170.419 Y176.637 E114.02010
G1 X169.916 Y176.480 E114.08333
G1 X169.109 Y176.444 E114.18027
G1 X168.266 Y176.879 E114.29410
G1 X167.928 Y177.412 E114.36984
G1 X163.392 Y183.432 E115.27436
G1 X161.767 Y185.270 E115.56876
G1 X159.233 Y184.368 E115.89153
G1 X159.133 Y181.905 E116.18733
G1 X159.152 Y181.401 E116.24785
G1 X159.420 Y174.392 E117.08955
G1 X159.493 Y173.756 E117.16637
G1 X159.116 Y172.889 E117.27982
G1 X158.468 Y172.406 E117.37680
G1 X155.775 Y171.325 E117.72503
G1 X155.469 Y171.200 E117.76469
G1 X154.664 Y171.098 E117.86206
G1 X153.791 Y171.467 E117.97580
G1 X153.407 Y171.973 E118.05202
G1 X148.409 Y177.598 E118.95498
G1 X146.636 Y179.304 E119.25024
G1 X144.183 Y178.201 E119.57299
G1 X144.282 Y175.743 E119.86819
G1 X144.693 Y172.299 E120.28440
G1 X144.813 Y171.306 E120.40443
G1 X145.173 Y168.277 E120.77047
G1 X145.298 Y167.646 E120.84766
G1 X144.992 Y166.749 E120.96139
G1 X144.385 Y166.217 E121.05825
G1 X141.989 Y165.022 E121.37954
G1 X141.519 Y164.787 E121.44260
G1 X140.728 Y164.620 E121.53961
G1 X139.826 Y164.917 E121.65357
G1 X139.400 Y165.394 E121.73031
G1 X133.968 Y170.595 E122.63277
G1 X132.064 Y172.153 E122.92799
G1 X129.708 Y170.857 E123.25066
G1 X130.006 Y168.405 E123.54707
G1 X131.494 Y161.041 E124.44861
G1 X131.668 Y160.425 E124.52542
G1 X131.436 Y159.508 E124.63893
G1 X130.874 Y158.928 E124.73584
G1 X129.672 Y158.202 E124.90435
G1 X129.481 Y158.087 E124.93110
G1 X128.386 Y157.424 E125.08471
G1 X128.104 Y157.254 E125.12422
G1 X127.331 Y157.026 E125.22094
G1 X126.408 Y157.247 E125.33483
G1 X125.944 Y157.690 E125.41181
G1 X120.117 Y162.431 E126.31325
G1 X118.086 Y163.835 E126.60954
G1 X115.843 Y162.354 E126.93208
G1 X116.338 Y159.936 E127.22826
G1 X118.413 Y152.720 E128.12927
G1 X118.638 Y152.115 E128.20672
G1 X118.482 Y151.180 E128.32048
G1 X117.967 Y150.557 E128.41747
G1 X115.368 Y148.685 E128.80183
G1 X114.613 Y148.394 E128.89893
G1 X113.678 Y148.542 E129.01253
G1 X113.183 Y148.940 E129.08874
G1 X107.401 Y152.918 E129.93094
G1 X106.985 Y153.205 E129.99158
G1 X104.853 Y154.437 E130.28707
G1 X102.736 Y152.780 E130.60967
G1 X103.421 Y150.417 E130.90491
G1 X106.075 Y143.378 E131.80763
G1 X106.346 Y142.800 E131.88424
G1 X106.265 Y141.855 E131.99805
G1 X105.802 Y141.192 E132.09509
G1 X103.338 Y139.096 E132.48328
G1 X102.609 Y138.747 E132.58027
G1 X101.665 Y138.818 E132.69387
G1 X101.137 Y139.178 E132.77055
G1 X94.611 Y142.930 E133.67388
G1 X92.393 Y143.983 E133.96851
G1 X90.418 Y142.161 E134.29096
G1 X91.291 Y139.860 E134.58628
G1 X94.506 Y133.054 E135.48954
G1 X94.820 Y132.504 E135.56554
G1 X94.816 Y131.555 E135.67942
G1 X94.407 Y130.858 E135.77639
G1 X92.142 Y128.593 E136.16078
G1 X91.445 Y128.184 E136.25775
G1 X90.496 Y128.180 E136.37164
G1 X89.941 Y128.497 E136.44833
G1 X83.146 Y131.706 E137.35009
G1 X80.839 Y132.581 E137.64617
G1 X79.016 Y130.606 E137.96870
G1 X80.072 Y128.384 E138.26392
G1 X83.819 Y121.868 E139.16591
G1 X84.182 Y121.335 E139.24329
G1 X84.253 Y120.391 E139.35689
G1 X83.903 Y119.661 E139.45404
G1 X82.019 Y117.448 E139.80280
G1 X81.808 Y117.199 E139.84196
G1 X81.145 Y116.735 E139.93907
G1 X80.200 Y116.654 E140.05289
G1 X79.622 Y116.925 E140.12949
G1 X72.919 Y119.451 E140.98907
G1 X72.581 Y119.580 E141.03249
G1 X70.220 Y120.264 E141.32746
G1 X68.563 Y118.147 E141.65006
G1 X69.793 Y116.017 E141.94522
G1 X74.060 Y109.817 E142.84839
G1 X74.458 Y109.322 E142.92461
G1 X74.606 Y108.387 E143.03821
G1 X74.315 Y107.632 E143.13530
G1 X72.443 Y105.033 E143.51966
G1 X71.820 Y104.518 E143.61666
G1 X70.885 Y104.362 E143.73041
G1 X70.280 Y104.587 E143.80787
G1 X63.544 Y106.523 E144.64891
G1 X63.062 Y106.662 E144.70911
G1 X60.646 Y107.157 E145.00505
G1 X59.165 Y104.914 E145.32759
G1 X60.569 Y102.883 E145.62388
G1 X65.028 Y97.403 E146.47167
G1 X65.345 Y97.020 E146.53133
G1 X65.753 Y96.592 E146.60228
G1 X65.974 Y95.669 E146.71617
G1 X65.746 Y94.895 E146.81300
G1 X64.072 Y92.126 E147.20128
G1 X63.492 Y91.564 E147.29820
G1 X62.575 Y91.332 E147.41170
G1 X61.959 Y91.506 E147.48852
G1 X54.594 Y92.994 E148.39017
G1 X52.143 Y93.292 E148.68646
G1 X50.847 Y90.936 E149.00913
G1 X52.405 Y89.032 E149.30435
G1 X57.293 Y83.927 E150.15249
G1 X57.643 Y83.568 E150.21265
G1 X58.083 Y83.174 E150.28353
G1 X58.380 Y82.272 E150.39749
G1 X58.213 Y81.481 E150.49450
G1 X57.019 Y79.086 E150.81563
G1 X56.783 Y78.615 E150.87885
G1 X56.251 Y78.008 E150.97571
G1 X55.354 Y77.702 E151.08944
G1 X54.723 Y77.827 E151.16663
G1 X47.257 Y78.718 E152.06891
G1 X44.799 Y78.817 E152.36411
G1 X43.696 Y76.364 E152.68686
G1 X45.409 Y74.584 E152.98330
G1 X51.019 Y69.599 E153.88388
G1 X51.533 Y69.209 E153.96131
G1 X51.902 Y68.336 E154.07504
G1 X51.800 Y67.532 E154.17229
G1 X50.593 Y64.532 E154.56034
G1 X50.111 Y63.884 E154.65725
G1 X49.244 Y63.507 E154.77070
G1 X48.608 Y63.580 E154.84752
G1 X41.094 Y63.866 E155.74985
G1 X38.633 Y63.768 E156.04541
G1 X37.731 Y61.233 E156.36829
G1 X39.568 Y59.608 E156.66260
G1 X41.526 Y58.133 E156.95677
G1 X45.580 Y55.078 E157.56592
G1 X46.121 Y54.734 E157.64285
G1 X46.556 Y53.891 E157.75668
G1 X46.520 Y53.085 E157.85350
G1 X45.569 Y50.026 E158.23791
G1 X45.141 Y49.341 E158.33484
G1 X44.304 Y48.894 E158.44870
G1 X43.665 Y48.917 E158.52543
G1 X36.658 Y48.619 E159.36703
G1 X36.157 Y48.597 E159.42721
G1 X33.707 Y48.299 E159.72338
G1 X33.013 Y45.703 E160.04584
G1 X34.984 Y44.224 E160.34154
G1 X41.332 Y40.199 E161.24352
G0 F12000 X41.615 Y39.596
G1 F1200 X42.005 Y38.974 E161.33162
G1 X42.027 Y38.324 E161.40966
G1 X41.819 Y37.396 E161.52379
G1 X63.227 Y32.586 E164.15679
G1 X64.366 Y37.299 E164.73863
G1 X65.815 Y42.551 E165.39242
G1 X67.434 Y47.753 E166.04619
G1 X69.219 Y52.902 E166.70015
G1 X71.169 Y57.988 E167.35379
G1 X73.293 Y63.035 E168.01088
G1 X75.568 Y67.987 E168.66483
G1 X78.001 Y72.863 E169.31874
G1 X80.589 Y77.656 E169.97239
G1 X83.330 Y82.364 E170.62612
G1 X86.237 Y87.004 E171.28317
G1 X89.277 Y91.527 E171.93714
G1 X92.462 Y95.948 E172.59099
G1 X95.786 Y100.264 E173.24471
G1 X99.248 Y104.472 E173.89860
G1 X102.863 Y108.584 E174.55562
G1 X106.589 Y112.559 E175.20941
G1 X110.441 Y116.411 E175.86312
G1 X114.416 Y120.137 E176.51691
G1 X118.508 Y123.734 E177.17069
G1 X122.736 Y127.213 E177.82773
G1 X127.053 Y130.538 E178.48162
G1 X131.473 Y133.723 E179.13538
G1 X135.995 Y136.762 E179.78918
G1 X140.612 Y139.656 E180.44306
G1 X145.344 Y142.412 E181.10019
G1 X150.138 Y145.000 E181.75394
G1 X155.013 Y147.432 E182.40770
G1 X159.964 Y149.707 E183.06154
G1 X164.985 Y151.821 E183.71528
G1 X170.098 Y153.781 E184.37238
G1 X175.247 Y155.566 E185.02633
G1 X180.449 Y157.185 E185.68011
G1 X185.701 Y158.634 E186.33389
G1 X190.414 Y159.773 E186.91574
G1 X185.603 Y181.182 E189.54888
G1 X184.947 Y181.034 E189.62958
G1 X184.677 Y180.973 E189.66280
G1 X184.026 Y180.995 E189.74096
G1 X183.404 Y181.385 E189.82906
G1 X183.145 Y181.872 E189.89525
G1 X179.103 Y188.246 E190.80096
G1 X177.455 Y190.443 E191.13053
G1 X174.336 Y189.609 E191.51796
G1 X174.004 Y186.871 E191.84892
G1 X173.682 Y179.350 E192.75227
G1 X173.702 Y178.789 E192.81963
G1 X173.357 Y178.142 E192.90762
G1 X172.806 Y177.798 E192.98557
G1 X170.301 Y177.019 E193.30037
G1 X169.847 Y176.877 E193.35745
G1 X169.198 Y176.849 E193.43540
G1 X168.546 Y177.185 E193.52342
G1 X168.251 Y177.649 E193.58940
G1 X163.710 Y183.674 E194.49476
G1 X161.887 Y185.737 E194.82512
G1 X158.845 Y184.654 E195.21261
