;FLAVOR:UltiGCode
;TIME:13836
;MATERIAL:14832
;MATERIAL2:0
;NOZZLE_DIAMETER:0.400000
;NOZZLE_DIAMETER2:0.400000

;Layer count: 63
;LAYER:0
M107
G0 F12000 X29.736 Y23.997 Z0.300
G0 X30.149 Y26.905
;TYPE:SKIRT
G1 F1200 X29.736 Y23.997 E0.35246
G1 X35.132 Y23.235 E1.00641
G1 X36.001 Y23.113 E1.11171
G1 X36.001 Y23.114 E1.11183
G1 X58.927 Y19.872 E3.89032
G1 X59.525 Y23.652 E4.34956
G1 X60.164 Y27.707 E4.84217
G1 X60.257 Y28.293 E4.91337
G1 X61.128 Y32.854 E5.47058
G1 X61.256 Y33.521 E5.55208
G1 X61.405 Y34.189 E5.63421
G1 X62.426 Y38.733 E6.19308
G1 X62.594 Y39.381 E6.27341
G1 X63.758 Y43.878 E6.83084
G1 X63.950 Y44.533 E6.91274
G1 X63.949 Y44.533 E6.91286
G1 X65.251 Y48.966 E7.46729
G1 X65.462 Y49.610 E7.54862
G1 X66.745 Y53.512 E8.04152
G1 X66.744 Y53.512 E8.04164
G1 X66.926 Y54.064 E8.11139
G1 X68.521 Y58.434 E8.66962
G1 X68.751 Y59.063 E8.74999
G1 X70.748 Y64.030 E9.39240
G1 X72.610 Y68.266 E9.94766
G1 X72.611 Y68.266 E9.94778
G1 X72.894 Y68.908 E10.03198
G1 X75.184 Y73.690 E10.66822
G1 X75.446 Y74.195 E10.73649
G1 X77.655 Y78.447 E11.31148
G1 X77.988 Y79.041 E11.39320
G1 X80.263 Y83.095 E11.95104
G1 X83.018 Y87.654 E12.59025
G1 X83.385 Y88.221 E12.67130
G1 X85.916 Y92.121 E13.22922
G1 X88.964 Y96.500 E13.86946
G1 X92.163 Y100.794 E14.51202
G1 X95.457 Y104.931 E15.14660
G1 X95.913 Y105.467 E15.23105
G1 X98.929 Y109.014 E15.78976
G1 X102.497 Y112.944 E16.42673
G1 X102.975 Y113.438 E16.50921
G1 X106.209 Y116.778 E17.06711
G1 X106.612 Y117.169 E17.13449
G1 X109.628 Y120.088 E17.63816
G1 X110.056 Y120.503 E17.70970
G1 X113.984 Y124.069 E18.34633
G1 X114.512 Y124.518 E18.42950
G1 X118.067 Y127.541 E18.98948
G1 X122.201 Y130.833 E19.62364
G1 X122.764 Y131.252 E19.70785
G1 X126.499 Y134.036 E20.26686
G1 X127.024 Y134.401 E20.34359
G1 X130.398 Y136.747 E20.83673
G1 X130.894 Y137.093 E20.90930
G1 X134.779 Y139.614 E21.46505
G1 X135.359 Y139.990 E21.54800
G1 X139.904 Y142.737 E22.18528
G1 X144.557 Y145.347 E22.82548
G1 X145.156 Y145.658 E22.90647
G1 X149.266 Y147.794 E23.46230
G1 X149.785 Y148.043 E23.53138
G1 X153.576 Y149.858 E24.03575
G1 X154.112 Y150.115 E24.10708
G1 X154.730 Y150.387 E24.18810
G1 X158.965 Y152.250 E24.74330
G1 X159.613 Y152.511 E24.82713
G1 X163.929 Y154.246 E25.38533
G1 X168.287 Y155.836 E25.94201
G1 X168.912 Y156.065 E26.02189
G1 X173.338 Y157.521 E26.58101
G1 X173.991 Y157.736 E26.66351
G1 X174.611 Y157.918 E26.74105
G1 X175.227 Y158.098 E26.81806
G1 X179.125 Y159.243 E27.30558
G1 X179.780 Y159.412 E27.38675
G1 X184.272 Y160.574 E27.94354
G1 X184.941 Y160.724 E28.02581
G1 X189.478 Y161.744 E28.58384
G1 X190.142 Y161.870 E28.66494
G1 X194.704 Y162.742 E29.22229
G1 X199.294 Y163.465 E29.77988
G1 X203.127 Y164.073 E30.24559
G1 X202.252 Y170.280 E30.99780
G1 X199.003 Y193.260 E33.78282
G1 X196.095 Y192.850 E34.13523
G1 X194.871 Y195.176 E34.45064
G1 X194.394 Y196.083 E34.57362
G1 X193.156 Y198.434 E34.89246
G1 X190.240 Y203.056 E35.54826
G1 X182.011 Y201.552 E36.55209
G1 X180.917 Y196.197 E37.20797
G1 X180.427 Y192.236 E37.68691
G1 X180.238 Y190.712 E37.87119
G1 X177.278 Y195.381 E38.53458
G1 X174.000 Y199.753 E39.19031
G1 X168.535 Y198.291 E39.86917
G1 X168.535 Y198.292 E39.86929
G1 X165.917 Y197.592 E40.19448
G1 X165.258 Y192.166 E40.85039
G1 X165.104 Y188.545 E41.28530
G1 X165.021 Y186.599 E41.51903
G1 X164.465 Y187.337 E41.62991
G1 X164.083 Y187.842 E41.70590
G1 X161.666 Y191.049 E42.18779
G1 X158.046 Y195.144 E42.84367
G1 X150.164 Y192.338 E43.84766
G1 X149.968 Y187.431 E44.43697
G1 X149.945 Y186.882 E44.50291
G1 X149.969 Y186.212 E44.58336
G1 X150.155 Y181.355 E45.16663
G1 X147.249 Y184.626 E45.69168
G1 X146.484 Y185.486 E45.82980
G1 X142.547 Y189.275 E46.48549
G1 X137.386 Y186.957 E47.16441
G1 X134.915 Y185.845 E47.48957
G1 X135.114 Y180.936 E48.07914
G1 X135.137 Y180.384 E48.14543
G1 X135.215 Y179.720 E48.22566
G1 X135.796 Y174.849 E48.81433
G1 X135.128 Y175.489 E48.92534
G1 X134.674 Y175.924 E49.00079
G1 X131.771 Y178.705 E49.48320
G1 X127.541 Y182.163 E50.13883
G1 X125.169 Y180.860 E50.46359
G1 X120.210 Y178.130 E51.14289
G1 X120.871 Y172.704 E51.79882
G1 X121.386 Y170.150 E52.11147
G1 X121.493 Y169.618 E52.17659
G1 X121.964 Y167.288 E52.46184
G1 X117.679 Y170.776 E53.12486
G1 X113.184 Y173.883 E53.78058
G1 X110.924 Y172.393 E54.10541
G1 X106.203 Y169.273 E54.78447
G1 X107.297 Y163.919 E55.44023
G1 X107.615 Y162.813 E55.57833
G1 X108.583 Y159.449 E55.99839
G1 X108.582 Y159.449 E55.99851
G1 X108.837 Y158.561 E56.10937
G1 X106.431 Y160.216 E56.45980
G1 X104.247 Y161.719 E56.77795
G1 X99.515 Y164.456 E57.43393
G1 X92.929 Y159.297 E58.43786
G1 X94.296 Y154.580 E59.02719
G1 X94.451 Y154.047 E59.09380
G1 X94.856 Y152.971 E59.23176
G1 X96.085 Y149.714 E59.64950
G1 X96.402 Y148.875 E59.75713
G1 X95.629 Y149.319 E59.86410
G1 X94.741 Y149.830 E59.98704
G1 X91.609 Y151.632 E60.42065
G1 X89.014 Y152.864 E60.76536
G1 X86.675 Y153.980 E61.07635
G1 X80.524 Y148.305 E62.08064
G1 X82.464 Y143.196 E62.73643
G1 X84.011 Y139.917 E63.17150
G1 X84.844 Y138.155 E63.40538
G1 X79.804 Y140.536 E64.07427
G1 X74.695 Y142.476 E64.73006
G1 X70.858 Y138.316 E65.40919
G1 X69.024 Y136.324 E65.73411
G1 X71.131 Y131.890 E66.32321
G1 X71.369 Y131.389 E66.38977
G1 X72.667 Y129.129 E66.70251
G1 X72.940 Y128.657 E66.76795
G1 X74.125 Y126.598 E67.05302
G1 X73.289 Y126.913 E67.16023
G1 X72.329 Y127.275 E67.28335
G1 X68.953 Y128.549 E67.71635
G1 X63.703 Y130.072 E68.37233
G1 X58.544 Y123.485 E69.37635
G1 X61.281 Y118.753 E70.03233
G1 X64.439 Y114.162 E70.70100
G1 X60.190 Y115.383 E71.23152
G1 X60.190 Y115.384 E71.23164
G1 X59.082 Y115.703 E71.37000
G1 X53.727 Y116.797 E72.02587
G1 X50.609 Y112.077 E72.70470
G1 X49.116 Y109.817 E73.02973
G1 X52.224 Y105.321 E73.68561
G1 X54.517 Y102.504 E74.12149
G1 X55.146 Y101.731 E74.24107
G1 X55.713 Y101.035 E74.34880
G1 X51.423 Y101.901 E74.87399
G1 X50.296 Y102.129 E75.01197
G1 X44.869 Y102.790 E75.66802
G1 X40.836 Y95.461 E76.67186
G1 X44.295 Y91.229 E77.32775
G1 X46.802 Y88.612 E77.76264
G1 X47.510 Y87.871 E77.88562
G1 X48.149 Y87.204 E77.99647
G1 X43.759 Y87.727 E78.52699
G1 X43.132 Y87.802 E78.60277
G1 X42.612 Y87.864 E78.66561
G1 X39.749 Y87.978 E79.00944
G1 X37.156 Y88.087 E79.32088
G1 X33.723 Y80.453 E80.32532
G1 X37.514 Y76.516 E80.98118
G1 X38.373 Y75.752 E81.11913
G1 X41.645 Y72.845 E81.64435
G1 X36.793 Y73.030 E82.22702
G1 X36.123 Y73.055 E82.30747
G1 X30.662 Y72.835 E82.96332
G1 X27.856 Y64.955 E83.96709
G1 X31.950 Y61.334 E84.62296
G1 X36.401 Y57.979 E85.29181
G1 X35.479 Y57.940 E85.40255
G1 X34.032 Y57.879 E85.57635
G1 X30.833 Y57.742 E85.96058
G1 X27.979 Y57.396 E86.30557
G1 X25.403 Y57.081 E86.61699
G1 X24.707 Y54.462 E86.94218
G1 X24.708 Y54.462 E86.94230
G1 X23.247 Y49.000 E87.62078
G1 X27.620 Y45.722 E88.27660
G1 X30.688 Y43.776 E88.71258
G1 X31.528 Y43.242 E88.83202
G1 X32.285 Y42.762 E88.93959
G1 X27.467 Y42.166 E89.52215
G1 X26.802 Y42.083 E89.60257
G1 X21.447 Y40.989 E90.25844
G1 X20.432 Y35.423 E90.93738
G1 X19.941 Y32.761 E91.26221
G1 X24.567 Y29.843 E91.91854
G1 X25.586 Y29.308 E92.05665
G1 X30.149 Y26.905 E92.67550
G10
G1 Z0.400
G0 F12000 X33.320 Y29.981
;TYPE:WALL-INNER
G1 Z0.300
G11
G1 F1200 X33.909 Y29.727 E92.75247
G1 X34.475 Y28.968 E92.86608
G1 X34.569 Y28.164 E92.96322
G1 X34.485 Y27.568 E93.03545
G1 X55.423 Y24.609 E95.57297
G1 X56.016 Y28.367 E96.02951
G1 X56.120 Y29.016 E96.10839
G1 X57.144 Y34.379 E96.76357
G1 X58.341 Y39.708 E97.41899
G1 X59.709 Y44.996 E98.07444
G1 X61.247 Y50.235 E98.72965
G1 X62.755 Y54.824 E99.30930
G1 X62.961 Y55.450 E99.38838
G1 X64.834 Y60.580 E100.04373
G1 X66.871 Y65.647 E100.69906
G1 X68.768 Y69.961 E101.26458
G1 X69.070 Y70.647 E101.35453
G1 X71.429 Y75.571 E102.00972
G1 X71.718 Y76.130 E102.08523
G1 X73.959 Y80.443 E102.66849
G1 X76.631 Y85.205 E103.32374
G1 X79.455 Y89.880 E103.97915
G1 X82.428 Y94.461 E104.63449
G1 X85.563 Y98.966 E105.29310
G1 X88.827 Y103.345 E105.94850
G1 X92.229 Y107.617 E106.60383
G1 X95.767 Y111.778 E107.25925
G1 X99.437 Y115.822 E107.91457
G1 X103.235 Y119.745 E108.56980
G1 X103.687 Y120.183 E108.64533
G1 X107.178 Y123.563 E109.22843
G1 X111.222 Y127.234 E109.88384
G1 X115.383 Y130.771 E110.53917
G1 X119.655 Y134.173 E111.19451
G1 X124.034 Y137.437 E111.84990
G1 X128.539 Y140.571 E112.50845
G1 X132.492 Y143.136 E113.07392
G1 X133.120 Y143.544 E113.16379
G1 X137.794 Y146.369 E113.81916
G1 X142.557 Y149.041 E114.47451
G1 X147.404 Y151.559 E115.12995
G1 X151.760 Y153.645 E115.70952
G1 X152.353 Y153.930 E115.78847
G1 X157.352 Y156.129 E116.44383
G1 X162.420 Y158.166 E117.09927
G1 X167.550 Y160.039 E117.75462
G1 X172.738 Y161.745 E118.40998
G1 X173.431 Y161.949 E118.49666
G1 X178.005 Y163.291 E119.06868
G1 X183.292 Y164.659 E119.72401
G1 X188.620 Y165.855 E120.37928
G1 X193.985 Y166.880 E121.03473
G1 X198.391 Y167.576 E121.57001
G1 X195.432 Y188.515 E124.10765
G1 X194.835 Y188.431 E124.18000
G1 X194.033 Y188.525 E124.27689
G1 X193.272 Y189.090 E124.39063
G1 X193.018 Y189.678 E124.46749
G1 X189.518 Y196.329 E125.36938
G1 X188.203 Y198.413 E125.66508
G1 X185.558 Y197.930 E125.98773
G1 X185.062 Y195.503 E126.28499
G1 X184.196 Y188.498 E127.13199
G1 X184.141 Y188.061 E127.18484
G1 X184.112 Y187.418 E127.26208
G1 X183.601 Y186.619 E127.37589
G1 X182.882 Y186.248 E127.47298
G1 X179.756 Y185.545 E127.85747
G1 X178.949 Y185.574 E127.95437
G1 X178.145 Y186.076 E128.06812
G1 X177.853 Y186.630 E128.14327
G1 X173.814 Y192.999 E129.04827
G1 X172.342 Y194.962 E129.34270
G1 X169.745 Y194.268 E129.66528
G1 X169.447 Y191.818 E129.96145
G1 X169.126 Y184.308 E130.86347
G1 X169.149 Y183.672 E130.93984
G1 X168.704 Y182.836 E131.05349
G1 X168.018 Y182.407 E131.15058
G1 X164.930 Y181.447 E131.53863
G1 X164.124 Y181.410 E131.63545
G1 X163.280 Y181.845 E131.74940
G1 X162.942 Y182.378 E131.82513
G1 X161.112 Y184.807 E132.19008
G1 X160.732 Y185.311 E132.26582
G1 X158.405 Y188.398 E132.72972
G1 X156.780 Y190.235 E133.02403
G1 X154.247 Y189.334 E133.34665
G1 X154.164 Y187.262 E133.59548
G1 X154.148 Y186.869 E133.64268
G1 X154.434 Y179.357 E134.54478
G1 X154.507 Y178.724 E134.62124
G1 X154.132 Y177.854 E134.73493
G1 X153.481 Y177.372 E134.83213
G1 X150.999 Y176.374 E135.15314
G1 X150.511 Y176.177 E135.21630
G1 X149.707 Y176.075 E135.31355
G1 X148.834 Y176.444 E135.42728
G1 X148.450 Y176.950 E135.50351
G1 X143.452 Y182.575 E136.40647
G1 X141.679 Y184.281 E136.70173
G1 X139.226 Y183.179 E137.02443
G1 X139.310 Y181.110 E137.27291
G1 X139.326 Y180.719 E137.31987
G1 X139.386 Y180.215 E137.38078
G1 X140.216 Y173.253 E138.22213
G1 X140.341 Y172.623 E138.29921
G1 X140.035 Y171.726 E138.41294
G1 X139.427 Y171.195 E138.50980
G1 X136.534 Y169.751 E138.89781
G1 X135.743 Y169.584 E138.99482
G1 X134.843 Y169.881 E139.10855
G1 X134.417 Y170.355 E139.18502
G1 X128.983 Y175.559 E140.08790
G1 X127.078 Y177.117 E140.38322
G1 X124.723 Y175.821 E140.70578
G1 X125.021 Y173.368 E141.00231
G1 X126.507 Y166.012 E141.90286
G1 X126.684 Y165.390 E141.98046
G1 X126.452 Y164.470 E142.09432
G1 X125.888 Y163.891 E142.19131
G1 X123.147 Y162.235 E142.57560
G1 X122.371 Y162.005 E142.67273
G1 X121.450 Y162.228 E142.78644
G1 X120.986 Y162.668 E142.86317
G1 X115.159 Y167.412 E143.76485
G1 X113.128 Y168.815 E144.06106
G1 X110.886 Y167.334 E144.38350
G1 X111.380 Y164.916 E144.67966
G1 X113.456 Y157.698 E145.58093
G1 X113.679 Y157.094 E145.65819
G1 X113.523 Y156.160 E145.77183
G1 X113.008 Y155.537 E145.86882
G1 X110.651 Y153.839 E146.21741
G1 X110.384 Y153.646 E146.25695
G1 X109.629 Y153.355 E146.35405
G1 X108.693 Y153.503 E146.46776
G1 X108.200 Y153.902 E146.54387
G1 X102.004 Y158.164 E147.44631
G1 X99.869 Y159.399 E147.74228
G1 X97.752 Y157.740 E148.06503
G1 X98.436 Y155.382 E148.35966
G1 X101.092 Y148.340 E149.26281
G1 X101.364 Y147.760 E149.33968
G1 X101.281 Y146.816 E149.45340
G1 X100.819 Y146.154 E149.55027
G1 X98.379 Y144.079 E149.93463
G1 X97.651 Y143.728 E150.03161
G1 X96.706 Y143.799 E150.14533
G1 X96.173 Y144.163 E150.22278
G1 X89.657 Y147.909 E151.12471
G1 X87.434 Y148.965 E151.42004
G1 X85.458 Y147.142 E151.74265
G1 X86.334 Y144.836 E152.03867
G1 X89.544 Y138.039 E152.94069
G1 X89.861 Y137.485 E153.01729
G1 X89.854 Y136.537 E153.13105
G1 X89.448 Y135.840 E153.22784
G1 X87.160 Y133.553 E153.61605
G1 X86.463 Y133.144 E153.71302
G1 X85.514 Y133.140 E153.82690
G1 X84.964 Y133.454 E153.90290
G1 X78.158 Y136.669 E154.80616
G1 X75.858 Y137.542 E155.10137
G1 X74.034 Y135.565 E155.42416
G1 X74.923 Y133.695 E155.67263
G1 X75.093 Y133.338 E155.72008
G1 X76.307 Y131.225 E156.01251
G1 X77.318 Y129.470 E156.25555
G1 X78.841 Y126.822 E156.62212
G1 X79.201 Y126.294 E156.69881
G1 X79.272 Y125.349 E156.81252
G1 X78.921 Y124.621 E156.90951
G1 X76.847 Y122.182 E157.29370
G1 X76.184 Y121.718 E157.39081
G1 X75.240 Y121.637 E157.50450
G1 X74.665 Y121.905 E157.58063
G1 X67.617 Y124.564 E158.48458
G1 X65.260 Y125.248 E158.77909
G1 X63.601 Y123.131 E159.10184
G1 X64.836 Y120.996 E159.39782
G1 X69.101 Y114.795 E160.30095
G1 X69.496 Y114.305 E160.37648
G1 X69.644 Y113.371 E160.48996
G1 X69.353 Y112.616 E160.58705
G1 X67.655 Y110.258 E160.93574
G1 X67.463 Y109.992 E160.97511
G1 X66.841 Y109.478 E161.07194
G1 X65.906 Y109.319 E161.18575
G1 X65.300 Y109.545 E161.26336
G1 X58.084 Y111.620 E162.16437
G1 X55.666 Y112.114 E162.46052
G1 X54.185 Y109.872 E162.78296
G1 X55.588 Y107.841 E163.07918
G1 X60.337 Y102.007 E163.98188
G1 X60.772 Y101.548 E164.05777
G1 X60.995 Y100.628 E164.17137
G1 X60.765 Y99.853 E164.26838
G1 X59.109 Y97.112 E164.65266
G1 X58.530 Y96.548 E164.74966
G1 X57.610 Y96.316 E164.86352
G1 X56.988 Y96.493 E164.94112
G1 X49.631 Y97.979 E165.84179
G1 X47.180 Y98.277 E166.13807
G1 X45.884 Y95.922 E166.46064
G1 X47.441 Y94.017 E166.75588
G1 X52.643 Y88.584 E167.65850
G1 X53.120 Y88.157 E167.73533
G1 X53.414 Y87.257 E167.84894
G1 X53.250 Y86.466 E167.94588
G1 X51.805 Y83.572 E168.33405
G1 X51.273 Y82.965 E168.43090
G1 X50.376 Y82.659 E168.54463
G1 X49.745 Y82.784 E168.62183
G1 X43.261 Y83.556 E169.40540
G1 X42.633 Y83.632 E169.48131
G1 X42.282 Y83.674 E169.52373
G1 X39.821 Y83.772 E169.81929
G1 X38.718 Y81.321 E170.14182
G1 X40.431 Y79.541 E170.43826
G1 X46.042 Y74.556 E171.33893
G1 X46.558 Y74.165 E171.41662
G1 X46.923 Y73.291 E171.53028
G1 X46.823 Y72.490 E171.62714
G1 X45.825 Y70.005 E171.94849
G1 X45.627 Y69.517 E172.01169
G1 X45.146 Y68.869 E172.10853
G1 X44.276 Y68.491 E172.22236
G1 X43.636 Y68.567 E172.29970
G1 X36.128 Y68.852 E173.20131
G1 X33.666 Y68.753 E173.49699
G1 X32.765 Y66.221 E173.81949
G1 X34.608 Y64.590 E174.11482
G1 X40.256 Y60.334 E174.96346
G1 X40.661 Y60.034 E175.02394
G1 X41.153 Y59.717 E175.09417
G1 X41.590 Y58.878 E175.20769
G1 X41.553 Y58.070 E175.30475
G1 X40.593 Y54.982 E175.69281
G1 X40.164 Y54.296 E175.78990
G1 X39.328 Y53.851 E175.90355
G1 X38.692 Y53.874 E175.97992
G1 X31.181 Y53.553 E176.88206
G1 X28.732 Y53.256 E177.17809
G1 X28.038 Y50.658 E177.50078
G1 X30.006 Y49.182 E177.79598
G1 X32.937 Y47.323 E178.21248
G1 X33.778 Y46.789 E178.33203
G1 X36.360 Y45.152 E178.69889
G1 X36.922 Y44.854 E178.77523
G1 X37.426 Y44.052 E178.88889
G1 X37.454 Y43.242 E178.98615
G1 X36.869 Y40.631 E179.30724
G1 X36.752 Y40.117 E179.37050
G1 X36.381 Y39.399 E179.46748
G1 X35.582 Y38.888 E179.58129
G1 X34.936 Y38.858 E179.65889
G1 X27.489 Y37.937 E180.55934
G1 X25.070 Y37.442 E180.85564
G1 X24.587 Y34.797 E181.17829
G1 X26.676 Y33.479 E181.47469
G1 X33.320 Y29.981 E182.37572
G0 F12000 X95.741 Y136.340
G1 F1200 X94.362 Y138.287 E182.66203
G1 X96.364 Y139.705 E182.95642
G1 X97.207 Y140.302 E183.08038
G1 X98.768 Y138.420 E183.37380
G1 X98.613 Y137.360 E183.50235
G1 X98.482 Y136.518 E183.60460
G1 X95.741 Y136.340 E183.93422
G0 F12000 X95.938 Y136.753
