;FLAVOR:UltiGCode
;TIME:13947
;MATERIAL:14925
;MATERIAL2:0
;NOZZLE_DIAMETER:0.400000
;NOZZLE_DIAMETER2:0.400000

;Layer count: 63
;LAYER:0
M107
G0 F12000 X29.739 Y23.997 Z0.300
G0 X30.149 Y26.905
;TYPE:SKIRT
G1 F1200 X29.739 Y23.997 E0.35241
G1 X54.442 Y20.505 E3.34624
G1 X54.442 Y20.506 E3.34636
G1 X54.944 Y20.434 E3.40722
G1 X58.932 Y19.874 E3.89047
G1 X59.511 Y23.562 E4.33845
G1 X60.151 Y27.620 E4.83143
G1 X60.150 Y27.620 E4.83155
G1 X60.257 Y28.291 E4.91309
G1 X60.385 Y28.962 E4.99506
G1 X61.259 Y33.533 E5.55352
G1 X62.274 Y38.056 E6.10978
G1 X62.426 Y38.733 E6.19304
G1 X62.594 Y39.381 E6.27337
G1 X63.758 Y43.878 E6.83080
G1 X63.950 Y44.533 E6.91270
G1 X63.949 Y44.533 E6.91282
G1 X65.251 Y48.966 E7.46725
G1 X65.476 Y49.656 E7.55434
G1 X65.662 Y50.218 E7.62538
G1 X66.933 Y54.083 E8.11362
G1 X68.521 Y58.434 E8.66942
G1 X68.749 Y59.058 E8.74915
G1 X69.010 Y59.708 E8.83320
G1 X70.743 Y64.018 E9.39064
G1 X71.017 Y64.641 E9.47231
G1 X72.885 Y68.890 E10.02929
G1 X74.892 Y73.080 E10.58680
G1 X75.177 Y73.675 E10.66597
G1 X75.511 Y74.321 E10.75323
G1 X75.784 Y74.845 E10.82414
G1 X77.655 Y78.447 E11.31121
G1 X77.988 Y79.041 E11.39293
G1 X80.263 Y83.095 E11.95077
G1 X82.661 Y87.064 E12.50723
G1 X83.020 Y87.657 E12.59042
G1 X83.386 Y88.220 E12.67100
G1 X85.913 Y92.115 E13.22815
G1 X88.581 Y95.950 E13.78876
G1 X88.972 Y96.512 E13.87092
G1 X92.163 Y100.794 E14.51174
G1 X95.457 Y104.931 E15.14633
G1 X95.912 Y105.466 E15.23061
G1 X98.928 Y109.011 E15.78913
G1 X102.497 Y112.944 E16.42645
G1 X102.975 Y113.438 E16.50894
G1 X106.206 Y116.775 E17.06632
G1 X109.560 Y120.023 E17.62659
G1 X110.056 Y120.503 E17.70942
G1 X113.984 Y124.068 E18.34597
G1 X114.514 Y124.518 E18.42940
G1 X118.049 Y127.526 E18.98639
G1 X122.202 Y130.833 E19.62345
G1 X122.763 Y131.252 E19.70747
G1 X126.479 Y134.020 E20.26351
G1 X130.900 Y137.097 E20.90988
G1 X135.339 Y139.978 E21.54491
G1 X139.908 Y142.739 E22.18552
G1 X140.502 Y143.072 E22.26724
G1 X144.558 Y145.347 E22.82530
G1 X145.157 Y145.658 E22.90629
G1 X149.265 Y147.793 E23.46185
G1 X149.786 Y148.043 E23.53119
G1 X150.447 Y148.360 E23.61916
G1 X154.100 Y150.110 E24.10523
G1 X154.730 Y150.387 E24.18781
G1 X158.981 Y152.257 E24.74511
G1 X163.293 Y153.989 E25.30273
G1 X163.926 Y154.245 E25.38467
G1 X168.925 Y156.070 E26.02327
G1 X169.572 Y156.282 E26.10497
G1 X174.008 Y157.741 E26.66535
G1 X179.117 Y159.241 E27.30430
G1 X179.781 Y159.412 E27.38658
G1 X184.275 Y160.575 E27.94363
G1 X184.942 Y160.725 E28.02567
G1 X189.481 Y161.745 E28.58393
G1 X194.037 Y162.614 E29.14051
G1 X194.710 Y162.743 E29.22274
G1 X199.294 Y163.465 E29.77960
G1 X203.128 Y164.073 E30.24543
G1 X199.003 Y193.261 E33.78279
G1 X196.096 Y192.850 E34.13510
G1 X193.398 Y197.975 E34.83012
G1 X193.155 Y198.436 E34.89265
G1 X190.241 Y203.055 E35.54802
G1 X184.673 Y202.040 E36.22719
G1 X182.010 Y201.549 E36.55213
G1 X180.916 Y196.196 E37.20777
G1 X180.776 Y195.053 E37.34596
G1 X180.238 Y190.714 E37.87062
G1 X177.637 Y194.816 E38.45348
G1 X177.278 Y195.381 E38.53381
G1 X174.002 Y199.750 E39.18910
G1 X171.386 Y199.055 E39.51391
G1 X165.917 Y197.593 E40.19324
G1 X165.258 Y192.166 E40.84926
G1 X165.230 Y191.495 E40.92985
G1 X165.021 Y186.598 E41.51803
G1 X163.593 Y188.493 E41.80276
G1 X161.979 Y190.634 E42.12451
G1 X161.667 Y191.048 E42.18672
G1 X159.763 Y193.202 E42.53170
G1 X158.044 Y195.144 E42.84292
G1 X150.165 Y192.338 E43.84657
G1 X149.945 Y186.878 E44.50231
G1 X150.155 Y181.355 E45.16554
G1 X146.929 Y184.986 E45.74839
G1 X146.484 Y185.486 E45.82872
G1 X144.414 Y187.478 E46.17345
G1 X142.546 Y189.275 E46.48450
G1 X137.387 Y186.957 E47.16319
G1 X134.917 Y185.845 E47.48825
G1 X135.137 Y180.385 E48.14398
G1 X135.272 Y179.242 E48.28209
G1 X135.688 Y175.767 E48.70207
G1 X135.687 Y175.767 E48.70219
G1 X135.796 Y174.850 E48.81300
G1 X131.771 Y178.705 E49.48180
G1 X127.539 Y182.164 E50.13769
G1 X120.212 Y178.131 E51.14132
G1 X120.870 Y172.706 E51.79710
G1 X121.386 Y170.150 E52.11000
G1 X121.494 Y169.616 E52.17538
G1 X121.693 Y168.635 E52.29550
G1 X121.966 Y167.287 E52.46054
G1 X118.198 Y170.353 E53.04348
G1 X117.680 Y170.775 E53.12365
G1 X113.184 Y173.883 E53.77954
G1 X110.924 Y172.393 E54.10437
G1 X106.203 Y169.273 E54.78343
G1 X107.297 Y163.918 E55.43930
G1 X108.836 Y158.563 E56.10792
G1 X108.077 Y159.085 E56.21846
G1 X106.881 Y159.907 E56.39261
G1 X104.675 Y161.425 E56.71395
G1 X104.246 Y161.720 E56.77642
G1 X101.759 Y163.158 E57.12116
G1 X99.514 Y164.456 E57.43235
G1 X92.929 Y159.297 E58.43618
G1 X94.296 Y154.580 E59.02551
G1 X94.451 Y154.046 E59.09223
G1 X95.371 Y151.608 E59.40493
G1 X95.859 Y150.313 E59.57100
G1 X96.401 Y148.876 E59.75529
G1 X92.194 Y151.295 E60.33764
G1 X92.194 Y151.296 E60.33776
G1 X91.612 Y151.631 E60.41834
G1 X86.674 Y153.978 E61.07443
G1 X80.525 Y148.305 E62.07837
G1 X82.268 Y143.712 E62.66788
G1 X82.466 Y143.193 E62.73454
G1 X82.751 Y142.590 E62.81458
G1 X84.845 Y138.155 E63.40312
G1 X83.575 Y138.755 E63.57167
G1 X82.563 Y139.233 E63.70597
G1 X79.804 Y140.536 E64.07212
G1 X77.123 Y141.554 E64.41625
G1 X74.698 Y142.479 E64.72770
G1 X69.022 Y136.327 E65.73215
G1 X71.368 Y131.391 E66.38797
G1 X72.667 Y129.131 E66.70078
G1 X74.124 Y126.598 E67.05144
G1 X73.291 Y126.912 E67.15826
G1 X73.291 Y126.913 E67.15838
G1 X68.953 Y128.549 E67.71473
G1 X63.703 Y130.072 E68.37070
G1 X58.545 Y123.486 E69.37456
G1 X61.280 Y118.754 E70.03042
G1 X63.334 Y115.768 E70.46533
G1 X63.645 Y115.317 E70.53107
G1 X64.439 Y114.163 E70.69916
G1 X63.551 Y114.418 E70.81003
G1 X62.160 Y114.818 E70.98371
G1 X59.581 Y115.559 E71.30571
G1 X59.084 Y115.703 E71.36781
G1 X53.727 Y116.797 E72.02391
G1 X50.609 Y112.077 E72.70274
G1 X49.116 Y109.817 E73.02777
G1 X52.224 Y105.321 E73.68366
G1 X55.713 Y101.035 E74.34684
G1 X54.840 Y101.211 E74.45371
G1 X50.296 Y102.129 E75.01001
G1 X47.442 Y102.477 E75.35502
G1 X47.442 Y102.476 E75.35514
G1 X44.868 Y102.791 E75.66633
G1 X43.563 Y100.416 E75.99152
G1 X43.564 Y100.416 E75.99164
G1 X40.836 Y95.461 E76.67040
G1 X43.944 Y91.660 E77.25959
G1 X44.295 Y91.230 E77.32620
G1 X46.802 Y88.612 E77.76117
G1 X47.180 Y88.217 E77.82678
G1 X48.150 Y87.204 E77.99508
G1 X46.756 Y87.371 E78.16355
G1 X45.794 Y87.485 E78.27980
G1 X43.132 Y87.802 E78.60150
G1 X43.132 Y87.801 E78.60162
G1 X42.616 Y87.863 E78.66398
G1 X39.750 Y87.979 E79.00819
G1 X37.155 Y88.088 E79.31986
G1 X36.044 Y85.613 E79.64541
G1 X33.724 Y80.453 E80.32432
G1 X37.129 Y76.918 E80.91330
G1 X37.128 Y76.917 E80.91347
G1 X37.513 Y76.516 E80.98018
G1 X41.646 Y72.845 E81.64353
G1 X36.793 Y73.030 E82.22631
G1 X36.123 Y73.055 E82.30677
G1 X30.659 Y72.835 E82.96298
G1 X29.753 Y70.282 E83.28806
G1 X29.754 Y70.282 E83.28818
G1 X27.855 Y64.954 E83.96694
G1 X31.536 Y61.701 E84.55642
G1 X31.951 Y61.333 E84.62298
G1 X32.489 Y60.929 E84.70372
G1 X36.402 Y57.980 E85.29170
G1 X35.479 Y57.941 E85.40256
G1 X34.032 Y57.879 E85.57636
G1 X33.487 Y57.856 E85.64181
G1 X30.833 Y57.742 E85.96059
G1 X27.980 Y57.396 E86.30546
G1 X25.404 Y57.081 E86.61688
G1 X24.708 Y54.462 E86.94207
G1 X24.709 Y54.462 E86.94219
G1 X23.246 Y49.001 E87.62062
G1 X27.620 Y45.721 E88.27668
G1 X30.280 Y44.035 E88.65460
G1 X31.124 Y43.501 E88.77445
G1 X32.287 Y42.763 E88.93973
G1 X31.403 Y42.654 E89.04662
G1 X26.802 Y42.083 E89.60297
G1 X21.448 Y40.989 E90.25873
G1 X19.944 Y32.760 E91.26257
G1 X24.567 Y29.844 E91.91846
G1 X30.149 Y26.905 E92.67548
G10
G1 Z0.400
G0 F12000 X33.325 Y29.980
;TYPE:WALL-INNER
G1 Z0.300
G11
G1 F1200 X33.910 Y29.726 E92.75201
G1 X34.475 Y28.968 E92.86546
G1 X34.569 Y28.165 E92.96248
G1 X34.485 Y27.568 E93.03482
G1 X55.424 Y24.609 E95.57247
G1 X56.002 Y28.275 E96.01782
G1 X56.120 Y29.016 E96.10786
G1 X57.145 Y34.380 E96.76319
G1 X58.341 Y39.708 E97.41846
G1 X59.709 Y44.996 E98.07391
G1 X61.247 Y50.235 E98.72912
G1 X61.488 Y50.973 E98.82228
G1 X61.673 Y51.532 E98.89294
G1 X62.961 Y55.450 E99.38785
G1 X64.834 Y60.580 E100.04320
G1 X66.871 Y65.648 E100.69865
G1 X69.070 Y70.647 E101.35400
G1 X71.429 Y75.571 E102.00919
G1 X71.785 Y76.261 E102.10236
G1 X72.058 Y76.784 E102.17316
G1 X73.959 Y80.443 E102.66796
G1 X76.631 Y85.205 E103.32321
G1 X79.456 Y89.880 E103.97868
G1 X82.429 Y94.461 E104.63402
G1 X85.561 Y98.964 E105.29223
G1 X88.827 Y103.345 E105.94796
G1 X92.229 Y107.617 E106.60330
G1 X95.768 Y111.778 E107.25879
G1 X99.437 Y115.822 E107.91403
G1 X103.236 Y119.745 E108.56935
G1 X107.178 Y123.563 E109.22789
G1 X111.223 Y127.233 E109.88331
G1 X115.383 Y130.771 E110.53863
G1 X119.655 Y134.173 E111.19396
G1 X124.035 Y137.437 E111.84945
G1 X128.539 Y140.572 E112.50797
G1 X133.120 Y143.545 E113.16331
G1 X137.795 Y146.369 E113.81872
G1 X142.558 Y149.041 E114.47408
G1 X143.223 Y149.386 E114.56398
G1 X147.404 Y151.559 E115.12941
G1 X147.972 Y151.831 E115.20498
G1 X152.353 Y153.930 E115.78793
G1 X157.353 Y156.129 E116.44339
G1 X162.420 Y158.166 E117.09873
G1 X167.551 Y160.039 E117.75419
G1 X168.261 Y160.271 E117.84382
G1 X172.738 Y161.745 E118.40943
G1 X178.005 Y163.291 E119.06814
G1 X183.293 Y164.659 E119.72359
G1 X188.621 Y165.856 E120.37888
G1 X193.984 Y166.880 E121.03407
G1 X198.391 Y167.576 E121.56946
G1 X195.432 Y188.515 E124.10711
G1 X194.836 Y188.431 E124.17933
G1 X194.032 Y188.525 E124.27647
G1 X193.273 Y189.091 E124.39009
G1 X193.021 Y189.675 E124.46641
G1 X189.684 Y196.015 E125.32616
G1 X189.521 Y196.323 E125.36798
G1 X188.202 Y198.414 E125.66465
G1 X185.558 Y197.931 E125.98718
G1 X185.065 Y195.522 E126.28225
G1 X184.141 Y188.052 E127.18548
G1 X184.112 Y187.418 E127.26164
G1 X183.601 Y186.619 E127.37546
G1 X182.883 Y186.248 E127.47244
G1 X180.271 Y185.661 E127.79370
G1 X179.758 Y185.545 E127.85681
G1 X178.948 Y185.574 E127.95407
G1 X178.146 Y186.077 E128.06767
G1 X177.850 Y186.637 E128.14368
G1 X173.821 Y192.991 E129.04653
G1 X172.342 Y194.963 E129.34233
G1 X169.745 Y194.269 E129.66490
G1 X169.447 Y191.817 E129.96131
G1 X169.127 Y184.310 E130.86297
G1 X169.150 Y183.672 E130.93958
G1 X168.703 Y182.835 E131.05344
G1 X168.018 Y182.407 E131.15037
G1 X165.247 Y181.546 E131.49857
G1 X164.932 Y181.447 E131.53819
G1 X164.122 Y181.410 E131.63550
G1 X163.282 Y181.847 E131.74912
G1 X162.937 Y182.384 E131.82571
G1 X158.405 Y188.398 E132.72936
G1 X156.780 Y190.235 E133.02367
G1 X154.247 Y189.334 E133.34629
G1 X154.148 Y186.872 E133.64197
G1 X154.433 Y179.364 E134.54358
G1 X154.509 Y178.724 E134.62092
G1 X154.131 Y177.854 E134.73475
G1 X153.483 Y177.372 E134.83166
G1 X150.999 Y176.374 E135.15290
G1 X150.512 Y176.177 E135.21594
G1 X149.709 Y176.075 E135.31307
G1 X148.834 Y176.443 E135.42698
G1 X148.450 Y176.950 E135.50330
G1 X143.452 Y182.575 E136.40626
G1 X141.679 Y184.281 E136.70152
G1 X139.227 Y183.179 E137.02411
G1 X139.326 Y180.721 E137.31931
G1 X140.216 Y173.255 E138.22157
G1 X140.341 Y172.624 E138.29876
G1 X140.035 Y171.727 E138.41249
G1 X139.428 Y171.195 E138.50935
G1 X136.534 Y169.750 E138.89752
G1 X135.743 Y169.586 E138.99445
G1 X134.843 Y169.880 E139.10807
G1 X134.416 Y170.357 E139.18489
G1 X128.983 Y175.559 E140.08752
G1 X127.078 Y177.116 E140.38276
G1 X124.723 Y175.820 E140.70532
G1 X125.021 Y173.369 E141.00161
G1 X125.610 Y170.450 E141.35895
G1 X125.809 Y169.472 E141.47871
G1 X126.510 Y166.004 E141.90329
G1 X126.684 Y165.388 E141.98010
G1 X126.452 Y164.470 E142.09373
G1 X125.888 Y163.891 E142.19072
G1 X123.147 Y162.235 E142.57501
G1 X122.372 Y162.005 E142.67202
G1 X121.452 Y162.228 E142.78562
G1 X120.993 Y162.663 E142.86150
G1 X115.159 Y167.412 E143.76421
G1 X113.128 Y168.815 E144.06042
G1 X110.886 Y167.334 E144.38286
G1 X111.380 Y164.916 E144.67902
G1 X113.455 Y157.700 E145.58003
G1 X113.681 Y157.094 E145.65764
G1 X113.522 Y156.159 E145.77145
G1 X113.008 Y155.537 E145.86828
G1 X110.384 Y153.647 E146.25633
G1 X109.629 Y153.356 E146.35343
G1 X108.694 Y153.504 E146.46703
G1 X108.200 Y153.903 E146.54323
G1 X102.004 Y158.164 E147.44560
G1 X99.869 Y159.399 E147.74157
G1 X97.752 Y157.740 E148.06433
G1 X98.435 Y155.386 E148.35846
G1 X101.095 Y148.335 E149.26278
G1 X101.363 Y147.760 E149.33891
G1 X101.282 Y146.816 E149.45261
G1 X100.818 Y146.153 E149.54971
G1 X98.379 Y144.079 E149.93391
G1 X97.652 Y143.728 E150.03078
G1 X96.706 Y143.799 E150.14462
G1 X96.178 Y144.159 E150.22131
G1 X89.652 Y147.912 E151.12469
G1 X87.435 Y148.966 E151.41926
G1 X85.459 Y147.142 E151.74196
G1 X86.194 Y145.205 E151.99057
G1 X86.331 Y144.844 E152.03691
G1 X89.340 Y138.471 E152.88263
G1 X89.721 Y137.729 E152.98272
G1 X89.860 Y137.486 E153.01631
G1 X89.856 Y136.537 E153.13019
G1 X89.447 Y135.840 E153.22717
G1 X87.160 Y133.552 E153.61537
G1 X86.463 Y133.146 E153.71217
G1 X85.516 Y133.139 E153.82581
G1 X84.954 Y133.459 E153.90342
G1 X78.164 Y136.666 E154.80453
G1 X75.857 Y137.541 E155.10061
G1 X74.034 Y135.566 E155.42314
G1 X75.090 Y133.343 E155.71847
G1 X78.837 Y126.827 E156.62045
G1 X79.201 Y126.294 E156.69790
G1 X79.272 Y125.351 E156.81138
G1 X78.923 Y124.622 E156.90837
G1 X76.847 Y122.181 E157.29290
G1 X76.184 Y121.718 E157.38994
G1 X75.239 Y121.637 E157.50376
G1 X74.665 Y121.906 E157.57983
G1 X67.617 Y124.564 E158.48373
G1 X65.260 Y125.248 E158.77824
G1 X63.602 Y123.130 E159.10101
G1 X64.833 Y121.001 E159.39613
G1 X69.098 Y114.800 E160.29926
G1 X69.497 Y114.307 E160.37537
G1 X69.645 Y113.371 E160.48908
G1 X69.354 Y112.616 E160.58618
G1 X67.463 Y109.992 E160.97431
G1 X66.840 Y109.477 E161.07130
G1 X65.906 Y109.321 E161.18494
G1 X65.310 Y109.542 E161.26121
G1 X58.421 Y111.522 E162.12136
G1 X58.076 Y111.622 E162.16447
G1 X55.666 Y112.114 E162.45963
G1 X54.185 Y109.872 E162.78207
G1 X55.588 Y107.841 E163.07829
G1 X60.332 Y102.014 E163.97996
G1 X60.772 Y101.550 E164.05670
G1 X60.995 Y100.627 E164.17064
G1 X60.765 Y99.853 E164.26754
G1 X59.109 Y97.112 E164.65182
G1 X58.530 Y96.548 E164.74882
G1 X57.610 Y96.316 E164.86268
G1 X56.988 Y96.493 E164.94028
G1 X49.632 Y97.979 E165.84083
G1 X47.179 Y98.277 E166.13735
G1 X45.883 Y95.922 E166.45992
G1 X47.441 Y94.017 E166.75524
G1 X52.645 Y88.583 E167.65811
G1 X53.119 Y88.157 E167.73459
G1 X53.416 Y87.257 E167.84832
G1 X53.249 Y86.466 E167.94533
G1 X51.805 Y83.572 E168.33344
G1 X51.273 Y82.965 E168.43030
G1 X50.377 Y82.659 E168.54391
G1 X49.749 Y82.783 E168.62073
G1 X42.278 Y83.674 E169.52360
G1 X39.821 Y83.773 E169.81868
G1 X38.719 Y81.321 E170.14127
G1 X40.425 Y79.548 E170.43653
G1 X46.050 Y74.550 E171.33949
G1 X46.556 Y74.166 E171.41572
G1 X46.925 Y73.293 E171.52945
G1 X46.823 Y72.489 E171.62670
G1 X45.628 Y69.517 E172.01109
G1 X45.145 Y68.868 E172.10817
G1 X44.276 Y68.493 E172.22175
G1 X43.643 Y68.566 E172.29821
G1 X36.128 Y68.852 E173.20066
G1 X33.667 Y68.753 E173.49622
G1 X32.765 Y66.220 E173.81888
G1 X34.608 Y64.590 E174.11413
G1 X40.247 Y60.341 E174.96140
G1 X40.897 Y59.884 E175.05675
G1 X41.155 Y59.719 E175.09350
G1 X41.590 Y58.877 E175.20723
G1 X41.554 Y58.071 E175.30405
G1 X40.593 Y54.983 E175.69213
G1 X40.166 Y54.296 E175.78920
G1 X39.328 Y53.851 E175.90306
G1 X38.692 Y53.874 E175.97943
G1 X31.181 Y53.553 E176.88157
G1 X28.733 Y53.256 E177.17749
G1 X28.038 Y50.657 E177.50033
G1 X30.006 Y49.182 E177.79545
G1 X36.364 Y45.151 E178.69883
G1 X36.924 Y44.855 E178.77484
G1 X37.426 Y44.051 E178.88858
G1 X37.455 Y43.243 E178.98561
G1 X36.752 Y40.118 E179.36998
G1 X36.382 Y39.400 E179.46691
G1 X35.584 Y38.888 E179.58068
G1 X34.936 Y38.858 E179.65852
G1 X27.489 Y37.937 E180.55897
G1 X25.070 Y37.442 E180.85527
G1 X24.587 Y34.797 E181.17792
G1 X26.671 Y33.482 E181.47362
G1 X33.325 Y29.980 E182.37593
G0 F12000 X33.653 Y29.402
G1 F1200 X34.090 Y28.815 E182.46375
G1 X34.166 Y28.170 E182.54169
G1 X34.033 Y27.228 E182.65585
G1 X55.758 Y24.158 E185.28875
G1 X56.397 Y28.212 E185.78124
G1 X56.514 Y28.947 E185.87055
G1 X57.536 Y34.299 E186.52439
G1 X58.730 Y39.615 E187.17820
