;FLAVOR:UltiGCode
;TIME:14645
;MATERIAL:15443
;MATERIAL2:0
;NOZZLE_DIAMETER:0.400000
;NOZZLE_DIAMETER2:0.400000

;Layer count: 70
;LAYER:0
M107
G0 F12000 X30.064 Y24.388 Z0.300
G0 X30.472 Y27.295
;TYPE:SKIRT
G1 F1200 X30.064 Y24.388 E0.35226
G1 X59.233 Y20.177 E3.88883
G1 X59.826 Y23.895 E4.34063
G1 X60.582 Y28.600 E4.91247
G1 X61.500 Y33.331 E5.49078
G1 X62.670 Y38.538 E6.13120
G1 X62.891 Y39.440 E6.24264
G1 X64.126 Y44.160 E6.82811
G1 X65.497 Y48.784 E7.40686
G1 X66.878 Y53.025 E7.94208
G1 X67.131 Y53.764 E8.03582
G1 X68.802 Y58.389 E8.62593
G1 X70.774 Y63.343 E9.26578
G1 X72.720 Y67.807 E9.85014
G1 X75.011 Y72.662 E10.49435
G1 X75.477 Y73.597 E10.61971
G1 X77.475 Y77.473 E11.14299
G1 X80.036 Y82.099 E11.77750
G1 X80.397 Y82.725 E11.86422
G1 X82.958 Y86.997 E12.46192
G1 X85.663 Y91.193 E13.06100
G1 X88.700 Y95.609 E13.70414
G1 X89.262 Y96.388 E13.81941
G1 X92.048 Y100.153 E14.38145
G1 X95.180 Y104.113 E14.98732
G1 X95.536 Y104.548 E15.05477
G1 X98.813 Y108.428 E15.66421
G1 X102.230 Y112.216 E16.27639
G1 X102.364 Y112.364 E16.30035
G1 X105.929 Y116.071 E16.91751
G1 X106.482 Y116.621 E17.01111
G1 X109.741 Y119.797 E17.55718
G1 X113.798 Y123.512 E18.21729
G1 X117.727 Y126.875 E18.83790
G1 X121.904 Y130.230 E19.48081
G1 X126.191 Y133.452 E20.12434
G1 X126.795 Y133.880 E20.21318
G1 X130.601 Y136.546 E20.77080
G1 X135.098 Y139.490 E21.41579
G1 X139.650 Y142.260 E22.05522
G1 X141.943 Y143.555 E22.37123
G1 X142.304 Y147.990 E22.90519
G1 X142.427 Y149.733 E23.11487
G1 X143.621 Y162.147 E24.61143
G1 X144.663 Y173.501 E25.97963
G1 X144.916 Y176.547 E26.34641
G1 X145.073 Y178.767 E26.61348
G1 X145.043 Y178.917 E26.63183
G1 X145.562 Y185.531 E27.42795
G1 X142.135 Y188.806 E27.99678
G1 X134.514 Y185.351 E29.00089
G1 X134.754 Y179.906 E29.65493
G1 X135.261 Y175.751 E30.15723
G1 X135.432 Y174.359 E30.32552
G1 X134.382 Y175.358 E30.49944
G1 X131.392 Y178.200 E30.99446
G1 X127.151 Y181.645 E31.65013
G1 X119.836 Y177.587 E32.65395
G1 X120.513 Y172.164 E33.30976
G1 X121.117 Y169.228 E33.66946
G1 X121.345 Y168.122 E33.80497
G1 X121.627 Y166.749 E33.97317
G1 X120.470 Y167.685 E34.15175
G1 X117.328 Y170.225 E34.63659
G1 X112.821 Y173.317 E35.29247
G1 X107.786 Y169.966 E36.01825
G1 X105.860 Y168.672 E36.29669
G1 X106.969 Y163.332 E36.95116
G1 X108.093 Y159.471 E37.43371
G1 X108.528 Y157.979 E37.62021
G1 X107.222 Y158.871 E37.80999
G1 X106.336 Y159.476 E37.93874
G1 X103.926 Y161.123 E38.28902
G1 X99.184 Y163.843 E38.94503
G1 X94.489 Y160.139 E39.66265
G1 X92.617 Y158.660 E39.94894
G1 X94.106 Y153.590 E40.58303
G1 X95.219 Y150.625 E40.96308
G1 X95.613 Y149.596 E41.09530
G1 X96.124 Y148.253 E41.26773
G1 X91.323 Y150.992 E41.93101
G1 X86.379 Y153.322 E42.58688
G1 X82.041 Y149.293 E43.29732
G1 X80.250 Y147.631 E43.59053
G1 X82.206 Y142.526 E44.24655
G1 X84.584 Y137.535 E44.90998
G1 X83.090 Y138.235 E45.10796
G1 X82.143 Y138.678 E45.23342
G1 X79.576 Y139.879 E45.57351
G1 X74.461 Y141.802 E46.22925
G1 X68.808 Y135.634 E47.23325
G1 X71.006 Y131.051 E47.84319
G1 X71.173 Y130.704 E47.88940
G1 X72.557 Y128.312 E48.22102
G1 X73.092 Y127.391 E48.34884
G1 X73.942 Y125.924 E48.55229
G1 X72.339 Y126.523 E48.75764
G1 X68.764 Y127.857 E49.21554
G1 X63.510 Y129.362 E49.87138
G1 X58.373 Y122.758 E50.87538
G1 X60.914 Y118.400 E51.48074
G1 X61.127 Y118.035 E51.53145
G1 X64.299 Y113.456 E52.19990
G1 X62.578 Y113.944 E52.41456
G1 X62.578 Y113.943 E52.41468
G1 X61.601 Y114.222 E52.53660
G1 X58.936 Y114.978 E52.86902
G1 X53.578 Y116.054 E53.52482
G1 X48.990 Y109.058 E54.52877
G1 X51.917 Y104.855 E55.14338
G1 X53.819 Y102.492 E55.50738
G1 X55.616 Y100.299 E55.84761
G1 X50.195 Y101.375 E56.51082
G1 X44.768 Y102.017 E57.16660
G1 X40.758 Y94.675 E58.17049
G1 X43.998 Y90.739 E58.78225
G1 X46.812 Y87.778 E59.27243
G1 X48.099 Y86.442 E59.49504
G1 X46.256 Y86.657 E59.71770
G1 X42.564 Y87.084 E60.16369
G1 X37.102 Y87.285 E60.81958
G1 X34.779 Y82.070 E61.50466
G1 X33.699 Y79.643 E61.82343
G1 X37.149 Y76.081 E62.41849
G1 X37.502 Y75.718 E62.47925
G1 X40.259 Y73.284 E62.92058
G1 X41.645 Y72.061 E63.14239
G1 X36.120 Y72.254 E63.80579
G1 X30.659 Y72.015 E64.46174
G1 X29.016 Y67.346 E65.05570
G1 X29.017 Y67.346 E65.05582
G1 X28.167 Y64.936 E65.36248
G1 X32.196 Y61.349 E66.00981
G1 X32.589 Y61.002 E66.07272
G1 X36.989 Y57.666 E66.73532
G1 X36.703 Y57.655 E66.76966
G1 X31.468 Y57.447 E67.39836
G1 X25.619 Y56.753 E68.10516
G1 X23.632 Y49.412 E69.01778
G1 X27.569 Y46.442 E69.60958
G1 X27.999 Y46.118 E69.67418
G1 X30.213 Y44.705 E69.98936
G1 X31.067 Y44.160 E70.11093
G1 X32.655 Y43.147 E70.33696
G1 X27.168 Y42.484 E71.00019
G1 X21.810 Y41.407 E71.65601
G1 X20.776 Y35.842 E72.33524
G1 X20.286 Y33.180 E72.66005
G1 X24.436 Y30.542 E73.25015
G1 X24.898 Y30.250 E73.31573
G1 X28.126 Y28.539 E73.75414
G1 X30.472 Y27.295 E74.07279
G10
G1 Z0.400
G0 F12000 X32.855 Y30.785
;TYPE:WALL-INNER
G1 Z0.300
G11
G1 F1200 X33.301 Y30.548 E74.13340
G1 X33.651 Y30.362 E74.18096
G1 X34.239 Y30.108 E74.25782
G1 X34.804 Y29.344 E74.37185
G1 X34.893 Y28.541 E74.46880
G1 X34.808 Y27.947 E74.54081
G1 X55.739 Y24.926 E77.07855
G1 X56.446 Y29.331 E77.61392
G1 X57.392 Y34.207 E78.20995
G1 X58.588 Y39.530 E78.86463
G1 X58.826 Y40.496 E78.98402
G1 X60.083 Y45.300 E79.57991
G1 X61.488 Y50.038 E80.17294
G1 X62.889 Y54.340 E80.71586
G1 X63.178 Y55.183 E80.82280
G1 X64.873 Y59.875 E81.42146
G1 X66.893 Y64.949 E82.07681
G1 X68.901 Y69.556 E82.67988
G1 X71.233 Y74.498 E83.33563
G1 X71.721 Y75.477 E83.46690
G1 X73.769 Y79.450 E84.00327
G1 X76.393 Y84.189 E84.65331
G1 X76.790 Y84.877 E84.74863
G1 X79.396 Y89.223 E85.35672
G1 X82.161 Y93.512 E85.96908
G1 X85.262 Y98.022 E86.62587
G1 X85.858 Y98.849 E86.74820
G1 X88.723 Y102.720 E87.32610
G1 X91.922 Y106.763 E87.94477
G1 X92.306 Y107.234 E88.01769
G1 X95.635 Y111.175 E88.63675
G1 X99.293 Y115.231 E89.29218
G1 X102.916 Y118.998 E89.91936
G1 X103.548 Y119.626 E90.02628
G1 X106.856 Y122.850 E90.58058
G1 X111.016 Y126.660 E91.25751
G1 X115.049 Y130.111 E91.89446
G1 X119.327 Y133.548 E92.55298
G1 X123.716 Y136.846 E93.21178
G1 X124.383 Y137.319 E93.30990
G1 X128.240 Y140.020 E93.87495
G1 X132.859 Y143.045 E94.53752
G1 X137.521 Y145.881 E95.19234
G1 X137.937 Y146.116 E95.24967
G1 X138.115 Y148.303 E95.51298
G1 X138.240 Y150.072 E95.72579
G1 X139.440 Y162.537 E97.22850
G1 X140.478 Y173.862 E98.59320
G1 X140.728 Y176.876 E98.95612
G1 X140.844 Y178.502 E99.15174
G1 X140.811 Y178.670 E99.17228
G1 X141.211 Y183.776 E99.78688
G1 X138.835 Y182.698 E100.09997
G1 X138.942 Y180.259 E100.39294
G1 X139.858 Y172.770 E101.29831
G1 X139.985 Y172.145 E101.37485
G1 X139.680 Y171.249 E101.48842
G1 X139.071 Y170.712 E101.58586
G1 X136.186 Y169.262 E101.97332
G1 X135.395 Y169.093 E102.07039
G1 X134.499 Y169.384 E102.18343
G1 X134.020 Y169.906 E102.26845
G1 X128.618 Y175.043 E103.16300
G1 X126.706 Y176.596 E103.45859
G1 X124.355 Y175.292 E103.78120
G1 X124.659 Y172.856 E104.07578
G1 X126.162 Y165.543 E104.97169
G1 X126.351 Y164.859 E105.05684
G1 X126.120 Y163.946 E105.16986
G1 X125.562 Y163.366 E105.26644
G1 X123.001 Y161.807 E105.62622
G1 X122.829 Y161.700 E105.65053
G1 X122.048 Y161.470 E105.74823
G1 X121.141 Y161.685 E105.86008
G1 X120.524 Y162.239 E105.95959
G1 X114.824 Y166.848 E106.83922
G1 X112.785 Y168.248 E107.13603
G1 X110.547 Y166.759 E107.45859
G1 X111.048 Y164.346 E107.75433
G1 X113.116 Y157.242 E108.64220
G1 X113.357 Y156.564 E108.72854
G1 X113.338 Y156.294 E108.76102
G1 X113.220 Y155.592 E108.84645
G1 X112.708 Y154.969 E108.94321
G1 X110.090 Y153.071 E109.33125
G1 X109.338 Y152.778 E109.42810
G1 X108.414 Y152.919 E109.54026
G1 X107.765 Y153.414 E109.63821
G1 X101.689 Y157.564 E110.52117
G1 X99.557 Y158.787 E110.81611
G1 X97.445 Y157.122 E111.13884
G1 X98.090 Y154.927 E111.41337
G1 X99.146 Y152.116 E111.77371
G1 X99.536 Y151.094 E111.90498
G1 X100.761 Y147.877 E112.31806
G1 X101.070 Y147.182 E112.40933
G1 X101.070 Y146.907 E112.44233
G1 X101.011 Y146.210 E112.52627
G1 X100.550 Y145.545 E112.62337
G1 X98.117 Y143.463 E113.00763
G1 X97.389 Y143.109 E113.10478
G1 X96.444 Y143.178 E113.21848
G1 X95.918 Y143.534 E113.29470
G1 X89.380 Y147.265 E114.19802
G1 X87.158 Y148.312 E114.49277
G1 X85.188 Y146.483 E114.81535
G1 X86.069 Y144.182 E115.11102
G1 X89.213 Y137.584 E115.98807
G1 X89.476 Y137.092 E116.05502
G1 X89.622 Y136.852 E116.08873
G1 X89.618 Y135.893 E116.20381
G1 X89.215 Y135.195 E116.30053
G1 X86.955 Y132.922 E116.68517
G1 X86.259 Y132.512 E116.78210
G1 X85.312 Y132.502 E116.89575
G1 X84.763 Y132.814 E116.97152
G1 X81.311 Y134.431 E117.42896
G1 X77.946 Y136.005 E117.87475
G1 X75.640 Y136.872 E118.17038
G1 X73.823 Y134.890 E118.49304
G1 X74.892 Y132.663 E118.78948
G1 X76.191 Y130.419 E119.10062
G1 X78.661 Y126.159 E119.69153
G1 X79.021 Y125.635 E119.76782
G1 X79.095 Y124.693 E119.88121
G1 X78.749 Y123.962 E119.97826
G1 X76.911 Y121.787 E120.31997
G1 X76.681 Y121.514 E120.36281
G1 X76.017 Y121.050 E120.46002
G1 X75.073 Y120.965 E120.57375
G1 X74.493 Y121.236 E120.65058
G1 X73.963 Y121.433 E120.71843
G1 X67.442 Y123.867 E121.55368
G1 X65.082 Y124.543 E121.84827
G1 X63.431 Y122.421 E122.17091
G1 X64.676 Y120.287 E122.46738
G1 X68.594 Y114.630 E123.29314
G1 X68.957 Y114.108 E123.36943
G1 X69.357 Y113.615 E123.44562
G1 X69.507 Y112.681 E123.55913
G1 X69.218 Y111.925 E123.65626
G1 X67.338 Y109.295 E124.04420
G1 X66.716 Y108.777 E124.14133
G1 X65.782 Y108.618 E124.25502
G1 X65.177 Y108.841 E124.33240
G1 X61.432 Y109.903 E124.79952
G1 X60.452 Y110.182 E124.92179
G1 X57.943 Y110.894 E125.23476
G1 X55.533 Y111.378 E125.52974
G1 X54.059 Y109.129 E125.85241
G1 X55.280 Y107.374 E126.10897
G1 X57.076 Y105.144 E126.45257
G1 X60.229 Y101.296 E127.04954
G1 X60.676 Y100.830 E127.12703
G1 X60.899 Y99.910 E127.24062
G1 X60.676 Y99.134 E127.33751
G1 X59.027 Y96.387 E127.72199
G1 X58.450 Y95.820 E127.81906
G1 X57.529 Y95.587 E127.93306
G1 X56.912 Y95.760 E128.00996
G1 X49.537 Y97.224 E128.91223
G1 X47.094 Y97.513 E129.20743
G1 X45.805 Y95.153 E129.53012
G1 X47.146 Y93.524 E129.78331
G1 X49.844 Y90.685 E130.25330
G1 X52.587 Y87.840 E130.72753
G1 X53.067 Y87.413 E130.80463
G1 X53.367 Y86.513 E130.91847
G1 X53.202 Y85.721 E131.01555
G1 X51.767 Y82.823 E131.40361
G1 X51.236 Y82.214 E131.50057
G1 X50.341 Y81.905 E131.61419
G1 X49.721 Y82.027 E131.69001
G1 X42.243 Y82.893 E132.59337
G1 X39.783 Y82.984 E132.88877
G1 X38.689 Y80.528 E133.21141
G1 X40.164 Y79.006 E133.46574
G1 X40.406 Y78.757 E133.50741
G1 X46.040 Y73.785 E134.40911
G1 X46.553 Y73.398 E134.48622
G1 X46.922 Y72.524 E134.60007
G1 X46.821 Y71.723 E134.69695
G1 X45.638 Y68.745 E135.08147
G1 X45.155 Y68.097 E135.17846
G1 X44.289 Y67.718 E135.29189
G1 X43.643 Y67.791 E135.36991
G1 X42.822 Y67.818 E135.46848
G1 X36.143 Y68.051 E136.27045
G1 X33.679 Y67.944 E136.56641
G1 X33.065 Y66.199 E136.78839
G1 X34.984 Y64.491 E137.09667
G1 X35.256 Y64.250 E137.14028
G1 X41.243 Y59.712 E138.04178
G1 X41.786 Y59.363 E138.11924
G1 X42.218 Y58.521 E138.23280
G1 X42.181 Y57.714 E138.32974
G1 X41.361 Y55.106 E138.65781
G1 X41.220 Y54.656 E138.71440
G1 X40.789 Y53.974 E138.81121
G1 X39.953 Y53.529 E138.92486
G1 X39.311 Y53.554 E139.00196
G1 X37.566 Y53.485 E139.21152
G1 X36.868 Y53.458 E139.29534
G1 X31.801 Y53.257 E139.90386
G1 X28.931 Y52.916 E140.25068
G1 X28.427 Y51.055 E140.48205
G1 X30.095 Y49.797 E140.73275
G1 X30.392 Y49.574 E140.77732
G1 X36.734 Y45.527 E141.68011
G1 X37.298 Y45.225 E141.75688
G1 X37.798 Y44.419 E141.87070
G1 X37.824 Y43.612 E141.96759
G1 X37.220 Y40.960 E142.29398
G1 X37.114 Y40.489 E142.35191
G1 X36.738 Y39.771 E142.44917
G1 X35.938 Y39.263 E142.56289
G1 X35.304 Y39.237 E142.63904
G1 X27.825 Y38.332 E143.54306
G1 X25.421 Y37.849 E143.83731
G1 X24.930 Y35.205 E144.16001
G1 X26.686 Y34.089 E144.40969
G1 X27.007 Y33.885 E144.45533
G1 X32.855 Y30.785 E145.24959
G0 F12000 X32.667 Y30.432
G1 F1200 X33.113 Y30.195 E145.31020
G1 X33.981 Y29.783 E145.42549
G1 X34.419 Y29.193 E145.51367
G1 X34.490 Y28.548 E145.59154
G1 X34.355 Y27.608 E145.70550
G1 X56.071 Y24.473 E148.33843
G1 X56.840 Y29.260 E148.92024
G1 X57.784 Y34.125 E149.51493
G1 X58.978 Y39.438 E150.16839
G1 X59.213 Y40.397 E150.28687
G1 X60.468 Y45.192 E150.88165
G1 X61.870 Y49.919 E151.47332
G1 X63.268 Y54.213 E152.01522
G1 X63.555 Y55.050 E152.12140
G1 X65.247 Y59.733 E152.71891
G1 X67.262 Y64.795 E153.37271
G1 X69.266 Y69.391 E153.97438
G1 X71.593 Y74.324 E154.62890
G1 X72.078 Y75.296 E154.75925
G1 X74.122 Y79.262 E155.29466
G1 X76.742 Y83.992 E155.94352
G1 X77.135 Y84.674 E156.03797
G1 X79.735 Y89.012 E156.64487
G1 X82.494 Y93.291 E157.25583
G1 X85.589 Y97.791 E157.91123
G1 X86.181 Y98.613 E158.03278
G1 X89.040 Y102.477 E158.60959
G1 X92.233 Y106.513 E159.22715
G1 X92.613 Y106.978 E159.29921
G1 X95.936 Y110.912 E159.91716
G1 X99.586 Y114.958 E160.57106
G1 X103.201 Y118.718 E161.19697
G1 X103.828 Y119.341 E161.30303
G1 X107.131 Y122.559 E161.85640
G1 X111.281 Y126.360 E162.53172
G1 X115.304 Y129.803 E163.16714
G1 X119.573 Y133.232 E163.82421
G1 X123.951 Y136.523 E164.48145
G1 X124.614 Y136.992 E164.57891
G1 X128.464 Y139.689 E165.14299
G1 X133.073 Y142.706 E165.80403
G1 X137.723 Y145.536 E166.45724
G1 X138.319 Y145.872 E166.53934
G1 X138.514 Y148.275 E166.82865
G1 X138.639 Y150.039 E167.04086
G1 X139.838 Y162.501 E168.54321
G1 X140.878 Y173.829 E169.90829
G1 X141.127 Y176.843 E170.27120
G1 X141.247 Y178.527 E170.47379
G1 X141.214 Y178.694 E170.49422
G1 X141.633 Y184.029 E171.13639
G1 X141.365 Y184.285 E171.18086
G1 X138.423 Y182.951 E171.56850
G1 X138.542 Y180.232 E171.89509
G1 X139.463 Y172.705 E172.80507
G1 X139.571 Y172.171 E172.87045
G1 X139.336 Y171.479 E172.95814
G1 X138.846 Y171.047 E173.03653
G1 X136.053 Y169.642 E173.41171
G1 X135.417 Y169.507 E173.48973
G1 X134.723 Y169.732 E173.57728
G1 X134.314 Y170.176 E173.64972
G1 X128.877 Y175.348 E174.55020
G1 X126.749 Y177.076 E174.87915
G1 X123.924 Y175.510 E175.26675
G1 X124.264 Y172.792 E175.59546
G1 X125.774 Y165.447 E176.49529
G1 X125.938 Y164.855 E176.56900
G1 X125.759 Y164.147 E176.65664
G1 X125.309 Y163.681 E176.73437
G1 X122.790 Y162.147 E177.08829
G1 X122.664 Y162.069 E177.10608
G1 X122.037 Y161.883 E177.18456
G1 X121.333 Y162.051 E177.27141
G1 X120.782 Y162.546 E177.36029
G1 X115.067 Y167.167 E178.24223
G1 X112.788 Y168.731 E178.57392
G1 X110.100 Y166.942 E178.96138
G1 X110.658 Y164.257 E179.29047
G1 X112.738 Y157.113 E180.18335
G1 X112.952 Y156.509 E180.26024
G1 X112.940 Y156.342 E180.28033
G1 X112.843 Y155.764 E180.35066
G1 X112.432 Y155.263 E180.42842
G1 X109.897 Y153.425 E180.80417
G1 X109.292 Y153.190 E180.88205
G1 X108.575 Y153.299 E180.96908
G1 X107.981 Y153.752 E181.05872
G1 X101.910 Y157.899 E181.94099
G1 X99.522 Y159.269 E182.27136
G1 X96.986 Y157.268 E182.65900
G1 X97.713 Y154.796 E182.96820
G1 X98.773 Y151.973 E183.33006
G1 X100.392 Y147.723 E183.87581
G1 X100.670 Y147.097 E183.95800
G1 X100.670 Y146.924 E183.97876
G1 X100.621 Y146.350 E184.04789
G1 X100.251 Y145.816 E184.12585
G1 X97.896 Y143.800 E184.49786
G1 X97.311 Y143.516 E184.57589
G1 X96.580 Y143.569 E184.66384
G1 X96.117 Y143.883 E184.73098
G1 X89.576 Y147.615 E185.63467
G1 X87.083 Y148.789 E185.96534
G1 X84.717 Y146.592 E186.35279
G1 X85.699 Y144.031 E186.68193
G1 X88.853 Y137.410 E187.56199
G1 X89.128 Y136.895 E187.63205
G1 X89.222 Y136.741 E187.65370
G1 X89.218 Y136.001 E187.74250
G1 X88.895 Y135.440 E187.82018
G1 X86.708 Y133.240 E188.19243
G1 X86.148 Y132.911 E188.27037
G1 X85.416 Y132.903 E188.35822
G1 X84.941 Y133.172 E188.42372
G1 X78.105 Y136.373 E189.32952
G1 X75.527 Y137.342 E189.66001
G1 X73.345 Y134.961 E190.04756
G1 X74.534 Y132.483 E190.37738
G1 X78.321 Y125.947 E191.28384
G1 X78.631 Y125.497 E191.34942
